%
(1)
(T3  D=2.5 CR=0. TAPER=118DEG - ZMIN=-10. - DRILL)
N10 G90 G94 G17 G91.1
N15 G21
N20 G53 G0 Z0.
(DRILL11)
N25 M9
N30 T3 M6
N35 S4001 M3
N40 G54
N45 M8
N55 G0 X70. Y-54.
N60 G43 Z15. H3
N70 G0 Z5.
N75 Z2.
N80 G1 Z-1. F100.34
N85 G0 Z1.
N90 G1 Z-2. F100.34
N95 G0 Z0.
N100 G1 Z-3. F100.34
N105 G0 Z-1.
N110 G1 Z-4. F100.34
N115 G0 Z-2.
N120 G1 Z-5. F100.34
N125 G0 Z-3.
N130 G1 Z-6. F100.34
N135 G0 Z5.
N140 Z-4.
N145 G1 Z-7. F100.34
N150 G0 Z-5.
N155 G1 Z-8. F100.34
N160 G0 Z-6.
N165 G1 Z-9. F100.34
N170 G0 Z-7.
N175 G1 Z-10. F100.34
N180 G0 Z5.
N185 X100.
N190 Z2.
N195 G1 Z-1. F100.34
N200 G0 Z1.
N205 G1 Z-2. F100.34
N210 G0 Z0.
N215 G1 Z-3. F100.34
N220 G0 Z-1.
N225 G1 Z-4. F100.34
N230 G0 Z-2.
N235 G1 Z-5. F100.34
N240 G0 Z-3.
N245 G1 Z-6. F100.34
N250 G0 Z5.
N255 Z-4.
N260 G1 Z-7. F100.34
N265 G0 Z-5.
N270 G1 Z-8. F100.34
N275 G0 Z-6.
N280 G1 Z-9. F100.34
N285 G0 Z-7.
N290 G1 Z-10. F100.34
N295 G0 Z5.
N300 X130.
N305 Z2.
N310 G1 Z-1. F100.34
N315 G0 Z1.
N320 G1 Z-2. F100.34
N325 G0 Z0.
N330 G1 Z-3. F100.34
N335 G0 Z-1.
N340 G1 Z-4. F100.34
N345 G0 Z-2.
N350 G1 Z-5. F100.34
N355 G0 Z-3.
N360 G1 Z-6. F100.34
N365 G0 Z5.
N370 Z-4.
N375 G1 Z-7. F100.34
N380 G0 Z-5.
N385 G1 Z-8. F100.34
N390 G0 Z-6.
N395 G1 Z-9. F100.34
N400 G0 Z-7.
N405 G1 Z-10. F100.34
N410 G0 Z5.
N415 X160.
N420 Z2.
N425 G1 Z-1. F100.34
N430 G0 Z1.
N435 G1 Z-2. F100.34
N440 G0 Z0.
N445 G1 Z-3. F100.34
N450 G0 Z-1.
N455 G1 Z-4. F100.34
N460 G0 Z-2.
N465 G1 Z-5. F100.34
N470 G0 Z-3.
N475 G1 Z-6. F100.34
N480 G0 Z5.
N485 Z-4.
N490 G1 Z-7. F100.34
N495 G0 Z-5.
N500 G1 Z-8. F100.34
N505 G0 Z-6.
N510 G1 Z-9. F100.34
N515 G0 Z-7.
N520 G1 Z-10. F100.34
N525 G0 Z5.
N530 X190.
N535 Z2.
N540 G1 Z-1. F100.34
N545 G0 Z1.
N550 G1 Z-2. F100.34
N555 G0 Z0.
N560 G1 Z-3. F100.34
N565 G0 Z-1.
N570 G1 Z-4. F100.34
N575 G0 Z-2.
N580 G1 Z-5. F100.34
N585 G0 Z-3.
N590 G1 Z-6. F100.34
N595 G0 Z5.
N600 Z-4.
N605 G1 Z-7. F100.34
N610 G0 Z-5.
N615 G1 Z-8. F100.34
N620 G0 Z-6.
N625 G1 Z-9. F100.34
N630 G0 Z-7.
N635 G1 Z-10. F100.34
N640 G0 Z5.
N645 X194. Y-42.
N650 Z2.
N655 G1 Z-1. F100.34
N660 G0 Z1.
N665 G1 Z-2. F100.34
N670 G0 Z0.
N675 G1 Z-3. F100.34
N680 G0 Z-1.
N685 G1 Z-4. F100.34
N690 G0 Z-2.
N695 G1 Z-5. F100.34
N700 G0 Z-3.
N705 G1 Z-6. F100.34
N710 G0 Z5.
N715 Z-4.
N720 G1 Z-7. F100.34
N725 G0 Z-5.
N730 G1 Z-8. F100.34
N735 G0 Z-6.
N740 G1 Z-9. F100.34
N745 G0 Z-7.
N750 G1 Z-10. F100.34
N755 G0 Z5.
N760 X179.
N765 Z2.
N770 G1 Z-1. F100.34
N775 G0 Z1.
N780 G1 Z-2. F100.34
N785 G0 Z0.
N790 G1 Z-3. F100.34
N795 G0 Z-1.
N800 G1 Z-4. F100.34
N805 G0 Z-2.
N810 G1 Z-5. F100.34
N815 G0 Z-3.
N820 G1 Z-6. F100.34
N825 G0 Z5.
N830 Z-4.
N835 G1 Z-7. F100.34
N840 G0 Z-5.
N845 G1 Z-8. F100.34
N850 G0 Z-6.
N855 G1 Z-9. F100.34
N860 G0 Z-7.
N865 G1 Z-10. F100.34
N870 G0 Z5.
N875 Y-22.
N880 Z2.
N885 G1 Z-1. F100.34
N890 G0 Z1.
N895 G1 Z-2. F100.34
N900 G0 Z0.
N905 G1 Z-3. F100.34
N910 G0 Z-1.
N915 G1 Z-4. F100.34
N920 G0 Z-2.
N925 G1 Z-5. F100.34
N930 G0 Z-3.
N935 G1 Z-6. F100.34
N940 G0 Z5.
N945 Z-4.
N950 G1 Z-7. F100.34
N955 G0 Z-5.
N960 G1 Z-8. F100.34
N965 G0 Z-6.
N970 G1 Z-9. F100.34
N975 G0 Z-7.
N980 G1 Z-10. F100.34
N985 G0 Z5.
N990 X194.
N995 Z2.
N1000 G1 Z-1. F100.34
N1005 G0 Z1.
N1010 G1 Z-2. F100.34
N1015 G0 Z0.
N1020 G1 Z-3. F100.34
N1025 G0 Z-1.
N1030 G1 Z-4. F100.34
N1035 G0 Z-2.
N1040 G1 Z-5. F100.34
N1045 G0 Z-3.
N1050 G1 Z-6. F100.34
N1055 G0 Z5.
N1060 Z-4.
N1065 G1 Z-7. F100.34
N1070 G0 Z-5.
N1075 G1 Z-8. F100.34
N1080 G0 Z-6.
N1085 G1 Z-9. F100.34
N1090 G0 Z-7.
N1095 G1 Z-10. F100.34
N1100 G0 Z5.
N1105 X190. Y-6.
N1110 Z2.
N1115 G1 Z-1. F100.34
N1120 G0 Z1.
N1125 G1 Z-2. F100.34
N1130 G0 Z0.
N1135 G1 Z-3. F100.34
N1140 G0 Z-1.
N1145 G1 Z-4. F100.34
N1150 G0 Z-2.
N1155 G1 Z-5. F100.34
N1160 G0 Z-3.
N1165 G1 Z-6. F100.34
N1170 G0 Z5.
N1175 Z-4.
N1180 G1 Z-7. F100.34
N1185 G0 Z-5.
N1190 G1 Z-8. F100.34
N1195 G0 Z-6.
N1200 G1 Z-9. F100.34
N1205 G0 Z-7.
N1210 G1 Z-10. F100.34
N1215 G0 Z5.
N1220 X160.
N1225 Z2.
N1230 G1 Z-1. F100.34
N1235 G0 Z1.
N1240 G1 Z-2. F100.34
N1245 G0 Z0.
N1250 G1 Z-3. F100.34
N1255 G0 Z-1.
N1260 G1 Z-4. F100.34
N1265 G0 Z-2.
N1270 G1 Z-5. F100.34
N1275 G0 Z-3.
N1280 G1 Z-6. F100.34
N1285 G0 Z5.
N1290 Z-4.
N1295 G1 Z-7. F100.34
N1300 G0 Z-5.
N1305 G1 Z-8. F100.34
N1310 G0 Z-6.
N1315 G1 Z-9. F100.34
N1320 G0 Z-7.
N1325 G1 Z-10. F100.34
N1330 G0 Z5.
N1335 X130.
N1340 Z2.
N1345 G1 Z-1. F100.34
N1350 G0 Z1.
N1355 G1 Z-2. F100.34
N1360 G0 Z0.
N1365 G1 Z-3. F100.34
N1370 G0 Z-1.
N1375 G1 Z-4. F100.34
N1380 G0 Z-2.
N1385 G1 Z-5. F100.34
N1390 G0 Z-3.
N1395 G1 Z-6. F100.34
N1400 G0 Z5.
N1405 Z-4.
N1410 G1 Z-7. F100.34
N1415 G0 Z-5.
N1420 G1 Z-8. F100.34
N1425 G0 Z-6.
N1430 G1 Z-9. F100.34
N1435 G0 Z-7.
N1440 G1 Z-10. F100.34
N1445 G0 Z5.
N1450 X100.
N1455 Z2.
N1460 G1 Z-1. F100.34
N1465 G0 Z1.
N1470 G1 Z-2. F100.34
N1475 G0 Z0.
N1480 G1 Z-3. F100.34
N1485 G0 Z-1.
N1490 G1 Z-4. F100.34
N1495 G0 Z-2.
N1500 G1 Z-5. F100.34
N1505 G0 Z-3.
N1510 G1 Z-6. F100.34
N1515 G0 Z5.
N1520 Z-4.
N1525 G1 Z-7. F100.34
N1530 G0 Z-5.
N1535 G1 Z-8. F100.34
N1540 G0 Z-6.
N1545 G1 Z-9. F100.34
N1550 G0 Z-7.
N1555 G1 Z-10. F100.34
N1560 G0 Z5.
N1565 X70.
N1570 Z2.
N1575 G1 Z-1. F100.34
N1580 G0 Z1.
N1585 G1 Z-2. F100.34
N1590 G0 Z0.
N1595 G1 Z-3. F100.34
N1600 G0 Z-1.
N1605 G1 Z-4. F100.34
N1610 G0 Z-2.
N1615 G1 Z-5. F100.34
N1620 G0 Z-3.
N1625 G1 Z-6. F100.34
N1630 G0 Z5.
N1635 Z-4.
N1640 G1 Z-7. F100.34
N1645 G0 Z-5.
N1650 G1 Z-8. F100.34
N1655 G0 Z-6.
N1660 G1 Z-9. F100.34
N1665 G0 Z-7.
N1670 G1 Z-10. F100.34
N1675 G0 Z5.
N1680 X40.
N1685 Z2.
N1690 G1 Z-1. F100.34
N1695 G0 Z1.
N1700 G1 Z-2. F100.34
N1705 G0 Z0.
N1710 G1 Z-3. F100.34
N1715 G0 Z-1.
N1720 G1 Z-4. F100.34
N1725 G0 Z-2.
N1730 G1 Z-5. F100.34
N1735 G0 Z-3.
N1740 G1 Z-6. F100.34
N1745 G0 Z5.
N1750 Z-4.
N1755 G1 Z-7. F100.34
N1760 G0 Z-5.
N1765 G1 Z-8. F100.34
N1770 G0 Z-6.
N1775 G1 Z-9. F100.34
N1780 G0 Z-7.
N1785 G1 Z-10. F100.34
N1790 G0 Z5.
N1795 X10.
N1800 Z2.
N1805 G1 Z-1. F100.34
N1810 G0 Z1.
N1815 G1 Z-2. F100.34
N1820 G0 Z0.
N1825 G1 Z-3. F100.34
N1830 G0 Z-1.
N1835 G1 Z-4. F100.34
N1840 G0 Z-2.
N1845 G1 Z-5. F100.34
N1850 G0 Z-3.
N1855 G1 Z-6. F100.34
N1860 G0 Z5.
N1865 Z-4.
N1870 G1 Z-7. F100.34
N1875 G0 Z-5.
N1880 G1 Z-8. F100.34
N1885 G0 Z-6.
N1890 G1 Z-9. F100.34
N1895 G0 Z-7.
N1900 G1 Z-10. F100.34
N1905 G0 Z5.
N1910 X6. Y-22.
N1915 Z2.
N1920 G1 Z-1. F100.34
N1925 G0 Z1.
N1930 G1 Z-2. F100.34
N1935 G0 Z0.
N1940 G1 Z-3. F100.34
N1945 G0 Z-1.
N1950 G1 Z-4. F100.34
N1955 G0 Z-2.
N1960 G1 Z-5. F100.34
N1965 G0 Z-3.
N1970 G1 Z-6. F100.34
N1975 G0 Z5.
N1980 Z-4.
N1985 G1 Z-7. F100.34
N1990 G0 Z-5.
N1995 G1 Z-8. F100.34
N2000 G0 Z-6.
N2005 G1 Z-9. F100.34
N2010 G0 Z-7.
N2015 G1 Z-10. F100.34
N2020 G0 Z5.
N2025 X21.
N2030 Z2.
N2035 G1 Z-1. F100.34
N2040 G0 Z1.
N2045 G1 Z-2. F100.34
N2050 G0 Z0.
N2055 G1 Z-3. F100.34
N2060 G0 Z-1.
N2065 G1 Z-4. F100.34
N2070 G0 Z-2.
N2075 G1 Z-5. F100.34
N2080 G0 Z-3.
N2085 G1 Z-6. F100.34
N2090 G0 Z5.
N2095 Z-4.
N2100 G1 Z-7. F100.34
N2105 G0 Z-5.
N2110 G1 Z-8. F100.34
N2115 G0 Z-6.
N2120 G1 Z-9. F100.34
N2125 G0 Z-7.
N2130 G1 Z-10. F100.34
N2135 G0 Z5.
N2140 Y-42.
N2145 Z2.
N2150 G1 Z-1. F100.34
N2155 G0 Z1.
N2160 G1 Z-2. F100.34
N2165 G0 Z0.
N2170 G1 Z-3. F100.34
N2175 G0 Z-1.
N2180 G1 Z-4. F100.34
N2185 G0 Z-2.
N2190 G1 Z-5. F100.34
N2195 G0 Z-3.
N2200 G1 Z-6. F100.34
N2205 G0 Z5.
N2210 Z-4.
N2215 G1 Z-7. F100.34
N2220 G0 Z-5.
N2225 G1 Z-8. F100.34
N2230 G0 Z-6.
N2235 G1 Z-9. F100.34
N2240 G0 Z-7.
N2245 G1 Z-10. F100.34
N2250 G0 Z5.
N2255 X6.
N2260 Z2.
N2265 G1 Z-1. F100.34
N2270 G0 Z1.
N2275 G1 Z-2. F100.34
N2280 G0 Z0.
N2285 G1 Z-3. F100.34
N2290 G0 Z-1.
N2295 G1 Z-4. F100.34
N2300 G0 Z-2.
N2305 G1 Z-5. F100.34
N2310 G0 Z-3.
N2315 G1 Z-6. F100.34
N2320 G0 Z5.
N2325 Z-4.
N2330 G1 Z-7. F100.34
N2335 G0 Z-5.
N2340 G1 Z-8. F100.34
N2345 G0 Z-6.
N2350 G1 Z-9. F100.34
N2355 G0 Z-7.
N2360 G1 Z-10. F100.34
N2365 G0 Z5.
N2370 X10. Y-54.
N2375 Z2.
N2380 G1 Z-1. F100.34
N2385 G0 Z1.
N2390 G1 Z-2. F100.34
N2395 G0 Z0.
N2400 G1 Z-3. F100.34
N2405 G0 Z-1.
N2410 G1 Z-4. F100.34
N2415 G0 Z-2.
N2420 G1 Z-5. F100.34
N2425 G0 Z-3.
N2430 G1 Z-6. F100.34
N2435 G0 Z5.
N2440 Z-4.
N2445 G1 Z-7. F100.34
N2450 G0 Z-5.
N2455 G1 Z-8. F100.34
N2460 G0 Z-6.
N2465 G1 Z-9. F100.34
N2470 G0 Z-7.
N2475 G1 Z-10. F100.34
N2480 G0 Z5.
N2485 X40.
N2490 Z2.
N2495 G1 Z-1. F100.34
N2500 G0 Z1.
N2505 G1 Z-2. F100.34
N2510 G0 Z0.
N2515 G1 Z-3. F100.34
N2520 G0 Z-1.
N2525 G1 Z-4. F100.34
N2530 G0 Z-2.
N2535 G1 Z-5. F100.34
N2540 G0 Z-3.
N2545 G1 Z-6. F100.34
N2550 G0 Z5.
N2555 Z-4.
N2560 G1 Z-7. F100.34
N2565 G0 Z-5.
N2570 G1 Z-8. F100.34
N2575 G0 Z-6.
N2580 G1 Z-9. F100.34
N2585 G0 Z-7.
N2590 G1 Z-10. F100.34
N2595 G0 Z5.
N2600 Z15.
N2610 M9
N2615 G53 Z0.
N2620 M30
%
