%
(1)
(T3  D=2.5 CR=0. TAPER=118DEG - ZMIN=-11.751 - DRILL)
N10 G90 G94 G17 G91.1
N15 G21
N20 G53 G0 Z0.
(DRILL13)
N25 M9
N30 T3 M6
N35 S4001 M3
N40 G54
N45 M8
N55 G0 X130. Y-54.
N60 G43 Z4. H3
N70 G0 Z2.
N75 G1 Z-1. F100.34
N80 G0 Z1.
N85 G1 Z-2. F100.34
N90 G0 Z0.
N95 G1 Z-3. F100.34
N100 G0 Z-1.
N105 G1 Z-4. F100.34
N110 G0 Z-2.
N115 G1 Z-5. F100.34
N120 G0 Z-3.
N125 G1 Z-6. F100.34
N130 G0 Z2.
N135 Z-4.
N140 G1 Z-7. F100.34
N145 G0 Z-5.
N150 G1 Z-8. F100.34
N155 G0 Z-6.
N160 G1 Z-9. F100.34
N165 G0 Z-7.
N170 G1 Z-10. F100.34
N175 G0 Z-8.
N180 G1 Z-11. F100.34
N185 G0 Z-9.
N190 G1 Z-11.751 F100.34
N195 G0 Z2.
N200 X100.
N205 G1 Z-1. F100.34
N210 G0 Z1.
N215 G1 Z-2. F100.34
N220 G0 Z0.
N225 G1 Z-3. F100.34
N230 G0 Z-1.
N235 G1 Z-4. F100.34
N240 G0 Z-2.
N245 G1 Z-5. F100.34
N250 G0 Z-3.
N255 G1 Z-6. F100.34
N260 G0 Z2.
N265 Z-4.
N270 G1 Z-7. F100.34
N275 G0 Z-5.
N280 G1 Z-8. F100.34
N285 G0 Z-6.
N290 G1 Z-9. F100.34
N295 G0 Z-7.
N300 G1 Z-10. F100.34
N305 G0 Z-8.
N310 G1 Z-11. F100.34
N315 G0 Z-9.
N320 G1 Z-11.751 F100.34
N325 G0 Z2.
N330 X70.
N335 G1 Z-1. F100.34
N340 G0 Z1.
N345 G1 Z-2. F100.34
N350 G0 Z0.
N355 G1 Z-3. F100.34
N360 G0 Z-1.
N365 G1 Z-4. F100.34
N370 G0 Z-2.
N375 G1 Z-5. F100.34
N380 G0 Z-3.
N385 G1 Z-6. F100.34
N390 G0 Z2.
N395 Z-4.
N400 G1 Z-7. F100.34
N405 G0 Z-5.
N410 G1 Z-8. F100.34
N415 G0 Z-6.
N420 G1 Z-9. F100.34
N425 G0 Z-7.
N430 G1 Z-10. F100.34
N435 G0 Z-8.
N440 G1 Z-11. F100.34
N445 G0 Z-9.
N450 G1 Z-11.751 F100.34
N455 G0 Z2.
N460 X40.
N465 G1 Z-1. F100.34
N470 G0 Z1.
N475 G1 Z-2. F100.34
N480 G0 Z0.
N485 G1 Z-3. F100.34
N490 G0 Z-1.
N495 G1 Z-4. F100.34
N500 G0 Z-2.
N505 G1 Z-5. F100.34
N510 G0 Z-3.
N515 G1 Z-6. F100.34
N520 G0 Z2.
N525 Z-4.
N530 G1 Z-7. F100.34
N535 G0 Z-5.
N540 G1 Z-8. F100.34
N545 G0 Z-6.
N550 G1 Z-9. F100.34
N555 G0 Z-7.
N560 G1 Z-10. F100.34
N565 G0 Z-8.
N570 G1 Z-11. F100.34
N575 G0 Z-9.
N580 G1 Z-11.751 F100.34
N585 G0 Z2.
N590 X10.
N595 G1 Z-1. F100.34
N600 G0 Z1.
N605 G1 Z-2. F100.34
N610 G0 Z0.
N615 G1 Z-3. F100.34
N620 G0 Z-1.
N625 G1 Z-4. F100.34
N630 G0 Z-2.
N635 G1 Z-5. F100.34
N640 G0 Z-3.
N645 G1 Z-6. F100.34
N650 G0 Z2.
N655 Z-4.
N660 G1 Z-7. F100.34
N665 G0 Z-5.
N670 G1 Z-8. F100.34
N675 G0 Z-6.
N680 G1 Z-9. F100.34
N685 G0 Z-7.
N690 G1 Z-10. F100.34
N695 G0 Z-8.
N700 G1 Z-11. F100.34
N705 G0 Z-9.
N710 G1 Z-11.751 F100.34
N715 G0 Z2.
N720 X6. Y-42.
N725 G1 Z-1. F100.34
N730 G0 Z1.
N735 G1 Z-2. F100.34
N740 G0 Z0.
N745 G1 Z-3. F100.34
N750 G0 Z-1.
N755 G1 Z-4. F100.34
N760 G0 Z-2.
N765 G1 Z-5. F100.34
N770 G0 Z-3.
N775 G1 Z-6. F100.34
N780 G0 Z2.
N785 Z-4.
N790 G1 Z-7. F100.34
N795 G0 Z-5.
N800 G1 Z-8. F100.34
N805 G0 Z-6.
N810 G1 Z-9. F100.34
N815 G0 Z-7.
N820 G1 Z-10. F100.34
N825 G0 Z-8.
N830 G1 Z-11. F100.34
N835 G0 Z-9.
N840 G1 Z-11.751 F100.34
N845 G0 Z2.
N850 X21.
N855 G1 Z-1. F100.34
N860 G0 Z1.
N865 G1 Z-2. F100.34
N870 G0 Z0.
N875 G1 Z-3. F100.34
N880 G0 Z-1.
N885 G1 Z-4. F100.34
N890 G0 Z-2.
N895 G1 Z-5. F100.34
N900 G0 Z-3.
N905 G1 Z-6. F100.34
N910 G0 Z2.
N915 Z-4.
N920 G1 Z-7. F100.34
N925 G0 Z-5.
N930 G1 Z-8. F100.34
N935 G0 Z-6.
N940 G1 Z-9. F100.34
N945 G0 Z-7.
N950 G1 Z-10. F100.34
N955 G0 Z-8.
N960 G1 Z-11. F100.34
N965 G0 Z-9.
N970 G1 Z-11.751 F100.34
N975 G0 Z2.
N980 Y-22.
N985 G1 Z-1. F100.34
N990 G0 Z1.
N995 G1 Z-2. F100.34
N1000 G0 Z0.
N1005 G1 Z-3. F100.34
N1010 G0 Z-1.
N1015 G1 Z-4. F100.34
N1020 G0 Z-2.
N1025 G1 Z-5. F100.34
N1030 G0 Z-3.
N1035 G1 Z-6. F100.34
N1040 G0 Z2.
N1045 Z-4.
N1050 G1 Z-7. F100.34
N1055 G0 Z-5.
N1060 G1 Z-8. F100.34
N1065 G0 Z-6.
N1070 G1 Z-9. F100.34
N1075 G0 Z-7.
N1080 G1 Z-10. F100.34
N1085 G0 Z-8.
N1090 G1 Z-11. F100.34
N1095 G0 Z-9.
N1100 G1 Z-11.751 F100.34
N1105 G0 Z2.
N1110 X6.
N1115 G1 Z-1. F100.34
N1120 G0 Z1.
N1125 G1 Z-2. F100.34
N1130 G0 Z0.
N1135 G1 Z-3. F100.34
N1140 G0 Z-1.
N1145 G1 Z-4. F100.34
N1150 G0 Z-2.
N1155 G1 Z-5. F100.34
N1160 G0 Z-3.
N1165 G1 Z-6. F100.34
N1170 G0 Z2.
N1175 Z-4.
N1180 G1 Z-7. F100.34
N1185 G0 Z-5.
N1190 G1 Z-8. F100.34
N1195 G0 Z-6.
N1200 G1 Z-9. F100.34
N1205 G0 Z-7.
N1210 G1 Z-10. F100.34
N1215 G0 Z-8.
N1220 G1 Z-11. F100.34
N1225 G0 Z-9.
N1230 G1 Z-11.751 F100.34
N1235 G0 Z2.
N1240 X10. Y-6.
N1245 G1 Z-1. F100.34
N1250 G0 Z1.
N1255 G1 Z-2. F100.34
N1260 G0 Z0.
N1265 G1 Z-3. F100.34
N1270 G0 Z-1.
N1275 G1 Z-4. F100.34
N1280 G0 Z-2.
N1285 G1 Z-5. F100.34
N1290 G0 Z-3.
N1295 G1 Z-6. F100.34
N1300 G0 Z2.
N1305 Z-4.
N1310 G1 Z-7. F100.34
N1315 G0 Z-5.
N1320 G1 Z-8. F100.34
N1325 G0 Z-6.
N1330 G1 Z-9. F100.34
N1335 G0 Z-7.
N1340 G1 Z-10. F100.34
N1345 G0 Z-8.
N1350 G1 Z-11. F100.34
N1355 G0 Z-9.
N1360 G1 Z-11.751 F100.34
N1365 G0 Z2.
N1370 X40.
N1375 G1 Z-1. F100.34
N1380 G0 Z1.
N1385 G1 Z-2. F100.34
N1390 G0 Z0.
N1395 G1 Z-3. F100.34
N1400 G0 Z-1.
N1405 G1 Z-4. F100.34
N1410 G0 Z-2.
N1415 G1 Z-5. F100.34
N1420 G0 Z-3.
N1425 G1 Z-6. F100.34
N1430 G0 Z2.
N1435 Z-4.
N1440 G1 Z-7. F100.34
N1445 G0 Z-5.
N1450 G1 Z-8. F100.34
N1455 G0 Z-6.
N1460 G1 Z-9. F100.34
N1465 G0 Z-7.
N1470 G1 Z-10. F100.34
N1475 G0 Z-8.
N1480 G1 Z-11. F100.34
N1485 G0 Z-9.
N1490 G1 Z-11.751 F100.34
N1495 G0 Z2.
N1500 X70.
N1505 G1 Z-1. F100.34
N1510 G0 Z1.
N1515 G1 Z-2. F100.34
N1520 G0 Z0.
N1525 G1 Z-3. F100.34
N1530 G0 Z-1.
N1535 G1 Z-4. F100.34
N1540 G0 Z-2.
N1545 G1 Z-5. F100.34
N1550 G0 Z-3.
N1555 G1 Z-6. F100.34
N1560 G0 Z2.
N1565 Z-4.
N1570 G1 Z-7. F100.34
N1575 G0 Z-5.
N1580 G1 Z-8. F100.34
N1585 G0 Z-6.
N1590 G1 Z-9. F100.34
N1595 G0 Z-7.
N1600 G1 Z-10. F100.34
N1605 G0 Z-8.
N1610 G1 Z-11. F100.34
N1615 G0 Z-9.
N1620 G1 Z-11.751 F100.34
N1625 G0 Z2.
N1630 X100.
N1635 G1 Z-1. F100.34
N1640 G0 Z1.
N1645 G1 Z-2. F100.34
N1650 G0 Z0.
N1655 G1 Z-3. F100.34
N1660 G0 Z-1.
N1665 G1 Z-4. F100.34
N1670 G0 Z-2.
N1675 G1 Z-5. F100.34
N1680 G0 Z-3.
N1685 G1 Z-6. F100.34
N1690 G0 Z2.
N1695 Z-4.
N1700 G1 Z-7. F100.34
N1705 G0 Z-5.
N1710 G1 Z-8. F100.34
N1715 G0 Z-6.
N1720 G1 Z-9. F100.34
N1725 G0 Z-7.
N1730 G1 Z-10. F100.34
N1735 G0 Z-8.
N1740 G1 Z-11. F100.34
N1745 G0 Z-9.
N1750 G1 Z-11.751 F100.34
N1755 G0 Z2.
N1760 X130.
N1765 G1 Z-1. F100.34
N1770 G0 Z1.
N1775 G1 Z-2. F100.34
N1780 G0 Z0.
N1785 G1 Z-3. F100.34
N1790 G0 Z-1.
N1795 G1 Z-4. F100.34
N1800 G0 Z-2.
N1805 G1 Z-5. F100.34
N1810 G0 Z-3.
N1815 G1 Z-6. F100.34
N1820 G0 Z2.
N1825 Z-4.
N1830 G1 Z-7. F100.34
N1835 G0 Z-5.
N1840 G1 Z-8. F100.34
N1845 G0 Z-6.
N1850 G1 Z-9. F100.34
N1855 G0 Z-7.
N1860 G1 Z-10. F100.34
N1865 G0 Z-8.
N1870 G1 Z-11. F100.34
N1875 G0 Z-9.
N1880 G1 Z-11.751 F100.34
N1885 G0 Z2.
N1890 Z4.
N1900 M9
N1905 G53 Z0.
N1910 M30
%
