%
(1)
(T3  D=2.5 CR=0. TAPER=118DEG - ZMIN=-11.751 - DRILL)
N10 G90 G94 G17 G91.1
N15 G21
N20 G53 G0 Z0.
(DRILL13 2)
N25 M9
N30 T3 M6
N35 S4001 M3
N40 G54
N45 M8
N55 G0 X30. Y-48.
N60 G43 Z4. H3
N70 G0 Z2.
N75 G1 Z-1. F100.34
N80 G0 Z1.
N85 G1 Z-2. F100.34
N90 G0 Z0.
N95 G1 Z-3. F100.34
N100 G0 Z-1.
N105 G1 Z-4. F100.34
N110 G0 Z-2.
N115 G1 Z-5. F100.34
N120 G0 Z-3.
N125 G1 Z-6. F100.34
N130 G0 Z2.
N135 Z-4.
N140 G1 Z-7. F100.34
N145 G0 Z-5.
N150 G1 Z-8. F100.34
N155 G0 Z-6.
N160 G1 Z-9. F100.34
N165 G0 Z-7.
N170 G1 Z-10. F100.34
N175 G0 Z-8.
N180 G1 Z-11. F100.34
N185 G0 Z-9.
N190 G1 Z-11.751 F100.34
N195 G0 Z2.
N200 X60.
N205 G1 Z-1. F100.34
N210 G0 Z1.
N215 G1 Z-2. F100.34
N220 G0 Z0.
N225 G1 Z-3. F100.34
N230 G0 Z-1.
N235 G1 Z-4. F100.34
N240 G0 Z-2.
N245 G1 Z-5. F100.34
N250 G0 Z-3.
N255 G1 Z-6. F100.34
N260 G0 Z2.
N265 Z-4.
N270 G1 Z-7. F100.34
N275 G0 Z-5.
N280 G1 Z-8. F100.34
N285 G0 Z-6.
N290 G1 Z-9. F100.34
N295 G0 Z-7.
N300 G1 Z-10. F100.34
N305 G0 Z-8.
N310 G1 Z-11. F100.34
N315 G0 Z-9.
N320 G1 Z-11.751 F100.34
N325 G0 Z2.
N330 X64. Y-36.
N335 G1 Z-1. F100.34
N340 G0 Z1.
N345 G1 Z-2. F100.34
N350 G0 Z0.
N355 G1 Z-3. F100.34
N360 G0 Z-1.
N365 G1 Z-4. F100.34
N370 G0 Z-2.
N375 G1 Z-5. F100.34
N380 G0 Z-3.
N385 G1 Z-6. F100.34
N390 G0 Z2.
N395 Z-4.
N400 G1 Z-7. F100.34
N405 G0 Z-5.
N410 G1 Z-8. F100.34
N415 G0 Z-6.
N420 G1 Z-9. F100.34
N425 G0 Z-7.
N430 G1 Z-10. F100.34
N435 G0 Z-8.
N440 G1 Z-11. F100.34
N445 G0 Z-9.
N450 G1 Z-11.751 F100.34
N455 G0 Z2.
N460 X49.
N465 G1 Z-1. F100.34
N470 G0 Z1.
N475 G1 Z-2. F100.34
N480 G0 Z0.
N485 G1 Z-3. F100.34
N490 G0 Z-1.
N495 G1 Z-4. F100.34
N500 G0 Z-2.
N505 G1 Z-5. F100.34
N510 G0 Z-3.
N515 G1 Z-6. F100.34
N520 G0 Z2.
N525 Z-4.
N530 G1 Z-7. F100.34
N535 G0 Z-5.
N540 G1 Z-8. F100.34
N545 G0 Z-6.
N550 G1 Z-9. F100.34
N555 G0 Z-7.
N560 G1 Z-10. F100.34
N565 G0 Z-8.
N570 G1 Z-11. F100.34
N575 G0 Z-9.
N580 G1 Z-11.751 F100.34
N585 G0 Z2.
N590 Y-16.
N595 G1 Z-1. F100.34
N600 G0 Z1.
N605 G1 Z-2. F100.34
N610 G0 Z0.
N615 G1 Z-3. F100.34
N620 G0 Z-1.
N625 G1 Z-4. F100.34
N630 G0 Z-2.
N635 G1 Z-5. F100.34
N640 G0 Z-3.
N645 G1 Z-6. F100.34
N650 G0 Z2.
N655 Z-4.
N660 G1 Z-7. F100.34
N665 G0 Z-5.
N670 G1 Z-8. F100.34
N675 G0 Z-6.
N680 G1 Z-9. F100.34
N685 G0 Z-7.
N690 G1 Z-10. F100.34
N695 G0 Z-8.
N700 G1 Z-11. F100.34
N705 G0 Z-9.
N710 G1 Z-11.751 F100.34
N715 G0 Z2.
N720 X64.
N725 G1 Z-1. F100.34
N730 G0 Z1.
N735 G1 Z-2. F100.34
N740 G0 Z0.
N745 G1 Z-3. F100.34
N750 G0 Z-1.
N755 G1 Z-4. F100.34
N760 G0 Z-2.
N765 G1 Z-5. F100.34
N770 G0 Z-3.
N775 G1 Z-6. F100.34
N780 G0 Z2.
N785 Z-4.
N790 G1 Z-7. F100.34
N795 G0 Z-5.
N800 G1 Z-8. F100.34
N805 G0 Z-6.
N810 G1 Z-9. F100.34
N815 G0 Z-7.
N820 G1 Z-10. F100.34
N825 G0 Z-8.
N830 G1 Z-11. F100.34
N835 G0 Z-9.
N840 G1 Z-11.751 F100.34
N845 G0 Z2.
N850 X60. Y0.
N855 G1 Z-1. F100.34
N860 G0 Z1.
N865 G1 Z-2. F100.34
N870 G0 Z0.
N875 G1 Z-3. F100.34
N880 G0 Z-1.
N885 G1 Z-4. F100.34
N890 G0 Z-2.
N895 G1 Z-5. F100.34
N900 G0 Z-3.
N905 G1 Z-6. F100.34
N910 G0 Z2.
N915 Z-4.
N920 G1 Z-7. F100.34
N925 G0 Z-5.
N930 G1 Z-8. F100.34
N935 G0 Z-6.
N940 G1 Z-9. F100.34
N945 G0 Z-7.
N950 G1 Z-10. F100.34
N955 G0 Z-8.
N960 G1 Z-11. F100.34
N965 G0 Z-9.
N970 G1 Z-11.751 F100.34
N975 G0 Z2.
N980 X30.
N985 G1 Z-1. F100.34
N990 G0 Z1.
N995 G1 Z-2. F100.34
N1000 G0 Z0.
N1005 G1 Z-3. F100.34
N1010 G0 Z-1.
N1015 G1 Z-4. F100.34
N1020 G0 Z-2.
N1025 G1 Z-5. F100.34
N1030 G0 Z-3.
N1035 G1 Z-6. F100.34
N1040 G0 Z2.
N1045 Z-4.
N1050 G1 Z-7. F100.34
N1055 G0 Z-5.
N1060 G1 Z-8. F100.34
N1065 G0 Z-6.
N1070 G1 Z-9. F100.34
N1075 G0 Z-7.
N1080 G1 Z-10. F100.34
N1085 G0 Z-8.
N1090 G1 Z-11. F100.34
N1095 G0 Z-9.
N1100 G1 Z-11.751 F100.34
N1105 G0 Z2.
N1110 Z4.
N1120 M9
N1125 G53 Z0.
N1130 M30
%
