%
(1)
(T13  D=5.95 CR=0. - ZMIN=-9. - FLAT END MILL)
N10 G90 G94 G17 G91.1
N15 G21
N20 G53 G0 Z0.
(2D ADAPTIVE1)
N25 M9
N30 T13 M6
N35 S4000 M3
N40 G54
N45 M8
N55 G0 X3.003 Y3.774
N60 G43 Z4. H13
N65 #100=1000. (CUTTING)
N70 #103=1000. (ENTRY)
N75 #104=1000. (EXIT)
N80 #105=30000. (DIRECT)
N85 #107=800. (RAMPING)
N90 G0 Z2.51
N95 G1 Z2.505 F#103
N100 G3 X3.056 Y-1.878 Z2.195 I0.026 J-2.826 F#107
N105 X3.003 Y3.774 Z1.885 I-0.026 J2.826
N110 X3.056 Y-1.878 Z1.575 I0.026 J-2.826
N115 X3.003 Y3.774 Z1.265 I-0.026 J2.826
N120 X3.056 Y-1.878 Z0.955 I0.026 J-2.826
N125 X3.003 Y3.774 Z0.645 I-0.026 J2.826
N130 X3.056 Y-1.878 Z0.335 I0.026 J-2.826
N135 X3.003 Y3.774 Z0.025 I-0.026 J2.826
N140 X3.056 Y-1.878 Z-0.286 I0.026 J-2.826
N145 X3.003 Y3.774 Z-0.596 I-0.026 J2.826
N150 X3.056 Y-1.878 Z-0.906 I0.026 J-2.826
N155 X3.003 Y3.774 Z-1.216 I-0.026 J2.826
N160 X3.056 Y-1.878 Z-1.526 I0.026 J-2.826
N165 X3.003 Y3.774 Z-1.836 I-0.026 J2.826
N170 X3.056 Y-1.878 Z-2.146 I0.026 J-2.826
N175 X5.856 Y0.948 Z-2.3 I-0.026 J2.826
N180 X0.203 I-2.826 J0.
N185 X5.856 I2.826 J0.
N190 G2 X5.939 Y1.728 I2.67 J0.107 F#100
N195 G3 X5.488 Y3.127 I-2.08 J0.102
N200 X3.762 Y4.25 I-2.366 J-1.748
N205 X-0.361 Y1.3 I-0.774 J-3.274
N210 X6.166 Y-0.394 I3.391 J-0.358
N215 X6.604 Y1.275 I-4.641 J2.109
N220 X4.762 Y4.509 I-3.416 J0.195
N225 X0.739 Y4.267 I-1.814 J-3.401
N230 X3.353 Y-3.081 I2.28 J-3.328
N235 X6.369 Y-1.337 I-0.308 J4.014
N240 X7.263 Y1.746 I-3.809 J2.775
N245 X4.112 Y5.461 I-4.208 J-0.376
N250 X-0.947 Y3.467 I-1.181 J-4.42
N255 X5.582 Y-3.016 I3.972 J-2.529
N260 X7.924 Y2.036 I-2.857 J4.394
N265 X3.559 Y6.27 I-4.924 J-0.709
N270 X-1.806 Y3.382 I-0.637 J-5.244
N275 X5.832 Y-3.694 I4.831 J-2.446
N280 X8.537 Y2.666 I-3.012 J5.036
N285 X3.057 Y7.032 I-5.57 J-1.369
N290 X-2.799 Y2.911 I-0.138 J-6.026
N295 X5.554 Y-4.67 I5.823 J-1.976
N300 X9.244 Y-0.252 I-2.668 J5.979
N305 X4.515 Y7.59 I-6.251 J1.578
N310 X-2.546 Y5.016 I-1.617 J-6.534
N315 X4.589 Y-5.791 I5.564 J-4.086
N320 X9.094 Y-2.555 I-1.608 J6.992
N325 X3.894 Y8.493 I-6.126 J3.864
N330 X-3.733 Y4.594 I-0.997 J-7.459
N335 X4.214 Y-6.657 I6.751 J-3.664
N340 X9.742 Y-3.005 I-1.218 J7.852
N345 X4.182 Y9.247 I-6.777 J4.312
N350 X-4.141 Y5.464 I-1.294 J-8.201
N355 X3.144 Y-7.543 I7.155 J-4.536
N360 X9.824 Y-4.268 I-0.116 J8.685
N365 X4.357 Y10.034 I-6.866 J5.571
N370 X-5.185 Y5.274 I-1.471 J-8.997
N375 X1.292 Y-8.19 I8.195 J-4.348
N380 X9.675 Y-5.639 I1.756 J9.276
N385 X4.508 Y10.837 I-6.722 J6.94
N390 X-5.823 Y5.822 I-1.626 J-9.797
N395 X1.405 Y-9.045 I8.832 J-4.897
N400 X10.287 Y-6.198 I1.648 J10.14
N405 X4.991 Y11.591 I-7.334 J7.5
N410 X3.62 Y11.775 I-1.792 J-8.142
N415 G1 X2.673 Y11.773
N420 G3 X1.254 Y11.664 I0.338 J-13.683
N425 X-7.198 Y4.837 I1.602 J-10.629
N430 X1.221 Y-9.86 I10.209 J-3.912
N435 G1 X1.359 Y-9.873
N440 X1.498 Y-9.877
N445 X3.742
N450 G3 X5.16 Y-9.756 I-0.245 J11.261
N455 X10.677 Y-6.982 I-1.831 J10.515
N460 X12.74 Y-4.398 I-7.373 J7.999
N465 G1 X12.801 Y-4.26
N470 X12.855 Y-4.119
N475 X13.79 Y-1.426
N480 G3 X14.13 Y-0.044 I-9.085 J2.968
N485 X14.169 Y2.75 I-9.592 J1.533
N490 G1 X14.114 Y2.951
N495 X14.045 Y3.147
N500 G3 X14.023 Y3.179 I-0.091 J-0.04 F#104
N505 X13.854 Y3.112 I-0.069 J-0.072 F#105
N510 G1 X13.597 Y-1.384
N515 G3 X13.769 Y-1.459 I0.1 J-0.006
N520 X13.79 Y-1.426 I-0.072 J0.069 F#103
N525 G1 X14.656 Y1.069 F#100
N530 X14.709 Y1.247
N535 G3 X14.664 Y1.604 I-0.628 J0.101
N540 G1 X12.593 Y6.772
N545 G3 X10.551 Y9.652 I-7.633 J-3.245
N550 X7.733 Y11.565 I-7.255 J-7.66
N555 X6.778 Y11.773 I-0.951 J-2.067
N560 X6.74 Y11.764 I0.003 J-0.1 F#104
N565 X6.716 Y11.597 I0.041 J-0.091 F#105
N570 G1 X12.433 Y6.662
N575 G3 X12.599 Y6.733 I0.065 J0.076
N580 X12.593 Y6.772 I-0.1 J0.005 F#103
N585 G1 X11.736 Y8.91 F#100
N590 G3 X10.699 Y10.439 I-4.608 J-2.008
N595 X9.521 Y11.445 I-4.994 J-4.659
N600 X8.331 Y11.773 I-1.196 J-2.011
N605 X8.293 Y11.764 I0.003 J-0.1 F#104
N610 X8.27 Y11.597 I0.041 J-0.091 F#105
N615 G1 X11.577 Y8.8
N620 G3 X11.742 Y8.871 I0.065 J0.076
N625 X11.736 Y8.91 I-0.1 J0.005 F#103
N630 G2 X11.31 Y10.162 I7.333 J3.192 F#100
N635 G3 X9.106 Y11.774 I-2.212 J-0.712
N640 G1 X9.068 Y11.764 F#104
N645 G3 X9.048 Y11.595 I0.041 J-0.091 F#105
N650 G1 X11.197 Y9.889
N655 G3 X11.357 Y9.945 I0.062 J0.078
N660 X11.358 Y9.984 I-0.098 J0.022 F#103
N665 G2 X11.23 Y10.789 I8.912 J1.824 F#100
N670 G1 X11.213 Y10.842
N675 X11.198 Y10.893
N680 X11.084 Y11.137
N685 X10.922 Y11.353
N690 X10.72 Y11.531
N695 X10.486 Y11.663
N700 X10.229 Y11.745
N705 X9.962 Y11.773
N710 G3 X9.924 Y11.764 I0.003 J-0.1 F#104
N715 X9.9 Y11.597 I0.041 J-0.091 F#105
N720 G1 X11.085 Y10.573
N725 G3 X11.246 Y10.617 I0.065 J0.076
N730 X11.25 Y10.656 I-0.095 J0.031 F#103
N735 G2 X11.233 Y11.102 I5.666 J0.446 F#100
N740 G1 X11.229 Y11.128
N745 X11.166 Y11.334
N750 X11.048 Y11.514
N755 X10.884 Y11.654
N760 X10.688 Y11.743
N765 X10.475 Y11.773
N770 G3 X10.437 Y11.764 I0.003 J-0.1 F#104
N775 X10.41 Y11.6 I0.041 J-0.091 F#105
N780 G1 X11.066 Y10.978
N785 G3 X11.227 Y11.01 I0.069 J0.073
N790 X11.235 Y11.048 I-0.091 J0.04 F#103
N795 G1 X11.232 Y11.227 F#100
N800 G3 X10.692 Y11.768 I-0.61 J-0.069
N805 G1 X10.514 Y11.773
N810 X3.742
N815 X3.729 Y11.772 F#104
N820 X3.704 Y11.766
N825 X2.732 Y11.542 F#105
N830 G2 X2.679 Y11.734 I-0.022 J0.097
N835 G3 X2.69 Y11.745 I-0.006 J0.019
N840 X2.673 Y11.773 I-0.018 J0.008 F#103
N845 G1 X-0.178 F#100
N850 G3 X-2.391 Y11.243 I0.198 J-5.712
N855 X-5.204 Y9.335 I3.864 J-8.725
N860 X-8.732 Y0.062 I8.046 J-8.368
N865 X-2.168 Y-9.65 I11.735 J0.857
N870 X-1.172 Y-9.877 I0.992 J2.049
N875 G1 X1.498
N880 G3 X1.536 Y-9.868 I-0.003 J0.1 F#104
N885 X1.595 Y-9.769 I-0.041 J0.091 F#105
N890 G1 X-0.082 Y11.681
N895 G3 X-0.14 Y11.764 I-0.1 J-0.008
N900 X-0.178 Y11.773 I-0.041 J-0.091 F#103
N905 G1 X-1.88 F#100
N910 G3 X-3.632 Y11.338 I0.15 J-4.352
N915 X-5.751 Y9.917 I3.304 J-7.214
N920 X-8.656 Y5.745 I7.754 J-8.497
N925 X-4.9 Y-8.913 I11.633 J-4.829
N930 X-3.915 Y-9.619 I4.774 J5.625
N935 X-2.849 Y-9.877 I1.073 J2.098
N940 G1 X-1.172
N945 G3 X-1.134 Y-9.868 I-0.003 J0.1 F#104
N950 X-1.076 Y-9.774 I-0.041 J0.091 F#105
N955 G1 X-1.784 Y11.676
N960 G3 X-1.842 Y11.764 I-0.1 J-0.003
N965 X-1.88 Y11.773 I-0.041 J-0.091 F#103
N970 G1 X-3.306 F#100
N975 G3 X-4.76 Y11.408 I0.145 J-3.662
N980 X-6.807 Y9.981 I2.984 J-6.46
N985 X-9.127 Y6.765 I7.794 J-8.067
N990 X-9.826 Y-3.21 I11.936 J-5.848
N995 X-5.722 Y-9.353 I12.771 J4.09
N1000 X-4.255 Y-9.877 I1.469 J1.795
N1005 G1 X-2.849
N1010 G3 X-2.811 Y-9.868 I-0.003 J0.1 F#104
N1015 X-2.753 Y-9.775 I-0.041 J0.091 F#105
N1020 G1 X-3.209 Y11.675
N1025 G3 X-3.268 Y11.764 I-0.1 J-0.002
N1030 X-3.306 Y11.773 I-0.041 J-0.091 F#103
N1035 G1 X-4.553 F#100
N1040 G3 X-6.05 Y11.351 I0.161 J-3.439
N1045 X-7.813 Y10.047 I3.022 J-5.929
N1050 X-9.937 Y7.036 I7.799 J-7.754
N1055 X-11.248 Y-0.718 I12.448 J-6.094
N1060 X-7.072 Y-9.288 I14.169 J1.602
N1065 X-5.525 Y-9.878 I1.561 J1.77
N1070 G1 X-4.255 Y-9.877
N1075 G3 X-4.217 Y-9.868 I-0.003 J0.1 F#104
N1080 X-4.159 Y-9.776 I-0.041 J0.091 F#105
N1085 G1 X-4.457 Y11.674
N1090 G3 X-4.515 Y11.764 I-0.1 J-0.001
N1095 X-4.553 Y11.773 I-0.041 J-0.091 F#103
N1100 G1 X-5.702 F#100
N1105 G3 X-7.088 Y11.384 I0.148 J-3.185
N1110 X-8.79 Y10.107 I2.849 J-5.569
N1115 X-10.738 Y7.317 I7.631 J-7.406
N1120 X-12.214 Y0.995 I12.751 J-6.311
N1125 X-8.578 Y-8.953 I15.126 J-0.11
N1130 X-7.931 Y-9.528 I2.4 J2.049
N1135 X-6.708 Y-9.877 I1.227 J1.979
N1140 G1 X-5.525
N1145 G3 X-5.487 Y-9.868 I-0.003 J0.1 F#104
N1150 X-5.428 Y-9.776 I-0.041 J0.091 F#105
N1155 G1 X-5.606 Y11.674
N1160 G3 X-5.664 Y11.764 I-0.1 J-0.001
N1165 X-5.702 Y11.773 I-0.041 J-0.091 F#103
N1170 G1 X-6.772 F#100
N1175 G3 X-8.101 Y11.405 I0.12 J-3.013
N1180 X-9.748 Y10.157 I2.717 J-5.297
N1185 X-11.66 Y7.343 I7.555 J-7.193
N1190 X-13.042 Y2.145 I13.032 J-6.247
N1195 X-9.993 Y-8.58 I15.902 J-1.276
N1200 X-9.342 Y-9.318 I4.376 J3.205
N1205 X-7.834 Y-9.877 I1.511 J1.762
N1210 G1 X-6.708
N1215 G3 X-6.67 Y-9.868 I-0.003 J0.1 F#104
N1220 X-6.611 Y-9.777 I-0.041 J0.091 F#105
N1225 G1 X-6.675 Y11.673
N1230 G3 X-6.734 Y11.764 I-0.1 J0.
N1235 X-6.772 Y11.773 I-0.041 J-0.091 F#103
N1240 G1 X-7.841 F#100
N1245 G3 X-9.264 Y11.327 I0.168 J-3.03
N1250 X-10.688 Y10.204 I2.828 J-5.049
N1255 X-11.711 Y8.915 I5.941 J-5.761
N1260 G1 X-11.786 Y8.768
N1265 X-11.853 Y8.618
N1270 G3 X-11.859 Y8.579 I0.094 J-0.034 F#104
N1275 X-11.697 Y8.505 I0.1 J0.005 F#105
N1280 G1 X-7.782 Y11.595
N1285 G3 X-7.803 Y11.764 I-0.062 J0.078
N1290 X-7.841 Y11.773 I-0.041 J-0.091 F#103
N1295 G1 X-8.83 F#100
N1300 G3 X-10.231 Y11.341 I0.134 J-2.925
N1305 X-11.374 Y9.922 I1.059 J-2.024
N1310 G1 X-11.376 Y9.883 F#104
N1315 G3 X-11.219 Y9.818 I0.099 J0.016 F#105
N1320 G1 X-8.775 Y11.592
N1325 G3 X-8.792 Y11.764 I-0.059 J0.081
N1330 X-8.83 Y11.773 I-0.041 J-0.091 F#103
N1335 G1 X-9.801 F#100
N1340 X-9.929 Y11.767
N1345 X-10.174 Y11.723
N1350 X-10.409 Y11.639
N1355 X-10.626 Y11.517
N1360 X-10.82 Y11.361
N1365 X-10.986 Y11.175
N1370 X-11.118 Y10.963
N1375 X-11.213 Y10.733
N1380 X-11.269 Y10.49
N1385 G3 X-11.266 Y10.452 I0.099 J-0.011 F#104
N1390 X-11.104 Y10.404 I0.096 J0.028 F#105
N1395 G1 X-9.739 Y11.598
N1400 G3 X-9.763 Y11.764 I-0.066 J0.075
N1405 X-9.801 Y11.773 I-0.041 J-0.091 F#103
N1410 G1 X-10.39 F#100
N1415 X-10.459 Y11.77
N1420 X-10.495 Y11.766
N1425 X-10.53 Y11.761
N1430 X-10.755 Y11.687
N1435 X-10.951 Y11.554
N1440 X-11.104 Y11.373
N1445 X-11.201 Y11.158
N1450 X-11.237 Y10.923
N1455 G3 X-11.228 Y10.885 I0.1 J0.002 F#104
N1460 X-11.066 Y10.855 I0.091 J0.04 F#105
N1465 G1 X-10.322 Y11.603
N1470 G3 X-10.352 Y11.764 I-0.071 J0.071
N1475 X-10.39 Y11.773 I-0.041 J-0.091 F#103
N1480 X-10.805 Y11.747 I-0.115 J-1.477 F#100
N1485 X-11.233 Y11.227 I0.195 J-0.598
N1490 G1 X-11.235 Y11.048
N1495 X-11.234 Y11.035 F#104
N1500 X-11.232 Y11.009
N1505 X-11.14 Y9.898 F#105
N1510 G2 X-11.339 Y9.881 I-0.1 J-0.008
N1515 X-11.337 Y9.913 I0.1 J0.008
N1520 G3 X-11.343 Y9.932 I-0.019 J0.005
N1525 X-11.374 Y9.923 I-0.013 J-0.015 F#103
N1530 G2 X-11.583 Y9.291 I-5.78 J1.552 F#100
N1535 G1 X-13.164 Y5.346
N1540 G3 X-13.592 Y3.989 I12.828 J-4.794
N1545 X-13.84 Y-1.198 I14.101 J-3.273
N1550 G1 X-13.803 Y-1.369
N1555 X-13.751 Y-1.536
N1560 G3 X-13.73 Y-1.569 I0.093 J0.036 F#104
N1565 X-13.559 Y-1.509 I0.072 J0.069 F#105
N1570 G1 X-12.973 Y5.297
N1575 G3 X-13.142 Y5.378 I-0.1 J0.009
N1580 X-13.164 Y5.346 I0.069 J-0.072 F#103
N1585 G1 X-14.307 Y2.495 F#100
N1590 G3 X-14.576 Y1.488 I4.338 J-1.702
N1595 X-14.458 Y0.498 I2.369 J-0.219
N1600 X-14.437 Y0.465 I0.093 J0.036 F#104
N1605 X-14.265 Y0.527 I0.072 J0.069 F#105
N1610 G1 X-14.115 Y2.447
N1615 G3 X-14.284 Y2.527 I-0.1 J0.008
N1620 X-14.307 Y2.495 I0.069 J-0.072 F#103
N1625 G1 X-14.664 Y1.604 F#100
N1630 G3 X-14.709 Y1.247 I0.585 J-0.256
N1635 G1 X-14.656 Y1.069
N1640 X-12.057 Y-6.415
N1645 G3 X-11.62 Y-7.467 I15.691 J5.912
N1650 X-10.599 Y-9.095 I7.357 J3.477
N1655 X-9.144 Y-9.86 I1.743 J1.549
N1660 G1 X-8.865 Y-9.877
N1665 G3 X-8.827 Y-9.868 I-0.003 J0.1 F#104
N1670 X-8.794 Y-9.71 I-0.041 J0.091 F#105
N1675 G1 X-11.888 Y-6.318
N1680 G3 X-12.061 Y-6.376 I-0.074 J-0.067
N1685 X-12.057 Y-6.415 I0.1 J-0.009 F#103
N1690 G1 X-11.562 Y-7.841 F#100
N1695 G2 X-11.366 Y-8.58 I-7.316 J-2.337
N1700 G3 X-10.378 Y-9.714 I1.748 J0.526
N1705 G1 X-10.135 Y-9.804
N1710 X-9.883 Y-9.859
N1715 X-9.626 Y-9.877
N1720 G3 X-9.588 Y-9.868 I-0.003 J0.1 F#104
N1725 X-9.566 Y-9.699 I-0.041 J0.091 F#105
N1730 G1 X-11.235 Y-8.36
N1735 G3 X-11.395 Y-8.415 I-0.063 J-0.078
N1740 X-11.396 Y-8.454 I0.097 J-0.023 F#103
N1745 G2 X-11.307 Y-9.094 I-7.974 J-1.434 F#100
N1750 G1 X-11.296 Y-9.134
N1755 X-11.285 Y-9.175
N1760 X-11.178 Y-9.405
N1765 X-11.017 Y-9.601
N1770 X-10.812 Y-9.751
N1775 X-10.576 Y-9.845
N1780 X-10.324 Y-9.877
N1785 G3 X-10.286 Y-9.868 I-0.003 J0.1 F#104
N1790 X-10.261 Y-9.702 I-0.041 J0.091 F#105
N1795 G1 X-11.155 Y-8.905
N1800 G3 X-11.316 Y-8.946 I-0.067 J-0.075
N1805 X-11.322 Y-8.985 I0.094 J-0.034 F#103
N1810 G1 X-11.313 Y-9.088 F#100
N1815 X-11.308 Y-9.266
N1820 G3 X-10.692 Y-9.876 I0.616 J0.006
N1825 G1 X-7.834 Y-9.877
N1830 G3 X-7.796 Y-9.868 I-0.003 J0.1 F#104
N1835 G1 X-7.762 Y-9.852 Z-2.292
N1840 X-7.732 Y-9.839 Z-2.271
N1845 X-7.712 Y-9.83 Z-2.238
N1850 X-7.705 Y-9.827 Z-2.2
N1855 G0 Z2.51
N1860 X3.832 Y-9.807
N1865 Z-2.1
N1870 G1 Z-2.2 F#103
N1875 X3.824 Y-9.809 Z-2.238
N1880 X3.804 Y-9.816 Z-2.271
N1885 X3.773 Y-9.826 Z-2.292
N1890 X3.737 Y-9.838 Z-2.3
N1895 G3 X3.742 Y-9.877 I0.006 J-0.019
N1900 G1 X6.415 F#100
N1905 G3 X8.317 Y-9.463 I-0.183 J5.412
N1910 X11.185 Y-7.639 I-3.548 J8.748
N1915 X11.798 Y-6.975 I-1.907 J2.375
N1920 G1 X11.928 Y-6.739
N1925 X12.031 Y-6.491
N1930 G3 X12.035 Y-6.452 I-0.096 J0.029 F#104
N1935 X11.884 Y-6.376 I-0.1 J-0.009 F#105
N1940 G1 X6.367 Y-9.691
N1945 G3 X6.377 Y-9.868 I0.052 J-0.086
N1950 X6.415 Y-9.877 I0.041 J0.091 F#103
N1955 G1 X8.117 F#100
N1960 G3 X9.826 Y-9.444 I-0.191 J4.34
N1965 X10.826 Y-8.882 I-1.93 J4.604
N1970 X11.565 Y-7.833 I-1.47 J1.822
N1975 X11.569 Y-7.794 I-0.096 J0.03 F#104
N1980 X11.419 Y-7.718 I-0.1 J-0.009 F#105
N1985 G1 X8.07 Y-9.691
N1990 G3 X8.079 Y-9.868 I0.051 J-0.086
N1995 X8.117 Y-9.877 I0.041 J0.091 F#103
N2000 G1 X9.499 F#100
N2005 G3 X11.413 Y-8.373 I-0.016 J1.99
N2010 X11.414 Y-8.334 I-0.098 J0.021 F#104
N2015 X11.254 Y-8.273 I-0.098 J-0.018 F#105
N2020 G1 X9.44 Y-9.698
N2025 G3 X9.461 Y-9.868 I0.062 J-0.079
N2030 X9.499 Y-9.877 I0.041 J0.091 F#103
N2035 G1 X10.256 F#100
N2040 G3 X10.559 Y-9.836 I-0.018 J1.287
N2045 G1 X10.795 Y-9.739
N2050 X11.001 Y-9.587
N2055 X11.165 Y-9.391
N2060 X11.276 Y-9.16
N2065 X11.328 Y-8.91
N2070 G3 X11.324 Y-8.871 I-0.1 J0.009 F#104
N2075 X11.161 Y-8.827 I-0.096 J-0.03 F#105
N2080 G1 X10.192 Y-9.703
N2085 G3 X10.218 Y-9.868 I0.067 J-0.074
N2090 X10.256 Y-9.877 I0.041 J0.091 F#103
N2095 G1 X10.692 F#100
N2100 G3 X11.307 Y-9.169 I-0.006 J0.626
N2105 G1 X11.31 Y-9.155 F#104
N2110 Y-9.129
N2115 X11.326 Y-7.825 F#105
N2120 G2 X11.526 Y-7.827 I0.1 J-0.001
N2125 G1 Y-7.828
N2130 G3 X11.532 Y-7.843 I0.02 J0.
N2135 X11.564 Y-7.835 I0.014 J0.014 F#103
N2140 G1 X12.8 Y-4.277 F#100
N2145 G3 X12.804 Y-4.238 I-0.096 J0.029 F#104
N2150 G1 X12.8 Y-4.2 Z-2.292
N2155 X12.797 Y-4.168 Z-2.271
N2160 X12.795 Y-4.146 Z-2.238
N2165 Y-4.138 Z-2.2
N2170 G0 Z4.
N2175 X-0.81 Y-1.817
N2180 Z2.51
N2185 G1 Z2.505 F#103
N2190 G3 X0.81 Y3.599 Z2.195 I0.81 J2.708 F#107
N2195 X-0.81 Y-1.817 Z1.885 I-0.81 J-2.708
N2200 X0.81 Y3.599 Z1.575 I0.81 J2.708
N2205 X-0.81 Y-1.817 Z1.265 I-0.81 J-2.708
N2210 X0.81 Y3.599 Z0.955 I0.81 J2.708
N2215 X-0.81 Y-1.817 Z0.645 I-0.81 J-2.708
N2220 X0.81 Y3.599 Z0.335 I0.81 J2.708
N2225 X-0.81 Y-1.817 Z0.025 I-0.81 J-2.708
N2230 X0.81 Y3.599 Z-0.286 I0.81 J2.708
N2235 X-0.81 Y-1.817 Z-0.596 I-0.81 J-2.708
N2240 X0.81 Y3.599 Z-0.906 I0.81 J2.708
N2245 X-0.81 Y-1.817 Z-1.216 I-0.81 J-2.708
N2250 X0.81 Y3.599 Z-1.526 I0.81 J2.708
N2255 X-0.81 Y-1.817 Z-1.836 I-0.81 J-2.708
N2260 X0.81 Y3.599 Z-2.146 I0.81 J2.708
N2265 X-0.81 Y-1.817 Z-2.456 I-0.81 J-2.708
N2270 X0.81 Y3.599 Z-2.766 I0.81 J2.708
N2275 X-0.81 Y-1.817 Z-3.076 I-0.81 J-2.708
N2280 X0.81 Y3.599 Z-3.386 I0.81 J2.708
N2285 X-0.81 Y-1.817 Z-3.696 I-0.81 J-2.708
N2290 X0.81 Y3.599 Z-4.006 I0.81 J2.708
N2295 X-0.81 Y-1.817 Z-4.316 I-0.81 J-2.708
N2300 X2.826 Y0.891 Z-4.5 I0.81 J2.708
N2305 X-2.826 I-2.826 J0.
N2310 X2.826 I2.826 J0.
N2315 G2 X2.91 Y1.671 I2.67 J0.107 F#100
N2320 G3 X2.459 Y3.07 I-2.08 J0.102
N2325 X0.733 Y4.193 I-2.366 J-1.748
N2330 X-3.39 Y1.243 I-0.774 J-3.274
N2335 X3.137 Y-0.451 I3.391 J-0.358
N2340 X3.574 Y1.218 I-4.641 J2.109
N2345 X1.732 Y4.452 I-3.416 J0.195
N2350 X-2.29 Y4.21 I-1.814 J-3.401
N2355 X0.324 Y-3.138 I2.28 J-3.328
N2360 X3.34 Y-1.394 I-0.308 J4.014
N2365 X4.233 Y1.689 I-3.809 J2.775
N2370 X1.083 Y5.404 I-4.208 J-0.376
N2375 X-3.977 Y3.41 I-1.181 J-4.42
N2380 X2.553 Y-3.073 I3.972 J-2.529
N2385 X4.895 Y1.979 I-2.857 J4.394
N2390 X0.53 Y6.213 I-4.924 J-0.709
N2395 X-4.836 Y3.325 I-0.637 J-5.244
N2400 X2.803 Y-3.751 I4.831 J-2.446
N2405 X5.508 Y2.609 I-3.012 J5.036
N2410 X0.028 Y6.975 I-5.57 J-1.369
N2415 X-5.828 Y2.854 I-0.138 J-6.026
N2420 X2.524 Y-4.727 I5.823 J-1.976
N2425 X6.215 Y-0.309 I-2.668 J5.979
N2430 X1.486 Y7.533 I-6.251 J1.578
N2435 X-5.575 Y4.959 I-1.617 J-6.534
N2440 X1.56 Y-5.848 I5.564 J-4.086
N2445 X6.065 Y-2.612 I-1.608 J6.992
N2450 X0.865 Y8.436 I-6.126 J3.864
N2455 X-6.762 Y4.537 I-0.997 J-7.459
N2460 X1.185 Y-6.714 I6.751 J-3.664
N2465 X6.712 Y-3.062 I-1.218 J7.852
N2470 X1.152 Y9.19 I-6.777 J4.312
N2475 X-7.171 Y5.407 I-1.294 J-8.201
N2480 X0.114 Y-7.6 I7.155 J-4.536
N2485 X6.794 Y-4.325 I-0.116 J8.685
N2490 X1.328 Y9.977 I-6.866 J5.571
N2495 X-8.215 Y5.217 I-1.471 J-8.997
N2500 X-1.737 Y-8.247 I8.195 J-4.348
N2505 X6.646 Y-5.696 I1.756 J9.276
N2510 X1.478 Y10.78 I-6.722 J6.94
N2515 X-8.852 Y5.765 I-1.626 J-9.797
N2520 X-1.625 Y-9.102 I8.832 J-4.897
N2525 X7.258 Y-6.255 I1.648 J10.14
N2530 X1.962 Y11.534 I-7.334 J7.5
N2535 X-9.317 Y6.618 I-2.116 J-10.541
N2540 X-10.645 Y3.439 I8.852 J-5.567
N2545 G1 X-10.667 Y3.244
N2550 X-10.675 Y3.049
N2555 Y-0.356
N2560 G3 X-9.811 Y-3.926 I8.459 J0.159
N2565 X-4.652 Y-9.029 I9.65 J4.595
N2570 X-2.154 Y-9.854 I4.48 J9.371
N2575 G1 X-1.987 Y-9.871
N2580 X-1.819 Y-9.877
N2585 X0.891
N2590 G3 X2.027 Y-9.799 I-0.317 J12.899
N2595 X6.47 Y-7.996 I-1.463 J9.984
N2600 X10.593 Y-2.548 I-6.439 J9.158
N2605 G1 X10.637 Y-2.343
N2610 X10.665 Y-2.135
N2615 X10.675 Y-1.926
N2620 Y3.564
N2625 G3 X10.067 Y6.124 I-6.754 J-0.253
N2630 X7.592 Y9.567 I-9.323 J-4.089
N2635 X4.369 Y11.657 I-7.447 J-7.955
N2640 G1 X4.127 Y11.719
N2645 X3.881 Y11.76
N2650 X3.632 Y11.773
N2655 X-3.029
N2660 G3 X-5.254 Y11.274 I0.15 J-5.874
N2665 X-8.303 Y9.213 I3.824 J-8.943
N2670 X-10.405 Y6.421 I7.766 J-8.033
N2675 X-10.675 Y5.338 I2.024 J-1.08
N2680 G1 Y3.208
N2685 X-10.671 Y3.189 Z-4.495 F#104
N2690 X-10.667 Y3.175 Z-4.48
N2695 X-10.666 Y3.17 Z-4.461
N2700 G0 Z2.51
N2705 Y-0.318
N2710 Z-4.4
N2715 G1 Z-4.5 F#103
N2720 G3 X-10.675 Y-0.356 I0.091 J-0.041
N2725 G1 Y-2.673 F#100
N2730 G3 X-10.2 Y-4.704 I5.191 J0.142
N2735 X-8.962 Y-6.709 I7.436 J3.21
N2740 X-7.841 Y-7.362 I1.717 J1.659
N2745 G2 X-5.643 Y-8.912 I-1.418 J-4.344
N2750 G3 X-4.662 Y-9.67 I2.522 J2.253
N2755 X-3.699 Y-9.877 I0.974 J2.181
N2760 X-3.661 Y-9.868 I-0.003 J0.1 F#104
N2765 X-3.656 Y-9.688 I-0.041 J0.091 F#105
N2770 G1 X-5.575 Y-8.692
N2775 G3 X-5.719 Y-8.804 I-0.046 J-0.089
N2780 X-5.702 Y-8.839 I0.097 J0.023 F#103
N2785 G2 X-5.222 Y-9.564 I-3.874 J-3.092 F#100
N2790 G1 X-5.099 Y-9.694
N2795 X-4.952 Y-9.794
N2800 X-4.785 Y-9.856
N2805 X-4.608 Y-9.877
N2810 G3 X-4.57 Y-9.868 I-0.003 J0.1 F#104
N2815 X-4.562 Y-9.69 I-0.041 J0.091 F#105
N2820 G1 X-5.114 Y-9.379
N2825 G3 X-5.262 Y-9.476 I-0.049 J-0.087
N2830 X-5.251 Y-9.513 I0.1 J0.01 F#103
N2835 X-4.633 Y-9.876 I0.563 J0.251 F#100
N2840 G1 X-1.96 Y-9.877
N2845 X-1.941 Y-9.873 Z-4.495 F#104
N2850 X-1.927 Y-9.869 Z-4.48
N2855 X-1.922 Y-9.868 Z-4.461
N2860 G0 Z2.51
N2865 X0.853
N2870 Z-4.4
N2875 G1 Z-4.5 F#103
N2880 G3 X0.891 Y-9.877 I0.041 J0.091
N2885 G1 X3.484 F#100
N2890 G3 X4.619 Y-9.694 I-0.011 J3.682
N2895 X5.648 Y-8.91 I-0.852 J2.185
N2900 X5.664 Y-8.875 I-0.081 J0.059 F#104
N2905 X5.526 Y-8.76 I-0.097 J0.023 F#105
N2910 G1 X3.447 Y-9.686
N2915 G3 X3.446 Y-9.868 I0.041 J-0.091
N2920 X3.484 Y-9.877 I0.041 J0.091 F#103
N2925 G1 X4.633 F#100
N2930 G3 X5.187 Y-9.623 I0.054 J0.613
N2935 G1 X5.291 Y-9.445
N2940 X5.321 Y-9.39
N2945 X5.326 Y-9.378 F#104
N2950 X5.331 Y-9.353
N2955 X5.437 Y-8.808 F#105
N2960 G2 X5.634 Y-8.847 I0.098 J-0.02
N2965 X5.617 Y-8.886 I-0.098 J0.02
N2970 G3 X5.615 Y-8.906 I0.016 J-0.011
N2975 X5.648 Y-8.91 I0.018 J0.009 F#103
N2980 G2 X7.761 Y-7.387 I3.608 J-2.779 F#100
N2985 G3 X9.258 Y-6.304 I-2.058 J4.421
N2990 X10.452 Y-4.744 I-5.265 J5.266
N2995 X10.675 Y-3.742 I-2.219 J1.021
N3000 G1 Y-1.926
N3005 G3 X10.666 Y-1.888 I-0.1 J-0.003 F#104
N3010 X10.487 Y-1.881 I-0.091 J-0.041 F#105
N3015 G1 X7.546 Y-7.279
N3020 G3 X7.624 Y-7.426 I0.088 J-0.048
N3025 X7.663 Y-7.423 I0.01 J0.099 F#103
N3030 G2 X8.597 Y-7.18 I1.777 J-4.913 F#100
N3035 G3 X10.198 Y-6.146 I-0.888 J3.133
N3040 X10.676 Y-4.736 I-1.876 J1.421
N3045 G1 X10.666 Y-4.698 F#104
N3050 G3 X10.5 Y-4.672 I-0.091 J-0.041 F#105
N3055 G1 X8.386 Y-7.039
N3060 G3 X8.435 Y-7.202 I0.075 J-0.067
N3065 X8.473 Y-7.205 I0.026 J0.097 F#103
N3070 G2 X9.3 Y-7.129 I0.908 J-5.32 F#100
N3075 G1 X9.362 Y-7.116
N3080 X9.614 Y-7.048
N3085 X9.853 Y-6.939
N3090 X10.071 Y-6.794
N3095 X10.262 Y-6.616
N3100 X10.423 Y-6.409
N3105 X10.548 Y-6.178
N3110 X10.634 Y-5.931
N3115 X10.68 Y-5.673
N3120 X10.683 Y-5.412
N3125 G3 X10.672 Y-5.374 I-0.099 J-0.01 F#104
N3130 X10.509 Y-5.355 I-0.088 J-0.048 F#105
N3135 G1 X9.071 Y-6.97
N3140 G3 X9.104 Y-7.128 I0.075 J-0.067
N3145 X9.142 Y-7.136 I0.041 J0.091 F#103
N3150 G2 X9.719 Y-7.153 I0.094 J-6.94 F#100
N3155 G3 X9.975 Y-7.113 I-0.048 J1.164
N3160 G1 X10.214 Y-7.007
N3165 X10.421 Y-6.847
N3170 X10.584 Y-6.641
N3175 X10.693 Y-6.403
N3180 X10.741 Y-6.146
N3185 X10.726 Y-5.884
N3190 G3 X10.71 Y-5.848 I-0.098 J-0.021 F#104
N3195 X10.552 Y-5.84 I-0.082 J-0.057 F#105
N3200 G1 X9.577 Y-6.985
N3205 G3 X9.602 Y-7.136 I0.076 J-0.065
N3210 X9.639 Y-7.149 I0.051 J0.086 F#103
N3215 X10.03 Y-7.197 I1.657 J11.685 F#100
N3220 G1 X10.064 Y-7.198
N3225 X10.097
N3230 X10.128 Y-7.196
N3235 X10.157 Y-7.193
N3240 X10.185 Y-7.189
N3245 X10.216 Y-7.183
N3250 X10.219 Y-7.182
N3255 X10.41 Y-7.109
N3260 X10.576 Y-6.989
N3265 X10.704 Y-6.83
N3270 X10.787 Y-6.643
N3275 X10.819 Y-6.44
N3280 X10.797 Y-6.237
N3285 G3 X10.78 Y-6.202 I-0.097 J-0.025 F#104
N3290 X10.624 Y-6.198 I-0.08 J-0.06 F#105
N3295 G1 X9.923 Y-7.03
N3300 G3 X9.943 Y-7.178 I0.076 J-0.064
N3305 X9.979 Y-7.193 I0.056 J0.083 F#103
N3310 G1 X10.157 Y-7.222 F#100
N3315 G3 X10.839 Y-6.416 I0.104 J0.604
N3320 G1 X10.797 Y-6.234
N3325 X10.775 Y-6.138
N3330 X10.771 Y-6.125 F#104
N3335 X10.764 Y-6.1
N3340 X10.439 Y-4.84 F#105
N3345 G2 X10.522 Y-4.716 I0.097 J0.025
N3350 X10.636 Y-4.811 I0.014 J-0.099
N3355 G3 X10.647 Y-4.828 I0.02 J0.001
N3360 X10.675 Y-4.811 I0.009 J0.018 F#103
N3365 G1 Y-3.742 F#100
N3370 X10.671 Y-3.723 Z-4.495 F#104
N3375 X10.667 Y-3.709 Z-4.48
N3380 X10.666 Y-3.704 Z-4.461
N3385 G0 Z2.51
N3390 Y3.526
N3395 Z-4.4
N3400 G1 Z-4.5 F#103
N3405 G3 X10.675 Y3.564 I-0.091 J0.041
N3410 G1 Y5.524 F#100
N3415 G3 X10.207 Y7.357 I-4.731 J-0.231
N3420 X8.805 Y9.49 I-7.575 J-3.452
N3425 X6.628 Y11.392 I-8.174 J-7.162
N3430 X5.358 Y11.773 I-1.267 J-1.916
N3435 G1 X5.339 Y11.768 Z-4.495 F#104
N3440 X5.326 Y11.765 Z-4.48
N3445 X5.32 Y11.764 Z-4.461
N3450 G0 Z2.51
N3455 X10.605 Y5.614
N3460 Z-4.3
N3465 G1 Z-4.4 F#103
N3470 X10.607 Y5.606 Z-4.438
N3475 X10.614 Y5.586 Z-4.471
N3480 X10.624 Y5.555 Z-4.492
N3485 X10.636 Y5.519 Z-4.5
N3490 G3 X10.675 Y5.524 I0.019 J0.006
N3495 G2 X10.682 Y7.015 I49.049 J0.511 F#100
N3500 G3 X10.145 Y8.786 I-3.959 J-0.234
N3505 X9.099 Y9.678 I-1.953 J-1.231
N3510 X9.06 Y9.685 I-0.036 J-0.093 F#104
N3515 X8.975 Y9.536 I0.002 J-0.1 F#105
N3520 G1 X10.495 Y6.829
N3525 G3 X10.671 Y6.832 I0.087 J0.049
N3530 X10.682 Y6.87 I-0.089 J0.046 F#103
N3535 G2 X10.785 Y7.695 I4.517 J-0.148 F#100
N3540 G1 X10.802 Y7.951
N3545 X10.777 Y8.206
N3550 X10.712 Y8.454
N3555 X10.609 Y8.688
N3560 X10.47 Y8.904
N3565 X10.298 Y9.094
N3570 X10.098 Y9.255
N3575 X9.875 Y9.381
N3580 X9.635 Y9.471
N3585 G3 X9.596 Y9.473 I-0.024 J-0.097 F#104
N3590 X9.527 Y9.32 I0.015 J-0.099 F#105
N3595 G1 X10.599 Y7.636
N3600 G3 X10.762 Y7.628 I0.084 J0.054
N3605 X10.779 Y7.663 I-0.079 J0.062 F#103
N3610 X10.929 Y8.246 I-19.85 J5.413 F#100
N3615 G1 X10.933 Y8.283
N3620 X10.924 Y8.522
N3625 X10.859 Y8.751
N3630 X10.742 Y8.959
N3635 X10.578 Y9.133
N3640 X10.378 Y9.263
N3645 X10.152 Y9.342
N3650 G3 X10.113 Y9.341 I-0.018 J-0.098 F#104
N3655 X10.049 Y9.191 I0.021 J-0.098 F#105
N3660 G1 X10.721 Y8.102
N3665 G3 X10.88 Y8.087 I0.085 J0.052
N3670 X10.9 Y8.12 I-0.074 J0.067 F#103
N3675 X11.031 Y8.479 I-7.532 J2.958 F#100
N3680 X10.915 Y9.089 I-0.724 J0.178
N3685 G1 X10.882 Y9.109 F#104
N3690 G3 X10.746 Y9.001 I-0.036 J-0.093 F#105
N3695 G1 X10.828 Y8.463
N3700 G3 X10.997 Y8.406 I0.099 J0.015
N3705 X11.019 Y8.439 I-0.07 J0.071 F#103
N3710 X10.514 Y9.29 I-0.557 J0.245 F#100
N3715 G1 X10.416 Y9.302
N3720 X10.403 F#104
N3725 X10.377 Y9.304
N3730 X9.17 Y9.394 F#105
N3735 G2 X9.08 Y9.516 I0.007 J0.1
N3740 X9.213 Y9.587 I0.098 J-0.022
N3745 G3 X9.233 Y9.59 I0.007 J0.018
N3750 X9.229 Y9.623 I-0.013 J0.015 F#103
N3755 G2 X7.126 Y11.413 I1.75 J4.186 F#100
N3760 G1 X6.971 Y11.563
N3765 X6.789 Y11.678
N3770 X6.587 Y11.749
N3775 X6.374 Y11.773
N3780 G3 X6.336 Y11.764 I0.003 J-0.1 F#104
N3785 X6.329 Y11.585 I0.041 J-0.091 F#105
N3790 G1 X7.043 Y11.196
N3795 G3 X7.19 Y11.299 I0.048 J0.088
N3800 X7.177 Y11.336 I-0.099 J-0.015 F#103
N3805 X7.009 Y11.584 I-1.865 J-1.078 F#100
N3810 X6.593 Y11.772 I-0.445 J-0.429
N3815 G1 X6.415 Y11.773
N3820 X3.632
N3825 X3.593 F#104
N3830 X-2.99 F#105
N3835 X-3.029 F#103
N3840 X-4.811 F#100
N3845 G3 X-6.606 Y11.33 I0.144 J-4.437
N3850 X-7.609 Y10.755 I1.717 J-4.16
N3855 G1 X-7.757 Y10.616
N3860 G3 X-7.647 Y10.454 I0.073 J-0.068 F#104
N3865 G1 X-4.778 Y11.58 F#100
N3870 G3 X-4.811 Y11.773 I-0.037 J0.093
N3875 G1 X-6.237
N3880 G3 X-6.656 Y11.719 I-0.048 J-1.282
N3885 G1 X-6.868 Y11.621
N3890 X-7.052 Y11.479
N3895 X-7.201 Y11.299
N3900 G3 X-7.214 Y11.262 I0.086 J-0.052 F#104
N3905 X-7.069 Y11.159 I0.099 J-0.015 F#105
N3910 G1 X-6.259 Y11.585
N3915 G3 X-6.264 Y11.764 I-0.047 J0.088
N3920 X-6.302 Y11.773 I-0.041 J-0.091 F#103
N3925 G1 X-6.415 F#100
N3930 X-6.593 Y11.772
N3935 G3 X-7.104 Y11.449 I0.026 J-0.606
N3940 G1 X-7.11 Y11.438 F#104
N3945 X-7.121 Y11.414
N3950 X-7.534 Y10.509 F#105
N3955 G2 X-7.716 Y10.592 I-0.091 J0.042
N3960 X-7.699 Y10.619 I0.091 J-0.042
N3965 G3 X-7.694 Y10.638 I-0.014 J0.013
N3970 X-7.726 Y10.646 I-0.019 J-0.006 F#103
N3975 G2 X-8.561 Y9.951 I-4.413 J4.443 F#100
N3980 G3 X-10.223 Y8.236 I5.875 J-7.359
N3985 X-10.677 Y6.772 I1.799 J-1.361
N3990 X-10.668 Y6.734 I0.1 J0.005 F#104
N3995 X-10.496 Y6.719 I0.09 J0.043 F#105
N4000 G1 X-8.198 Y9.98
N4005 G3 X-8.297 Y10.136 I-0.082 J0.058
N4010 X-8.333 Y10.122 I0.018 J-0.098 F#103
N4015 G2 X-9.459 Y9.53 I-2.691 J3.753 F#100
N4020 G3 X-10.588 Y8.394 I0.799 J-1.925
N4025 X-10.716 Y7.306 I1.922 J-0.776
N4030 X-10.703 Y7.269 I0.099 J0.013 F#104
N4035 X-10.529 Y7.27 I0.087 J0.05 F#105
N4040 G1 X-9.329 Y9.39
N4045 G3 X-9.406 Y9.539 I-0.087 J0.049
N4050 X-9.445 Y9.535 I-0.01 J-0.1 F#103
N4055 G2 X-10.04 Y9.365 I-1.712 J4.872 F#100
N4060 G1 X-10.078 Y9.352
N4065 X-10.127 Y9.334
N4070 X-10.345 Y9.214
N4075 X-10.535 Y9.054
N4080 X-10.688 Y8.858
N4085 X-10.799 Y8.635
N4090 X-10.862 Y8.394
N4095 X-10.875 Y8.146
N4100 X-10.838 Y7.9
N4105 G3 X-10.819 Y7.865 I0.096 J0.028 F#104
N4110 X-10.655 Y7.879 I0.078 J0.063 F#105
N4115 G1 X-9.883 Y9.23
N4120 G3 X-9.949 Y9.377 I-0.087 J0.05
N4125 X-9.988 Y9.378 I-0.021 J-0.098 F#103
N4130 G2 X-10.38 Y9.305 I-0.852 J3.489 F#100
N4135 G1 X-10.413 Y9.297
N4140 X-10.446 Y9.289
N4145 X-10.477 Y9.279
N4150 X-10.506 Y9.269
N4155 X-10.534 Y9.258
N4160 X-10.734 Y9.126
N4165 X-10.887 Y8.941
N4170 X-10.977 Y8.719
N4175 X-10.996 Y8.48
N4180 X-10.944 Y8.246
N4185 G3 X-10.922 Y8.214 I0.092 J0.04 F#104
N4190 X-10.764 Y8.237 I0.07 J0.072 F#105
N4195 G1 X-10.256 Y9.161
N4200 G3 X-10.313 Y9.305 I-0.088 J0.048
N4205 X-10.352 Y9.309 I-0.031 J-0.095 F#103
N4210 X-10.692 Y9.249 I0.049 J-1.263 F#100
N4215 X-11.05 Y8.516 I0.241 J-0.571
N4220 G1 X-10.994 Y8.375
N4225 X-10.973 Y8.322
N4230 G3 X-10.951 Y8.289 I0.092 J0.04 F#104
N4235 G1 X-10.924 Y8.263 Z-4.492
N4240 X-10.9 Y8.24 Z-4.471
N4245 X-10.885 Y8.225 Z-4.438
N4250 X-10.879 Y8.22 Z-4.4
N4255 G0 Z2.51
N4260 X-10.606 Y6.683
N4265 Z-4.3
N4270 G1 Z-4.4 F#103
N4275 X-10.608 Y6.69 Z-4.438
N4280 X-10.615 Y6.711 Z-4.471
N4285 X-10.626 Y6.742 Z-4.492
N4290 X-10.638 Y6.778 Z-4.5
N4295 G3 X-10.677 Y6.772 I-0.019 J-0.007
N4300 G1 X-10.675 Y6.593 F#100
N4305 Y5.338
N4310 X-10.671 Y5.319 Z-4.495 F#104
N4315 X-10.667 Y5.305 Z-4.48
N4320 X-10.666 Y5.3 Z-4.461
N4325 G0 Z2.51
N4330 X-10.605 Y-2.762
N4335 Z-4.3
N4340 G1 Z-4.4 F#103
N4345 X-10.607 Y-2.755 Z-4.438
N4350 X-10.614 Y-2.735 Z-4.471
N4355 X-10.624 Y-2.704 Z-4.492
N4360 X-10.636 Y-2.667 Z-4.5
N4365 G3 X-10.675 Y-2.673 I-0.019 J-0.006
N4370 G1 Y-4.277 F#100
N4375 G3 X-10.222 Y-6.02 I3.947 J0.095
N4380 X-8.554 Y-7.191 I2.056 J1.154
N4385 X-8.515 Y-7.189 I0.013 J0.099 F#104
N4390 X-8.46 Y-7.034 I-0.026 J0.097 F#105
N4395 G1 X-10.494 Y-4.222
N4400 G3 X-10.666 Y-4.239 I-0.081 J-0.059
N4405 X-10.675 Y-4.277 I0.091 J-0.041 F#103
N4410 G1 Y-5.168 F#100
N4415 G3 X-10.683 Y-5.682 I6.126 J-0.346
N4420 G1 X-10.672 Y-5.754
N4425 X-10.659 Y-5.836
N4430 X-10.644 Y-5.911
N4435 X-10.642 Y-5.919
N4440 X-10.557 Y-6.17
N4445 X-10.431 Y-6.404
N4450 X-10.269 Y-6.614
N4455 X-10.074 Y-6.795
N4460 X-9.852 Y-6.94
N4465 X-9.61 Y-7.048
N4470 X-9.353 Y-7.114
N4475 X-9.088 Y-7.137
N4480 G3 X-9.05 Y-7.13 I0.002 J0.1 F#104
N4485 X-9.014 Y-6.968 I-0.037 J0.093 F#105
N4490 G1 X-10.513 Y-5.385
N4495 G3 X-10.674 Y-5.407 I-0.073 J-0.069
N4500 X-10.685 Y-5.444 I0.088 J-0.048 F#103
N4505 G2 X-10.752 Y-6.08 I-8.659 J0.589 F#100
N4510 G1 X-10.749 Y-6.125
N4515 X-10.747 Y-6.173
N4520 X-10.743 Y-6.218
N4525 X-10.737 Y-6.261
N4530 X-10.661 Y-6.508
N4535 X-10.528 Y-6.73
N4540 X-10.347 Y-6.914
N4545 X-10.127 Y-7.049
N4550 X-9.88 Y-7.129
N4555 X-9.622 Y-7.147
N4560 G3 X-9.585 Y-7.136 I-0.008 J0.1 F#104
N4565 X-9.557 Y-6.979 I-0.046 J0.089 F#105
N4570 G1 X-10.564 Y-5.888
N4575 G3 X-10.72 Y-5.899 I-0.074 J-0.068
N4580 X-10.735 Y-5.935 I0.082 J-0.057 F#103
N4585 X-10.826 Y-6.387 I8.456 J-1.931 F#100
N4590 G1 Y-6.416
N4595 Y-6.444
N4600 X-10.825 Y-6.471
N4605 X-10.823 Y-6.503
N4610 X-10.771 Y-6.705
N4615 X-10.667 Y-6.887
N4620 X-10.519 Y-7.034
N4625 X-10.338 Y-7.137
N4630 X-10.135 Y-7.189
N4635 X-9.927 Y-7.185
N4640 G3 X-9.89 Y-7.17 I-0.019 J0.098 F#104
N4645 X-9.875 Y-7.016 I-0.055 J0.084 F#105
N4650 G1 X-10.643 Y-6.247
N4655 G3 X-10.793 Y-6.256 I-0.071 J-0.071
N4660 X-10.81 Y-6.291 I0.079 J-0.062 F#103
N4665 G1 X-10.84 Y-6.415 F#100
N4670 G3 X-10.061 Y-7.202 I0.585 J-0.2
N4675 G1 X-10.025 Y-7.188 F#104
N4680 X10.591 Y3.463 F#105
N4685 X10.621 Y3.479 Z-4.494 F#104
N4690 X10.639 Y3.498 Z-4.479
N4695 X10.654 Y3.513 Z-4.457
N4700 X10.663 Y3.523 Z-4.43
N4705 X10.666 Y3.526 Z-4.4
N4710 G0 Z4.
N4715 X4.478 Y0.708
N4720 Z2.51
N4725 G1 Z2.505 F#103
N4730 G3 X6.214 Y-3.008 Z2.28 I0.868 J-1.858 F#107
N4735 X4.478 Y0.708 Z2.055 I-0.868 J1.858
N4740 X6.214 Y-3.008 Z1.83 I0.868 J-1.858
N4745 X4.478 Y0.708 Z1.605 I-0.868 J1.858
N4750 X6.214 Y-3.008 Z1.38 I0.868 J-1.858
N4755 X4.478 Y0.708 Z1.155 I-0.868 J1.858
N4760 X6.214 Y-3.008 Z0.93 I0.868 J-1.858
N4765 X4.478 Y0.708 Z0.705 I-0.868 J1.858
N4770 X6.214 Y-3.008 Z0.48 I0.868 J-1.858
N4775 X4.478 Y0.708 Z0.255 I-0.868 J1.858
N4780 X6.214 Y-3.008 Z0.03 I0.868 J-1.858
N4785 X4.478 Y0.708 Z-0.195 I-0.868 J1.858
N4790 X6.214 Y-3.008 Z-0.42 I0.868 J-1.858
N4795 X4.478 Y0.708 Z-0.644 I-0.868 J1.858
N4800 X6.214 Y-3.008 Z-0.869 I0.868 J-1.858
N4805 X4.478 Y0.708 Z-1.094 I-0.868 J1.858
N4810 X6.214 Y-3.008 Z-1.319 I0.868 J-1.858
N4815 X4.478 Y0.708 Z-1.544 I-0.868 J1.858
N4820 X6.214 Y-3.008 Z-1.769 I0.868 J-1.858
N4825 X4.478 Y0.708 Z-1.994 I-0.868 J1.858
N4830 X6.214 Y-3.008 Z-2.219 I0.868 J-1.858
N4835 X4.478 Y0.708 Z-2.444 I-0.868 J1.858
N4840 X6.214 Y-3.008 Z-2.669 I0.868 J-1.858
N4845 X4.478 Y0.708 Z-2.894 I-0.868 J1.858
N4850 X6.214 Y-3.008 Z-3.119 I0.868 J-1.858
N4855 X4.478 Y0.708 Z-3.344 I-0.868 J1.858
N4860 X6.214 Y-3.008 Z-3.569 I0.868 J-1.858
N4865 X4.478 Y0.708 Z-3.794 I-0.868 J1.858
N4870 X6.214 Y-3.008 Z-4.019 I0.868 J-1.858
N4875 X4.478 Y0.708 Z-4.244 I-0.868 J1.858
N4880 X6.214 Y-3.008 Z-4.469 I0.868 J-1.858
N4885 X4.478 Y0.708 Z-4.694 I-0.868 J1.858
N4890 X6.214 Y-3.008 Z-4.919 I0.868 J-1.858
N4895 X7.397 Y-1.15 Z-5. I-0.868 J1.858
N4900 X3.295 I-2.051 J0.
N4905 X7.397 I2.051 J0.
N4910 G2 X7.445 Y-0.507 I2.804 J0.114 F#100
N4915 G3 X7.235 Y0.32 I-1.438 J0.076
N4920 G1 X7.082 Y0.54
N4925 G3 X5.67 Y1.207 I-1.412 J-1.161
N4930 G1 X4.99
N4935 G3 X3.204 Y0.183 I0.056 J-2.168
N4940 X3.096 Y-2.349 I2.045 J-1.355
N4945 X5.095 Y-3.507 I2.001 J1.148
N4950 G1 X5.702
N4955 G3 X6.995 Y-3.026 I-0.025 J2.047
N4960 X7.797 Y-1.304 I-1.452 J1.724
N4965 X7.788 Y-1.266 I-0.1 J-0.003 F#104
N4970 X7.624 Y-1.238 I-0.091 J-0.041 F#105
N4975 G1 X5.633 Y-3.338
N4980 G3 X5.664 Y-3.498 I0.073 J-0.069
N4985 X5.702 Y-3.507 I0.041 J0.091 F#103
N4990 G1 X6.469 F#100
N4995 G3 X6.833 Y-3.451 I-0.02 J1.34
N5000 G1 X7.063 Y-3.353
N5005 X7.272 Y-3.216
N5010 X7.452 Y-3.043
N5015 X7.599 Y-2.841
N5020 X7.708 Y-2.616
N5025 X7.775 Y-2.376
N5030 X7.797 Y-2.127
N5035 G3 X7.788 Y-2.089 I-0.1 J-0.003 F#104
N5040 X7.625 Y-2.061 I-0.091 J-0.041 F#105
N5045 G1 X6.4 Y-3.338
N5050 G3 X6.431 Y-3.498 I0.072 J-0.069
N5055 X6.469 Y-3.507 I0.041 J0.091 F#103
N5060 G1 X6.98 F#100
N5065 X7.037 Y-3.504
N5070 X7.276 Y-3.445
N5075 X7.489 Y-3.319
N5080 X7.655 Y-3.136
N5085 X7.761 Y-2.913
N5090 X7.797 Y-2.669
N5095 G3 X7.788 Y-2.631 I-0.1 J-0.003 F#104
N5100 X7.625 Y-2.603 I-0.091 J-0.041 F#105
N5105 G1 X6.911 Y-3.337
N5110 G3 X6.942 Y-3.498 I0.072 J-0.07
N5115 X6.98 Y-3.507 I0.041 J0.091 F#103
N5120 X7.396 Y-3.473 I0.108 J1.231 F#100
N5125 X7.797 Y-2.851 I-0.226 J0.587
N5130 G1 Y-0.302
N5135 X7.792 Y-0.197
N5140 X7.747 Y0.053
N5145 X7.663 Y0.292
N5150 X7.54 Y0.515
N5155 X7.383 Y0.714
N5160 X7.195 Y0.885
N5165 X6.982 Y1.023
N5170 X6.749 Y1.124
N5175 X6.502 Y1.186
N5180 X6.249 Y1.207
N5185 G3 X6.211 Y1.198 I0.003 J-0.1 F#104
N5190 X6.183 Y1.035 I0.041 J-0.091 F#105
N5195 G1 X7.627 Y-0.371
N5200 G3 X7.788 Y-0.34 I0.07 J0.072
N5205 X7.797 Y-0.302 I-0.091 J0.041 F#103
N5210 G1 Y0.276 F#100
N5215 X7.793 Y0.35
N5220 X7.79 Y0.387
N5225 X7.785 Y0.423
N5230 X7.702 Y0.674
N5235 X7.552 Y0.893
N5240 X7.349 Y1.063
N5245 X7.107 Y1.17
N5250 X6.844 Y1.207
N5255 G3 X6.806 Y1.198 I0.003 J-0.1 F#104
N5260 X6.778 Y1.035 I0.041 J-0.091 F#105
N5265 G1 X7.627 Y0.208
N5270 G3 X7.788 Y0.238 I0.07 J0.072
N5275 X7.797 Y0.276 I-0.091 J0.041 F#103
N5280 G1 Y0.535 F#100
N5285 G3 X7.128 Y1.207 I-0.617 J0.055
N5290 G1 X5.67
N5295 X5.657 Y1.206 F#104
N5300 X5.632 Y1.196
N5305 X5.062 Y0.98 F#105
N5310 G2 X4.932 Y1.04 I-0.035 J0.094
N5315 X4.995 Y1.168 I0.094 J0.033
N5320 G3 X5.007 Y1.179 I-0.006 J0.019
N5325 X4.99 Y1.207 I-0.018 J0.008 F#103
N5330 G1 X4.223 F#100
N5335 G3 X3.118 Y0.733 I0.063 J-1.672
N5340 X2.304 Y-0.83 I1.671 J-1.864
N5345 X2.548 Y-2.39 I2.455 J-0.415
N5350 X3.943 Y-3.447 I1.92 J1.085
N5355 G1 X4.196 Y-3.492
N5360 X4.453 Y-3.507
N5365 X5.095
N5370 G3 X5.133 Y-3.498 I-0.003 J0.1 F#104
N5375 X5.189 Y-3.388 I-0.041 J0.091 F#105
N5380 G1 X4.318 Y1.126
N5385 G3 X4.261 Y1.198 I-0.098 J-0.019
N5390 X4.223 Y1.207 I-0.041 J-0.091 F#103
N5395 G1 X3.6 F#100
N5400 G3 X2.675 Y0.82 I0.092 J-1.521
N5405 X1.811 Y-0.618 I1.623 J-1.953
N5410 X1.903 Y-2.225 I2.582 J-0.659
N5415 X2.797 Y-3.229 I1.968 J0.853
N5420 X3.843 Y-3.507 I1.047 J1.835
N5425 G1 X4.453
N5430 G3 X4.491 Y-3.498 I-0.003 J0.1 F#104
N5435 X4.547 Y-3.389 I-0.041 J0.091 F#105
N5440 G1 X3.695 Y1.126
N5445 G3 X3.638 Y1.198 I-0.098 J-0.019
N5450 X3.6 Y1.207 I-0.041 J-0.091 F#103
N5455 G1 X3.065 F#100
N5460 G3 X2.148 Y0.824 I0.083 J-1.489
N5465 X1.298 Y-0.518 I1.63 J-1.972
N5470 X1.352 Y-2.256 I2.605 J-0.788
N5475 X2.005 Y-3.088 I1.956 J0.861
N5480 X3.249 Y-3.507 I1.245 J1.642
N5485 G1 X3.843
N5490 G3 X3.881 Y-3.498 I-0.003 J0.1 F#104
N5495 X3.938 Y-3.39 I-0.041 J0.091 F#105
N5500 G1 X3.161 Y1.124
N5505 G3 X3.103 Y1.198 I-0.099 J-0.017
N5510 X3.066 Y1.207 I-0.041 J-0.091 F#103
N5515 G1 X2.531 F#100
N5520 G3 X1.611 Y0.821 I0.088 J-1.498
N5525 X0.749 Y-0.54 I1.654 J-2.002
N5530 X0.772 Y-2.198 I2.615 J-0.792
N5535 G1 X0.889 Y-2.444
N5540 G3 X2.673 Y-3.507 I1.784 J0.966
N5545 G1 X3.249
N5550 G3 X3.287 Y-3.498 I-0.003 J0.1 F#104
N5555 X3.344 Y-3.391 I-0.041 J0.091 F#105
N5560 G1 X2.626 Y1.123
N5565 G3 X2.569 Y1.198 I-0.099 J-0.016
N5570 X2.531 Y1.207 I-0.041 J-0.091 F#103
N5575 G1 X1.996 F#100
N5580 G3 X1.069 Y0.817 I0.091 J-1.513
N5585 X0.197 Y-0.558 I1.672 J-2.024
N5590 X0.216 Y-2.191 I2.59 J-0.787
N5595 G1 X0.333 Y-2.439
N5600 G3 X2.126 Y-3.507 I1.793 J0.971
N5605 G1 X2.673
N5610 G3 X2.711 Y-3.498 I-0.003 J0.1 F#104
N5615 X2.768 Y-3.392 I-0.041 J0.091 F#105
N5620 G1 X2.092 Y1.122
N5625 G3 X2.034 Y1.198 I-0.099 J-0.015
N5630 X1.996 Y1.207 I-0.041 J-0.091 F#103
N5635 G1 X1.462 F#100
N5640 G3 X0.523 Y0.813 I0.09 J-1.527
N5645 X-0.316 Y-0.443 I1.65 J-2.011
N5650 X-0.411 Y-1.928 I2.654 J-0.916
N5655 X1.575 Y-3.507 I1.986 J0.46
N5660 G1 X1.96
N5665 G3 X1.998 Y-3.498 I-0.003 J0.1 F#104
N5670 X2.056 Y-3.396 I-0.041 J0.091 F#105
N5675 G1 X1.558 Y1.118
N5680 G3 X1.5 Y1.198 I-0.099 J-0.011
N5685 X1.462 Y1.207 I-0.041 J-0.091 F#103
N5690 G1 X0.927 F#100
N5695 G3 X-0.025 Y0.81 I0.083 J-1.536
N5700 X-0.867 Y-0.448 I1.653 J-2.017
N5705 X-0.961 Y-1.93 I2.648 J-0.913
N5710 X1.023 Y-3.507 I1.984 J0.459
N5715 G1 X1.426
N5720 G3 X1.464 Y-3.498 I-0.003 J0.1 F#104
N5725 X1.522 Y-3.396 I-0.041 J0.091 F#105
N5730 G1 X1.023 Y1.118
N5735 G3 X0.965 Y1.198 I-0.099 J-0.011
N5740 X0.927 Y1.207 I-0.041 J-0.091 F#103
N5745 G1 X0.392 F#100
N5750 G3 X-0.574 Y0.807 I0.072 J-1.542
N5755 X-1.417 Y-0.451 I1.652 J-2.018
N5760 X-1.511 Y-1.931 I2.645 J-0.912
N5765 X0.471 Y-3.507 I1.982 J0.459
N5770 G1 X0.891
N5775 G3 X0.929 Y-3.498 I-0.003 J0.1 F#104
N5780 X0.987 Y-3.396 I-0.041 J0.091 F#105
N5785 G1 X0.488 Y1.118
N5790 G3 X0.43 Y1.198 I-0.099 J-0.011
N5795 X0.392 Y1.207 I-0.041 J-0.091 F#103
N5800 G1 X-0.178 F#100
N5805 G3 X-1.123 Y0.807 I0.1 J-1.553
N5810 X-2.005 Y-0.579 I1.686 J-2.046
N5815 X-1.986 Y-2.195 I2.558 J-0.777
N5820 G1 X-1.869 Y-2.442
N5825 G3 X-0.08 Y-3.507 I1.788 J0.968
N5830 G1 X0.356
N5835 G3 X0.394 Y-3.498 I-0.003 J0.1 F#104
N5840 X0.452 Y-3.395 I-0.041 J0.091 F#105
N5845 G1 X-0.082 Y1.119
N5850 G3 X-0.14 Y1.198 I-0.099 J-0.012
N5855 X-0.178 Y1.207 I-0.041 J-0.091 F#103
N5860 G1 X-0.713 F#100
N5865 G3 X-1.673 Y0.806 I0.083 J-1.549
N5870 X-2.517 Y-0.453 I1.655 J-2.021
N5875 X-2.611 Y-1.933 I2.645 J-0.912
N5880 X-0.631 Y-3.507 I1.98 J0.458
N5885 G1 X-0.08
N5890 G3 X-0.042 Y-3.498 I-0.003 J0.1 F#104
N5895 X0.015 Y-3.393 I-0.041 J0.091 F#105
N5900 G1 X-0.617 Y1.121
N5905 G3 X-0.675 Y1.198 I-0.099 J-0.014
N5910 X-0.713 Y1.207 I-0.041 J-0.091 F#103
N5915 G1 X-1.247 F#100
N5920 G3 X-2.223 Y0.806 I0.067 J-1.549
N5925 X-3.067 Y-0.454 I1.654 J-2.021
N5930 X-3.161 Y-1.934 I2.644 J-0.912
N5935 X-1.182 Y-3.507 I1.979 J0.458
N5940 G1 X-0.631
N5945 G3 X-0.593 Y-3.498 I-0.003 J0.1 F#104
N5950 X-0.536 Y-3.394 I-0.041 J0.091 F#105
N5955 G1 X-1.152 Y1.121
N5960 G3 X-1.209 Y1.198 I-0.099 J-0.014
N5965 X-1.247 Y1.207 I-0.041 J-0.091 F#103
N5970 G1 X-1.812 F#100
N5975 G3 X-2.772 Y0.806 I0.085 J-1.553
N5980 X-3.617 Y-0.455 I1.657 J-2.023
N5985 X-3.711 Y-1.934 I2.645 J-0.912
N5990 X-1.733 Y-3.507 I1.978 J0.458
N5995 G1 X-1.182
N6000 G3 X-1.144 Y-3.498 I-0.003 J0.1 F#104
N6005 X-1.087 Y-3.393 I-0.041 J0.091 F#105
N6010 G1 X-1.716 Y1.121
N6015 G3 X-1.774 Y1.198 I-0.099 J-0.014
N6020 X-1.812 Y1.207 I-0.041 J-0.091 F#103
N6025 G1 X-2.371 F#100
N6030 G3 X-3.322 Y0.806 I0.095 J-1.555
N6035 X-4.205 Y-0.582 I1.688 J-2.049
N6040 X-4.155 Y-2.29 I2.568 J-0.78
N6045 X-3.52 Y-3.1 I1.911 J0.844
N6050 X-2.31 Y-3.507 I1.211 J1.598
N6055 G1 X-1.733
N6060 G3 X-1.695 Y-3.498 I-0.003 J0.1 F#104
N6065 X-1.637 Y-3.393 I-0.041 J0.091 F#105
N6070 G1 X-2.275 Y1.121
N6075 G3 X-2.333 Y1.198 I-0.099 J-0.014
N6080 X-2.371 Y1.207 I-0.041 J-0.091 F#103
N6085 G1 X-2.905 F#100
N6090 G3 X-3.872 Y0.806 I0.078 J-1.552
N6095 X-4.717 Y-0.456 I1.656 J-2.023
N6100 X-4.829 Y-1.863 I2.672 J-0.922
N6105 X-3.664 Y-3.335 I1.98 J0.37
N6110 G1 X-3.402 Y-3.43
N6115 X-3.129 Y-3.488
N6120 X-2.851 Y-3.507
N6125 X-2.31
N6130 G3 X-2.272 Y-3.498 I-0.003 J0.1 F#104
N6135 X-2.215 Y-3.394 I-0.041 J0.091 F#105
N6140 G1 X-2.809 Y1.12
N6145 G3 X-2.867 Y1.198 I-0.099 J-0.013
N6150 X-2.905 Y1.207 I-0.041 J-0.091 F#103
N6155 G1 X-3.484 F#100
N6160 G3 X-4.422 Y0.807 I0.112 J-1.562
N6165 X-5.308 Y-0.588 I1.699 J-2.059
N6170 X-5.315 Y-2.121 I2.572 J-0.778
N6175 G1 X-5.204 Y-2.38
N6180 G3 X-3.386 Y-3.507 I1.818 J0.904
N6185 G1 X-2.851
N6190 G3 X-2.813 Y-3.498 I-0.003 J0.1 F#104
N6195 X-2.756 Y-3.393 I-0.041 J0.091 F#105
N6200 G1 X-3.388 Y1.121
N6205 G3 X-3.446 Y1.198 I-0.099 J-0.014
N6210 X-3.484 Y1.207 I-0.041 J-0.091 F#103
N6215 G1 X-4.018 F#100
N6220 G3 X-4.973 Y0.805 I0.093 J-1.556
N6225 X-5.82 Y-0.459 I1.662 J-2.029
N6230 X-5.915 Y-1.928 I2.641 J-0.909
N6235 X-3.929 Y-3.507 I1.986 J0.46
N6240 G1 X-3.386
N6245 G3 X-3.348 Y-3.498 I-0.003 J0.1 F#104
N6250 X-3.29 Y-3.393 I-0.041 J0.091 F#105
N6255 G1 X-3.923 Y1.121
N6260 G3 X-3.98 Y1.198 I-0.099 J-0.014
N6265 X-4.018 Y1.207 I-0.041 J-0.091 F#103
N6270 G1 X-4.553 F#100
N6275 G3 X-5.524 Y0.805 I0.075 J-1.554
N6280 X-6.369 Y-0.456 I1.655 J-2.023
N6285 X-6.463 Y-1.932 I2.636 J-0.91
N6290 X-4.482 Y-3.507 I1.981 J0.459
N6295 G1 X-3.929
N6300 G3 X-3.891 Y-3.498 I-0.003 J0.1 F#104
N6305 X-3.834 Y-3.393 I-0.041 J0.091 F#105
N6310 G1 X-4.457 Y1.121
N6315 G3 X-4.515 Y1.198 I-0.099 J-0.014
N6320 X-4.553 Y1.207 I-0.041 J-0.091 F#103
N6325 G1 X-5.132 F#100
N6330 G3 X-6.074 Y0.806 I0.109 J-1.562
N6335 X-6.957 Y-0.581 I1.689 J-2.05
N6340 X-6.937 Y-2.196 I2.557 J-0.777
N6345 G1 X-6.82 Y-2.442
N6350 G3 X-5.033 Y-3.507 I1.787 J0.967
N6355 G1 X-4.633
N6360 G3 X-4.595 Y-3.498 I-0.003 J0.1 F#104
N6365 X-4.537 Y-3.396 I-0.041 J0.091 F#105
N6370 G1 X-5.036 Y1.118
N6375 G3 X-5.094 Y1.198 I-0.099 J-0.011
N6380 X-5.132 Y1.207 I-0.041 J-0.091 F#103
N6385 G1 X-5.666 F#100
N6390 G3 X-6.624 Y0.806 I0.089 J-1.554
N6395 X-7.506 Y-0.581 I1.686 J-2.047
N6400 X-7.487 Y-2.196 I2.557 J-0.777
N6405 X-6.848 Y-3.066 I1.955 J0.766
N6410 X-5.584 Y-3.507 I1.265 J1.595
N6415 G1 X-5.168
N6420 G3 X-5.13 Y-3.498 I-0.003 J0.1 F#104
N6425 X-5.072 Y-3.396 I-0.041 J0.091 F#105
N6430 G1 X-5.57 Y1.118
N6435 G3 X-5.628 Y1.198 I-0.099 J-0.011
N6440 X-5.666 Y1.207 I-0.041 J-0.091 F#103
N6445 G1 X-6.201 F#100
N6450 G3 X-6.808 Y1.048 I0.03 J-1.355
N6455 X-7.797 Y-0.592 I0.864 J-1.638
N6460 X-7.788 Y-0.63 I0.1 J0.003 F#104
N6465 X-7.622 Y-0.655 I0.091 J0.041 F#105
N6470 G1 X-6.129 Y1.041
N6475 G3 X-6.163 Y1.198 I-0.075 J0.066
N6480 X-6.201 Y1.207 I-0.041 J-0.091 F#103
N6485 G1 X-6.736 F#100
N6490 X-6.814 Y1.203
N6495 X-6.855 Y1.199
N6500 X-6.894 Y1.194
N6505 X-6.941 Y1.185
N6510 X-7.174 Y1.104
N6515 X-7.382 Y0.972
N6520 X-7.557 Y0.798
N6525 X-7.688 Y0.589
N6530 X-7.769 Y0.356
N6535 X-7.797 Y0.111
N6540 G3 X-7.788 Y0.073 I0.1 J0.003 F#104
N6545 X-7.625 Y0.045 I0.091 J0.041 F#105
N6550 G1 X-6.667 Y1.038
N6555 G3 X-6.698 Y1.198 I-0.072 J0.069
N6560 X-6.736 Y1.207 I-0.041 J-0.091 F#103
N6565 X-7.238 Y1.202 I-0.208 J-4.45 F#100
N6570 X-7.662 Y0.977 I0.098 J-0.699
N6575 X-7.681 Y0.943 I0.076 J-0.065 F#104
N6580 X-7.544 Y0.822 I0.095 J-0.03 F#100
N6585 G1 X-7.13 Y1.016
N6590 G3 X-7.17 Y1.207 I-0.042 J0.091
N6595 X-7.796 Y0.535 I-0.015 J-0.614
N6600 G1 X-7.797 Y-2.014
N6605 X-7.791 Y-2.13
N6610 X-7.785 Y-2.191
N6615 X-7.724 Y-2.457
N6620 X-7.616 Y-2.707
N6625 X-7.465 Y-2.935
N6630 X-7.277 Y-3.132
N6635 X-7.056 Y-3.292
N6640 X-6.81 Y-3.41
N6645 X-6.547 Y-3.483
N6650 X-6.275 Y-3.507
N6655 G3 X-6.237 Y-3.498 I-0.003 J0.1 F#104
N6660 X-6.208 Y-3.336 I-0.041 J0.091 F#105
N6665 G1 X-7.627 Y-1.946
N6670 G3 X-7.788 Y-1.976 I-0.07 J-0.071
N6675 X-7.797 Y-2.014 I0.091 J-0.041 F#103
N6680 G1 Y-2.593 F#100
N6685 X-7.794 Y-2.657
N6690 X-7.79 Y-2.698
N6695 X-7.733 Y-2.914
N6700 X-7.627 Y-3.111
N6705 X-7.477 Y-3.276
N6710 X-7.292 Y-3.402
N6715 X-7.083 Y-3.48
N6720 X-6.861 Y-3.507
N6725 G3 X-6.823 Y-3.498 I-0.003 J0.1 F#104
N6730 X-6.795 Y-3.335 I-0.041 J0.091 F#105
N6735 G1 X-7.627 Y-2.525
N6740 G3 X-7.788 Y-2.555 I-0.07 J-0.072
N6745 X-7.797 Y-2.593 I0.091 J-0.041 F#103
N6750 G1 Y-2.851 F#100
N6755 G3 X-7.128 Y-3.507 I0.617 J-0.039
N6760 G1 X-5.702
N6765 G3 X-5.664 Y-3.498 I-0.003 J0.1 F#104
N6770 G1 X-5.63 Y-3.482 Z-4.992
N6775 X-5.6 Y-3.469 Z-4.971
N6780 X-5.58 Y-3.46 Z-4.938
N6785 X-5.573 Y-3.457 Z-4.9
N6790 G0 Z4.
(2D ADAPTIVE1 3)
N6800 M8
N6805 G0 X3.904 Y-2.607
N6810 #100=1000. (CUTTING)
N6815 #103=1000. (ENTRY)
N6820 #104=1000. (EXIT)
N6825 #105=30000. (DIRECT)
N6830 #107=800. (RAMPING)
N6835 Z4.
N6840 Z-1.895
N6845 G1 Z-1.995 F#103
N6850 G3 X6.789 Y0.307 Z-2.333 I1.442 J1.457 F#107
N6855 X3.904 Y-2.607 Z-2.67 I-1.442 J-1.457
N6860 X6.789 Y0.307 Z-3.008 I1.442 J1.457
N6865 X3.904 Y-2.607 Z-3.345 I-1.442 J-1.457
N6870 X6.789 Y0.307 Z-3.683 I1.442 J1.457
N6875 X3.904 Y-2.607 Z-4.021 I-1.442 J-1.457
N6880 X6.789 Y0.307 Z-4.358 I1.442 J1.457
N6885 X3.904 Y-2.607 Z-4.696 I-1.442 J-1.457
N6890 X6.789 Y0.307 Z-5.034 I1.442 J1.457
N6895 X3.904 Y-2.607 Z-5.371 I-1.442 J-1.457
N6900 X6.789 Y0.307 Z-5.709 I1.442 J1.457
N6905 X3.904 Y-2.607 Z-6.046 I-1.442 J-1.457
N6910 X6.789 Y0.307 Z-6.384 I1.442 J1.457
N6915 X3.904 Y-2.607 Z-6.722 I-1.442 J-1.457
N6920 X6.789 Y0.307 Z-7.059 I1.442 J1.457
N6925 X3.904 Y-2.607 Z-7.397 I-1.442 J-1.457
N6930 X6.789 Y0.307 Z-7.734 I1.442 J1.457
N6935 X3.904 Y-2.607 Z-8.072 I-1.442 J-1.457
N6940 X6.789 Y0.307 Z-8.41 I1.442 J1.457
N6945 X3.904 Y-2.607 Z-8.747 I-1.442 J-1.457
N6950 X7.397 Y-1.15 Z-9. I1.442 J1.457
N6955 X3.295 I-2.051 J0.
N6960 X7.397 I2.051 J0.
N6965 G2 X7.445 Y-0.507 I2.804 J0.114 F#100
N6970 G3 X7.235 Y0.32 I-1.438 J0.076
N6975 G1 X7.082 Y0.54
N6980 G3 X5.67 Y1.207 I-1.412 J-1.161
N6985 G1 X4.99
N6990 G3 X3.204 Y0.183 I0.056 J-2.168
N6995 X3.096 Y-2.349 I2.045 J-1.355
N7000 X5.095 Y-3.507 I2.001 J1.148
N7005 G1 X5.702
N7010 G3 X6.995 Y-3.026 I-0.025 J2.047
N7015 X7.797 Y-1.304 I-1.452 J1.724
N7020 X7.788 Y-1.266 I-0.1 J-0.003 F#104
N7025 X7.624 Y-1.238 I-0.091 J-0.041 F#105
N7030 G1 X5.633 Y-3.338
N7035 G3 X5.664 Y-3.498 I0.073 J-0.069
N7040 X5.702 Y-3.507 I0.041 J0.091 F#103
N7045 G1 X6.469 F#100
N7050 G3 X6.833 Y-3.451 I-0.02 J1.34
N7055 G1 X7.063 Y-3.353
N7060 X7.272 Y-3.216
N7065 X7.452 Y-3.043
N7070 X7.599 Y-2.841
N7075 X7.708 Y-2.616
N7080 X7.775 Y-2.376
N7085 X7.797 Y-2.127
N7090 G3 X7.788 Y-2.089 I-0.1 J-0.003 F#104
N7095 X7.625 Y-2.061 I-0.091 J-0.041 F#105
N7100 G1 X6.4 Y-3.338
N7105 G3 X6.431 Y-3.498 I0.072 J-0.069
N7110 X6.469 Y-3.507 I0.041 J0.091 F#103
N7115 G1 X6.98 F#100
N7120 X7.037 Y-3.504
N7125 X7.276 Y-3.445
N7130 X7.489 Y-3.319
N7135 X7.655 Y-3.136
N7140 X7.761 Y-2.913
N7145 X7.797 Y-2.669
N7150 G3 X7.788 Y-2.631 I-0.1 J-0.003 F#104
N7155 X7.625 Y-2.603 I-0.091 J-0.041 F#105
N7160 G1 X6.911 Y-3.337
N7165 G3 X6.942 Y-3.498 I0.072 J-0.07
N7170 X6.98 Y-3.507 I0.041 J0.091 F#103
N7175 X7.396 Y-3.473 I0.108 J1.231 F#100
N7180 X7.797 Y-2.851 I-0.226 J0.587
N7185 G1 Y-0.302
N7190 X7.792 Y-0.197
N7195 X7.747 Y0.053
N7200 X7.663 Y0.292
N7205 X7.54 Y0.515
N7210 X7.383 Y0.714
N7215 X7.195 Y0.885
N7220 X6.982 Y1.023
N7225 X6.749 Y1.124
N7230 X6.502 Y1.186
N7235 X6.249 Y1.207
N7240 G3 X6.211 Y1.198 I0.003 J-0.1 F#104
N7245 X6.183 Y1.035 I0.041 J-0.091 F#105
N7250 G1 X7.627 Y-0.371
N7255 G3 X7.788 Y-0.34 I0.07 J0.072
N7260 X7.797 Y-0.302 I-0.091 J0.041 F#103
N7265 G1 Y0.276 F#100
N7270 X7.793 Y0.35
N7275 X7.79 Y0.387
N7280 X7.785 Y0.423
N7285 X7.702 Y0.674
N7290 X7.552 Y0.893
N7295 X7.349 Y1.063
N7300 X7.107 Y1.17
N7305 X6.844 Y1.207
N7310 G3 X6.806 Y1.198 I0.003 J-0.1 F#104
N7315 X6.778 Y1.035 I0.041 J-0.091 F#105
N7320 G1 X7.627 Y0.208
N7325 G3 X7.788 Y0.238 I0.07 J0.072
N7330 X7.797 Y0.276 I-0.091 J0.041 F#103
N7335 G1 Y0.535 F#100
N7340 G3 X7.128 Y1.207 I-0.617 J0.055
N7345 G1 X5.67
N7350 X5.657 Y1.206 F#104
N7355 X5.632 Y1.196
N7360 X5.062 Y0.98 F#105
N7365 G2 X4.932 Y1.04 I-0.035 J0.094
N7370 X4.995 Y1.168 I0.094 J0.033
N7375 G3 X5.007 Y1.179 I-0.006 J0.019
N7380 X4.99 Y1.207 I-0.018 J0.008 F#103
N7385 G1 X4.223 F#100
N7390 G3 X3.118 Y0.733 I0.063 J-1.672
N7395 X2.304 Y-0.83 I1.671 J-1.864
N7400 X2.548 Y-2.39 I2.455 J-0.415
N7405 X3.943 Y-3.447 I1.92 J1.085
N7410 G1 X4.196 Y-3.492
N7415 X4.453 Y-3.507
N7420 X5.095
N7425 G3 X5.133 Y-3.498 I-0.003 J0.1 F#104
N7430 X5.189 Y-3.388 I-0.041 J0.091 F#105
N7435 G1 X4.318 Y1.126
N7440 G3 X4.261 Y1.198 I-0.098 J-0.019
N7445 X4.223 Y1.207 I-0.041 J-0.091 F#103
N7450 G1 X3.6 F#100
N7455 G3 X2.675 Y0.82 I0.092 J-1.521
N7460 X1.811 Y-0.618 I1.623 J-1.953
N7465 X1.903 Y-2.225 I2.582 J-0.659
N7470 X2.797 Y-3.229 I1.968 J0.853
N7475 X3.843 Y-3.507 I1.047 J1.835
N7480 G1 X4.453
N7485 G3 X4.491 Y-3.498 I-0.003 J0.1 F#104
N7490 X4.547 Y-3.389 I-0.041 J0.091 F#105
N7495 G1 X3.695 Y1.126
N7500 G3 X3.638 Y1.198 I-0.098 J-0.019
N7505 X3.6 Y1.207 I-0.041 J-0.091 F#103
N7510 G1 X3.065 F#100
N7515 G3 X2.148 Y0.824 I0.083 J-1.489
N7520 X1.298 Y-0.518 I1.63 J-1.972
N7525 X1.352 Y-2.256 I2.605 J-0.788
N7530 X2.005 Y-3.088 I1.956 J0.861
N7535 X3.249 Y-3.507 I1.245 J1.642
N7540 G1 X3.843
N7545 G3 X3.881 Y-3.498 I-0.003 J0.1 F#104
N7550 X3.938 Y-3.39 I-0.041 J0.091 F#105
N7555 G1 X3.161 Y1.124
N7560 G3 X3.103 Y1.198 I-0.099 J-0.017
N7565 X3.066 Y1.207 I-0.041 J-0.091 F#103
N7570 G1 X2.531 F#100
N7575 G3 X1.611 Y0.821 I0.088 J-1.498
N7580 X0.749 Y-0.54 I1.654 J-2.002
N7585 X0.772 Y-2.198 I2.615 J-0.792
N7590 G1 X0.889 Y-2.444
N7595 G3 X2.673 Y-3.507 I1.784 J0.966
N7600 G1 X3.249
N7605 G3 X3.287 Y-3.498 I-0.003 J0.1 F#104
N7610 X3.344 Y-3.391 I-0.041 J0.091 F#105
N7615 G1 X2.626 Y1.123
N7620 G3 X2.569 Y1.198 I-0.099 J-0.016
N7625 X2.531 Y1.207 I-0.041 J-0.091 F#103
N7630 G1 X1.996 F#100
N7635 G3 X1.069 Y0.817 I0.091 J-1.513
N7640 X0.197 Y-0.558 I1.672 J-2.024
N7645 X0.216 Y-2.191 I2.59 J-0.787
N7650 G1 X0.333 Y-2.439
N7655 G3 X2.126 Y-3.507 I1.793 J0.971
N7660 G1 X2.673
N7665 G3 X2.711 Y-3.498 I-0.003 J0.1 F#104
N7670 X2.768 Y-3.392 I-0.041 J0.091 F#105
N7675 G1 X2.092 Y1.122
N7680 G3 X2.034 Y1.198 I-0.099 J-0.015
N7685 X1.996 Y1.207 I-0.041 J-0.091 F#103
N7690 G1 X1.462 F#100
N7695 G3 X0.523 Y0.813 I0.09 J-1.527
N7700 X-0.316 Y-0.443 I1.65 J-2.011
N7705 X-0.411 Y-1.928 I2.654 J-0.916
N7710 X1.575 Y-3.507 I1.986 J0.46
N7715 G1 X1.96
N7720 G3 X1.998 Y-3.498 I-0.003 J0.1 F#104
N7725 X2.056 Y-3.396 I-0.041 J0.091 F#105
N7730 G1 X1.558 Y1.118
N7735 G3 X1.5 Y1.198 I-0.099 J-0.011
N7740 X1.462 Y1.207 I-0.041 J-0.091 F#103
N7745 G1 X0.927 F#100
N7750 G3 X-0.025 Y0.81 I0.083 J-1.536
N7755 X-0.867 Y-0.448 I1.653 J-2.017
N7760 X-0.961 Y-1.93 I2.648 J-0.913
N7765 X1.023 Y-3.507 I1.984 J0.459
N7770 G1 X1.426
N7775 G3 X1.464 Y-3.498 I-0.003 J0.1 F#104
N7780 X1.522 Y-3.396 I-0.041 J0.091 F#105
N7785 G1 X1.023 Y1.118
N7790 G3 X0.965 Y1.198 I-0.099 J-0.011
N7795 X0.927 Y1.207 I-0.041 J-0.091 F#103
N7800 G1 X0.392 F#100
N7805 G3 X-0.574 Y0.807 I0.072 J-1.542
N7810 X-1.417 Y-0.451 I1.652 J-2.018
N7815 X-1.511 Y-1.931 I2.645 J-0.912
N7820 X0.471 Y-3.507 I1.982 J0.459
N7825 G1 X0.891
N7830 G3 X0.929 Y-3.498 I-0.003 J0.1 F#104
N7835 X0.987 Y-3.396 I-0.041 J0.091 F#105
N7840 G1 X0.488 Y1.118
N7845 G3 X0.43 Y1.198 I-0.099 J-0.011
N7850 X0.392 Y1.207 I-0.041 J-0.091 F#103
N7855 G1 X-0.178 F#100
N7860 G3 X-1.123 Y0.807 I0.1 J-1.553
N7865 X-2.005 Y-0.579 I1.686 J-2.046
N7870 X-1.986 Y-2.195 I2.558 J-0.777
N7875 G1 X-1.869 Y-2.442
N7880 G3 X-0.08 Y-3.507 I1.788 J0.968
N7885 G1 X0.356
N7890 G3 X0.394 Y-3.498 I-0.003 J0.1 F#104
N7895 X0.452 Y-3.395 I-0.041 J0.091 F#105
N7900 G1 X-0.082 Y1.119
N7905 G3 X-0.14 Y1.198 I-0.099 J-0.012
N7910 X-0.178 Y1.207 I-0.041 J-0.091 F#103
N7915 G1 X-0.713 F#100
N7920 G3 X-1.673 Y0.806 I0.083 J-1.549
N7925 X-2.517 Y-0.453 I1.655 J-2.021
N7930 X-2.611 Y-1.933 I2.645 J-0.912
N7935 X-0.631 Y-3.507 I1.98 J0.458
N7940 G1 X-0.08
N7945 G3 X-0.042 Y-3.498 I-0.003 J0.1 F#104
N7950 X0.015 Y-3.393 I-0.041 J0.091 F#105
N7955 G1 X-0.617 Y1.121
N7960 G3 X-0.675 Y1.198 I-0.099 J-0.014
N7965 X-0.713 Y1.207 I-0.041 J-0.091 F#103
N7970 G1 X-1.247 F#100
N7975 G3 X-2.223 Y0.806 I0.067 J-1.549
N7980 X-3.067 Y-0.454 I1.654 J-2.021
N7985 X-3.161 Y-1.934 I2.644 J-0.912
N7990 X-1.182 Y-3.507 I1.979 J0.458
N7995 G1 X-0.631
N8000 G3 X-0.593 Y-3.498 I-0.003 J0.1 F#104
N8005 X-0.536 Y-3.394 I-0.041 J0.091 F#105
N8010 G1 X-1.152 Y1.121
N8015 G3 X-1.209 Y1.198 I-0.099 J-0.014
N8020 X-1.247 Y1.207 I-0.041 J-0.091 F#103
N8025 G1 X-1.812 F#100
N8030 G3 X-2.772 Y0.806 I0.085 J-1.553
N8035 X-3.617 Y-0.455 I1.657 J-2.023
N8040 X-3.711 Y-1.934 I2.645 J-0.912
N8045 X-1.733 Y-3.507 I1.978 J0.458
N8050 G1 X-1.182
N8055 G3 X-1.144 Y-3.498 I-0.003 J0.1 F#104
N8060 X-1.087 Y-3.393 I-0.041 J0.091 F#105
N8065 G1 X-1.716 Y1.121
N8070 G3 X-1.774 Y1.198 I-0.099 J-0.014
N8075 X-1.812 Y1.207 I-0.041 J-0.091 F#103
N8080 G1 X-2.371 F#100
N8085 G3 X-3.322 Y0.806 I0.095 J-1.555
N8090 X-4.205 Y-0.582 I1.688 J-2.049
N8095 X-4.155 Y-2.29 I2.568 J-0.78
N8100 X-3.52 Y-3.1 I1.911 J0.844
N8105 X-2.31 Y-3.507 I1.211 J1.598
N8110 G1 X-1.733
N8115 G3 X-1.695 Y-3.498 I-0.003 J0.1 F#104
N8120 X-1.637 Y-3.393 I-0.041 J0.091 F#105
N8125 G1 X-2.275 Y1.121
N8130 G3 X-2.333 Y1.198 I-0.099 J-0.014
N8135 X-2.371 Y1.207 I-0.041 J-0.091 F#103
N8140 G1 X-2.905 F#100
N8145 G3 X-3.872 Y0.806 I0.078 J-1.552
N8150 X-4.717 Y-0.456 I1.656 J-2.023
N8155 X-4.829 Y-1.863 I2.672 J-0.922
N8160 X-3.664 Y-3.335 I1.98 J0.37
N8165 G1 X-3.402 Y-3.43
N8170 X-3.129 Y-3.488
N8175 X-2.851 Y-3.507
N8180 X-2.31
N8185 G3 X-2.272 Y-3.498 I-0.003 J0.1 F#104
N8190 X-2.215 Y-3.394 I-0.041 J0.091 F#105
N8195 G1 X-2.809 Y1.12
N8200 G3 X-2.867 Y1.198 I-0.099 J-0.013
N8205 X-2.905 Y1.207 I-0.041 J-0.091 F#103
N8210 G1 X-3.484 F#100
N8215 G3 X-4.422 Y0.807 I0.112 J-1.562
N8220 X-5.308 Y-0.588 I1.699 J-2.059
N8225 X-5.315 Y-2.121 I2.572 J-0.778
N8230 G1 X-5.204 Y-2.38
N8235 G3 X-3.386 Y-3.507 I1.818 J0.904
N8240 G1 X-2.851
N8245 G3 X-2.813 Y-3.498 I-0.003 J0.1 F#104
N8250 X-2.756 Y-3.393 I-0.041 J0.091 F#105
N8255 G1 X-3.388 Y1.121
N8260 G3 X-3.446 Y1.198 I-0.099 J-0.014
N8265 X-3.484 Y1.207 I-0.041 J-0.091 F#103
N8270 G1 X-4.018 F#100
N8275 G3 X-4.973 Y0.805 I0.093 J-1.556
N8280 X-5.82 Y-0.459 I1.662 J-2.029
N8285 X-5.915 Y-1.928 I2.641 J-0.909
N8290 X-3.929 Y-3.507 I1.986 J0.46
N8295 G1 X-3.386
N8300 G3 X-3.348 Y-3.498 I-0.003 J0.1 F#104
N8305 X-3.29 Y-3.393 I-0.041 J0.091 F#105
N8310 G1 X-3.923 Y1.121
N8315 G3 X-3.98 Y1.198 I-0.099 J-0.014
N8320 X-4.018 Y1.207 I-0.041 J-0.091 F#103
N8325 G1 X-4.553 F#100
N8330 G3 X-5.524 Y0.805 I0.075 J-1.554
N8335 X-6.369 Y-0.456 I1.655 J-2.023
N8340 X-6.463 Y-1.932 I2.636 J-0.91
N8345 X-4.482 Y-3.507 I1.981 J0.459
N8350 G1 X-3.929
N8355 G3 X-3.891 Y-3.498 I-0.003 J0.1 F#104
N8360 X-3.834 Y-3.393 I-0.041 J0.091 F#105
N8365 G1 X-4.457 Y1.121
N8370 G3 X-4.515 Y1.198 I-0.099 J-0.014
N8375 X-4.553 Y1.207 I-0.041 J-0.091 F#103
N8380 G1 X-5.132 F#100
N8385 G3 X-6.074 Y0.806 I0.109 J-1.562
N8390 X-6.957 Y-0.581 I1.689 J-2.05
N8395 X-6.937 Y-2.196 I2.557 J-0.777
N8400 G1 X-6.82 Y-2.442
N8405 G3 X-5.033 Y-3.507 I1.787 J0.967
N8410 G1 X-4.633
N8415 G3 X-4.595 Y-3.498 I-0.003 J0.1 F#104
N8420 X-4.537 Y-3.396 I-0.041 J0.091 F#105
N8425 G1 X-5.036 Y1.118
N8430 G3 X-5.094 Y1.198 I-0.099 J-0.011
N8435 X-5.132 Y1.207 I-0.041 J-0.091 F#103
N8440 G1 X-5.666 F#100
N8445 G3 X-6.624 Y0.806 I0.089 J-1.554
N8450 X-7.506 Y-0.581 I1.686 J-2.047
N8455 X-7.487 Y-2.196 I2.557 J-0.777
N8460 X-6.848 Y-3.066 I1.955 J0.766
N8465 X-5.584 Y-3.507 I1.265 J1.595
N8470 G1 X-5.168
N8475 G3 X-5.13 Y-3.498 I-0.003 J0.1 F#104
N8480 X-5.072 Y-3.396 I-0.041 J0.091 F#105
N8485 G1 X-5.57 Y1.118
N8490 G3 X-5.628 Y1.198 I-0.099 J-0.011
N8495 X-5.666 Y1.207 I-0.041 J-0.091 F#103
N8500 G1 X-6.201 F#100
N8505 G3 X-6.808 Y1.048 I0.03 J-1.355
N8510 X-7.797 Y-0.592 I0.864 J-1.638
N8515 X-7.788 Y-0.63 I0.1 J0.003 F#104
N8520 X-7.622 Y-0.655 I0.091 J0.041 F#105
N8525 G1 X-6.129 Y1.041
N8530 G3 X-6.163 Y1.198 I-0.075 J0.066
N8535 X-6.201 Y1.207 I-0.041 J-0.091 F#103
N8540 G1 X-6.736 F#100
N8545 X-6.814 Y1.203
N8550 X-6.855 Y1.199
N8555 X-6.894 Y1.194
N8560 X-6.941 Y1.185
N8565 X-7.174 Y1.104
N8570 X-7.382 Y0.972
N8575 X-7.557 Y0.798
N8580 X-7.688 Y0.589
N8585 X-7.769 Y0.356
N8590 X-7.797 Y0.111
N8595 G3 X-7.788 Y0.073 I0.1 J0.003 F#104
N8600 X-7.625 Y0.045 I0.091 J0.041 F#105
N8605 G1 X-6.667 Y1.038
N8610 G3 X-6.698 Y1.198 I-0.072 J0.069
N8615 X-6.736 Y1.207 I-0.041 J-0.091 F#103
N8620 X-7.238 Y1.202 I-0.208 J-4.45 F#100
N8625 X-7.662 Y0.977 I0.098 J-0.699
N8630 X-7.681 Y0.943 I0.076 J-0.065 F#104
N8635 X-7.544 Y0.822 I0.095 J-0.03 F#100
N8640 G1 X-7.13 Y1.016
N8645 G3 X-7.17 Y1.207 I-0.042 J0.091
N8650 X-7.796 Y0.535 I-0.015 J-0.614
N8655 G1 X-7.797 Y-2.014
N8660 X-7.791 Y-2.13
N8665 X-7.785 Y-2.191
N8670 X-7.724 Y-2.457
N8675 X-7.616 Y-2.707
N8680 X-7.465 Y-2.935
N8685 X-7.277 Y-3.132
N8690 X-7.056 Y-3.292
N8695 X-6.81 Y-3.41
N8700 X-6.547 Y-3.483
N8705 X-6.275 Y-3.507
N8710 G3 X-6.237 Y-3.498 I-0.003 J0.1 F#104
N8715 X-6.208 Y-3.336 I-0.041 J0.091 F#105
N8720 G1 X-7.627 Y-1.946
N8725 G3 X-7.788 Y-1.976 I-0.07 J-0.071
N8730 X-7.797 Y-2.014 I0.091 J-0.041 F#103
N8735 G1 Y-2.593 F#100
N8740 X-7.794 Y-2.657
N8745 X-7.79 Y-2.698
N8750 X-7.733 Y-2.914
N8755 X-7.627 Y-3.111
N8760 X-7.477 Y-3.276
N8765 X-7.292 Y-3.402
N8770 X-7.083 Y-3.48
N8775 X-6.861 Y-3.507
N8780 G3 X-6.823 Y-3.498 I-0.003 J0.1 F#104
N8785 X-6.795 Y-3.335 I-0.041 J0.091 F#105
N8790 G1 X-7.627 Y-2.525
N8795 G3 X-7.788 Y-2.555 I-0.07 J-0.072
N8800 X-7.797 Y-2.593 I0.091 J-0.041 F#103
N8805 G1 Y-2.851 F#100
N8810 G3 X-7.128 Y-3.507 I0.617 J-0.039
N8815 G1 X-5.702
N8820 G3 X-5.664 Y-3.498 I-0.003 J0.1 F#104
N8825 G1 X-5.63 Y-3.482 Z-8.992
N8830 X-5.6 Y-3.469 Z-8.971
N8835 X-5.58 Y-3.46 Z-8.938
N8840 X-5.573 Y-3.457 Z-8.9
N8845 G0 Z4.
(2D POCKET1)
N8855 M8
N8860 G0 X-7.447 Y9.829
N8865 #100=1000. (CUTTING)
N8870 #103=1000. (ENTRY)
N8875 #104=1000. (EXIT)
N8880 #106=250. (REDUCED)
N8885 Z4.
N8890 Z3.095
N8895 G1 Z-1.705 F#103
N8900 X-7.454 Y9.83 Z-1.798
N8905 X-7.476 Y9.832 Z-1.889
N8910 X-7.511 Y9.835 Z-1.975
N8915 X-7.56 Y9.84 Z-2.055
N8920 X-7.62 Y9.846 Z-2.126
N8925 X-7.691 Y9.853 Z-2.186
N8930 X-7.77 Y9.861 Z-2.235
N8935 X-7.856 Y9.869 Z-2.271
N8940 X-7.946 Y9.878 Z-2.293
N8945 X-8.039 Y9.887 Z-2.3
N8950 X-9.008 Y9.983
N8955 G3 X-9.185 Y10. I-2.241 J-22.705 F#100
N8960 X-9.563 Y9.735 I-0.032 J-0.356
N8965 X-9.119 Y9.406 I0.288 J-0.076
N8970 G1 X-7.705 Y10.275
N8975 G3 X-7.862 Y10.826 I-0.156 J0.254
N8980 G1 X-8.475 Y10.823
N8985 G2 X-9.265 Y10.889 I0. J4.74
N8990 X-10.043 Y11.044 I2.321 J13.724
N8995 G3 X-10.33 Y10.825 I-0.052 J-0.229 F#106
N9000 G2 X-10.426 Y9.896 I-7.745 J0.331 F#100
N9005 X-10.505 Y9.525 I-4.233 J0.697
N9010 G3 X-10.053 Y9.202 I0.288 J-0.074
N9015 G1 X-6.967 Y11.227
N9020 G3 X-7.131 Y11.773 I-0.163 J0.249
N9025 G1 X-8.475
N9030 G2 X-10.397 Y12.08 I0. J6.175
N9035 X-11.485 Y12.556 I1.922 J5.868 F#106
N9040 X-11.511 Y9.477 I-4.321 J-1.504 F#100
N9045 G1 X-11.655 Y9.084 F#104
N9050 X-11.687 Y8.997 Z-2.293
N9055 X-11.718 Y8.912 Z-2.271
N9060 X-11.748 Y8.831 Z-2.235
N9065 X-11.775 Y8.756 Z-2.186
N9070 X-11.8 Y8.689 Z-2.126
N9075 X-11.82 Y8.632 Z-2.055
N9080 X-11.837 Y8.587 Z-1.975
N9085 X-11.85 Y8.553 Z-1.889
N9090 X-11.857 Y8.533 Z-1.798
N9095 X-11.86 Y8.526 Z-1.705
N9100 G0 Z4.
N9105 X-10.086 Y-6.406
N9110 Z3.095
N9115 G1 Z-1.705 F#103
N9120 X-10.084 Y-6.413 Z-1.798
N9125 X-10.078 Y-6.434 Z-1.889
N9130 X-10.067 Y-6.468 Z-1.975
N9135 X-10.054 Y-6.515 Z-2.055
N9140 X-10.036 Y-6.573 Z-2.126
N9145 X-10.016 Y-6.641 Z-2.186
N9150 X-9.993 Y-6.718 Z-2.235
N9155 X-9.969 Y-6.8 Z-2.271
N9160 X-9.943 Y-6.887 Z-2.293
N9165 X-9.917 Y-6.977 Z-2.3
N9170 X-9.8 Y-7.371
N9175 G2 X-9.76 Y-7.52 I-2.509 J-0.744 F#100
N9180 G3 X-9.696 Y-7.786 I14.583 J3.406
N9185 X-9.296 Y-8.081 I0.379 J0.096
N9190 G2 X-7.216 Y-8.027 I2.08 J-40.055
N9195 G1 X-6.953
N9200 G3 X-6.933 Y-7.433 I0. J0.298
N9205 G1 X-10.344 Y-7.203
N9210 G3 X-10.647 Y-7.593 I-0.02 J-0.297
N9215 G2 X-10.503 Y-8.192 I-3.478 J-1.152
N9220 X-10.422 Y-8.856 I-10.748 J-1.64
N9225 G3 X-10.102 Y-9.093 I0.265 J0.024 F#106
N9230 G2 X-9.534 Y-8.985 I2.909 J-13.713 F#100
N9235 X-8.957 Y-8.936 I0.576 J-3.403
N9240 G1 X-5.91 Y-8.944
N9245 G3 X-5.612 Y-8.645 I0.001 J0.297
N9250 X-5.912 Y-8.349 I-0.297 J-0.001
N9255 G1 X-8.729 Y-8.38
N9260 G2 X-8.879 Y-8.341 I-0.003 J0.297
N9265 G1 X-10.364 Y-7.5
N9270 G3 X-10.544 Y-7.463 I-0.147 J-0.259
N9275 G1 X-11.281 Y-7.545
N9280 G3 X-11.531 Y-7.933 I0.033 J-0.296
N9285 G2 X-11.306 Y-9.469 I-4.349 J-1.421
N9290 X-11.489 Y-10.642 I-4.574 J0.114 F#106
N9295 X-8.957 Y-9.877 I2.532 J-3.81 F#100
N9300 G1 X-5.278
N9305 G3 X-5.185 Y-9.87 I0. J0.595 F#104
N9310 G1 X-4.863 Y-9.819
N9315 X-4.771 Y-9.804 Z-2.293
N9320 X-4.682 Y-9.79 Z-2.271
N9325 X-4.597 Y-9.777 Z-2.235
N9330 X-4.518 Y-9.764 Z-2.186
N9335 X-4.448 Y-9.753 Z-2.126
N9340 X-4.388 Y-9.743 Z-2.055
N9345 X-4.34 Y-9.736 Z-1.975
N9350 X-4.304 Y-9.73 Z-1.889
N9355 X-4.283 Y-9.727 Z-1.798
N9360 X-4.276 Y-9.726 Z-1.705
N9365 G0 Z4.
N9370 X5.343 Y-8.064
N9375 Z3.095
N9380 G1 Z-1.705 F#103
N9385 X5.351 Z-1.798
N9390 X5.373 Z-1.889
N9395 X5.408 Z-1.975
N9400 X5.457 Z-2.055
N9405 X5.518 Z-2.126
N9410 X5.589 Z-2.186
N9415 X5.668 Z-2.235
N9420 X5.755 Z-2.271
N9425 X5.845 Z-2.293
N9430 X5.938 Z-2.3
N9435 X6.889 Y-8.063
N9440 X8.957 Y-8.061 F#100
N9445 G2 X9.127 Y-8.069 I0. J-1.895
N9450 G3 X9.296 Y-8.081 I0.403 J4.49
N9455 X9.696 Y-7.786 I0.02 J0.391
N9460 X9.76 Y-7.52 I-14.518 J3.672
N9465 G2 X9.8 Y-7.371 I2.549 J-0.595
N9470 G3 X9.409 Y-7.008 I-0.285 J0.085
N9475 G1 X5.811 Y-8.368
N9480 G3 X5.917 Y-8.944 I0.105 J-0.278
N9485 G1 X8.957 Y-8.936
N9490 G2 X9.534 Y-8.985 I0. J-3.452
N9495 X10.102 Y-9.093 I-2.341 J-13.821
N9500 G3 X10.422 Y-8.856 I0.055 J0.261 F#106
N9505 G2 X10.503 Y-8.192 I10.828 J-0.977 F#100
N9510 X10.647 Y-7.593 I3.622 J-0.553
N9515 G3 X10.167 Y-7.277 I-0.282 J0.094
N9520 G1 X9.049 Y-8.268
N9525 G2 X8.882 Y-8.341 I-0.197 J0.223
N9530 G1 X5.916 Y-8.646
N9535 G3 X5.743 Y-8.725 I0.03 J-0.296
N9540 G1 X5.065 Y-9.363
N9545 G3 X5.269 Y-9.877 I0.204 J-0.217
N9550 G1 X8.957
N9555 G2 X10.424 Y-10.119 I0. J-4.575
N9560 X11.489 Y-10.642 I-1.467 J-4.333 F#106
N9565 X11.532 Y-7.931 I4.39 J1.287 F#100
N9570 G1 X11.662 Y-7.534 F#104
N9575 X11.691 Y-7.445 Z-2.293
N9580 X11.719 Y-7.359 Z-2.271
N9585 X11.746 Y-7.277 Z-2.235
N9590 X11.771 Y-7.201 Z-2.186
N9595 X11.793 Y-7.134 Z-2.126
N9600 X11.812 Y-7.076 Z-2.055
N9605 X11.827 Y-7.03 Z-1.975
N9610 X11.838 Y-6.996 Z-1.889
N9615 X11.845 Y-6.975 Z-1.798
N9620 X11.847 Y-6.968 Z-1.705
N9625 G0 Z4.
N9630 X9.853 Y8.607
N9635 Z3.095
N9640 G1 Z-1.705 F#103
N9645 X9.851 Y8.614 Z-1.798
N9650 X9.845 Y8.635 Z-1.889
N9655 X9.836 Y8.67 Z-1.975
N9660 X9.824 Y8.717 Z-2.055
N9665 X9.809 Y8.776 Z-2.126
N9670 X9.792 Y8.845 Z-2.186
N9675 X9.772 Y8.922 Z-2.235
N9680 X9.75 Y9.005 Z-2.271
N9685 X9.728 Y9.093 Z-2.293
N9690 X9.705 Y9.183 Z-2.3
N9695 X9.563 Y9.733
N9700 G3 X9.185 Y10. I-0.346 J-0.089 F#100
N9705 G2 X9.008 Y9.985 I-1.505 J16.573
N9710 G3 X8.971 Y9.397 I0.024 J-0.297
N9715 G1 X10.158 Y9.153
N9720 G3 X10.506 Y9.519 I0.06 J0.291
N9725 G2 X10.428 Y9.887 I4.144 J1.07
N9730 X10.331 Y10.805 I7.613 J1.267
N9735 G3 X10.025 Y11.04 I-0.252 J-0.011 F#106
N9740 G2 X8.47 Y10.846 I-1.791 J8.016 F#100
N9745 X7.861 Y10.831 I-1.566 J54.466
N9750 G3 X7.769 Y10.253 I0.005 J-0.297
N9755 G1 X11.136 Y9.09
N9760 G3 X11.512 Y9.473 I0.097 J0.281
N9765 G2 X11.244 Y11.395 I4.294 J1.579
N9770 X11.485 Y12.556 I4.562 J-0.342 F#106
N9775 X8.475 Y11.773 I-3.01 J5.392 F#100
N9780 G1 X7.136
N9785 G3 X7.043 Y11.766 I0. J-0.595 F#104
N9790 G1 X6.722 Y11.715
N9795 X6.63 Y11.7 Z-2.293
N9800 X6.54 Y11.686 Z-2.271
N9805 X6.455 Y11.673 Z-2.235
N9810 X6.376 Y11.66 Z-2.186
N9815 X6.306 Y11.649 Z-2.126
N9820 X6.246 Y11.639 Z-2.055
N9825 X6.198 Y11.632 Z-1.975
N9830 X6.163 Y11.626 Z-1.889
N9835 X6.141 Y11.623 Z-1.798
N9840 X6.134 Y11.622 Z-1.705
N9845 G0 Z4.
(2D CONTOUR1)
N9855 M8
N9860 G0 X4.459 Y-8.887
N9865 #100=1000. (CUTTING)
N9870 #103=1000. (ENTRY)
N9875 #104=1000. (EXIT)
N9880 #106=450. (REDUCED)
N9885 #108=1000. (PLUNGE)
N9890 Z4.
N9895 Z2.
N9900 G1 Z1. F#103
N9905 Z-2.3 F#108
N9910 Y-9.482 F#103
N9915 G3 X5.054 Y-10.077 I0.595 J0.
N9920 G1 X8.957 F#100
N9925 G2 X11.554 Y-10.931 I0. J-4.375
N9930 G3 X11.747 Y-10.79 I0.074 J0.101 F#106
N9935 G2 Y-7.92 I4.133 J1.435 F#100
N9940 G3 X11.38 Y-7.162 I-0.562 J0.195 F#104
N9945 G1 X10.818 Y-6.967
N9950 X10.861 Y8.43
N9955 X11.414 Y8.652 F#103
N9960 G3 X11.745 Y9.425 I-0.221 J0.552
N9965 G2 Y12.68 I4.061 J1.628 F#100
N9970 G3 X11.564 Y12.834 I-0.116 J0.046 F#106
N9975 G2 X8.475 Y11.973 I-3.089 J5.114 F#100
N9980 G1 X6.904
N9985 G3 X6.309 Y11.378 I0. J-0.595 F#104
N9990 G1 Y10.783
N9995 X-6.309
N10000 Y11.378 F#103
N10005 G3 X-6.904 Y11.973 I-0.595 J0.
N10010 G1 X-8.475 F#100
N10015 G2 X-11.564 Y12.834 I0. J5.975
N10020 G3 X-11.745 Y12.68 I-0.065 J-0.107 F#106
N10025 G2 Y9.425 I-4.061 J-1.628 F#100
N10030 G3 X-11.414 Y8.652 I0.552 J-0.221 F#104
N10035 G1 X-10.861 Y8.43
N10040 X-10.818 Y-6.967
N10045 X-11.38 Y-7.162 F#103
N10050 G3 X-11.747 Y-7.92 I0.195 J-0.562
N10055 G2 Y-10.79 I-4.133 J-1.435 F#100
N10060 G3 X-11.554 Y-10.931 I0.118 J-0.041 F#106
N10065 G2 X-8.957 Y-10.077 I2.597 J-3.521 F#100
N10070 G1 X-5.054
N10075 G3 X-4.459 Y-9.482 I0. J0.595 F#104
N10080 G1 Y-8.887
N10085 G0 Z4.
N10090 X9.685 Y0.503
N10095 Z2.
N10100 G1 Z1. F#103
N10105 Z-4.5 F#108
N10110 X10.28 F#103
N10115 G3 X10.875 Y1.098 I0. J0.595
N10120 G1 Y6.707 F#100
N10125 G2 X11.729 Y9.304 I4.375 J0.
N10130 G3 X11.611 Y9.502 I-0.101 J0.074 F#106
N10135 G2 X7.104 Y11.85 I-0.608 J4.333 F#100
N10140 G3 X6.904 Y11.973 I-0.201 J-0.102 F#106
N10145 G1 X-6.904 F#100
N10150 G3 X-7.104 Y11.85 I0. J-0.225 F#106
N10155 G2 X-11.611 Y9.502 I-3.899 J1.985 F#100
N10160 G3 X-11.729 Y9.304 I-0.018 J-0.124 F#106
N10165 G2 X-10.875 Y6.707 I-3.521 J-2.597 F#100
N10170 G1 Y-5.207
N10175 G2 X-11.729 Y-7.804 I-4.375 J0.
N10180 G3 X-11.563 Y-7.985 I0.101 J-0.074 F#106
N10185 G2 X-5.259 Y-9.943 I2.3 J-3.722 F#100
N10190 G3 X-5.054 Y-10.077 I0.206 J0.091 F#106
N10195 G1 X5.054 F#100
N10200 G3 X5.259 Y-9.943 I0. J0.225 F#106
N10205 G2 X11.563 Y-7.985 I4.004 J-1.764 F#100
N10210 G3 X11.729 Y-7.804 I0.066 J0.106 F#106
N10215 G2 X10.875 Y-5.207 I3.521 J2.597 F#100
N10220 G1 Y1.098
N10225 G3 X10.28 Y1.693 I-0.595 J0. F#104
N10230 G1 X9.685
N10235 G0 Z4.
(2D CONTOUR2)
N10245 M8
N10250 G0 X6.112 Y-1.745
N10255 #100=1000. (CUTTING)
N10260 #103=1000. (ENTRY)
N10265 #104=1000. (EXIT)
N10270 #106=450. (REDUCED)
N10275 #108=1000. (PLUNGE)
N10280 Z4.
N10285 Z-2.5
N10290 G1 Z-3.5 F#103
N10295 Z-8.405 F#108
N10300 G18 G2 X6.707 Z-9. I0.595 K0.
N10305 G1 X7.302 F#103
N10310 G17 G3 X7.897 Y-1.15 I0. J0.595
N10315 G1 Y0.117 F#100
N10320 Y1.307 F#106
N10325 X-6.707 F#100
N10330 X-7.897 F#106
N10335 Y-2.417 F#100
N10340 Y-3.607 F#106
N10345 X6.707 F#100
N10350 X7.897 F#106
N10355 Y-1.15 F#100
N10360 G3 X7.302 Y-0.555 I-0.595 J0. F#104
N10365 G1 X6.707
N10370 G18 G3 X6.112 Z-8.405 I0. K0.595
N10375 G0 Z4.
N10380 G17
(2D CONTOUR3)
N10385 M8
N10390 G0 X31.26 Y0.595
N10395 #100=1000. (CUTTING)
N10400 #102=1000. (FINISH)
N10405 #103=1000. (ENTRY)
N10410 #104=1000. (EXIT)
N10415 #108=1000. (PLUNGE)
N10420 Z4.
N10425 Z2.
N10430 G1 Z1. F#103
N10435 Z-3.405 F#108
N10440 G18 G3 X30.665 Z-4. I-0.595 K0.
N10445 G1 X30.07 F#103
N10450 G17 G3 X29.475 Y0. I0. J-0.595
N10455 G2 X-29.475 I-29.475 J0. F#100
N10460 X29.475 I29.475 J0.
N10465 X29.017 Y-0.68 I-0.734 J0.
N10470 G3 X28.543 Y-1.349 I0.286 J-0.705
N10475 G2 X-28.543 Y1.349 I-28.543 J1.349
N10480 X28.543 Y-1.349 I28.543 J-1.349
N10485 X28.053 Y-2.008 I-0.733 J0.035
N10490 G3 X27.548 Y-2.653 I0.253 J-0.719
N10495 G2 X-27.548 Y2.653 I-27.548 J2.653
N10500 X27.548 Y-2.653 I27.548 J-2.653
N10505 X27.026 Y-3.287 I-0.731 J0.07
N10510 G3 X26.488 Y-3.907 I0.218 J-0.732
N10515 G2 X-26.488 Y3.907 I-26.488 J3.907
N10520 X26.488 Y-3.907 I26.488 J-3.907
N10525 X25.935 Y-4.514 I-0.727 J0.107
N10530 G3 X25.366 Y-5.106 I0.18 J-0.743
N10535 G2 X-25.366 Y5.106 I-25.366 J5.106
N10540 X25.366 Y-5.106 I25.366 J-5.106
N10545 X24.782 Y-5.683 I-0.72 J0.145
N10550 G3 X24.182 Y-6.244 I0.141 J-0.752
N10555 G2 X-24.182 Y6.244 I-24.182 J6.244
N10560 X24.182 Y-6.244 I24.182 J-6.244
N10565 X23.567 Y-6.788 I-0.711 J0.184
N10570 G3 X22.937 Y-7.316 I0.1 J-0.76
N10575 G2 X-22.937 Y7.316 I-22.937 J7.316
N10580 X22.937 Y-7.316 I22.937 J-7.316
N10585 X22.866 Y-7.372 I-0.077 J0.025
N10590 G3 X22.795 Y-7.428 I0.007 J-0.082
N10595 G2 X-22.795 Y7.428 I-22.795 J7.428 F#102
N10600 X22.795 Y-7.428 I22.795 J-7.428
N10605 G3 X23.177 Y-8.178 I0.566 J-0.184 F#104
N10610 G1 X23.742 Y-8.362
N10615 X23.831 Y-8.391 Z-3.993
N10620 X23.917 Y-8.419 Z-3.971
N10625 X23.999 Y-8.446 Z-3.935
N10630 X24.075 Y-8.471 Z-3.886
N10635 X24.142 Y-8.493 Z-3.826
N10640 X24.2 Y-8.511 Z-3.755
N10645 X24.246 Y-8.527 Z-3.675
N10650 X24.28 Y-8.538 Z-3.589
N10655 X24.301 Y-8.544 Z-3.498
N10660 X24.308 Y-8.547 Z-3.405
N10665 G0 Z4.
N10675 M9
N10680 G53 Z0.
N10685 M30
%
