%
(1)
(T13  D=5.95 CR=0. - ZMIN=-4. - FLAT END MILL)
N10 G90 G94 G17 G91.1
N15 G21
N20 G53 G0 Z0.
(2D CONTOUR3)
N25 M9
N30 T13 M6
N35 S4000 M3
N40 G54
N45 M8
N55 G0 X33.96 Y0.595
N60 G43 Z4. H13
N65 #100=1000. (CUTTING)
N70 #102=1000. (FINISH)
N75 #103=1000. (ENTRY)
N80 #104=1000. (EXIT)
N85 #108=1000. (PLUNGE)
N90 G0 Z2.
N95 G1 Z1. F#103
N100 Z-3.405 F#108
N105 G18 G3 X33.365 Z-4. I-0.595 K0.
N110 G1 X32.77 F#103
N115 G17 G3 X32.175 Y0. I0. J-0.595
N120 G2 X-32.175 I-32.175 J0. F#100
N125 X32.175 I32.175 J0.
N130 X31.718 Y-0.68 I-0.734 J0.
N135 G3 X31.246 Y-1.35 I0.286 J-0.703
N140 G2 X-31.246 Y1.35 I-31.246 J1.35
N145 X31.246 Y-1.35 I31.246 J-1.35
N150 X30.759 Y-2.009 I-0.733 J0.032
N155 G3 X30.259 Y-2.658 I0.255 J-0.715
N160 G2 X-30.259 Y2.658 I-30.259 J2.658
N165 X30.259 Y-2.658 I30.259 J-2.658
N170 X29.743 Y-3.295 I-0.731 J0.064
N175 G3 X29.213 Y-3.921 I0.223 J-0.727
N180 G2 X-29.213 Y3.921 I-29.213 J3.921
N185 X29.213 Y-3.921 I29.213 J-3.921
N190 X28.669 Y-4.534 I-0.728 J0.098
N195 G3 X28.11 Y-5.134 I0.19 J-0.737
N200 G2 X-28.11 Y5.134 I-28.11 J5.134
N205 X28.11 Y-5.134 I28.11 J-5.134
N210 X27.537 Y-5.721 I-0.722 J0.132
N215 G3 X26.95 Y-6.294 I0.155 J-0.746
N220 G2 X-26.95 Y6.294 I-26.95 J6.294
N225 X26.95 Y-6.294 I26.95 J-6.294
N230 X26.348 Y-6.853 I-0.715 J0.167
N235 G3 X25.733 Y-7.396 I0.118 J-0.754
N240 G2 X-25.733 Y7.396 I-25.733 J7.396
N245 X25.733 Y-7.396 I25.733 J-7.396
N250 X25.104 Y-7.923 I-0.706 J0.203
N255 G3 X24.462 Y-8.434 I0.08 J-0.76
N260 G2 X-24.462 Y8.434 I-24.462 J8.434
N265 X24.462 Y-8.434 I24.462 J-8.434
N270 X23.806 Y-8.928 I-0.694 J0.239
N275 G3 X23.137 Y-9.405 I0.04 J-0.765
N280 G2 X-23.137 Y9.405 I-23.137 J9.405
N285 X23.137 Y-9.405 I23.137 J-9.405
N290 X22.454 Y-9.863 I-0.681 J0.277
N295 G3 X21.76 Y-10.301 I-0.002 J-0.767
N300 G2 X-21.76 Y10.301 I-21.76 J10.301
N305 X21.76 Y-10.301 I21.76 J-10.301
N310 X21.682 Y-10.348 I-0.073 J0.035
N315 G3 X21.605 Y-10.394 I-0.004 J-0.082
N320 G2 X-21.605 Y10.394 I-21.605 J10.394 F#102
N325 X21.605 Y-10.394 I21.605 J-10.394
N330 G3 X21.883 Y-11.188 I0.536 J-0.258 F#104
N335 G1 X22.419 Y-11.446
N340 X22.503 Y-11.487 Z-3.993
N345 X22.585 Y-11.526 Z-3.971
N350 X22.663 Y-11.563 Z-3.935
N355 X22.734 Y-11.598 Z-3.886
N360 X22.798 Y-11.629 Z-3.826
N365 X22.853 Y-11.655 Z-3.755
N370 X22.897 Y-11.676 Z-3.675
N375 X22.929 Y-11.691 Z-3.589
N380 X22.949 Y-11.701 Z-3.498
N385 X22.955 Y-11.704 Z-3.405
N390 G0 Z4.
N400 M9
N405 G53 Z0.
N410 M30
%
