%
(1)
(T20  D=5. CR=0. TAPER=60DEG - ZMIN=-3.4 - DOVETAIL MILL)
N10 G90 G94 G17 G91.1
N15 G21
N20 G53 G0 Z0.
(THREAD1)
N25 M9
N30 T20 M6
(SINGLE FLUTE THREAD MILL M5)
N35 S5000 M3
N40 G54
N45 M8
N55 G0 X24.7 Y0.5
N60 G43 Z4. H20
N65 #100=300. (CUTTING)
N70 #103=300. (ENTRY)
N75 #104=300. (EXIT)
N80 G0 Z2.
N85 G1 Z0.5 F#103
N90 G18 G3 X24.2 Z0. I-0.5 K0.
N95 G1 X23.95
N100 G17 G3 X23.45 Y0. I0. J-0.5
N105 G2 X-23.45 Z-0.5 I-23.45 J0. F#100
N110 X23.45 Z-1. I23.45 J0.
N115 X-23.45 Z-1.5 I-23.45 J0.
N120 X23.45 Z-2. I23.45 J0.
N125 X-23.45 Z-2.5 I-23.45 J0.
N130 X23.45 Z-3. I23.45 J0.
N135 X-18.971 Y-13.784 Z-3.4 I-23.45 J0.
N140 G3 X-19.67 Y-13.673 I-0.405 J-0.294 F#104
N145 G1 X-19.872 Y-13.82
N150 X-19.942 Y-13.871 Z-3.392
N155 X-20.01 Y-13.92 Z-3.37
N160 X-20.074 Y-13.967 Z-3.333
N165 X-20.132 Y-14.009 Z-3.283
N170 X-20.182 Y-14.045 Z-3.221
N175 X-20.222 Y-14.074 Z-3.15
N180 X-20.252 Y-14.096 Z-3.071
N185 X-20.27 Y-14.109 Z-2.987
N190 X-20.277 Y-14.114 Z-2.9
N195 G0 Z2.
N200 X24.6 Y0.5
N205 G1 Z0.5 F#103
N210 G18 G3 X24.1 Z0. I-0.5 K0.
N215 G1 X23.85
N220 G17 G3 X23.35 Y0. I0. J-0.5
N225 G2 X-23.35 Z-0.5 I-23.35 J0. F#100
N230 X23.35 Z-1. I23.35 J0.
N235 X-23.35 Z-1.5 I-23.35 J0.
N240 X23.35 Z-2. I23.35 J0.
N245 X-23.35 Z-2.5 I-23.35 J0.
N250 X23.35 Z-3. I23.35 J0.
N255 X-18.891 Y-13.725 Z-3.4 I-23.35 J0.
N260 G3 X-19.589 Y-13.614 I-0.405 J-0.294 F#104
N265 G1 X-19.791 Y-13.761
N270 X-19.861 Y-13.812 Z-3.392
N275 X-19.93 Y-13.862 Z-3.37
N280 X-19.993 Y-13.908 Z-3.333
N285 X-20.051 Y-13.95 Z-3.283
N290 X-20.101 Y-13.986 Z-3.221
N295 X-20.142 Y-14.016 Z-3.15
N300 X-20.171 Y-14.037 Z-3.071
N305 X-20.19 Y-14.051 Z-2.987
N310 X-20.196 Y-14.055 Z-2.9
N315 G0 Z2.
N320 X24.5 Y0.5
N325 G1 Z0.5 F#103
N330 G18 G3 X24. Z0. I-0.5 K0.
N335 G1 X23.75
N340 G17 G3 X23.25 Y0. I0. J-0.5
N345 G2 X-23.25 Z-0.5 I-23.25 J0. F#100
N350 X23.25 Z-1. I23.25 J0.
N355 X-23.25 Z-1.5 I-23.25 J0.
N360 X23.25 Z-2. I23.25 J0.
N365 X-23.25 Z-2.5 I-23.25 J0.
N370 X23.25 Z-3. I23.25 J0.
N375 X-18.81 Y-13.666 Z-3.4 I-23.25 J0.
N380 G3 X-19.508 Y-13.555 I-0.405 J-0.294 F#104
N385 G1 X-19.71 Y-13.702
N390 X-19.781 Y-13.753 Z-3.392
N395 X-19.849 Y-13.803 Z-3.37
N400 X-19.913 Y-13.849 Z-3.333
N405 X-19.97 Y-13.891 Z-3.283
N410 X-20.02 Y-13.927 Z-3.221
N415 X-20.061 Y-13.957 Z-3.15
N420 X-20.09 Y-13.979 Z-3.071
N425 X-20.109 Y-13.992 Z-2.987
N430 X-20.115 Y-13.996 Z-2.9
N435 G0 Z4.
N445 M9
N450 G53 Z0.
N455 M30
%
