%
(1)
(T19  D=8. CR=0. TAPER=60DEG - ZMIN=-3.4 - DOVETAIL MILL)
N10 G90 G94 G17 G91.1
N15 G21
N20 G53 G0 Z0.
(THREAD1)
N25 M9
N30 T19 M6
(SINGLE FLUTE THREAD MILL M8)
N35 S5000 M3
N40 G54
N45 M8
N55 G0 X26.7 Y0.8
N60 G43 Z4. H19
N65 #100=300. (CUTTING)
N70 #103=300. (ENTRY)
N75 #104=300. (EXIT)
N80 G0 Z2.
N85 G1 Z0.8 F#103
N90 G18 G3 X25.9 Z0. I-0.8 K0.
N95 G1 X25.5
N100 G17 G3 X24.7 Y0. I0. J-0.8
N105 G2 X-24.7 Z-0.5 I-24.7 J0. F#100
N110 X24.7 Z-1. I24.7 J0.
N115 X-24.7 Z-1.5 I-24.7 J0.
N120 X24.7 Z-2. I24.7 J0.
N125 X-24.7 Z-2.5 I-24.7 J0.
N130 X24.7 Z-3. I24.7 J0.
N135 X-19.983 Y-14.518 Z-3.4 I-24.7 J0.
N140 G3 X-21.1 Y-14.341 I-0.647 J-0.47 F#104
N145 G1 X-21.424 Y-14.576
N150 X-21.508 Y-14.638 Z-3.393
N155 X-21.591 Y-14.698 Z-3.373
N160 X-21.671 Y-14.756 Z-3.339
N165 X-21.747 Y-14.812 Z-3.293
N170 X-21.818 Y-14.863 Z-3.235
N175 X-21.881 Y-14.909 Z-3.166
N180 X-21.937 Y-14.949 Z-3.087
N185 X-21.984 Y-14.984 Z-3.
N190 X-22.022 Y-15.011 Z-2.906
N195 X-22.049 Y-15.031 Z-2.807
N200 X-22.065 Y-15.043 Z-2.704
N205 X-22.071 Y-15.047 Z-2.6
N210 G0 Z2.
N215 X26.6 Y0.8
N220 G1 Z0.8 F#103
N225 G18 G3 X25.8 Z0. I-0.8 K0.
N230 G1 X25.4
N235 G17 G3 X24.6 Y0. I0. J-0.8
N240 G2 X-24.6 Z-0.5 I-24.6 J0. F#100
N245 X24.6 Z-1. I24.6 J0.
N250 X-24.6 Z-1.5 I-24.6 J0.
N255 X24.6 Z-2. I24.6 J0.
N260 X-24.6 Z-2.5 I-24.6 J0.
N265 X24.6 Z-3. I24.6 J0.
N270 X-19.902 Y-14.46 Z-3.4 I-24.6 J0.
N275 G3 X-21.019 Y-14.283 I-0.647 J-0.47 F#104
N280 G1 X-21.343 Y-14.518
N285 X-21.427 Y-14.579 Z-3.393
N290 X-21.51 Y-14.639 Z-3.373
N295 X-21.591 Y-14.698 Z-3.339
N300 X-21.666 Y-14.753 Z-3.293
N305 X-21.737 Y-14.804 Z-3.235
N310 X-21.801 Y-14.85 Z-3.166
N315 X-21.856 Y-14.891 Z-3.087
N320 X-21.903 Y-14.925 Z-3.
N325 X-21.941 Y-14.952 Z-2.906
N330 X-21.968 Y-14.972 Z-2.807
N335 X-21.985 Y-14.984 Z-2.704
N340 X-21.99 Y-14.988 Z-2.6
N345 G0 Z2.
N350 X26.5 Y0.8
N355 G1 Z0.8 F#103
N360 G18 G3 X25.7 Z0. I-0.8 K0.
N365 G1 X25.3
N370 G17 G3 X24.5 Y0. I0. J-0.8
N375 G2 X-24.5 Z-0.5 I-24.5 J0. F#100
N380 X24.5 Z-1. I24.5 J0.
N385 X-24.5 Z-1.5 I-24.5 J0.
N390 X24.5 Z-2. I24.5 J0.
N395 X-24.5 Z-2.5 I-24.5 J0.
N400 X24.5 Z-3. I24.5 J0.
N405 X-19.821 Y-14.401 Z-3.4 I-24.5 J0.
N410 G3 X-20.938 Y-14.224 I-0.647 J-0.47 F#104
N415 G1 X-21.262 Y-14.459
N420 X-21.346 Y-14.52 Z-3.393
N425 X-21.429 Y-14.581 Z-3.373
N430 X-21.51 Y-14.639 Z-3.339
N435 X-21.586 Y-14.694 Z-3.293
N440 X-21.656 Y-14.745 Z-3.235
N445 X-21.72 Y-14.791 Z-3.166
N450 X-21.775 Y-14.832 Z-3.087
N455 X-21.822 Y-14.866 Z-3.
N460 X-21.86 Y-14.893 Z-2.906
N465 X-21.887 Y-14.913 Z-2.807
N470 X-21.904 Y-14.925 Z-2.704
N475 X-21.909 Y-14.929 Z-2.6
N480 G0 Z4.
N490 M9
N495 G53 Z0.
N500 M30
%
