%
(1)
(T20  D=5. CR=0. TAPER=60DEG - ZMIN=-3.4 - DOVETAIL MILL)
N10 G90 G94 G17 G91.1
N15 G21
N20 G53 G0 Z0.
(THREAD1)
N25 M9
N30 T20 M6
(SINGLE FLUTE THREAD MILL M5)
N35 S5000 M3
N40 G54
N45 M8
N55 G0 X24.25 Y0.5
N60 G43 Z4. H20
N65 #100=300. (CUTTING)
N70 #103=300. (ENTRY)
N75 #104=300. (EXIT)
N80 G0 Z2.
N85 G1 Z0.5 F#103
N90 G18 G3 X23.75 Z0. I-0.5 K0.
N95 G1 X23.5
N100 G17 G3 X23. Y0. I0. J-0.5
N105 G2 X-23. Z-0.5 I-23. J0. F#100
N110 X23. Z-1. I23. J0.
N115 X-23. Z-1.5 I-23. J0.
N120 X23. Z-2. I23. J0.
N125 X-23. Z-2.5 I-23. J0.
N130 X23. Z-3. I23. J0.
N135 X-18.607 Y-13.519 Z-3.4 I-23. J0.
N140 G3 X-19.306 Y-13.408 I-0.405 J-0.294 F#104
N145 G1 X-19.508 Y-13.555
N150 X-19.578 Y-13.606 Z-3.392
N155 X-19.646 Y-13.656 Z-3.37
N160 X-19.71 Y-13.702 Z-3.333
N165 X-19.768 Y-13.744 Z-3.283
N170 X-19.818 Y-13.781 Z-3.221
N175 X-19.858 Y-13.81 Z-3.15
N180 X-19.888 Y-13.832 Z-3.071
N185 X-19.906 Y-13.845 Z-2.987
N190 X-19.913 Y-13.849 Z-2.9
N195 G0 Z4.
N205 M9
N210 G53 Z0.
N215 M30
%
