%
(1)
(T19  D=8. CR=0. TAPER=60DEG - ZMIN=-2.415 - CHAMFER MILL)
N10 G90 G94 G17 G91.1
N15 G21
N20 G53 G0 Z0.
(2D CHAMFER1)
N25 M9
N30 T19 M6
(SINGLE FLUTE THREAD MILL M8)
N35 S5000 M3
N40 G54
N45 M8
N55 G0 X9.55 Y0.798
N60 G43 Z4. H19
N65 #100=300. (CUTTING)
N70 #103=300. (ENTRY)
N75 #104=300. (EXIT)
N80 #106=75. (REDUCED)
N85 #108=200. (PLUNGE)
N90 G0 Z2.
N95 G1 Z-0.115 F#108
N100 X10.35 F#103
N105 Y6.707 F#100
N110 G2 X10.52 Y7.986 I4.9 J0.
N115 X11.18 Y9.436 I4.73 J-1.279 F#106
N120 X10.955 Y10.362 I4.626 J1.617 F#100
N125 X10.989 Y11.954 I4.851 J0.691 F#106
N130 X8.475 Y11.448 I-2.514 J5.994 F#100
N135 G1 X-8.475
N140 G2 X-9.453 Y11.522 I0. J6.5
N145 X-10.989 Y11.954 I0.978 J6.426 F#106
N150 X-10.906 Y11.005 I-4.816 J-0.901 F#100
N155 X-11.18 Y9.436 I-4.9 J0.047 F#106
N160 X-10.35 Y6.707 I-4.07 J-2.729 F#100
N165 G1 Y-5.207
N170 G2 X-10.523 Y-6.498 I-4.9 J0.
N175 X-11.187 Y-7.946 I-4.727 J1.29 F#106
N180 X-11.07 Y-8.417 I-4.693 J-1.409 F#100
N185 X-11.024 Y-10.009 I-4.809 J-0.938 F#106
N190 X-8.957 Y-9.552 I2.066 J-4.443 F#100
N195 G1 X8.957
N200 G2 X9.489 Y-9.581 I0. J-4.9
N205 X11.024 Y-10.009 I-0.532 J-4.871 F#106
N210 X10.983 Y-9.526 I4.856 J0.654 F#100
N215 X11.187 Y-7.946 I4.897 J0.171 F#106
N220 X10.35 Y-5.207 I4.063 J2.738 F#100
N225 G1 Y1.298
N230 X9.55 F#104
N235 G0 Z2.
N240 X25.192 Y-0.618
N245 G1 Z-0.115 F#108
N250 X24.393 Y-0.599 F#103
N255 G2 X17.253 Y-17.253 I-24.393 J0.599 F#100
N260 X0. Y-24.4 I-17.253 J17.253
N265 Y24.4 I0. J24.4
N270 X24.4 Y0. I0. J-24.4
N275 X24.375 Y-1.098 I-24.4 J0.
N280 G1 X25.174 Y-1.135 F#104
N285 G0 Z4.
N290 X5.003 Y-7.92
N295 Z2.
N300 G1 Z-2.415 F#108
N305 X5.601 Y-8.451 F#103
N310 G2 X9.471 Y-6.811 I3.662 J-3.255 F#100
N315 G1 X9.504 Y-6.012 F#104
N320 G0 Z2.
N325 X9.546 Y8.324
N330 G1 Z-2.415 F#108
N335 X9.751 Y9.098 F#103
N340 G2 X7.56 Y10.348 I1.252 J4.737 F#100
N345 G1 X6.998 Y9.779 F#104
N350 G0 Z2.
N355 X-6.999 Y9.778
N360 G1 Z-2.415 F#108
N365 X-7.561 Y10.348 F#103
N370 G2 X-9.751 Y9.098 I-3.442 J3.487 F#100
N375 G1 X-9.547 Y8.324 F#104
N380 G0 Z2.
N385 X-9.504 Y-6.012
N390 G1 Z-2.415 F#108
N395 X-9.47 Y-6.811 F#103
N400 G2 X-5.6 Y-8.452 I0.207 J-4.896 F#100
N405 G1 X-5.002 Y-7.92 F#104
N410 G0 Z4.
N420 M9
N425 G53 Z0.
N430 M30
%
