%
(1)
(T3  D=2.5 CR=0. TAPER=118DEG - ZMIN=-11. - DRILL)
N10 G90 G94 G17 G91.1
N15 G21
N20 G53 G0 Z0.
(DRILL1)
N25 M9
N30 T3 M6
N35 S1910 M3
N40 G54
N45 M8
N55 G0 X-53.57 Y-53.57
N60 G43 Z15. H3
N70 G0 Z5.
N75 G98 G83 X-53.57 Y-53.57 Z-11. R5. Q1. F50.34
N80 X-6.43
N85 Y-6.43
N90 X-53.57
N95 G80
N100 G0 Z15.
N110 M9
N115 G53 Z0.
N120 M30
%
