%
(1001)
(T13  D=5.95 CR=0. - ZMIN=-9.5 - FLAT END MILL)
N10 G90 G94 G17 G91.1
N15 G21
N20 G53 G0 Z0.
(2D POCKET1)
N25 M9
N30 T13 M6
N35 S4000 M3
N40 G54
N45 M8
N55 G0 X-79.492 Y-11.638
N60 G43 Z6. H13
N65 #100=1000. (CUTTING)
N70 #103=1000. (ENTRY)
N75 #104=1000. (EXIT)
N80 #107=800. (RAMPING)
N85 G0 Z3.095
N90 G3 X-79.475 Y-11.661 Z2.915 I2.303 J1.638 F#107
N95 X-79.427 Y-11.725 Z2.752 I2.287 J1.661
N100 X-79.348 Y-11.824 Z2.621 I2.239 J1.725
N105 X-79.241 Y-11.943 Z2.534 I2.159 J1.824
N110 X-79.114 Y-12.069 Z2.5 I2.052 J1.943
N115 X-75.263 Y-7.931 Z2.19 I1.925 J2.069
N120 X-79.114 Y-12.069 Z1.88 I-1.925 J-2.069
N125 X-75.263 Y-7.931 Z1.57 I1.925 J2.069
N130 X-79.114 Y-12.069 Z1.26 I-1.925 J-2.069
N135 X-75.263 Y-7.931 Z0.95 I1.925 J2.069
N140 X-79.114 Y-12.069 Z0.64 I-1.925 J-2.069
N145 X-75.263 Y-7.931 Z0.33 I1.925 J2.069
N150 X-79.114 Y-12.069 Z0.02 I-1.925 J-2.069
N155 X-75.263 Y-7.931 Z-0.291 I1.925 J2.069
N160 X-79.114 Y-12.069 Z-0.601 I-1.925 J-2.069
N165 X-75.263 Y-7.931 Z-0.911 I1.925 J2.069
N170 X-79.114 Y-12.069 Z-1.221 I-1.925 J-2.069
N175 X-75.263 Y-7.931 Z-1.531 I1.925 J2.069
N180 X-79.114 Y-12.069 Z-1.841 I-1.925 J-2.069
N185 X-75.263 Y-7.931 Z-2.151 I1.925 J2.069
N190 X-79.114 Y-12.069 Z-2.461 I-1.925 J-2.069
N195 X-75.263 Y-7.931 Z-2.771 I1.925 J2.069
N200 X-80.015 Y-10. Z-3. I-1.925 J-2.069
N205 X-74.975 I2.52 J0.
N210 X-75.025 I-0.025 J0. F#100
N215 X-74.475 I0.275 J0.
N220 X-75.525 I-0.525 J0.
N225 X-73.975 I0.775 J0.
N230 X-76.025 I-1.025 J0.
N235 X-73.475 I1.275 J0.
N240 X-76.525 I-1.525 J0.
N245 X-72.975 I1.775 J0.
N250 X-77.025 I-2.025 J0.
N255 X-72.475 I2.275 J0.
N260 X-77.525 I-2.525 J0.
N265 X-71.975 I2.775 J0.
N270 X-78.025 I-3.025 J0.
N275 X-71.475 I3.275 J0.
N280 X-78.525 I-3.525 J0.
N285 X-70.975 I3.775 J0.
N290 X-79.025 I-4.025 J0.
N295 X-70.475 I4.275 J0.
N300 X-79.525 I-4.525 J0.
N305 X-69.975 I4.775 J0.
N310 X-80.025 I-5.025 J0.
N315 X-69.975 I5.025 J0.
N320 X-70.003 Y-9.819 Z-2.971 I-0.595 J0. F#104
N325 X-70.075 Y-9.67 Z-2.886 I-0.567 J-0.181
N330 X-70.159 Y-9.569 Z-2.755 I-0.495 J-0.33
N335 X-70.224 Y-9.516 Z-2.589 I-0.411 J-0.431
N340 X-70.249 Y-9.499 Z-2.405 I-0.346 J-0.484
N345 G0 Z3.095
N350 X-79.492 Y-51.638
N355 G3 X-79.475 Y-51.661 Z2.915 I2.303 J1.638 F#107
N360 X-79.427 Y-51.725 Z2.752 I2.287 J1.661
N365 X-79.348 Y-51.824 Z2.621 I2.239 J1.725
N370 X-79.241 Y-51.943 Z2.534 I2.159 J1.824
N375 X-79.114 Y-52.069 Z2.5 I2.052 J1.943
N380 X-75.263 Y-47.931 Z2.19 I1.925 J2.069
N385 X-79.114 Y-52.069 Z1.88 I-1.925 J-2.069
N390 X-75.263 Y-47.931 Z1.57 I1.925 J2.069
N395 X-79.114 Y-52.069 Z1.26 I-1.925 J-2.069
N400 X-75.263 Y-47.931 Z0.95 I1.925 J2.069
N405 X-79.114 Y-52.069 Z0.64 I-1.925 J-2.069
N410 X-75.263 Y-47.931 Z0.33 I1.925 J2.069
N415 X-79.114 Y-52.069 Z0.02 I-1.925 J-2.069
N420 X-75.263 Y-47.931 Z-0.291 I1.925 J2.069
N425 X-79.114 Y-52.069 Z-0.601 I-1.925 J-2.069
N430 X-75.263 Y-47.931 Z-0.911 I1.925 J2.069
N435 X-79.114 Y-52.069 Z-1.221 I-1.925 J-2.069
N440 X-75.263 Y-47.931 Z-1.531 I1.925 J2.069
N445 X-79.114 Y-52.069 Z-1.841 I-1.925 J-2.069
N450 X-75.263 Y-47.931 Z-2.151 I1.925 J2.069
N455 X-79.114 Y-52.069 Z-2.461 I-1.925 J-2.069
N460 X-75.263 Y-47.931 Z-2.771 I1.925 J2.069
N465 X-80.015 Y-50. Z-3. I-1.925 J-2.069
N470 X-74.975 I2.52 J0.
N475 X-75.025 I-0.025 J0. F#100
N480 X-74.475 I0.275 J0.
N485 X-75.525 I-0.525 J0.
N490 X-73.975 I0.775 J0.
N495 X-76.025 I-1.025 J0.
N500 X-73.475 I1.275 J0.
N505 X-76.525 I-1.525 J0.
N510 X-72.975 I1.775 J0.
N515 X-77.025 I-2.025 J0.
N520 X-72.475 I2.275 J0.
N525 X-77.525 I-2.525 J0.
N530 X-71.975 I2.775 J0.
N535 X-78.025 I-3.025 J0.
N540 X-71.475 I3.275 J0.
N545 X-78.525 I-3.525 J0.
N550 X-70.975 I3.775 J0.
N555 X-79.025 I-4.025 J0.
N560 X-70.475 I4.275 J0.
N565 X-79.525 I-4.525 J0.
N570 X-69.975 I4.775 J0.
N575 X-80.025 I-5.025 J0.
N580 X-69.975 I5.025 J0.
N585 X-70.003 Y-49.819 Z-2.971 I-0.595 J0. F#104
N590 X-70.075 Y-49.67 Z-2.886 I-0.567 J-0.181
N595 X-70.159 Y-49.569 Z-2.755 I-0.495 J-0.33
N600 X-70.224 Y-49.516 Z-2.589 I-0.411 J-0.431
N605 X-70.249 Y-49.499 Z-2.405 I-0.346 J-0.484
N610 G0 Z6.
(2D POCKET1 2)
N620 M8
N625 G0 X-76.35 Y-10.709
N630 #100=1000. (CUTTING)
N635 #103=1000. (ENTRY)
N640 #104=1000. (EXIT)
N645 #107=800. (RAMPING)
N650 Z6.
N655 Z3.095
N660 G3 X-76.337 Y-10.734 Z2.915 I1.35 J0.709 F#107
N665 X-76.296 Y-10.804 Z2.752 I1.337 J0.734
N670 X-76.225 Y-10.908 Z2.621 I1.296 J0.804
N675 X-76.123 Y-11.032 Z2.534 I1.225 J0.908
N680 X-75.995 Y-11.156 Z2.5 I1.123 J1.032
N685 X-74.005 Y-8.844 Z2.333 I0.995 J1.156
N690 X-75.995 Y-11.156 Z2.165 I-0.995 J-1.156
N695 X-74.005 Y-8.844 Z1.998 I0.995 J1.156
N700 X-75.995 Y-11.156 Z1.831 I-0.995 J-1.156
N705 X-74.005 Y-8.844 Z1.663 I0.995 J1.156
N710 X-75.995 Y-11.156 Z1.496 I-0.995 J-1.156
N715 X-74.005 Y-8.844 Z1.329 I0.995 J1.156
N720 X-75.995 Y-11.156 Z1.162 I-0.995 J-1.156
N725 X-74.005 Y-8.844 Z0.994 I0.995 J1.156
N730 X-75.995 Y-11.156 Z0.827 I-0.995 J-1.156
N735 X-74.005 Y-8.844 Z0.66 I0.995 J1.156
N740 X-75.995 Y-11.156 Z0.492 I-0.995 J-1.156
N745 X-74.005 Y-8.844 Z0.325 I0.995 J1.156
N750 X-75.995 Y-11.156 Z0.158 I-0.995 J-1.156
N755 X-74.005 Y-8.844 Z-0.01 I0.995 J1.156
N760 X-75.995 Y-11.156 Z-0.177 I-0.995 J-1.156
N765 X-74.005 Y-8.844 Z-0.344 I0.995 J1.156
N770 X-75.995 Y-11.156 Z-0.511 I-0.995 J-1.156
N775 X-74.005 Y-8.844 Z-0.679 I0.995 J1.156
N780 X-75.995 Y-11.156 Z-0.846 I-0.995 J-1.156
N785 X-74.005 Y-8.844 Z-1.013 I0.995 J1.156
N790 X-75.995 Y-11.156 Z-1.181 I-0.995 J-1.156
N795 X-74.005 Y-8.844 Z-1.348 I0.995 J1.156
N800 X-75.995 Y-11.156 Z-1.515 I-0.995 J-1.156
N805 X-74.005 Y-8.844 Z-1.683 I0.995 J1.156
N810 X-75.995 Y-11.156 Z-1.85 I-0.995 J-1.156
N815 X-74.005 Y-8.844 Z-2.017 I0.995 J1.156
N820 X-75.995 Y-11.156 Z-2.184 I-0.995 J-1.156
N825 X-74.005 Y-8.844 Z-2.352 I0.995 J1.156
N830 X-75.995 Y-11.156 Z-2.519 I-0.995 J-1.156
N835 X-74.005 Y-8.844 Z-2.686 I0.995 J1.156
N840 X-75.995 Y-11.156 Z-2.854 I-0.995 J-1.156
N845 X-74.005 Y-8.844 Z-3.021 I0.995 J1.156
N850 X-75.995 Y-11.156 Z-3.188 I-0.995 J-1.156
N855 X-74.005 Y-8.844 Z-3.356 I0.995 J1.156
N860 X-75.995 Y-11.156 Z-3.523 I-0.995 J-1.156
N865 X-74.005 Y-8.844 Z-3.69 I0.995 J1.156
N870 X-75.995 Y-11.156 Z-3.858 I-0.995 J-1.156
N875 X-74.005 Y-8.844 Z-4.025 I0.995 J1.156
N880 X-75.995 Y-11.156 Z-4.192 I-0.995 J-1.156
N885 X-74.005 Y-8.844 Z-4.359 I0.995 J1.156
N890 X-75.995 Y-11.156 Z-4.527 I-0.995 J-1.156
N895 X-74.005 Y-8.844 Z-4.694 I0.995 J1.156
N900 X-75.995 Y-11.156 Z-4.861 I-0.995 J-1.156
N905 X-74.005 Y-8.844 Z-5.029 I0.995 J1.156
N910 X-75.995 Y-11.156 Z-5.196 I-0.995 J-1.156
N915 X-74.005 Y-8.844 Z-5.363 I0.995 J1.156
N920 X-75.995 Y-11.156 Z-5.531 I-0.995 J-1.156
N925 X-74.005 Y-8.844 Z-5.698 I0.995 J1.156
N930 X-75.995 Y-11.156 Z-5.865 I-0.995 J-1.156
N935 X-74.005 Y-8.844 Z-6.032 I0.995 J1.156
N940 X-75.995 Y-11.156 Z-6.2 I-0.995 J-1.156
N945 X-74.005 Y-8.844 Z-6.367 I0.995 J1.156
N950 X-75.995 Y-11.156 Z-6.534 I-0.995 J-1.156
N955 X-74.005 Y-8.844 Z-6.702 I0.995 J1.156
N960 X-75.995 Y-11.156 Z-6.869 I-0.995 J-1.156
N965 X-74.005 Y-8.844 Z-7.036 I0.995 J1.156
N970 X-75.995 Y-11.156 Z-7.204 I-0.995 J-1.156
N975 X-74.005 Y-8.844 Z-7.371 I0.995 J1.156
N980 X-75.995 Y-11.156 Z-7.538 I-0.995 J-1.156
N985 X-74.005 Y-8.844 Z-7.705 I0.995 J1.156
N990 X-75.995 Y-11.156 Z-7.873 I-0.995 J-1.156
N995 X-74.005 Y-8.844 Z-8.04 I0.995 J1.156
N1000 X-75.995 Y-11.156 Z-8.207 I-0.995 J-1.156
N1005 X-74.005 Y-8.844 Z-8.375 I0.995 J1.156
N1010 X-75.995 Y-11.156 Z-8.542 I-0.995 J-1.156
N1015 X-74.005 Y-8.844 Z-8.709 I0.995 J1.156
N1020 X-75.995 Y-11.156 Z-8.877 I-0.995 J-1.156
N1025 X-74.005 Y-8.844 Z-9.044 I0.995 J1.156
N1030 X-75.995 Y-11.156 Z-9.211 I-0.995 J-1.156
N1035 X-74.005 Y-8.844 Z-9.379 I0.995 J1.156
N1040 X-76.525 Y-10. Z-9.5 I-0.995 J-1.156
N1045 X-74.975 I0.775 J0.
N1050 X-75.025 I-0.025 J0. F#100
N1055 X-74.475 I0.275 J0.
N1060 X-75.525 I-0.525 J0.
N1065 X-73.975 I0.775 J0.
N1070 X-76.025 I-1.025 J0.
N1075 X-73.475 I1.275 J0.
N1080 X-76.525 I-1.525 J0.
N1085 X-73.475 I1.525 J0.
N1090 X-73.503 Y-9.819 Z-9.471 I-0.595 J0. F#104
N1095 X-73.575 Y-9.67 Z-9.386 I-0.567 J-0.181
N1100 X-73.659 Y-9.569 Z-9.255 I-0.495 J-0.33
N1105 X-73.724 Y-9.516 Z-9.089 I-0.411 J-0.431
N1110 X-73.749 Y-9.499 Z-8.905 I-0.346 J-0.484
N1115 G0 Z3.095
N1120 X-76.35 Y-50.709
N1125 G3 X-76.337 Y-50.734 Z2.915 I1.35 J0.709 F#107
N1130 X-76.296 Y-50.804 Z2.752 I1.337 J0.734
N1135 X-76.225 Y-50.908 Z2.621 I1.296 J0.804
N1140 X-76.123 Y-51.032 Z2.534 I1.225 J0.908
N1145 X-75.995 Y-51.156 Z2.5 I1.123 J1.032
N1150 X-74.005 Y-48.844 Z2.333 I0.995 J1.156
N1155 X-75.995 Y-51.156 Z2.165 I-0.995 J-1.156
N1160 X-74.005 Y-48.844 Z1.998 I0.995 J1.156
N1165 X-75.995 Y-51.156 Z1.831 I-0.995 J-1.156
N1170 X-74.005 Y-48.844 Z1.663 I0.995 J1.156
N1175 X-75.995 Y-51.156 Z1.496 I-0.995 J-1.156
N1180 X-74.005 Y-48.844 Z1.329 I0.995 J1.156
N1185 X-75.995 Y-51.156 Z1.162 I-0.995 J-1.156
N1190 X-74.005 Y-48.844 Z0.994 I0.995 J1.156
N1195 X-75.995 Y-51.156 Z0.827 I-0.995 J-1.156
N1200 X-74.005 Y-48.844 Z0.66 I0.995 J1.156
N1205 X-75.995 Y-51.156 Z0.492 I-0.995 J-1.156
N1210 X-74.005 Y-48.844 Z0.325 I0.995 J1.156
N1215 X-75.995 Y-51.156 Z0.158 I-0.995 J-1.156
N1220 X-74.005 Y-48.844 Z-0.01 I0.995 J1.156
N1225 X-75.995 Y-51.156 Z-0.177 I-0.995 J-1.156
N1230 X-74.005 Y-48.844 Z-0.344 I0.995 J1.156
N1235 X-75.995 Y-51.156 Z-0.511 I-0.995 J-1.156
N1240 X-74.005 Y-48.844 Z-0.679 I0.995 J1.156
N1245 X-75.995 Y-51.156 Z-0.846 I-0.995 J-1.156
N1250 X-74.005 Y-48.844 Z-1.013 I0.995 J1.156
N1255 X-75.995 Y-51.156 Z-1.181 I-0.995 J-1.156
N1260 X-74.005 Y-48.844 Z-1.348 I0.995 J1.156
N1265 X-75.995 Y-51.156 Z-1.515 I-0.995 J-1.156
N1270 X-74.005 Y-48.844 Z-1.683 I0.995 J1.156
N1275 X-75.995 Y-51.156 Z-1.85 I-0.995 J-1.156
N1280 X-74.005 Y-48.844 Z-2.017 I0.995 J1.156
N1285 X-75.995 Y-51.156 Z-2.184 I-0.995 J-1.156
N1290 X-74.005 Y-48.844 Z-2.352 I0.995 J1.156
N1295 X-75.995 Y-51.156 Z-2.519 I-0.995 J-1.156
N1300 X-74.005 Y-48.844 Z-2.686 I0.995 J1.156
N1305 X-75.995 Y-51.156 Z-2.854 I-0.995 J-1.156
N1310 X-74.005 Y-48.844 Z-3.021 I0.995 J1.156
N1315 X-75.995 Y-51.156 Z-3.188 I-0.995 J-1.156
N1320 X-74.005 Y-48.844 Z-3.356 I0.995 J1.156
N1325 X-75.995 Y-51.156 Z-3.523 I-0.995 J-1.156
N1330 X-74.005 Y-48.844 Z-3.69 I0.995 J1.156
N1335 X-75.995 Y-51.156 Z-3.858 I-0.995 J-1.156
N1340 X-74.005 Y-48.844 Z-4.025 I0.995 J1.156
N1345 X-75.995 Y-51.156 Z-4.192 I-0.995 J-1.156
N1350 X-74.005 Y-48.844 Z-4.359 I0.995 J1.156
N1355 X-75.995 Y-51.156 Z-4.527 I-0.995 J-1.156
N1360 X-74.005 Y-48.844 Z-4.694 I0.995 J1.156
N1365 X-75.995 Y-51.156 Z-4.861 I-0.995 J-1.156
N1370 X-74.005 Y-48.844 Z-5.029 I0.995 J1.156
N1375 X-75.995 Y-51.156 Z-5.196 I-0.995 J-1.156
N1380 X-74.005 Y-48.844 Z-5.363 I0.995 J1.156
N1385 X-75.995 Y-51.156 Z-5.531 I-0.995 J-1.156
N1390 X-74.005 Y-48.844 Z-5.698 I0.995 J1.156
N1395 X-75.995 Y-51.156 Z-5.865 I-0.995 J-1.156
N1400 X-74.005 Y-48.844 Z-6.032 I0.995 J1.156
N1405 X-75.995 Y-51.156 Z-6.2 I-0.995 J-1.156
N1410 X-74.005 Y-48.844 Z-6.367 I0.995 J1.156
N1415 X-75.995 Y-51.156 Z-6.534 I-0.995 J-1.156
N1420 X-74.005 Y-48.844 Z-6.702 I0.995 J1.156
N1425 X-75.995 Y-51.156 Z-6.869 I-0.995 J-1.156
N1430 X-74.005 Y-48.844 Z-7.036 I0.995 J1.156
N1435 X-75.995 Y-51.156 Z-7.204 I-0.995 J-1.156
N1440 X-74.005 Y-48.844 Z-7.371 I0.995 J1.156
N1445 X-75.995 Y-51.156 Z-7.538 I-0.995 J-1.156
N1450 X-74.005 Y-48.844 Z-7.705 I0.995 J1.156
N1455 X-75.995 Y-51.156 Z-7.873 I-0.995 J-1.156
N1460 X-74.005 Y-48.844 Z-8.04 I0.995 J1.156
N1465 X-75.995 Y-51.156 Z-8.207 I-0.995 J-1.156
N1470 X-74.005 Y-48.844 Z-8.375 I0.995 J1.156
N1475 X-75.995 Y-51.156 Z-8.542 I-0.995 J-1.156
N1480 X-74.005 Y-48.844 Z-8.709 I0.995 J1.156
N1485 X-75.995 Y-51.156 Z-8.877 I-0.995 J-1.156
N1490 X-74.005 Y-48.844 Z-9.044 I0.995 J1.156
N1495 X-75.995 Y-51.156 Z-9.211 I-0.995 J-1.156
N1500 X-74.005 Y-48.844 Z-9.379 I0.995 J1.156
N1505 X-76.525 Y-50. Z-9.5 I-0.995 J-1.156
N1510 X-74.975 I0.775 J0.
N1515 X-75.025 I-0.025 J0. F#100
N1520 X-74.475 I0.275 J0.
N1525 X-75.525 I-0.525 J0.
N1530 X-73.975 I0.775 J0.
N1535 X-76.025 I-1.025 J0.
N1540 X-73.475 I1.275 J0.
N1545 X-76.525 I-1.525 J0.
N1550 X-73.475 I1.525 J0.
N1555 X-73.503 Y-49.819 Z-9.471 I-0.595 J0. F#104
N1560 X-73.575 Y-49.67 Z-9.386 I-0.567 J-0.181
N1565 X-73.659 Y-49.569 Z-9.255 I-0.495 J-0.33
N1570 X-73.724 Y-49.516 Z-9.089 I-0.411 J-0.431
N1575 X-73.749 Y-49.499 Z-8.905 I-0.346 J-0.484
N1580 G0 Z6.
(2D CONTOUR1)
N1590 M8
N1595 G0 X-38.714 Y-44.057
N1600 #102=1000. (FINISH)
N1605 #103=1000. (ENTRY)
N1610 #104=1000. (EXIT)
N1615 #107=800. (RAMPING)
N1620 Z6.
N1625 Z3.
N1630 G1 Z2.5 F#103
N1635 G3 X-20.551 Y-15.208 Z2.033 I9.081 J14.424 F#107
N1640 X-38.714 Y-44.057 Z1.565 I-9.081 J-14.424
N1645 X-20.551 Y-15.208 Z1.098 I9.081 J14.424
N1650 X-38.714 Y-44.057 Z0.631 I-9.081 J-14.424
N1655 X-20.551 Y-15.208 Z0.163 I9.081 J14.424
N1660 X-38.714 Y-44.057 Z-0.304 I-9.081 J-14.424
N1665 X-20.551 Y-15.208 Z-0.771 I9.081 J14.424
N1670 X-38.714 Y-44.057 Z-1.238 I-9.081 J-14.424
N1675 X-20.551 Y-15.208 Z-1.706 I9.081 J14.424
N1680 X-38.714 Y-44.057 Z-2.173 I-9.081 J-14.424
N1685 X-20.551 Y-15.208 Z-2.64 I9.081 J14.424
N1690 X-38.714 Y-44.057 Z-3.108 I-9.081 J-14.424
N1695 X-20.551 Y-15.208 Z-3.575 I9.081 J14.424
N1700 X-38.714 Y-44.057 Z-4.042 I-9.081 J-14.424
N1705 X-20.551 Y-15.208 Z-4.51 I9.081 J14.424
N1710 X-38.714 Y-44.057 Z-4.977 I-9.081 J-14.424
N1715 X-20.551 Y-15.208 Z-5.444 I9.081 J14.424
N1720 X-38.714 Y-44.057 Z-5.912 I-9.081 J-14.424
N1725 X-20.551 Y-15.208 Z-6.379 I9.081 J14.424
N1730 X-38.714 Y-44.057 Z-6.846 I-9.081 J-14.424
N1735 X-20.551 Y-15.208 Z-7.314 I9.081 J14.424
N1740 X-38.714 Y-44.057 Z-7.781 I-9.081 J-14.424
N1745 X-20.551 Y-15.208 Z-8.248 I9.081 J14.424
N1750 X-38.714 Y-44.057 Z-8.715 I-9.081 J-14.424
N1755 X-20.551 Y-15.208 Z-9.183 I9.081 J14.424
N1760 X-46.678 Y-29.632 Z-9.5 I-9.081 J-14.424
N1765 X-12.587 I17.045 J0. F#102
N1770 X-46.678 I-17.045 J0.
N1775 X-12.507 I17.085 J0.
N1780 X-46.757 I-17.125 J0.
N1785 X-12.507 I17.125 J0.
N1790 G1 X-12.805 Z-9.47 F#104
N1795 G0 Z6.
N1805 M9
N1810 G53 Z0.
N1815 M30
%
