%
(1001)
(T21  D=5. CR=0. - ZMIN=-10. - FLAT END MILL)
N10 G90 G94 G17 G91.1
N15 G21
N20 G53 G0 Z0.
(FACE1)
N25 M9
N30 T21 M6
N35 S4000 M3
N40 G54
N45 M8
N55 G0 X36.026 Y-31.575
N60 G43 Z4. H21
N65 G0 Z2.
N70 G1 Z-0.5 F800.
N75 G18 G3 X35.526 Z-1. I-0.5 K0.
N80 G1 X33.
N85 X-33.
N90 G17 G2 Y-27.69 I0. J1.943
N95 G1 X33.
N100 G3 Y-23.805 I0. J1.943
N105 G1 X-33.
N110 G2 Y-19.92 I0. J1.943
N115 G1 X33.
N120 G3 Y-16.035 I0. J1.942
N125 G1 X-33.
N130 G2 Y-12.15 I0. J1.943
N135 G1 X33.
N140 G3 Y-8.265 I0. J1.942
N145 G1 X-33.
N150 G2 Y-4.38 I0. J1.943
N155 G1 X33.
N160 G3 Y-0.495 I0. J1.943
N165 G1 X-33.
N170 G2 Y3.39 I0. J1.942
N175 G1 X33.
N180 G3 Y7.275 I0. J1.942
N185 G1 X-33.
N190 G2 Y11.16 I0. J1.942
N195 G1 X33.
N200 G3 Y15.045 I0. J1.943
N205 G1 X-33.
N210 G2 Y18.93 I0. J1.942
N215 G1 X33.
N220 G3 Y22.815 I0. J1.942
N225 G1 X-33.
N230 G2 Y26.7 I0. J1.942
N235 G1 X33.
N240 G3 Y30.585 I0. J1.942
N245 G1 X-33.
N250 G18 G3 X-33.5 Z-0.5 I0. K0.5
N255 G0 Z4.
N260 G17
(2D ADAPTIVE3)
N265 M8
N270 G0 X2.215 Y-1.831
N275 Z4.
N280 Z2.51
N285 G1 Z2.505 F800.
N290 G3 X-2.215 Y-0.118 Z2.244 I-2.215 J0.857
N295 X2.215 Y-1.831 Z1.984 I2.215 J-0.857
N300 X-2.215 Y-0.118 Z1.723 I-2.215 J0.857
N305 X2.215 Y-1.831 Z1.463 I2.215 J-0.857
N310 X-2.215 Y-0.118 Z1.202 I-2.215 J0.857
N315 X2.215 Y-1.831 Z0.942 I2.215 J-0.857
N320 X-2.215 Y-0.118 Z0.681 I-2.215 J0.857
N325 X2.215 Y-1.831 Z0.421 I2.215 J-0.857
N330 X-2.215 Y-0.118 Z0.16 I-2.215 J0.857
N335 X2.215 Y-1.831 Z-0.101 I2.215 J-0.857
N340 X-2.215 Y-0.118 Z-0.361 I-2.215 J0.857
N345 X2.215 Y-1.831 Z-0.622 I2.215 J-0.857
N350 X-2.215 Y-0.118 Z-0.882 I-2.215 J0.857
N355 X2.215 Y-1.831 Z-1.143 I2.215 J-0.857
N360 X-2.215 Y-0.118 Z-1.403 I-2.215 J0.857
N365 X2.215 Y-1.831 Z-1.664 I2.215 J-0.857
N370 X-2.215 Y-0.118 Z-1.924 I-2.215 J0.857
N375 X2.215 Y-1.831 Z-2.185 I2.215 J-0.857
N380 X-2.215 Y-0.118 Z-2.446 I-2.215 J0.857
N385 X2.215 Y-1.831 Z-2.706 I2.215 J-0.857
N390 X-2.215 Y-0.118 Z-2.967 I-2.215 J0.857
N395 X2.215 Y-1.831 Z-3.227 I2.215 J-0.857
N400 X-2.215 Y-0.118 Z-3.488 I-2.215 J0.857
N405 X2.215 Y-1.831 Z-3.748 I2.215 J-0.857
N410 X-2.215 Y-0.118 Z-4.009 I-2.215 J0.857
N415 X2.215 Y-1.831 Z-4.269 I2.215 J-0.857
N420 X2.375 Y-0.975 Z-4.3 I-2.215 J0.857
N425 X-2.375 I-2.375 J0.
N430 X2.375 I2.375 J0.
N435 G2 X2.463 Y-0.268 I2.114 J0.096
N440 G3 X2.066 Y0.97 I-1.759 J0.119
N445 X0.224 Y1.964 I-2.032 J-1.56
N450 X-2.968 Y-0.797 I-0.27 J-2.914
N455 X2.709 Y-2.208 I2.969 J-0.183
N460 X3.132 Y-0.792 I-4.227 J2.032
N465 X1.413 Y2.268 I-3.015 J0.319
N470 X-2.24 Y1.866 I-1.509 J-3.088
N475 X-0.344 Y-4.589 I2.226 J-2.852
N480 X2.951 Y-3.098 I0.355 J3.603
N485 X3.806 Y-0.022 I-3.334 J2.585
N490 X0.59 Y3.238 I-3.821 J-0.553
N495 X-3.752 Y1.172 I-0.699 J-4.127
N500 X2.572 Y-4.461 I3.748 J-2.158
N505 X4.489 Y0.253 I-2.843 J3.903
N510 X0.248 Y4.006 I-4.545 J-0.863
N515 X-4.704 Y0.89 I-0.364 J-4.914
N520 X2.37 Y-5.458 I4.699 J-1.879
N525 X5.073 Y-2.178 I-2.552 J4.856
N530 X1.237 Y4.606 I-5.11 J1.587
N535 X-4.831 Y2.267 I-1.376 J-5.471
N540 X-1.801 Y-6.526 I4.808 J-3.262
N545 X3.556 Y-5.62 I1.812 J5.576
N550 X5.639 Y1.726 I-3.709 J5.02
N555 X-0.998 Y5.497 I-5.75 J-2.392
N560 X-6.408 Y0.66 I0.879 J-6.428
N565 X2.027 Y-7.283 I6.403 J-1.651
N570 X6.471 Y-2.969 I-2.119 J6.63
N575 X1.692 Y6.116 I-6.528 J2.366
N580 X-5.873 Y3.536 I-1.846 J-6.969
N585 X-3.084 Y-7.734 I5.843 J-4.534
N590 X4.039 Y-7.233 I3.102 J6.79
N595 X6.188 Y4.004 I-4.15 J6.618
N600 X-3.242 Y6.55 I-6.337 J-4.735
N605 X-8.117 Y-2.427 I3.147 J-7.522
N610 X2.327 Y-8.897 I8.117 J1.437
N615 X8.202 Y-2.953 I-2.395 J8.243
N620 X2.177 Y7.69 I-8.268 J2.346
N625 X-7.056 Y4.708 I-2.342 J-8.535
N630 X-4.328 Y-8.965 I7.02 J-5.708
N635 X4.524 Y-8.882 I4.351 J8.023
N640 X0.936 Y8.786 I-4.615 J8.261
N645 X-8.59 Y3.974 I-1.096 J-9.665
N650 X-1.026 Y-10.858 I8.569 J-4.974
N655 X7.344 Y-7.766 I1.048 J10.038
N660 X2.166 Y9.442 I-7.427 J7.148
N665 X-8.721 Y5.337 I-2.335 J-10.298
N670 X-5.472 Y-10.279 I8.683 J-6.34
N675 X5.32 Y-10.399 I5.5 J9.347
N680 X2.397 Y10.276 I-5.406 J9.779
N685 X1.347 Y10.456 I-1.457 J-5.323
N690 G1 X-0.825 Y10.452
N695 G3 X-2.358 Y10.315 I0.219 J-11.141
N700 X-8.545 Y6.908 I1.978 J-10.913
N705 X-11.218 Y2.159 I8.306 J-7.801
N710 G1 X-11.241 Y1.98
N715 X-11.25 Y1.799
N720 Y-2.774
N725 G3 X-10.586 Y-5.762 I7.726 J0.149
N730 X-7.162 Y-10.176 I10.14 J4.331
N735 X-2.671 Y-12.329 I7.083 J9.014
N740 G1 X-2.529 Y-12.342
N745 X-2.387 Y-12.348
N750 X1.425
N755 G3 X4.904 Y-11.554 I-0.168 J8.759
N760 X9.484 Y-7.929 I-4.655 J10.586
N765 X11.129 Y-5.01 I-9.353 J7.195
N770 G1 X11.196 Y-4.798
N775 X11.237 Y-4.579
N780 X11.25 Y-4.357
N785 Y2.174
N790 G3 X10.714 Y4.524 I-6.291 J-0.2
N795 X8.595 Y7.713 I-9.553 J-4.047
N800 X5.037 Y10.281 I-8.551 J-8.099
N805 X4.266 Y10.452 I-0.768 J-1.636
N810 G1 X1.347
N815 X1.151
N820 X-0.628 F30000.
N825 X-0.825 F800.
N830 X-3.674
N835 G3 X-5.807 Y9.938 I0.186 J-5.453
N840 X-8.382 Y8.27 I3.917 J-8.868
N845 X-11.025 Y4.948 I7.841 J-8.952
N850 X-11.25 Y4.071 I1.587 J-0.874
N855 G1 Y1.799
N860 G3 X-11.205 Y1.609 I0.5 J0.017
N865 X-10.373 Y1.489 I0.455 J0.207 F30000.
N870 G1 X-3.314 Y9.625
N875 G3 X-3.484 Y10.407 I-0.378 J0.328
N880 X-3.674 Y10.452 I-0.207 J-0.455 F800.
N885 G1 X-5.474
N890 G3 X-7.066 Y10.062 I0.163 J-4.114
N895 X-9.2 Y8.654 I3.32 J-7.354
N900 X-10.937 Y6.731 I7.454 J-8.477
N905 X-11.263 Y5.474 I1.492 J-1.058
N910 G1 X-11.253 Y5.324
N915 X-11.25 Y5.174
N920 Y5.024
N925 Y4.071
N930 G3 X-11.205 Y3.881 I0.5 J0.017
N935 X-10.378 Y3.754 I0.455 J0.207 F30000.
N940 G1 X-5.119 Y9.618
N945 G3 X-5.284 Y10.407 I-0.372 J0.334
N950 X-5.474 Y10.452 I-0.207 J-0.455 F800.
N955 G1 X-6.973
N960 G3 X-8.299 Y10.116 I0.178 J-3.491
N965 X-10.204 Y8.827 I2.903 J-6.339
N970 X-11.102 Y7.888 I4.971 J-5.655
N975 X-11.384 Y6.224 I1.477 J-1.107
N980 G1 X-11.349 Y6.073
N985 X-11.334 Y6.005
N990 G3 X-11.25 Y5.829 I0.484 J0.124
N995 X-10.498 Y5.774 I0.4 J0.3 F30000.
N1000 G1 X-6.639 Y9.597
N1005 G3 X-6.783 Y10.407 I-0.352 J0.355
N1010 X-6.973 Y10.452 I-0.207 J-0.455 F800.
N1015 G1 X-8.255
N1020 G3 X-9.671 Y10.051 I0.167 J-3.29
N1025 X-11.377 Y8.729 I2.312 J-4.744
N1030 X-11.765 Y7.592 I1.487 J-1.143
N1035 X-11.53 Y6.675 I2.098 J0.049
N1040 G1 X-11.5 Y6.617
N1045 X-11.463 Y6.563
N1050 X-11.419 Y6.515
N1055 G3 X-10.709 Y6.544 I0.34 J0.366 F30000.
N1060 G1 X-7.904 Y9.615
N1065 G3 X-8.065 Y10.407 I-0.369 J0.337
N1070 X-8.255 Y10.452 I-0.207 J-0.455 F800.
N1075 G2 X-9.484 Y10.477 I-0.265 J17.439
N1080 G3 X-11.576 Y9.461 I0.286 J-3.252
N1085 X-11.95 Y8.623 I1.436 J-1.142
N1090 X-11.944 Y8.428 I0.493 J-0.085
N1095 X-11.174 Y8.126 I0.488 J0.11 F30000.
N1100 G1 X-9.079 Y9.563
N1105 G3 X-9.119 Y10.412 I-0.283 J0.412
N1110 X-9.305 Y10.472 I-0.243 J-0.437 F800.
N1115 G2 X-10.03 Y10.601 I0.311 J3.847
N1120 G3 X-11.891 Y9.073 I-0.243 J-1.601
N1125 G1 Y9.007
N1130 X-11.882 Y8.942
N1135 X-11.866 Y8.879
N1140 G3 X-11.077 Y8.649 I0.474 J0.159 F30000.
N1145 G1 X-9.766 Y9.711
N1150 G3 X-9.771 Y10.492 I-0.315 J0.389
N1155 X-9.944 Y10.581 I-0.31 J-0.392 F800.
N1160 G2 X-10.538 Y10.773 I1.926 J6.952
N1165 G1 X-10.587 Y10.779
N1170 X-10.633 Y10.786
N1175 X-10.679 Y10.791
N1180 X-10.92 Y10.779
N1185 X-11.153 Y10.717
N1190 X-11.368 Y10.607
N1195 X-11.556 Y10.455
N1200 X-11.707 Y10.267
N1205 X-11.816 Y10.052
N1210 X-11.877 Y9.819
N1215 X-11.889 Y9.578
N1220 G3 X-11.833 Y9.391 I0.498 J0.047
N1225 X-11.064 Y9.246 I0.442 J0.234 F30000.
N1230 G1 X-10.305 Y9.901
N1235 G3 X-10.264 Y10.619 I-0.327 J0.378
N1240 X-10.422 Y10.734 I-0.367 J-0.339 F800.
N1245 X-10.866 Y10.926 I-7.598 J-17.002
N1250 G1 X-10.907 Y10.933
N1255 X-10.946 Y10.941
N1260 X-10.983 Y10.947
N1265 X-11.019 Y10.95
N1270 X-11.058 Y10.953
N1275 X-11.305 Y10.918
N1280 X-11.533 Y10.815
N1285 X-11.723 Y10.651
N1290 X-11.858 Y10.441
N1295 X-11.928 Y10.201
N1300 Y9.951
N1305 G3 X-11.868 Y9.764 I0.728 J0.132
N1310 X-11.464 Y9.392 I0.668 J0.319 F30000.
N1315 X-10.596 Y10.761 I0.295 J0.772
N1320 X-10.753 Y10.879 I-0.572 J-0.596 F800.
N1325 X-11.068 Y11.053 I-2.426 J-4.016
N1330 G1 X-11.095 Y11.063
N1335 X-11.128 Y11.073
N1340 X-11.16 Y11.082
N1345 X-11.19 Y11.089
N1350 X-11.22 Y11.093
N1355 X-11.247 Y11.097
N1360 X-11.277 Y11.099
N1365 X-11.487 Y11.071
N1370 X-11.679 Y10.982
N1375 X-11.837 Y10.841
N1380 X-11.945 Y10.659
N1385 X-11.995 Y10.453
N1390 X-11.981 Y10.242
N1395 G3 X-11.902 Y10.063 I0.563 J0.144
N1400 X-11.666 Y9.86 I0.483 J0.322 F30000.
N1405 X-10.863 Y10.89 I0.285 J0.606
N1410 X-11.007 Y11.022 I-0.518 J-0.425 F800.
N1415 X-11.302 Y11.199 I-1.285 J-1.808
N1420 G1 X-11.331 Y11.206
N1425 X-11.358 Y11.214
N1430 X-11.383 Y11.22
N1435 X-11.408 Y11.224
N1440 X-11.432 Y11.227
N1445 X-11.456 Y11.229
N1450 X-11.639 Y11.206
N1455 X-11.805 Y11.128
N1460 X-11.94 Y11.002
N1465 X-12.029 Y10.842
N1470 X-12.065 Y10.661
N1475 X-12.044 Y10.478
N1480 G3 X-11.949 Y10.308 I0.458 J0.145
N1485 X-11.798 Y10.192 I0.363 J0.315 F30000.
N1490 X-11.091 Y11.026 I0.249 J0.506
N1495 X-11.23 Y11.163 I-0.458 J-0.328 F800.
N1500 X-11.622 Y11.302 I-0.387 J-0.465
N1505 X-12.109 Y10.722 I0.036 J-0.525
N1510 G1 X-12.072 Y10.578
N1515 X-12.07 Y10.572
N1520 X-12.069 Y10.569
N1525 X-12.048 Y10.524 Z-4.293
N1530 X-12.029 Y10.481 Z-4.273
N1535 X-12.012 Y10.445 Z-4.241
N1540 X-12. Y10.417 Z-4.201
N1545 X-11.992 Y10.399 Z-4.154
N1550 X-11.989 Y10.393 Z-4.104
N1555 G0 Z2.51
N1560 X-11.099 Y-2.651
N1565 Z-3.8
N1570 G1 Z-4.3 F800.
N1575 G2 X-11.242 Y-2.759 I-3.655 J4.7
N1580 G1 X-11.25 Y-2.774
N1585 Y-5.174
N1590 G3 X-10.832 Y-6.931 I4.762 J0.204
N1595 X-9.154 Y-9.497 I8.309 J3.602
N1600 X-5.68 Y-12.152 I8.786 J7.896
N1605 X-4.86 Y-12.348 I0.814 J1.597
N1610 G1 X-2.387
N1615 G3 X-2.197 Y-12.303 I-0.017 J0.5
N1620 X-2.093 Y-11.457 I-0.207 J0.455 F30000.
N1625 G1 X-10.439 Y-4.8
N1630 G3 X-11.205 Y-4.984 I-0.312 J-0.391
N1635 X-11.25 Y-5.174 I0.455 J-0.207 F800.
N1640 G1 Y-6.673
N1645 G3 X-11.027 Y-7.92 I3.315 J-0.05
N1650 X-9.872 Y-9.903 I6.293 J2.339
N1655 X-7.591 Y-12.019 I8.427 J6.793
N1660 X-6.547 Y-12.348 I1.039 J1.478
N1665 G1 X-4.86
N1670 G3 X-4.67 Y-12.303 I-0.017 J0.5
N1675 X-4.551 Y-11.469 I-0.207 J0.455 F30000.
N1680 G1 X-10.427 Y-6.407
N1685 G3 X-11.203 Y-6.567 I-0.326 J-0.379
N1690 X-11.252 Y-6.756 I0.449 J-0.219 F800.
N1695 G2 X-11.374 Y-7.706 I-4.694 J0.12
N1700 G3 X-11.123 Y-9.148 I3.123 J-0.199
N1705 X-10.069 Y-10.885 I5.743 J2.297
N1710 X-8.952 Y-12.022 I6.031 J4.81
N1715 X-7.901 Y-12.349 I1.064 J1.57
N1720 G1 X-6.673 Y-12.348
N1725 G3 X-6.483 Y-12.303 I-0.017 J0.5
N1730 X-6.339 Y-11.493 I-0.207 J0.455 F30000.
N1735 G1 X-10.515 Y-7.353
N1740 G3 X-11.261 Y-7.399 I-0.352 J-0.355
N1745 X-11.349 Y-7.573 I0.393 J-0.309 F800.
N1750 G2 X-11.581 Y-8.306 I-4.373 J0.982
N1755 G3 X-11.521 Y-9.624 I2.501 J-0.547
N1760 X-10.664 Y-11.347 I4.975 J1.4
N1765 X-10.17 Y-11.929 I2.59 J1.698
N1770 X-8.773 Y-12.359 I1.199 J1.411
N1775 G2 X-8.023 Y-12.348 I0.549 J-11.754
N1780 G3 X-7.833 Y-12.303 I-0.017 J0.5
N1785 X-7.664 Y-11.519 I-0.207 J0.455 F30000.
N1790 G1 X-10.702 Y-8.051
N1795 G3 X-11.419 Y-8.015 I-0.376 J-0.329
N1800 X-11.533 Y-8.173 I0.341 J-0.366 F800.
N1805 G2 X-11.862 Y-8.851 I-6.752 J2.856
N1810 G3 X-11.916 Y-10.122 I2.195 J-0.731
N1815 X-11.829 Y-10.297 I0.482 J0.131
N1820 X-10.935 Y-10.025 I0.396 J0.306
N1825 G1 X-10.865 Y-9.003
N1830 G3 X-11.781 Y-8.694 I-0.499 J0.034
N1835 X-12.101 Y-9.221 I6.687 J-4.422
N1840 X-12.05 Y-9.671 I0.63 J-0.156
N1845 G2 X-11.827 Y-10.514 I-7.351 J-2.395
N1850 G3 X-11.239 Y-11.74 I4.08 J1.204
N1855 X-9.478 Y-12.443 I1.464 J1.113
N1860 X-9.298 Y-12.368 I-0.098 J0.49
N1865 X-9.23 Y-11.592 I-0.278 J0.415 F30000.
N1870 G1 X-11.042 Y-9.85
N1875 G3 X-11.87 Y-10.078 I-0.347 J-0.36
N1880 X-11.884 Y-10.272 I0.482 J-0.132 F800.
N1885 G2 X-11.81 Y-11.29 I-4.57 J-0.846
N1890 G1 X-11.797 Y-11.364
N1895 X-11.736 Y-11.604
N1900 X-11.636 Y-11.831
N1905 X-11.499 Y-12.037
N1910 X-11.33 Y-12.218
N1915 X-11.133 Y-12.369
N1920 X-10.914 Y-12.484
N1925 X-10.679 Y-12.561
N1930 X-10.434 Y-12.598
N1935 X-10.186 Y-12.594
N1940 X-9.943 Y-12.549
N1945 G3 X-9.772 Y-12.455 I-0.149 J0.477
N1950 X-9.803 Y-11.664 I-0.321 J0.384 F30000.
N1955 G1 X-11.022 Y-10.797
N1960 G3 X-11.76 Y-10.984 I-0.29 J-0.408
N1965 X-11.811 Y-11.172 I0.448 J-0.221 F800.
N1970 G2 X-11.857 Y-11.666 I-3.125 J0.042
N1975 G3 X-11.825 Y-11.972 I0.992 J-0.053
N1980 G1 X-11.741 Y-12.179
N1985 X-11.617 Y-12.365
N1990 X-11.457 Y-12.522
N1995 X-11.269 Y-12.643
N2000 X-11.06 Y-12.722
N2005 X-10.839 Y-12.758
N2010 X-10.615 Y-12.748
N2015 X-10.399 Y-12.692
N2020 G3 X-10.226 Y-12.599 I-0.358 J0.872
N2025 X-9.814 Y-11.833 I-0.53 J0.779 F30000.
N2030 X-11.795 Y-11.434 I-1.028 J0.015
N2035 X-11.851 Y-11.622 I0.953 J-0.384 F800.
N2040 X-11.929 Y-12.077 I10.008 J-1.947
N2045 X-11.893 Y-12.333 I0.877 J-0.008
N2050 G1 X-11.789 Y-12.543
N2055 X-11.631 Y-12.715
N2060 X-11.432 Y-12.838
N2065 X-11.206 Y-12.901
N2070 X-10.972 Y-12.899
N2075 X-10.748 Y-12.833
N2080 G3 X-10.586 Y-12.723 I-0.328 J0.658
N2085 X-10.346 Y-12.263 I-0.49 J0.548 F30000.
N2090 X-11.842 Y-11.786 I-0.793 J0.096
N2095 X-11.913 Y-11.969 I0.703 J-0.381 F800.
N2100 X-12.013 Y-12.357 I2.757 J-0.915
N2105 G1 X-12.01 Y-12.392
N2110 X-12.009 Y-12.426
N2115 X-12.006 Y-12.459
N2120 X-12.002 Y-12.489
N2125 X-11.997 Y-12.518
N2130 X-11.99 Y-12.546
N2135 X-11.979 Y-12.583
N2140 X-11.978 Y-12.587
N2145 X-11.889 Y-12.76
N2150 X-11.756 Y-12.9
N2155 X-11.587 Y-12.997
N2160 X-11.398 Y-13.042
N2165 X-11.205 Y-13.031
N2170 X-11.022 Y-12.965
N2175 G3 X-10.87 Y-12.843 I-0.273 J0.497
N2180 X-10.739 Y-12.579 I-0.426 J0.374 F30000.
N2185 X-11.897 Y-12.063 I-0.637 J0.127
N2190 X-11.989 Y-12.235 I0.52 J-0.389 F800.
N2195 X-12.091 Y-12.585 I1.9 J-0.742
N2200 G1 X-12.089 Y-12.613
N2205 X-12.088 Y-12.642
N2210 X-12.086 Y-12.671
N2215 X-12.083 Y-12.697
N2220 X-12.079 Y-12.722
N2225 X-12.074 Y-12.746
N2230 X-11.988 Y-12.927
N2235 X-11.844 Y-13.067
N2240 X-11.66 Y-13.147
N2245 X-11.459 Y-13.157
N2250 X-11.268 Y-13.096
N2255 G3 X-11.123 Y-12.966 I-0.239 J0.414
N2260 X-11.043 Y-12.796 I-0.385 J0.285 F30000.
N2265 X-11.968 Y-12.312 I-0.522 J0.129
N2270 X-12.068 Y-12.479 I0.403 J-0.356 F800.
N2275 X-11.961 Y-13.083 I0.472 J-0.228
N2280 X-11.317 Y-13.12 I0.345 J0.385
N2285 G1 X-11.022 Y-12.965
N2290 X-10.938 Y-12.923
N2295 X-10.899 Y-12.89 Z-4.293
N2300 X-10.863 Y-12.86 Z-4.273
N2305 X-10.832 Y-12.834 Z-4.242
N2310 X-10.808 Y-12.814 Z-4.201
N2315 X-10.793 Y-12.801 Z-4.154
N2320 X-10.788 Y-12.797 Z-4.104
N2325 G0 Z2.51
N2330 X1.871 Y-11.996
N2335 Z-3.3
N2340 G1 Z-3.8 F800.
N2345 X1.864 Y-11.999 Z-3.887
N2350 X1.843 Y-12.006 Z-3.971
N2355 X1.808 Y-12.017 Z-4.05
N2360 X1.76 Y-12.033 Z-4.121
N2365 X1.702 Y-12.053 Z-4.183
N2370 X1.634 Y-12.075 Z-4.233
N2375 X1.559 Y-12.1 Z-4.27
N2380 X1.479 Y-12.126 Z-4.292
N2385 X1.397 Y-12.154 Z-4.3
N2390 G3 X1.425 Y-12.348 I0.031 J-0.095
N2395 G1 X3.974
N2400 G3 X5.838 Y-11.928 I-0.157 J5.047
N2405 X8.436 Y-10.299 I-3.662 J8.73
N2410 X10.986 Y-7.278 I-7.871 J9.23
N2415 X11.25 Y-6.333 I-1.547 J0.941
N2420 G1 Y-4.357
N2425 G3 X11.205 Y-4.167 I-0.5 J-0.017
N2430 X10.379 Y-4.039 I-0.455 J-0.207 F30000.
N2435 G1 X3.621 Y-11.513
N2440 G3 X3.784 Y-12.303 I0.371 J-0.335
N2445 X3.974 Y-12.348 I0.207 J0.455 F800.
N2450 G1 X5.706
N2455 G3 X7.275 Y-11.963 I-0.156 J4.029
N2460 X9.406 Y-10.551 I-3.324 J7.327
N2465 X11.072 Y-8.713 I-7.086 J8.1
N2470 X11.29 Y-7.273 I-1.708 J0.995
N2475 G2 X11.25 Y-6.333 I6.774 J0.761
N2480 G3 X11.205 Y-6.143 I-0.5 J-0.017
N2485 X10.381 Y-6.013 I-0.455 J-0.207 F30000.
N2490 G1 X5.354 Y-11.511
N2495 G3 X5.516 Y-12.303 I0.369 J-0.337
N2500 X5.706 Y-12.348 I0.207 J0.455 F800.
N2505 G1 X7.123
N2510 G3 X8.506 Y-12.012 I-0.109 J3.467
N2515 X10.41 Y-10.722 I-2.901 J6.331
N2520 X11.281 Y-9.787 I-3.937 J4.541
N2525 X11.489 Y-8.061 I-1.504 J1.057
N2530 X11.378 Y-7.901 I-0.459 J-0.199
N2535 X10.691 Y-7.892 I-0.348 J-0.359 F30000.
N2540 G1 X6.801 Y-11.481
N2545 G3 X6.933 Y-12.303 I0.339 J-0.367
N2550 X7.123 Y-12.348 I0.207 J0.455 F800.
N2555 G1 X8.323
N2560 G3 X9.562 Y-12.092 I0.057 J2.854
N2565 X11.532 Y-10.657 I-1.952 J4.749
N2570 X11.94 Y-9.31 I-1.492 J1.187
N2575 X11.662 Y-8.473 I-2.022 J-0.207
N2580 G1 X11.622 Y-8.386
N2585 X11.595 Y-8.323
N2590 X11.533 Y-8.173
N2595 G3 X11.419 Y-8.015 I-0.455 J-0.208
N2600 X10.677 Y-8.083 I-0.341 J-0.366 F30000.
N2605 G1 X8.101 Y-11.552
N2610 G3 X8.284 Y-12.3 I0.401 J-0.298
N2615 X8.473 Y-12.349 I0.218 J0.45 F800.
N2620 G2 X9.454 Y-12.429 I-0.161 J-8.025
N2625 G3 X11.13 Y-11.885 I-0.038 J2.97
N2630 X11.831 Y-10.637 I-1.132 J1.457
N2635 X11.807 Y-10.443 I-0.499 J0.038
N2640 X11.054 Y-10.183 I-0.475 J-0.155 F30000.
N2645 G1 X9.086 Y-11.502
N2650 G3 X9.087 Y-12.334 I0.278 J-0.415
N2655 X9.268 Y-12.408 I0.277 J0.416 F800.
N2660 G2 X10.115 Y-12.59 I-1.061 J-6.999
N2665 G1 X10.19 Y-12.595
N2670 X10.438 Y-12.594
N2675 X10.683 Y-12.552
N2680 X10.917 Y-12.47
N2685 X11.135 Y-12.351
N2690 X11.33 Y-12.197
N2695 X11.497 Y-12.014
N2700 X11.632 Y-11.805
N2705 X11.731 Y-11.578
N2710 X11.791 Y-11.337
N2715 X11.81 Y-11.089
N2720 G3 X11.765 Y-10.899 I-0.5 J-0.019
N2725 X10.994 Y-10.722 I-0.454 J-0.209 F30000.
N2730 G1 X9.807 Y-11.693
N2735 G3 X9.801 Y-12.462 I0.317 J-0.387
N2740 X9.972 Y-12.557 I0.322 J0.382 F800.
N2745 G2 X10.527 Y-12.738 I-1.825 J-6.529
N2750 G1 X10.566 Y-12.745
N2755 X10.614 Y-12.754
N2760 X10.662 Y-12.761
N2765 X10.707 Y-12.765
N2770 X10.754 Y-12.767
N2775 X10.986 Y-12.739
N2780 X11.208 Y-12.664
N2785 X11.408 Y-12.543
N2790 X11.579 Y-12.382
N2795 X11.712 Y-12.19
N2800 X11.801 Y-11.973
N2805 X11.843 Y-11.743
N2810 X11.835 Y-11.509
N2815 G3 X11.781 Y-11.32 I-0.947 J-0.168
N2820 X11.123 Y-10.744 I-0.893 J-0.356 F30000.
N2825 X10.276 Y-12.615 I-0.255 J-1.012
N2830 X10.447 Y-12.711 I0.592 J0.859 F800.
N2835 X10.891 Y-12.89 I3.717 J8.565
N2840 G1 X10.921 Y-12.896
N2845 X10.961 Y-12.903
N2850 X11.002 Y-12.909
N2855 X11.04 Y-12.912
N2860 X11.076 Y-12.913
N2865 X11.114
N2870 X11.35 Y-12.864
N2875 X11.562 Y-12.752
N2880 X11.735 Y-12.585
N2885 X11.854 Y-12.376
N2890 X11.911 Y-12.142
N2895 X11.899 Y-11.902
N2900 G3 X11.831 Y-11.719 I-0.712 J-0.162
N2905 X11.407 Y-11.368 I-0.643 J-0.345 F30000.
N2910 X10.642 Y-12.751 I-0.242 J-0.769
N2915 X10.805 Y-12.859 I0.523 J0.614 F800.
N2920 X11.126 Y-13.014 I2.803 J5.384
N2925 G1 X11.155 Y-13.022
N2930 X11.188 Y-13.03
N2935 X11.219 Y-13.036
N2940 X11.249 Y-13.041
N2945 X11.277 Y-13.043
N2950 X11.305 Y-13.045
N2955 X11.336
N2960 X11.54 Y-13.004
N2965 X11.722 Y-12.904
N2970 X11.867 Y-12.754
N2975 X11.96 Y-12.569
N2980 X11.994 Y-12.364
N2985 X11.966 Y-12.158
N2990 G3 X11.874 Y-11.986 I-0.55 J-0.184
N2995 X11.636 Y-11.805 I-0.458 J-0.356 F30000.
N3000 X10.904 Y-12.862 I-0.25 J-0.608
N3005 X11.057 Y-12.984 I0.482 J0.448 F800.
N3010 G1 X11.296 Y-13.111
N3015 X11.318 Y-13.121
N3020 X11.333 Y-13.127
N3025 X11.35 Y-13.133
N3030 X11.376 Y-13.141
N3035 X11.403 Y-13.148
N3040 X11.429 Y-13.153
N3045 X11.454 Y-13.157
N3050 X11.478 Y-13.159
N3055 X11.501 Y-13.16
N3060 X11.527
N3065 X11.699 Y-13.125
N3070 X11.852 Y-13.039
N3075 X11.973 Y-12.911
N3080 X12.048 Y-12.752
N3085 X12.073 Y-12.578
N3090 X12.043 Y-12.405
N3095 G3 X11.939 Y-12.24 I-0.448 J-0.167
N3100 X11.778 Y-12.13 I-0.343 J-0.332 F30000.
N3105 X11.147 Y-12.984 I-0.208 J-0.506
N3110 X11.296 Y-13.111 I0.423 J0.348 F800.
N3115 X11.772 Y-13.193 I0.325 J0.461
N3120 X12.07 Y-12.491 I-0.159 J0.481
N3125 G1 Y-12.487
N3130 X12.047 Y-12.443 Z-4.293
N3135 X12.026 Y-12.401 Z-4.273
N3140 X12.008 Y-12.366 Z-4.241
N3145 X11.994 Y-12.339 Z-4.201
N3150 X11.985 Y-12.321 Z-4.154
N3155 X11.982 Y-12.316 Z-4.104
N3160 G0 Z2.51
N3165 X11.205 Y1.985
N3170 Z-3.8
N3175 G1 Z-4.3 F800.
N3180 G3 X11.25 Y2.174 I-0.455 J0.207
N3185 G1 Y4.124
N3190 G3 X10.864 Y5.807 I-4.401 J-0.123
N3195 X9.329 Y8.162 I-7.783 J-3.395
N3200 X6.88 Y10.25 I-8.489 J-7.476
N3205 X6.035 Y10.452 I-0.86 J-1.729
N3210 G1 X4.266
N3215 G3 X4.076 Y10.407 I0.017 J-0.5
N3220 X3.949 Y9.58 I0.207 J-0.455 F30000.
N3225 G1 X10.416 Y3.769
N3230 G3 X11.205 Y3.934 I0.334 J0.372
N3235 X11.25 Y4.124 I-0.455 J0.207 F800.
N3240 G2 X11.27 Y5.767 I29.436 J0.465
N3245 G3 X10.759 Y7.438 I-4.148 J-0.354
N3250 X9.217 Y9.477 I-7.164 J-3.815
N3255 X8.461 Y10.154 I-4.31 J-4.055
N3260 X7.454 Y10.452 I-1.014 J-1.574
N3265 G1 X6.035
N3270 G3 X5.845 Y10.407 I0.017 J-0.5
N3275 X5.71 Y9.588 I0.207 J-0.455 F30000.
N3280 G1 X10.425 Y5.166
N3285 G3 X11.204 Y5.288 I0.342 J0.365
N3290 X11.263 Y5.474 I-0.437 J0.243 F800.
N3295 G2 X11.423 Y6.369 I4.141 J-0.274
N3300 G3 X11.281 Y7.664 I-2.784 J0.35
N3305 X10.336 Y9.403 I-5.319 J-1.764
N3310 X9.774 Y10.037 I-3.042 J-2.13
N3315 X8.611 Y10.452 I-1.165 J-1.427
N3320 G1 X7.573
N3325 G3 X7.383 Y10.407 I0.017 J-0.5
N3330 X7.226 Y9.61 I0.207 J-0.455 F30000.
N3335 G1 X10.554 Y6.068
N3340 G3 X11.307 Y6.096 I0.364 J0.342
N3345 X11.398 Y6.269 I-0.389 J0.314 F800.
N3350 G2 X11.647 Y6.944 I3.949 J-1.072
N3355 G3 X11.615 Y8.338 I-2.417 J0.643
N3360 X10.989 Y9.717 I-4.147 J-1.052
N3365 X9.353 Y10.476 I-1.49 J-1.07
N3370 G2 X8.611 Y10.453 I-0.573 J6.524
N3375 G1 X8.546 Y10.446
N3380 X8.482 Y10.431
N3385 X8.421 Y10.407
N3390 G3 X8.252 Y9.623 I0.207 J-0.455 F30000.
N3395 G1 X10.781 Y6.739
N3400 G3 X11.495 Y6.7 I0.376 J0.33
N3405 X11.61 Y6.858 I-0.338 J0.369 F800.
N3410 G2 X11.936 Y7.451 I4.728 J-2.211
N3415 G3 X12.044 Y8.156 I-1.383 J0.572
N3420 G1 X12.006 Y8.371
N3425 G3 X11.029 Y8.282 I-0.48 J-0.14
N3430 G1 X10.968 Y7.684
N3435 G3 X11.88 Y7.354 I0.497 J-0.05
N3440 X12.099 Y7.722 I-2.129 J1.517
N3445 X12.103 Y8.023 I-0.552 J0.158
N3450 G2 X11.896 Y8.993 I4.696 J1.511
N3455 G3 X11.337 Y10.082 I-1.92 J-0.297
N3460 X9.962 Y10.565 I-1.237 J-1.326
N3465 G1 X9.715 Y10.528
N3470 G3 X9.539 Y10.443 I0.125 J-0.484
N3475 X9.543 Y9.641 I0.301 J-0.399 F30000.
N3480 G1 X11.11 Y8.485
N3485 G3 X11.881 Y8.729 I0.297 J0.402
N3490 X11.906 Y8.923 I-0.474 J0.159 F800.
N3495 G2 X11.888 Y9.574 I3.845 J0.434
N3500 G3 X11.85 Y9.83 I-1.176 J-0.043
N3505 G1 X11.756 Y10.062
N3510 X11.619 Y10.27
N3515 X11.442 Y10.448
N3520 X11.235 Y10.586
N3525 X11.003 Y10.681
N3530 X10.758 Y10.728
N3535 X10.508 Y10.725
N3540 X10.264 Y10.673
N3545 G3 X10.096 Y10.572 I0.169 J-0.471
N3550 X10.161 Y9.783 I0.336 J-0.37 F30000.
N3555 G1 X11.116 Y9.163
N3560 G3 X11.83 Y9.349 I0.272 J0.42
N3565 X11.886 Y9.536 I-0.442 J0.234 F800.
N3570 G2 X11.928 Y9.966 I12.893 J-1.04
N3575 G3 X11.899 Y10.228 I-0.808 J0.043
N3580 G1 X11.808 Y10.436
N3585 X11.669 Y10.616
N3590 X11.491 Y10.758
N3595 X11.284 Y10.853
N3600 X11.061 Y10.895
N3605 X10.834 Y10.883
N3610 X10.616 Y10.816
N3615 G3 X10.452 Y10.71 I0.353 J-0.728
N3620 X10.161 Y10.097 I0.518 J-0.622 F30000.
N3625 X11.868 Y9.741 I0.889 J-0.009
N3630 X11.925 Y9.929 I-0.819 J0.347 F800.
N3635 X11.99 Y10.318 I-7.986 J1.538
N3640 G1 X11.989 Y10.348
N3645 X11.988 Y10.376
N3650 X11.986 Y10.402
N3655 X11.982 Y10.433
N3660 X11.904 Y10.658
N3665 X11.759 Y10.846
N3670 X11.562 Y10.978
N3675 X11.333 Y11.042
N3680 X11.096 Y11.03
N3685 X10.874 Y10.944
N3690 G3 X10.727 Y10.815 I0.34 J-0.534
N3695 X10.585 Y10.485 I0.486 J-0.405 F30000.
N3700 X11.903 Y10.044 I0.705 J-0.084
N3705 X11.978 Y10.225 I-0.613 J0.357 F800.
N3710 X12.058 Y10.568 I-2.413 J0.748
N3715 G1 X12.056 Y10.595
N3720 Y10.621
N3725 X12.054 Y10.645
N3730 X12.051 Y10.669
N3735 X12.047 Y10.692
N3740 X11.974 Y10.877
N3745 X11.848 Y11.028
N3750 X11.68 Y11.133
N3755 X11.487 Y11.179
N3760 X11.29 Y11.163
N3765 X11.108 Y11.085
N3770 G3 X10.97 Y10.947 I0.289 J-0.425
N3775 X10.891 Y10.749 I0.426 J-0.287 F30000.
N3780 X11.952 Y10.293 I0.584 J-0.103
N3785 X12.041 Y10.468 I-0.477 J0.353 F800.
N3790 X12.113 Y10.797 I-1.258 J0.448
N3795 X11.246 Y11.171 I-0.522 J-0.02
N3800 G1 X11.211 Y11.134 Z-4.293
N3805 X11.178 Y11.101 Z-4.273
N3810 X11.15 Y11.072 Z-4.242
N3815 X11.128 Y11.05 Z-4.201
N3820 X11.114 Y11.036 Z-4.154
N3825 X11.11 Y11.032 Z-4.104
N3830 G0 Z2.51
N3835 X11.786 Y-10.861
N3840 Z-3.8
N3845 G1 Z-4.3 F800.
N3850 G2 X11.827 Y-10.671 I2.429 J-0.414
N3855 G1 Y-10.669
N3860 G2 X12.105 Y-9.524 I4.296 J-0.438
N3865 G3 X12.021 Y-9.072 I-0.516 J0.137
N3870 G1 X11.922 Y-8.92
N3875 X11.83 Y-8.773
N3880 X11.723 Y-8.608
N3885 X-0.306 Y10.043 F30000.
N3890 X-0.346 Y10.105 Z-4.295 F800.
N3895 X-0.385 Y10.165 Z-4.278
N3900 X-0.422 Y10.223 Z-4.252
N3905 X-0.475 Y10.278 Z-4.207
N3910 X-0.521 Y10.325 Z-4.149
N3915 X-0.56 Y10.365 Z-4.081
N3920 X-0.592 Y10.383 Z-4.016
N3925 X-0.616 Y10.396 Z-3.947
N3930 X-0.63 Y10.405 Z-3.874
N3935 X-0.635 Y10.407 Z-3.8
N3940 G0 Z2.51
N3945 X-11.891 Y8.81
N3950 Z-3.8
N3955 G1 Z-4.3 F800.
N3960 G2 X-11.949 Y8.625 I-2.397 J0.646
N3965 G1 Y8.623
N3970 G2 X-12.121 Y7.949 I-9.895 J2.161
N3975 G3 X-12.021 Y7.573 I0.556 J-0.054
N3980 G1 X-11.922 Y7.42
N3985 X-11.83 Y7.273
N3990 X-11.798 Y7.22
N3995 X-11.791 Y7.214
N4000 X-11.749 Y7.189 Z-4.291
N4005 X-11.71 Y7.166 Z-4.27
N4010 X-11.677 Y7.146 Z-4.239
N4015 X-11.652 Y7.131 Z-4.199
N4020 X-11.636 Y7.122 Z-4.153
N4025 X-11.63 Y7.118 Z-4.104
N4030 G0 Z4.
(2D ADAPTIVE2)
N4040 M8
N4045 G0 X7.698 Y1.195
N4050 Z4.
N4055 Z2.51
N4060 G1 Z2.505 F800.
N4065 G3 X2.949 Y1.105 Z2.244 I-2.375 J-0.045
N4070 X7.698 Y1.195 Z1.984 I2.375 J0.045
N4075 X2.949 Y1.105 Z1.723 I-2.375 J-0.045
N4080 X7.698 Y1.195 Z1.463 I2.375 J0.045
N4085 X2.949 Y1.105 Z1.202 I-2.375 J-0.045
N4090 X7.698 Y1.195 Z0.942 I2.375 J0.045
N4095 X2.949 Y1.105 Z0.681 I-2.375 J-0.045
N4100 X7.698 Y1.195 Z0.421 I2.375 J0.045
N4105 X2.949 Y1.105 Z0.16 I-2.375 J-0.045
N4110 X7.698 Y1.195 Z-0.101 I2.375 J0.045
N4115 X2.949 Y1.105 Z-0.361 I-2.375 J-0.045
N4120 X7.698 Y1.195 Z-0.622 I2.375 J0.045
N4125 X2.949 Y1.105 Z-0.882 I-2.375 J-0.045
N4130 X7.698 Y1.195 Z-1.143 I2.375 J0.045
N4135 X2.949 Y1.105 Z-1.403 I-2.375 J-0.045
N4140 X7.698 Y1.195 Z-1.664 I2.375 J0.045
N4145 X2.949 Y1.105 Z-1.924 I-2.375 J-0.045
N4150 X7.698 Y1.195 Z-2.185 I2.375 J0.045
N4155 X2.949 Y1.105 Z-2.446 I-2.375 J-0.045
N4160 X7.698 Y1.195 Z-2.706 I2.375 J0.045
N4165 X2.949 Y1.105 Z-2.967 I-2.375 J-0.045
N4170 X7.698 Y1.195 Z-3.227 I2.375 J0.045
N4175 X2.949 Y1.105 Z-3.488 I-2.375 J-0.045
N4180 X7.698 Y1.195 Z-3.748 I2.375 J0.045
N4185 X2.949 Y1.105 Z-4.009 I-2.375 J-0.045
N4190 X7.698 Y1.195 Z-4.269 I2.375 J0.045
N4195 X2.949 Y1.105 Z-4.53 I-2.375 J-0.045
N4200 X7.698 Y1.195 Z-4.791 I2.375 J0.045
N4205 X2.949 Y1.105 Z-5.051 I-2.375 J-0.045
N4210 X7.698 Y1.195 Z-5.312 I2.375 J0.045
N4215 X2.949 Y1.105 Z-5.572 I-2.375 J-0.045
N4220 X7.698 Y1.195 Z-5.833 I2.375 J0.045
N4225 X2.949 Y1.105 Z-6.093 I-2.375 J-0.045
N4230 X7.698 Y1.195 Z-6.354 I2.375 J0.045
N4235 X2.949 Y1.105 Z-6.614 I-2.375 J-0.045
N4240 X7.698 Y1.195 Z-6.875 I2.375 J0.045
N4245 X2.949 Y1.105 Z-7.135 I-2.375 J-0.045
N4250 X7.698 Y1.195 Z-7.396 I2.375 J0.045
N4255 X2.949 Y1.105 Z-7.657 I-2.375 J-0.045
N4260 X7.698 Y1.195 Z-7.917 I2.375 J0.045
N4265 X2.949 Y1.105 Z-8.178 I-2.375 J-0.045
N4270 X7.698 Y1.195 Z-8.438 I2.375 J0.045
N4275 X2.949 Y1.105 Z-8.699 I-2.375 J-0.045
N4280 X7.698 Y1.195 Z-8.959 I2.375 J0.045
N4285 X2.949 Y1.105 Z-9.22 I-2.375 J-0.045
N4290 X7.698 Y1.195 Z-9.48 I2.375 J0.045
N4295 X2.949 Y1.105 Z-9.741 I-2.375 J-0.045
N4300 X7.699 Y1.15 Z-10. I2.375 J0.045
N4305 X2.949 I-2.375 J0.
N4310 X7.699 I2.375 J0.
N4315 G2 X7.786 Y1.856 I2.114 J0.096
N4320 G3 X7.39 Y3.094 I-1.759 J0.119
N4325 X5.499 Y4.086 I-2.005 J-1.526
N4330 X4.618 Y4.016 I-0.147 J-3.721
N4335 X3.564 Y-1.247 I0.678 J-2.873
N4340 X4.839 Y-1.777 I1.626 J2.112
N4345 G1 X5.003 Y-1.782
N4350 X5.474
N4355 G3 X8.035 Y-0.069 I-0.077 J2.887
N4360 X8.344 Y0.791 I-4.035 J1.938
N4365 G1 X8.364 Y0.957
N4370 X8.372 Y1.125
N4375 G3 X7.518 Y1.46 I-0.5 J-0.017
N4380 G1 X5.137 Y-0.929
N4385 G3 X5.474 Y-1.782 I0.354 J-0.353
N4390 G1 X6.523
N4395 G3 X8.238 Y-0.627 I-0.029 J1.893
N4400 G1 X8.311 Y-0.401
N4405 X8.357 Y-0.169
N4410 X8.372 Y0.067
N4415 G3 X8.327 Y0.257 I-0.5 J-0.017
N4420 X7.519 Y0.403 I-0.455 J-0.207 F30000.
N4425 G1 X6.187 Y-0.929
N4430 G3 X6.333 Y-1.737 I0.354 J-0.353
N4435 X6.523 Y-1.782 I0.207 J0.455 F800.
N4440 G1 X7.318
N4445 X7.382 Y-1.779
N4450 X7.608 Y-1.732
N4455 X7.819 Y-1.639
N4460 X8.006 Y-1.505
N4465 X8.161 Y-1.334
N4470 X8.276 Y-1.134
N4475 X8.348 Y-0.915
N4480 X8.372 Y-0.686
N4485 G3 X8.346 Y-0.491 I-1.023 J-0.036
N4490 X7.05 Y0.257 I-0.997 J-0.23 F30000.
N4495 X7.124 Y-1.757 I0.305 J-0.997
N4500 X7.318 Y-1.782 I0.231 J1.017 F800.
N4505 X7.818 Y-1.781 I0.23 J7.286
N4510 G1 X7.993 Y-1.737
N4515 X8.147 Y-1.644
N4520 X8.268 Y-1.51
N4525 X8.346 Y-1.347
N4530 X8.372 Y-1.168
N4535 G3 X8.332 Y-0.977 I-0.566 J-0.02
N4540 X7.631 Y-0.649 I-0.526 J-0.211 F30000.
N4545 X7.599 Y-1.743 I0.179 J-0.553
N4550 X7.79 Y-1.782 I0.211 J0.541 F800.
N4555 X8.373 Y-1.275 I0.059 J0.521
N4560 G1 X8.372 Y1.874
N4565 G3 X7.886 Y3.384 I-2.625 J-0.012
N4570 X6.678 Y4.067 I-1.461 J-1.174
N4575 G1 X6.441 Y4.082
N4580 G3 X6.251 Y4.037 I0.017 J-0.5
N4585 X6.075 Y3.262 I0.207 J-0.455 F30000.
N4590 G1 X7.489 Y1.571
N4595 G3 X8.327 Y1.685 I0.384 J0.321
N4600 X8.372 Y1.874 I-0.455 J0.207 F800.
N4605 G1 Y2.924
N4610 X8.368 Y3.002
N4615 X8.317 Y3.248
N4620 X8.216 Y3.479
N4625 X8.069 Y3.683
N4630 X7.883 Y3.851
N4635 X7.665 Y3.978
N4640 X7.426 Y4.056
N4645 X7.176 Y4.082
N4650 G3 X6.986 Y4.037 I0.017 J-0.5
N4655 X6.85 Y3.219 I0.207 J-0.455 F30000.
N4660 G1 X7.529 Y2.578
N4665 G3 X8.327 Y2.734 I0.343 J0.364
N4670 X8.372 Y2.924 I-0.455 J0.207 F800.
N4675 G1 Y3.419
N4680 X8.369 Y3.472
N4685 X8.321 Y3.664
N4690 X8.219 Y3.835
N4695 X8.072 Y3.968
N4700 X7.892 Y4.053
N4705 X7.696 Y4.082
N4710 G3 X7.504 Y4.045 I0.022 J-0.642
N4715 X7.101 Y3.266 I0.215 J-0.605 F30000.
N4720 X8.336 Y3.227 I0.624 J0.176
N4725 X8.372 Y3.419 I-0.612 J0.215 F800.
N4730 X8.325 Y3.788 I-0.795 J0.085
N4735 X7.873 Y4.083 I-0.474 J-0.232
N4740 G1 X7.723 Y4.082
N4745 X5.623
N4750 X5.62
N4755 G2 X5.52 Y4.067 I-0.222 J1.141
N4760 X5.468 Y4.064 I-0.052 J0.497
N4765 G1 X5.428
N4770 X5.369 F30000.
N4775 X5.329 F800.
N4780 G2 X5.277 Y4.067 I0. J0.5
N4785 X5.177 Y4.082 I0.122 J1.156
N4790 G1 X5.174
N4795 X4.124
N4800 G3 X2.89 Y3.615 I0.054 J-2.008
N4805 X1.773 Y1.716 I1.876 J-2.382
N4810 X2.62 Y-1.265 I3.42 J-0.639
N4815 X3.902 Y-1.783 I1.293 J1.355
N4820 G1 X4.874 Y-1.782
N4825 G3 X5.064 Y-1.737 I-0.017 J0.5
N4830 X5.35 Y-1.206 I-0.207 J0.455 F30000.
N4835 G1 X4.601 Y3.658
N4840 G3 X4.314 Y4.037 I-0.494 J-0.076
N4845 X4.124 Y4.082 I-0.207 J-0.455 F800.
N4850 G1 X3.292
N4855 G3 X2.255 Y3.663 I0.116 J-1.777
N4860 X1.255 Y2.209 I1.842 J-2.338
N4865 X1.477 Y-0.787 I3.683 J-1.234
N4870 X3.107 Y-1.782 I1.628 J0.835
N4875 G1 X3.902
N4880 G3 X4.092 Y-1.737 I-0.017 J0.5
N4885 X4.381 Y-1.22 I-0.207 J0.455 F30000.
N4890 G1 X3.77 Y3.645
N4895 G3 X3.482 Y4.037 I-0.496 J-0.062
N4900 X3.292 Y4.082 I-0.207 J-0.455 F800.
N4905 G1 X2.624
N4910 G3 X1.611 Y3.677 I0.087 J-1.688
N4915 X0.657 Y2.359 I1.835 J-2.333
N4920 X0.689 Y-0.708 I3.8 J-1.493
N4925 X1.9 Y-1.724 I1.687 J0.782
N4930 G1 X2.129 Y-1.767
N4935 X2.361 Y-1.782
N4940 X3.107
N4945 G3 X3.296 Y-1.737 I-0.017 J0.5
N4950 X3.587 Y-1.233 I-0.207 J0.455 F30000.
N4955 G1 X3.104 Y3.632
N4960 G3 X2.814 Y4.037 I-0.498 J-0.049
N4965 X2.624 Y4.082 I-0.207 J-0.455 F800.
N4970 G1 X1.942
N4975 G3 X0.96 Y3.68 I0.113 J-1.678
N4980 X0.052 Y2.492 I1.835 J-2.343
N4985 X-0.104 Y-0.544 I3.788 J-1.716
N4990 X0.547 Y-1.425 I1.818 J0.662
N4995 X1.636 Y-1.782 I1.092 J1.49
N5000 G1 X2.361
N5005 G3 X2.551 Y-1.737 I-0.017 J0.5
N5010 X2.842 Y-1.239 I-0.207 J0.455 F30000.
N5015 G1 X2.423 Y3.625
N5020 G3 X2.132 Y4.037 I-0.498 J-0.043
N5025 X1.942 Y4.082 I-0.207 J-0.455 F800.
N5030 G1 X1.305
N5035 G3 X0.3 Y3.676 I0.095 J-1.682
N5040 X-0.556 Y2.617 I1.824 J-2.349
N5045 X-0.859 Y-0.42 I3.712 J-1.904
N5050 X-0.347 Y-1.275 I1.934 J0.577
N5055 X0.921 Y-1.782 I1.271 J1.339
N5060 G1 X1.636
N5065 G3 X1.826 Y-1.737 I-0.017 J0.5
N5070 X2.117 Y-1.248 I-0.207 J0.455 F30000.
N5075 G1 X1.786 Y3.616
N5080 G3 X1.495 Y4.037 I-0.499 J-0.034
N5085 X1.305 Y4.082 I-0.207 J-0.455 F800.
N5090 G1 X0.629
N5095 G3 X-0.372 Y3.67 I0.122 J-1.717
N5100 X-1.334 Y2.408 I1.948 J-2.483
N5105 X-1.563 Y-0.433 I3.746 J-1.732
N5110 X-1.095 Y-1.233 I1.984 J0.622
N5115 X0.215 Y-1.782 I1.314 J1.296
N5120 G1 X0.921
N5125 G3 X1.111 Y-1.737 I-0.017 J0.5
N5130 X1.403 Y-1.252 I-0.207 J0.455 F30000.
N5135 G1 X1.111 Y3.612
N5140 G3 X0.819 Y4.037 I-0.499 J-0.03
N5145 X0.629 Y4.082 I-0.207 J-0.455 F800.
N5150 G1 X-0.008
N5155 G3 X-0.957 Y3.734 I0.077 J-1.678
N5160 X-2.031 Y2.379 I1.854 J-2.575
N5165 X-2.303 Y-0.294 I3.728 J-1.729
N5170 X-1.799 Y-1.233 I2.057 J0.499
N5175 X-0.488 Y-1.782 I1.316 J1.303
N5180 G1 X0.075
N5185 G3 X0.265 Y-1.737 I-0.017 J0.5
N5190 X0.557 Y-1.274 I-0.207 J0.455 F30000.
N5195 G1 X0.475 Y3.591
N5200 G3 X0.182 Y4.037 I-0.5 J-0.008
N5205 X-0.007 Y4.082 I-0.207 J-0.455 F800.
N5210 G1 X-0.675
N5215 G3 X-1.642 Y3.729 I0.074 J-1.703
N5220 X-2.73 Y2.359 I1.873 J-2.604
N5225 X-3.002 Y-0.299 I3.706 J-1.723
N5230 X-2.499 Y-1.233 I2.045 J0.498
N5235 X-1.189 Y-1.782 I1.316 J1.302
N5240 G1 X-0.488
N5245 G3 X-0.298 Y-1.737 I-0.017 J0.5
N5250 X-0.006 Y-1.263 I-0.207 J0.455 F30000.
N5255 G1 X-0.193 Y3.601
N5260 G3 X-0.485 Y4.037 I-0.5 J-0.019
N5265 X-0.675 Y4.082 I-0.207 J-0.455 F800.
N5270 G1 X-1.357
N5275 G3 X-2.332 Y3.725 I0.077 J-1.721
N5280 X-3.428 Y2.347 I1.884 J-2.623
N5285 X-3.7 Y-0.302 I3.693 J-1.719
N5290 X-3.199 Y-1.233 I2.038 J0.497
N5295 X-1.888 Y-1.782 I1.316 J1.302
N5300 G1 X-1.189
N5305 G3 X-0.999 Y-1.737 I-0.017 J0.5
N5310 X-0.707 Y-1.265 I-0.207 J0.455 F30000.
N5315 G1 X-0.875 Y3.6
N5320 G3 X-1.167 Y4.037 I-0.5 J-0.017
N5325 X-1.357 Y4.082 I-0.207 J-0.455 F800.
N5330 G1 X-2.07
N5335 G3 X-3.125 Y3.649 I0.125 J-1.803
N5340 X-4.041 Y2.518 I1.949 J-2.515
N5345 X-4.399 Y-0.305 I3.641 J-1.896
N5350 X-4.055 Y-1.048 I2.206 J0.568
N5355 X-2.586 Y-1.782 I1.471 J1.108
N5360 G1 X-2.024
N5365 G3 X-1.835 Y-1.737 I-0.017 J0.5
N5370 X-1.542 Y-1.278 I-0.207 J0.455 F30000.
N5375 G1 X-1.587 Y3.587
N5380 G3 X-1.88 Y4.037 I-0.5 J-0.005
N5385 X-2.07 Y4.082 I-0.207 J-0.455 F800.
N5390 G1 X-2.744
N5395 G3 X-3.718 Y3.722 I0.09 J-1.741
N5400 X-4.822 Y2.335 I1.897 J-2.643
N5405 X-5.095 Y-0.306 I3.681 J-1.715
N5410 X-4.595 Y-1.233 I2.03 J0.497
N5415 X-3.284 Y-1.782 I1.315 J1.302
N5420 G1 X-2.586
N5425 G3 X-2.396 Y-1.737 I-0.017 J0.5
N5430 X-2.104 Y-1.266 I-0.207 J0.455 F30000.
N5435 G1 X-2.262 Y3.598
N5440 G3 X-2.554 Y4.037 I-0.5 J-0.016
N5445 X-2.744 Y4.082 I-0.207 J-0.455 F800.
N5450 G1 X-3.457
N5455 G3 X-4.514 Y3.646 I0.131 J-1.818
N5460 X-5.434 Y2.51 I1.959 J-2.528
N5465 X-5.793 Y-0.307 I3.634 J-1.894
N5470 X-5.45 Y-1.048 I2.2 J0.568
N5475 X-3.981 Y-1.782 I1.471 J1.108
N5480 G1 X-3.284
N5485 G3 X-3.094 Y-1.737 I-0.017 J0.5
N5490 X-2.802 Y-1.265 I-0.207 J0.455 F30000.
N5495 G1 X-2.974 Y3.6
N5500 G3 X-3.267 Y4.037 I-0.5 J-0.018
N5505 X-3.457 Y4.082 I-0.207 J-0.455 F800.
N5510 G1 X-4.124
N5515 G3 X-5.108 Y3.72 I0.083 J-1.747
N5520 X-6.216 Y2.329 I1.901 J-2.65
N5525 X-6.489 Y-0.307 I3.675 J-1.713
N5530 X-5.989 Y-1.233 I2.027 J0.496
N5535 X-4.678 Y-1.782 I1.315 J1.301
N5540 G1 X-4.124
N5545 G3 X-3.934 Y-1.737 I-0.017 J0.5
N5550 X-3.641 Y-1.282 I-0.207 J0.455 F30000.
N5555 G1 Y3.582
N5560 G3 X-3.934 Y4.037 I-0.5 J0.
N5565 X-4.124 Y4.082 I-0.207 J-0.455 F800.
N5570 G1 X-4.806
N5575 G3 X-5.805 Y3.719 I0.07 J-1.749
N5580 X-6.912 Y2.328 I1.901 J-2.651
N5585 X-7.186 Y-0.308 I3.673 J-1.713
N5590 X-6.686 Y-1.233 I2.026 J0.496
N5595 X-5.375 Y-1.782 I1.315 J1.301
N5600 G1 X-4.678
N5605 G3 X-4.489 Y-1.737 I-0.017 J0.5
N5610 X-4.196 Y-1.269 I-0.207 J0.455 F30000.
N5615 G1 X-4.324 Y3.595
N5620 G3 X-4.616 Y4.037 I-0.5 J-0.013
N5625 X-4.806 Y4.082 I-0.207 J-0.455 F800.
N5630 G1 X-5.519
N5635 G3 X-6.5 Y3.72 I0.09 J-1.753
N5640 X-7.609 Y2.327 I1.904 J-2.654
N5645 X-7.882 Y-0.308 I3.673 J-1.713
N5650 X-7.383 Y-1.233 I2.026 J0.496
N5655 X-6.072 Y-1.782 I1.315 J1.301
N5660 G1 X-5.375
N5665 G3 X-5.185 Y-1.737 I-0.017 J0.5
N5670 X-4.893 Y-1.268 I-0.207 J0.455 F30000.
N5675 G1 X-5.037 Y3.597
N5680 G3 X-5.329 Y4.037 I-0.5 J-0.015
N5685 X-5.519 Y4.082 I-0.207 J-0.455 F800.
N5690 G1 X-6.223
N5695 G3 X-7.196 Y3.72 I0.099 J-1.756
N5700 X-8.246 Y2.437 I1.784 J-2.531
N5705 G1 X-8.315 Y2.219
N5710 X-8.358 Y1.995
N5715 X-8.372 Y1.767
N5720 G3 X-8.327 Y1.577 I0.5 J0.017
N5725 X-7.502 Y1.448 I0.455 J0.207 F30000.
N5730 G1 X-5.871 Y3.246
N5735 G3 X-6.033 Y4.037 I-0.37 J0.336
N5740 X-6.223 Y4.082 I-0.207 J-0.455 F800.
N5745 G1 X-6.906
N5750 G3 X-7.406 Y3.976 I0.015 J-1.312
N5755 X-8.372 Y2.532 I0.598 J-1.445
N5760 X-8.327 Y2.342 I0.5 J0.017
N5765 X-7.504 Y2.211 I0.455 J0.207 F30000.
N5770 G1 X-6.555 Y3.244
N5775 G3 X-6.716 Y4.037 I-0.368 J0.338
N5780 X-6.906 Y4.082 I-0.207 J-0.455 F800.
N5785 G1 X-7.505
N5790 X-7.571 Y4.079
N5795 X-7.783 Y4.031
N5800 X-7.978 Y3.933
N5805 X-8.142 Y3.791
N5810 X-8.267 Y3.613
N5815 X-8.345 Y3.411
N5820 X-8.372 Y3.195
N5825 G3 X-8.342 Y3.001 I0.839 J0.029
N5830 X-7.301 Y2.417 I0.81 J0.223 F30000.
N5835 X-7.312 Y4.053 I-0.234 J0.816
N5840 X-7.505 Y4.082 I-0.223 J-0.819 F800.
N5845 G1 X-7.723
N5850 X-7.873
N5855 G3 X-8.371 Y3.524 I0.017 J-0.517
N5860 G1 X-8.372 Y-0.075
N5865 G3 X-7.985 Y-1.162 I1.717 J-0.001
N5870 X-6.673 Y-1.782 I1.313 J1.079
N5875 X-6.483 Y-1.737 I-0.017 J0.5
N5880 X-6.336 Y-0.93 I-0.207 J0.455 F30000.
N5885 G1 X-7.518 Y0.26
N5890 G3 X-8.327 Y0.115 I-0.355 J-0.352
N5895 X-8.372 Y-0.075 I0.455 J-0.207 F800.
N5900 G1 Y-0.825
N5905 X-8.369 Y-0.885
N5910 X-8.316 Y-1.123
N5915 X-8.206 Y-1.34
N5920 X-8.047 Y-1.524
N5925 X-7.848 Y-1.665
N5930 X-7.621 Y-1.752
N5935 X-7.379 Y-1.782
N5940 G3 X-7.185 Y-1.755 I-0.032 J0.929
N5945 X-6.522 Y-0.584 I-0.226 J0.901 F30000.
N5950 X-8.345 Y-0.631 I-0.905 J-0.274
N5955 X-8.372 Y-0.825 I0.918 J-0.227 F800.
N5960 X-8.371 Y-1.29 I6.639 J-0.216
N5965 X-8.255 Y-1.436 I0.175 J0.02
N5970 X-8.137 Y-1.104 I0.059 J0.166 F30000.
N5975 X-8.269 Y-1.11 I-0.059 J-0.166
N5980 X-8.368 Y-1.233 I0.074 J-0.16 F800.
N5985 X-8.372 Y-1.265 I0.181 J-0.038
N5990 G1 Y-1.275
N5995 X-8.369 Y-1.31
N6000 X-8.366 Y-1.334
N6005 X-8.361 Y-1.363
N6010 X-8.352 Y-1.402
N6015 X-8.349 Y-1.41
N6020 X-8.341 Y-1.436
N6025 X-8.333 Y-1.463
N6030 X-8.323 Y-1.488
N6035 G3 X-7.877 Y-1.673 I0.345 J0.203
N6040 X-8.075 Y-0.911 I-0.099 J0.381
N6045 X-8.369 Y-1.31 I0.099 J-0.381
N6050 X-7.873 Y-1.782 I0.51 J0.04
N6055 G1 X-7.723
N6060 X-6.223
N6065 G3 X-6.033 Y-1.737 I-0.017 J0.5
N6070 G1 X-5.954 Y-1.701 Z-9.992
N6075 X-5.878 Y-1.666 Z-9.97
N6080 X-5.806 Y-1.634 Z-9.933
N6085 X-5.741 Y-1.604 Z-9.883
N6090 X-5.685 Y-1.578 Z-9.821
N6095 X-5.639 Y-1.558 Z-9.75
N6100 X-5.606 Y-1.542 Z-9.671
N6105 X-5.585 Y-1.533 Z-9.587
N6110 X-5.578 Y-1.53 Z-9.5
N6115 G0 Z4.
(2D ADAPTIVE1)
N6125 M8
N6130 G0 X5.184 Y-0.507
N6135 Z4.
N6140 Z-5.5
N6145 G1 Z-6. F800.
N6150 X5.191 Y-0.509 Z-6.087
N6155 X5.213 Y-0.515 Z-6.171
N6160 X5.248 Y-0.524 Z-6.25
N6165 X5.297 Y-0.536 Z-6.321
N6170 X5.357 Y-0.552 Z-6.383
N6175 X5.426 Y-0.569 Z-6.433
N6180 X5.502 Y-0.589 Z-6.47
N6185 X5.584 Y-0.61 Z-6.492
N6190 X5.668 Y-0.631 Z-6.5
N6195 G3 X8.39 Y-1.023 I3.167 J12.366
N6200 X8.589 Y-0.794 I-0.391 J0.542
N6205 X9.006 Y0.24 I-2.793 J1.726
N6210 X9.28 Y1.857 I-8.743 J2.313
N6215 X9.412 Y4.062 I-21.247 J2.383
N6220 G1 X9.407 Y4.077
N6225 X9.405 Y4.092
N6230 X9.404 Y4.107 F450.
N6235 G3 X8.913 Y4.442 I-0.976 J-0.902 F800.
N6240 X7.763 Y4.805 I-1.914 J-4.069
N6245 X5.853 Y5.049 I-2.535 J-12.25
N6250 X2.516 Y5.167 I-3.312 J-46.109
N6255 X-4.93 Y5.193 I-5.207 J-441.134
N6260 X-8.064 Y5.195 I-1.765 J-215.7
N6265 X-8.399 Y5.173 I0.012 J-2.718 F450.
N6270 X-8.759 Y4.626 I1.007 J-1.053 F800.
N6275 X-9.104 Y3.489 I4.273 J-1.919
N6280 X-9.349 Y1.48 I13.043 J-2.607
N6285 X-9.455 Y-1.716 I43.182 J-3.03
N6290 G1 X-9.449 Y-1.731
N6295 X-9.447 Y-1.746
N6300 X-9.446 Y-1.76
N6305 X-9.444 Y-1.775
N6310 X-9.443 Y-1.79
N6315 X-9.441 Y-1.805
N6320 G3 X-9.002 Y-2.117 I0.889 J0.787
N6325 X-7.935 Y-2.476 I1.825 J3.661
N6330 X-6.096 Y-2.733 I2.489 J11.101
N6335 X-2.774 Y-2.864 I3.311 J41.673
N6340 X4.928 Y-2.892 I5.347 J413.595
N6345 X8.063 Y-2.895 I1.798 J203.912
N6350 X8.399 Y-2.873 I-0.011 J2.716 F450.
N6355 X8.703 Y-2.476 I-1.048 J1.116 F800.
N6360 X9.616 Y-0.647 I-5.551 J3.912
N6365 X10.2 Y2.11 I-11.951 J3.976
N6370 X10.257 Y3.333 I-5.435 J0.866
N6375 X9.547 Y4.637 I-1.979 J-0.233
N6380 X8.383 Y5.334 I-2.499 J-2.857
N6385 X6.398 Y5.843 I-3.088 J-7.903
N6390 X3.33 Y6.104 I-3.649 J-24.774
N6395 X-1.547 Y6.184 I-4.365 J-117.908
N6400 X-6.938 Y6.189 I-3.105 J-440.043
N6405 X-8.006 Y6.025 I-0.03 J-3.364
N6410 X-9.099 Y5.146 I0.892 J-2.228
N6415 X-9.789 Y3.722 I3.791 J-2.716
N6420 X-10.23 Y1.458 I10.788 J-3.277
N6425 X-10.372 Y-0.591 I19.683 J-2.391
N6430 X-10.161 Y-1.632 I2.497 J-0.037
N6435 X-9.246 Y-2.611 I2.237 J1.175
N6440 X-7.728 Y-3.272 I2.764 J4.268
N6445 X-5.2 Y-3.691 I3.412 J12.759
N6450 X-1.61 Y-3.853 I3.818 J44.803
N6455 X6.863 Y-3.89 I5.968 J393.93
N6460 X7.876 Y-3.767 I0.045 J3.867
N6465 X9.04 Y-3.014 I-0.924 J2.702
N6470 X10.147 Y-1.397 I-3.807 J3.796
N6475 X10.967 Y1.296 I-9.343 J4.316
N6480 X11.043 Y3.141 I-5.469 J1.148
N6485 X9.718 Y5.344 I-3.465 J-0.584
N6490 X7.961 Y6.29 I-3.466 J-4.331
N6495 X5.462 Y6.851 I-3.811 J-11.12
N6500 X2.135 Y7.103 I-4.043 J-31.333
N6505 X-3.256 Y7.184 I-4.832 J-142.047
N6510 X-6.08 Y7.179 I-1.265 J-82.607
N6515 X-7.551 Y6.977 I0.214 J-7.027
N6520 X-9.782 Y5.37 I1.081 J-3.854
N6525 X-10.665 Y3.528 I5.091 J-3.571
N6530 X-11.236 Y-0.009 I12.415 J-3.82
N6535 X-10.937 Y-1.567 I4.259 J0.009
N6540 X-9.443 Y-3.296 I3.576 J1.581
N6545 X-7.822 Y-4.058 I3.397 J5.126
N6550 X-5.057 Y-4.607 I3.971 J12.77
N6555 X-1.727 Y-4.818 I3.985 J36.355
N6560 X4.691 Y-4.887 I5.339 J198.235
N6565 X6.743 Y-4.83 I0.509 J18.469
N6570 X8.502 Y-4.296 I-0.518 J4.874
N6575 X10.463 Y-2.424 I-2.653 J4.741
N6580 X11.187 Y-1.007 I-5.421 J3.663
N6585 G1 X11.233 Y-0.763
N6590 X11.25 Y-0.516
N6595 Y3.704
N6600 G3 X10.792 Y5.104 I-2.611 J-0.079
N6605 X9.528 Y6.374 I-3.572 J-2.292
N6610 X7.732 Y7.256 I-3.903 J-5.673
N6615 X5.392 Y7.821 I-4.035 J-11.597
N6620 X2.34 Y8.128 I-4.153 J-25.972
N6625 X-1.992 Y8.254 I-4.509 J-80.173
N6630 X-5.38 Y8.248 I-1.581 J-65.787
N6635 X-7.282 Y7.977 I0.504 J-10.333
N6640 X-10.751 Y5.358 I1.421 J-5.489
N6645 X-11.138 Y4.632 I3.673 J-2.427
N6650 G1 X-11.2 Y4.426
N6655 X-11.237 Y4.214
N6660 X-11.25 Y4.
N6665 Y0.775
N6670 Y0.772
N6675 G2 X-11.227 Y0.617 I-1.754 J-0.341
N6680 G1 X-11.224 Y0.58
N6685 Y0.565 F30000.
N6690 Y0.296
N6695 Y0.289
N6700 Y0.281
N6705 X-11.227 Y0.244 F800.
N6710 G2 X-11.25 Y0.09 I-1.777 J0.187
N6715 G1 Y0.087
N6720 Y-1.555
N6725 G3 X-10.853 Y-2.777 I2.391 J0.101
N6730 X-9.646 Y-4.029 I3.468 J2.136
N6735 X-7.882 Y-4.923 I3.878 J5.466
N6740 X-5.644 Y-5.488 I3.989 J11.073
N6745 X-2.681 Y-5.81 I4.145 J24.336
N6750 X1.849 Y-5.953 I4.66 J76.254
N6755 X5.339 Y-5.95 I1.701 J70.289
N6760 X7.352 Y-5.662 I-0.478 J10.511
N6765 X10.997 Y-3.129 I-1.695 J6.328
N6770 X11.25 Y-2.191 I-1.671 J0.954
N6775 G1 Y-1.323
N6780 G3 X11.205 Y-1.133 I-0.5 J-0.017
N6785 X10.745 Y-0.84 I-0.455 J-0.207 F30000.
N6790 G1 X-10.756 Y-1.072
N6795 G3 X-11.205 Y-1.365 I0.005 J-0.5
N6800 X-11.25 Y-1.555 I0.455 J-0.207 F800.
N6805 G1 Y-2.521
N6810 G3 X-10.912 Y-3.582 I2.134 J0.096
N6815 X-9.812 Y-4.786 I3.444 J2.04
N6820 X-8.059 Y-5.762 I4.157 J5.402
N6825 X-5.688 Y-6.443 I4.432 J10.967
N6830 X-2.707 Y-6.833 I4.49 J22.708
N6835 X1.896 Y-7.025 I4.968 J63.811
N6840 X5.316 Y-6.976 I1.214 J34.059
N6845 X7.773 Y-6.497 I-0.962 J11.482
N6850 X10.672 Y-4.799 I-2.542 J7.665
N6855 X11.233 Y-3.708 I-1.293 J1.354
N6860 G1 X11.25 Y-3.459
N6865 Y-3.001
N6870 G3 X11.205 Y-2.811 I-0.5 J-0.017
N6875 X10.761 Y-2.518 I-0.455 J-0.207 F30000.
N6880 G1 X-10.739 Y-2.039
N6885 G3 X-11.205 Y-2.331 I-0.011 J-0.5
N6890 X-11.25 Y-2.521 I0.455 J-0.207 F800.
N6895 G1 Y-3.39
N6900 G3 X-10.914 Y-4.458 I2.108 J0.076
N6905 X-9.883 Y-5.619 I3.464 J2.038
N6910 X-8.121 Y-6.655 I4.375 J5.423
N6915 X-5.762 Y-7.396 I4.72 J10.907
N6920 X-2.709 Y-7.856 I4.852 J21.849
N6925 X1.956 Y-8.094 I5.16 J55.286
N6930 X5.611 Y-7.954 I0.854 J25.534
N6935 X8.306 Y-7.294 I-1.593 J12.34
N6940 X10.444 Y-6.132 I-3.398 J8.805
N6945 X11.025 Y-5.487 I-1.458 J1.896
N6950 X11.25 Y-4.601 I-1.675 J0.897
N6955 G1 Y-4.273
N6960 G3 X11.205 Y-4.083 I-0.5 J-0.017
N6965 X10.771 Y-3.791 I-0.455 J-0.207 F30000.
N6970 G1 X-10.73 Y-2.907
N6975 G3 X-11.205 Y-3.2 I-0.021 J-0.5
N6980 X-11.25 Y-3.389 I0.455 J-0.207 F800.
N6985 G1 Y-4.251
N6990 G3 X-10.908 Y-5.355 I2.142 J0.06
N6995 X-9.962 Y-6.454 I3.468 J2.025
N7000 X-8.193 Y-7.553 I4.558 J5.363
N7005 X-5.791 Y-8.362 I4.995 J10.866
N7010 X-2.571 Y-8.892 I5.213 J21.647
N7015 X3.712 Y-9.133 I4.919 J46.148
N7020 X6.649 Y-8.777 I-0.852 J19.299
N7025 X9.812 Y-7.622 I-2.502 J11.764
N7030 X10.546 Y-7.138 I-3.922 J6.746
N7035 X11.25 Y-5.692 I-1.144 J1.451
N7040 G1 Y-5.414
N7045 G3 X11.205 Y-5.224 I-0.5 J-0.017
N7050 X10.777 Y-4.932 I-0.455 J-0.207 F30000.
N7055 G1 X-10.723 Y-3.769
N7060 G3 X-11.205 Y-4.061 I-0.027 J-0.499
N7065 X-11.25 Y-4.251 I0.455 J-0.207 F800.
N7070 G1 Y-5.15
N7075 G3 X-10.912 Y-6.246 I2.167 J0.069
N7080 X-9.955 Y-7.373 I3.557 J2.049
N7085 X-8.179 Y-8.5 I4.71 J5.458
N7090 X-5.736 Y-9.354 I5.234 J11.052
N7095 X-2.553 Y-9.918 I5.435 J21.443
N7100 X3.603 Y-10.169 I4.67 J38.881
N7105 X7.18 Y-9.66 I-0.938 J19.414
N7110 X9.786 Y-8.688 I-3.158 J12.445
N7115 X10.562 Y-8.192 I-3.454 J6.253
N7120 X11.251 Y-6.716 I-1.098 J1.411
N7125 G1 X11.25 Y-6.566
N7130 Y-6.52
N7135 G3 X11.205 Y-6.331 I-0.5 J-0.017
N7140 X10.782 Y-6.039 I-0.455 J-0.207 F30000.
N7145 G1 X-10.719 Y-4.669
N7150 G3 X-11.205 Y-4.96 I-0.032 J-0.499
N7155 X-11.25 Y-5.15 I0.455 J-0.207 F800.
N7160 G1 Y-6.049
N7165 G3 X-10.923 Y-7.139 I2.191 J0.064
N7170 X-9.888 Y-8.356 I3.711 J2.105
N7175 X-8.134 Y-9.473 I4.819 J5.636
N7180 X-5.627 Y-10.367 I5.472 J11.373
N7185 X-2.282 Y-10.974 I5.719 J21.99
N7190 X3.909 Y-11.177 I4.205 J33.8
N7195 X7.486 Y-10.596 I-1.406 J19.942
N7200 X9.837 Y-9.705 I-3.263 J12.172
N7205 X10.665 Y-9.165 I-3.013 J5.525
N7210 X11.316 Y-7.418 I-1.166 J1.429
N7215 X11.238 Y-7.239 I-0.489 J-0.105
N7220 X10.86 Y-7.024 I-0.412 J-0.284 F30000.
N7225 G1 X-10.717 Y-5.567
N7230 G3 X-11.205 Y-5.859 I-0.034 J-0.499
N7235 X-11.25 Y-6.049 I0.455 J-0.207 F800.
N7240 G2 X-11.26 Y-6.97 I-16.466 J-0.283
N7245 G3 X-10.964 Y-7.996 I2.142 J0.061
N7250 X-9.969 Y-9.225 I3.71 J1.989
N7255 X-8.262 Y-10.368 I4.891 J5.457
N7260 X-5.761 Y-11.32 I5.652 J11.088
N7265 X-2.22 Y-12.007 I5.996 J21.445
N7270 X4.187 Y-12.178 I4.032 J30.926
N7275 X7.103 Y-11.713 I-1.947 J21.58
N7280 X8.122 Y-11.059 I-0.457 J1.833
N7285 G2 X10.186 Y-9.922 I2.898 J-2.818
N7290 G3 X11.093 Y-9.427 I-0.369 J1.754
N7295 X11.505 Y-8.371 I-1.182 J1.069
N7300 G1 X11.488 Y-8.14
N7305 X11.438 Y-7.914
N7310 G3 X11.343 Y-7.744 I-0.476 J-0.153
N7315 X10.541 Y-7.799 I-0.381 J-0.324 F30000.
N7320 G1 X9.672 Y-9.163
N7325 G3 X9.991 Y-9.921 I0.422 J-0.269
N7330 X10.186 Y-9.923 I0.102 J0.489 F800.
N7335 G2 X10.864 Y-9.836 I0.95 J-4.741
N7340 G1 X10.912 Y-9.822
N7345 X10.959 Y-9.809
N7350 X11.003 Y-9.795
N7355 X11.05 Y-9.776
N7360 X11.261 Y-9.654
N7365 X11.44 Y-9.487
N7370 X11.576 Y-9.285
N7375 X11.663 Y-9.057
N7380 X11.698 Y-8.816
N7385 X11.677 Y-8.573
N7390 X11.603 Y-8.34
N7395 G3 X11.499 Y-8.174 I-0.868 J-0.428
N7400 X10.508 Y-7.827 I-0.764 J-0.594 F30000.
N7405 X10.589 Y-9.833 I0.239 J-0.995
N7410 X10.785 Y-9.844 I0.158 J1.011 F800.
N7415 G2 X11.16 Y-9.841 I0.211 J-2.917
N7420 G3 X11.508 Y-9.731 I-0.056 J0.779
N7425 G1 X11.692 Y-9.573
N7430 X11.819 Y-9.366
N7435 X11.875 Y-9.129
N7440 X11.856 Y-8.887
N7445 X11.762 Y-8.663
N7450 G3 X11.639 Y-8.511 I-0.595 J-0.355
N7455 X11.096 Y-8.329 I-0.472 J-0.508 F30000.
N7460 X10.93 Y-9.802 I0.078 J-0.755
N7465 X11.122 Y-9.841 I0.245 J0.718 F800.
N7470 X11.546 Y-9.856 I0.324 J3.041
N7475 G1 X11.561 Y-9.851
N7480 X11.739 Y-9.781
N7485 X11.885 Y-9.659
N7490 X11.986 Y-9.497
N7495 X12.031 Y-9.311
N7500 X12.014 Y-9.121
N7505 X11.939 Y-8.945
N7510 G3 X11.801 Y-8.806 I-0.457 J-0.314
N7515 X11.491 Y-8.705 I-0.32 J-0.453 F30000.
N7520 X11.233 Y-9.806 I-0.01 J-0.578
N7525 X11.421 Y-9.859 I0.248 J0.522 F800.
N7530 X11.751 Y-9.844 I0.133 J0.75
N7535 X12.09 Y-9.223 I-0.175 J0.499
N7540 G1 X12.068 Y-9.182 Z-6.494
N7545 X12.046 Y-9.143 Z-6.477
N7550 X12.028 Y-9.109 Z-6.45
N7555 X12.013 Y-9.081 Z-6.414
N7560 X12.002 Y-9.062 Z-6.372
N7565 X11.996 Y-9.053 Z-6.326
N7570 Y-9.052 Z-6.304
N7575 G0 Z2.51
N7580 X11.214 Y3.511
N7585 Z-6.
N7590 G1 Z-6.5 F800.
N7595 X11.236 Y3.603
N7600 G3 X11.25 Y3.703 I-0.486 J0.118
N7605 G1 Y4.752
N7610 G3 X10.902 Y5.85 I-2.195 J-0.092
N7615 X9.809 Y7.056 I-3.484 J-2.058
N7620 X8.819 Y7.687 I-3.321 J-4.119
N7625 X8.308 Y7.823 I-1.028 J-2.853
N7630 G2 X7.39 Y8.159 I1.593 J5.769
N7635 G3 X4.966 Y8.829 I-4.208 J-10.502
N7640 X1.949 Y9.177 I-4.288 J-23.941
N7645 X-2.556 Y9.334 I-4.749 J-71.475
N7650 X-5.484 Y9.258 I-0.771 J-26.582
N7655 X-6.613 Y8.714 I0.204 J-1.868
N7660 G2 X-8.862 Y7.727 I-2.664 J3.016
N7665 G3 X-10.314 Y6.991 I0.775 J-3.327
N7670 X-10.902 Y6.424 I2.041 J-2.705
N7675 X-11.251 Y5.269 I1.425 J-1.062
N7680 G1 X-11.25 Y5.119
N7685 Y4.969
N7690 Y4.82
N7695 G3 X-11.205 Y4.63 I0.5 J0.017
N7700 X-10.369 Y4.514 I0.455 J0.207 F30000.
N7705 G1 X-8.332 Y6.922
N7710 G3 X-8.563 Y7.721 I-0.382 J0.323
N7715 X-8.757 Y7.743 I-0.151 J-0.477 F800.
N7720 G2 X-9.615 Y7.719 I-0.562 J4.789
N7725 G3 X-10.737 Y7.294 I0.07 J-1.874
N7730 X-11.312 Y6.037 I1.127 J-1.276
N7735 G1 X-11.297 Y5.801
N7740 G3 X-11.227 Y5.619 I0.493 J0.084
N7745 X-10.438 Y5.544 I0.423 J0.266 F30000.
N7750 G1 X-9.193 Y6.877
N7755 G3 X-9.319 Y7.657 I-0.366 J0.341
N7760 X-9.505 Y7.716 I-0.24 J-0.439 F800.
N7765 G2 X-10.179 Y7.809 I0.576 J6.664
N7770 G1 X-10.231 Y7.807
N7775 X-10.285 Y7.806
N7780 X-10.336 Y7.803
N7785 X-10.389 Y7.797
N7790 X-10.61 Y7.74
N7795 X-10.817 Y7.644
N7800 X-11.003 Y7.511
N7805 X-11.162 Y7.346
N7810 X-11.287 Y7.156
N7815 X-11.376 Y6.945
N7820 X-11.425 Y6.722
N7825 X-11.432 Y6.494
N7830 X-11.397 Y6.268
N7835 G3 X-11.308 Y6.095 I0.481 J0.138
N7840 X-10.529 Y6.09 I0.391 J0.311 F30000.
N7845 G1 X-9.794 Y6.988
N7850 G3 X-9.895 Y7.715 I-0.387 J0.317
N7855 X-10.074 Y7.793 I-0.286 J-0.41 F800.
N7860 G2 X-10.494 Y7.903 I0.795 J3.92
N7865 G1 X-10.523 Y7.906
N7870 X-10.56 Y7.91
N7875 X-10.602 Y7.913
N7880 X-10.642 Y7.915
N7885 X-10.68 Y7.914
N7890 X-10.72 Y7.911
N7895 X-10.961 Y7.849
N7900 X-11.178 Y7.729
N7905 X-11.358 Y7.556
N7910 X-11.487 Y7.344
N7915 X-11.558 Y7.106
N7920 X-11.565 Y6.857
N7925 X-11.509 Y6.615
N7930 G3 X-11.413 Y6.444 I0.744 J0.307
N7935 X-10.917 Y6.132 I0.648 J0.478 F30000.
N7940 X-10.253 Y7.797 I0.172 J0.896
N7945 X-10.428 Y7.884 I-0.492 J-0.769 F800.
N7950 X-10.868 Y8.023 I-1.403 J-3.674
N7955 G1 X-10.897 Y8.022
N7960 X-10.925 Y8.023
N7965 X-10.959
N7970 X-11.173 Y7.98
N7975 X-11.366 Y7.881
N7980 X-11.526 Y7.733
N7985 X-11.639 Y7.547
N7990 X-11.697 Y7.338
N7995 X-11.695 Y7.12
N8000 X-11.635 Y6.911
N8005 G3 X-11.523 Y6.751 I0.575 J0.282
N8010 X-11.224 Y6.574 I0.463 J0.442 F30000.
N8015 X-10.56 Y7.885 I0.193 J0.726
N8020 X-10.728 Y7.987 I-0.471 J-0.585 F800.
N8025 G1 X-10.853 Y8.037
N8030 G3 X-11.347 Y8.11 I-0.331 J-0.529
N8035 G1 X-11.529 Y8.026
N8040 X-11.678 Y7.892
N8045 X-11.781 Y7.721
N8050 X-11.829 Y7.527
N8055 X-11.818 Y7.327
N8060 X-11.749 Y7.139
N8065 G3 X-11.62 Y6.993 I0.457 J0.272
N8070 X-11.474 Y6.912 I0.328 J0.419 F30000.
N8075 X-10.798 Y7.97 I0.22 J0.604
N8080 X-10.955 Y8.086 I-0.456 J-0.454 F800.
N8085 X-11.296 Y8.242 I-0.888 J-1.495
N8090 G1 X-11.312 Y8.241
N8095 X-11.327 Y8.243
N8100 X-11.342 Y8.244
N8105 X-11.357 Y8.245
N8110 X-11.372 Y8.246
N8115 X-11.387
N8120 X-11.402
N8125 X-11.417
N8130 X-11.432 Y8.245
N8135 X-11.447 Y8.244
N8140 X-11.462 Y8.242
N8145 X-11.477 Y8.24
N8150 X-11.491 Y8.238
N8155 X-11.506 Y8.235
N8160 X-11.521 Y8.232
N8165 X-11.69 Y8.162
N8170 X-11.829 Y8.042
N8175 X-11.925 Y7.885
N8180 X-11.967 Y7.707
N8185 X-11.952 Y7.524
N8190 X-11.881 Y7.355
N8195 G3 X-11.742 Y7.218 I0.396 J0.264
N8200 X-11.681 Y7.185 I0.257 J0.401 F30000.
N8205 X-11.016 Y8.067 I0.233 J0.516
N8210 X-11.166 Y8.193 I-0.432 J-0.366 F800.
N8215 X-11.498 Y8.339 I-0.602 J-0.917
N8220 G1 X-11.52 Y8.34
N8225 X-11.547 Y8.342
N8230 X-11.574 Y8.343
N8235 X-11.6 Y8.342
N8240 X-11.625 Y8.341
N8245 X-11.649 Y8.338
N8250 X-11.671 Y8.334
N8255 X-11.695 Y8.329
N8260 X-11.716 Y8.323
N8265 X-11.725 Y8.321
N8270 G3 X-11.448 Y7.462 I0.139 J-0.429
N8275 X-11.193 Y8.113 I-0.139 J0.429
N8280 X-11.498 Y8.337 I-0.402 J-0.227
N8285 X-12.061 Y7.666 I-0.075 J-0.509
N8290 G1 X-12.033 Y7.624 Z-6.493
N8295 X-12.007 Y7.585 Z-6.473
N8300 X-11.985 Y7.551 Z-6.442
N8305 X-11.968 Y7.526 Z-6.401
N8310 X-11.957 Y7.509 Z-6.354
N8315 X-11.953 Y7.504 Z-6.304
N8320 G0 Z2.51
N8325 X-11.199 Y-6.704
N8330 Z-6.
N8335 G1 Z-6.5 F800.
N8340 G3 X-11.258 Y-6.89 I0.419 J-0.235
N8345 G2 X-11.353 Y-7.619 I-4.584 J0.228
N8350 G3 X-11.132 Y-8.693 I2.062 J-0.135
N8355 X-10.442 Y-9.681 I2.663 J1.123
N8360 G1 X-10.252 Y-9.815
N8365 X-10.049 Y-9.926
N8370 X-9.833 Y-10.011
N8375 G3 X-9.639 Y-10.027 I0.137 J0.481
N8380 X-9.268 Y-9.272 I-0.058 J0.497 F30000.
N8385 G1 X-10.419 Y-7.362
N8390 G3 X-11.243 Y-7.315 I-0.428 J-0.258
N8395 X-11.33 Y-7.489 I0.396 J-0.305 F800.
N8400 G2 X-11.514 Y-8.149 I-6.361 J1.417
N8405 G3 X-11.512 Y-8.793 I1.421 J-0.32
N8410 G1 X-11.438 Y-9.023
N8415 X-11.327 Y-9.238
N8420 X-11.181 Y-9.431
N8425 X-11.006 Y-9.597
N8430 X-10.805 Y-9.731
N8435 X-10.584 Y-9.83
N8440 X-10.35 Y-9.891
N8445 G3 X-10.155 Y-9.879 I0.067 J0.495
N8450 X-9.855 Y-9.136 I-0.127 J0.484 F30000.
N8455 G1 X-10.582 Y-7.943
N8460 G3 X-11.366 Y-7.853 I-0.427 J-0.26
N8465 X-11.473 Y-8.016 I0.357 J-0.35 F800.
N8470 X-11.718 Y-8.619 I28.861 J-12.105
N8475 G1 X-11.726 Y-8.664
N8480 X-11.74 Y-8.903
N8485 X-11.697 Y-9.139
N8490 X-11.6 Y-9.358
N8495 X-11.453 Y-9.547
N8500 X-11.265 Y-9.696
N8505 X-11.047 Y-9.797
N8510 X-10.812 Y-9.842
N8515 G3 X-10.617 Y-9.829 I0.034 J0.925
N8520 X-9.893 Y-9.186 I-0.162 J0.911 F30000.
N8525 X-11.563 Y-8.317 I-0.916 J0.278
N8530 X-11.667 Y-8.483 I0.754 J-0.591 F800.
N8535 G2 X-11.855 Y-8.817 I-3.576 J1.785
N8540 G1 X-11.862 Y-8.84
N8545 X-11.873 Y-8.868
N8550 X-11.885 Y-8.905
N8555 X-11.894 Y-8.941
N8560 X-11.902 Y-8.976
N8565 X-11.907 Y-9.009
N8570 X-11.911 Y-9.042
N8575 X-11.895 Y-9.25
N8580 X-11.823 Y-9.445
N8585 X-11.699 Y-9.614
N8590 X-11.535 Y-9.742
N8595 X-11.341 Y-9.819
N8600 X-11.134 Y-9.841
N8605 G3 X-10.943 Y-9.799 I-0.046 J0.656
N8610 X-10.585 Y-9.465 I-0.237 J0.613 F30000.
N8615 X-11.696 Y-8.619 I-0.646 J0.304
N8620 X-11.826 Y-8.766 I0.465 J-0.542 F800.
N8625 X-12.036 Y-9.13 I1.678 J-1.21
N8630 G1 X-12.039 Y-9.156
N8635 X-12.044 Y-9.179
N8640 X-12.048 Y-9.205
N8645 X-12.036 Y-9.41
N8650 X-11.954 Y-9.598
N8655 X-11.812 Y-9.746
N8660 X-11.628 Y-9.837
N8665 X-11.424 Y-9.859
N8670 G3 X-11.237 Y-9.802 I-0.054 J0.515
N8675 X-11.017 Y-9.579 I-0.241 J0.459 F30000.
N8680 X-11.842 Y-8.868 I-0.499 J0.255
N8685 X-11.978 Y-9.008 I0.326 J-0.456 F800.
N8690 X-12.061 Y-9.562 I0.407 J-0.344
N8695 X-11.718 Y-9.853 I0.5 J0.243
N8700 G1 X-11.709 Y-9.852
N8705 G2 X-11.526 Y-9.812 I0.704 J-2.824
N8710 X-11.208 Y-9.772 I0.521 J-2.864 F30000.
N8715 X-11.131 Y-9.773 I0.035 J-0.499
N8720 G1 X-10.391 Y-9.836
N8725 G2 X-10.315 Y-9.848 I-0.042 J-0.498
N8730 X-10.015 Y-9.938 I-0.69 J-2.828
N8735 X-9.834 Y-10.011 I-0.989 J-2.738 F800.
N8740 G1 X-9.833
N8745 G2 X-8.307 Y-10.883 I-1.194 J-3.862
N8750 G3 X-6.537 Y-11.941 I4.048 J4.765
N8755 X-5.527 Y-12.307 I2.963 J6.592
N8760 G1 X-5.332 Y-12.337
N8765 X-5.135 Y-12.348
N8770 G3 X-4.939 Y-11.396 I-0.017 J0.5
N8775 G1 X-7.748 Y-10.07
N8780 G3 X-8.308 Y-10.883 I-0.213 J-0.452
N8785 G2 X-7.614 Y-11.715 I-2.562 J-2.841
N8790 G3 X-6.636 Y-12.329 I1.218 J0.855
N8795 G1 X-6.4 Y-12.348
N8800 G3 X-6.21 Y-12.303 I-0.017 J0.5
N8805 X-6.178 Y-11.41 I-0.207 J0.455 F30000.
N8810 G1 X-6.978 Y-10.972
N8815 G3 X-7.713 Y-11.474 I-0.24 J-0.439
N8820 X-7.652 Y-11.659 I0.496 J0.063 F800.
N8825 X-7.378 Y-12.109 I95.053 J57.425
N8830 X-7.017 Y-12.332 I0.477 J0.369
N8835 G1 X-6.966 Y-12.335 Z-6.493
N8840 X-6.919 Y-12.336 Z-6.473
N8845 X-6.878 Y-12.337 Z-6.442
N8850 X-6.847 Y-12.338 Z-6.402
N8855 X-6.828 Z-6.354
N8860 X-6.821 Y-12.339 Z-6.304
N8865 G0 Z2.51
N8870 X10.898 Y5.199
N8875 Z-5.5
N8880 G1 Z-6. F800.
N8885 X10.901 Y5.192 Z-6.087
N8890 X10.908 Y5.17 Z-6.171
N8895 X10.919 Y5.135 Z-6.25
N8900 X10.935 Y5.088 Z-6.321
N8905 X10.955 Y5.029 Z-6.383
N8910 X10.977 Y4.962 Z-6.433
N8915 X11.002 Y4.887 Z-6.47
N8920 X11.028 Y4.807 Z-6.492
N8925 X11.056 Y4.724 Z-6.5
N8930 G3 X11.25 Y4.752 I0.095 J0.031
N8935 G2 X11.27 Y5.629 I11.586 J0.175
N8940 G3 X10.942 Y6.691 I-2.126 J-0.074
N8945 X9.282 Y7.712 I-1.65 J-0.824
N8950 G1 X9.217 Y7.705
N8955 X9.154 Y7.689
N8960 X9.093 Y7.665
N8965 G3 X8.929 Y6.881 I0.211 J-0.453 F30000.
N8970 G1 X10.394 Y5.226
N8975 G3 X11.206 Y5.315 I0.374 J0.331
N8980 X11.266 Y5.501 I-0.438 J0.242 F800.
N8985 G2 X11.375 Y6.192 I3.861 J-0.255
N8990 G3 X11.2 Y7.061 I-1.405 J0.17
N8995 G1 X11.065 Y7.254
N9000 G3 X9.805 Y7.747 I-1.074 J-0.889
N9005 X9.622 Y7.677 I0.084 J-0.493
N9010 X9.529 Y6.907 I0.267 J-0.423 F30000.
N9015 G1 X10.514 Y5.886
N9020 G3 X11.268 Y5.926 I0.36 J0.347
N9025 X11.356 Y6.1 I-0.395 J0.307 F800.
N9030 G2 X11.508 Y6.622 I4.086 J-0.908
N9035 G3 X11.523 Y6.93 I-1.035 J0.204
N9040 G1 X11.47 Y7.148
N9045 X11.372 Y7.351
N9050 X11.234 Y7.528
N9055 X11.062 Y7.673
N9060 X10.864 Y7.778
N9065 X10.648 Y7.839
N9070 X10.423 Y7.853
N9075 X10.201 Y7.819
N9080 G3 X10.021 Y7.743 I0.257 J-0.864
N9085 X9.58 Y7.156 I0.438 J-0.788 F30000.
N9090 X11.393 Y6.377 I0.978 J-0.224
N9095 X11.485 Y6.55 I-0.835 J0.556 F800.
N9100 X11.655 Y6.989 I-5.021 J2.203
N9105 X11.658 Y7.251 I-1.05 J0.143
N9110 G1 X11.583 Y7.485
N9115 X11.446 Y7.687
N9120 X11.256 Y7.843
N9125 X11.03 Y7.938
N9130 X10.787 Y7.966
N9135 X10.546 Y7.923
N9140 G3 X10.373 Y7.831 I0.25 J-0.677
N9145 X10.111 Y7.472 I0.423 J-0.584 F30000.
N9150 X11.505 Y6.696 I0.772 J-0.254
N9155 X11.612 Y6.86 I-0.623 J0.522 F800.
N9160 X11.782 Y7.229 I-3.416 J1.797
N9165 G1 X11.784 Y7.254
N9170 X11.789 Y7.288
N9175 X11.793 Y7.324
N9180 X11.796 Y7.359
N9185 Y7.392
N9190 X11.795 Y7.423
N9195 X11.793 Y7.452
N9200 X11.732 Y7.66
N9205 X11.612 Y7.84
N9210 X11.444 Y7.976
N9215 X11.243 Y8.056
N9220 X11.028 Y8.072
N9225 X10.817 Y8.022
N9230 G3 X10.655 Y7.914 I0.232 J-0.525
N9235 X10.52 Y7.72 I0.395 J-0.417 F30000.
N9240 X11.609 Y6.956 I0.627 J-0.264
N9245 X11.732 Y7.108 I-0.461 J0.5 F800.
N9250 X11.904 Y7.415 I-1.887 J1.26
N9255 X11.916 Y7.671 I-0.7 J0.16
N9260 G1 X11.852 Y7.853
N9265 X11.736 Y8.008
N9270 X11.578 Y8.12
N9275 X11.393 Y8.178
N9280 X11.199 Y8.176
N9285 X11.016 Y8.115
N9290 G3 X10.868 Y7.989 I0.219 J-0.405
N9295 X10.815 Y7.901 I0.367 J-0.279 F30000.
N9300 X11.725 Y7.177 I0.545 J-0.249
N9305 X11.859 Y7.319 I-0.365 J0.476 F800.
N9310 X12.018 Y7.591 I-1.218 J0.896
N9315 G1 X12.023 Y7.611
N9320 X12.027 Y7.629
N9325 X12.031 Y7.647
N9330 X12.035 Y7.672
N9335 X12.038 Y7.702
N9340 X12.04 Y7.731
N9345 X12.041 Y7.759
N9350 X12.04 Y7.785
N9355 X12.037 Y7.81
N9360 X12.034 Y7.834
N9365 X11.977 Y7.997
N9370 X11.872 Y8.135
N9375 X11.729 Y8.234
N9380 X11.563 Y8.284
N9385 X11.39 Y8.281
N9390 X11.226 Y8.225
N9395 G3 X11.084 Y8.092 I0.212 J-0.368
N9400 X11.06 Y8.051 I0.354 J-0.235 F30000.
N9405 X11.838 Y7.366 I0.475 J-0.244
N9410 X11.976 Y7.504 I-0.303 J0.44 F800.
N9415 X12.088 Y7.816 I-0.424 J0.329
N9420 X11.479 Y8.337 I-0.519 J0.009
N9425 G1 Y8.334
N9430 G2 X11.324 Y8.214 I-2.121 J2.606
N9435 X10.46 Y7.766 I-1.965 J2.726 F30000.
N9440 X10.331 Y7.739 I-0.164 J0.472
N9445 G1 X8.847 Y7.634
N9450 G2 X8.716 Y7.642 I-0.035 J0.499
N9455 X7.798 Y7.965 I0.643 J3.298
N9460 X7.627 Y8.061 I1.561 J2.975 F800.
N9465 X6.438 Y8.867 I1.776 J3.898
N9470 G3 X4.926 Y9.595 I-2.882 J-4.048
N9475 X2.932 Y10.036 I-3.371 J-10.517
N9480 X-0.171 Y10.319 I-4.081 J-27.617
N9485 X-4.221 Y10.368 I-2.514 J-40.358
N9490 X-4.821 Y10.291 I0.613 J-7.174
N9495 X-5.921 Y9.514 I0.446 J-1.798
N9500 G1 X-5.938 Y9.466 Z-6.493
N9505 X-5.954 Y9.422 Z-6.473
N9510 X-5.968 Y9.384 Z-6.442
N9515 X-5.978 Y9.355 Z-6.401
N9520 X-5.985 Y9.337 Z-6.354
N9525 X-5.987 Y9.33 Z-6.304
N9530 G0 Z2.51
N9535 X6.047 Y8.763
N9540 Z-5.5
N9545 G1 Z-6. F800.
N9550 X6.054 Y8.76 Z-6.087
N9555 X6.074 Y8.751 Z-6.171
N9560 X6.107 Y8.735 Z-6.25
N9565 X6.153 Y8.714 Z-6.321
N9570 X6.209 Y8.688 Z-6.383
N9575 X6.274 Y8.658 Z-6.433
N9580 X6.345 Y8.625 Z-6.47
N9585 X6.422 Y8.59 Z-6.492
N9590 X6.501 Y8.554 Z-6.5
N9595 G3 X6.613 Y8.714 I0.042 J0.091
N9600 G2 X5.935 Y9.486 I2.844 J3.184
N9605 G3 X4.719 Y10.333 I-2.426 J-2.186
N9610 G1 X4.512 Y10.4
N9615 X4.297 Y10.439
N9620 X4.079 Y10.452
N9625 G3 X3.889 Y10.407 I0.017 J-0.5
N9630 X3.852 Y9.516 I0.207 J-0.455 F30000.
N9635 G1 X5.345 Y8.679
N9640 G3 X6.079 Y9.217 I0.245 J0.436
N9645 X6.002 Y9.397 I-0.489 J-0.102 F800.
N9650 G2 X5.578 Y10.14 I3.748 J2.635
N9655 G3 X5.015 Y10.449 I-0.533 J-0.304
N9660 G1 X4.895 Y10.451
N9665 X4.699
N9670 X4.276 Y10.452 F30000.
N9675 X4.08 F800.
N9680 X-4.715
N9685 G3 X-5.24 Y10.421 I-0.123 J-2.376
N9690 X-5.536 Y10.201 I0.215 J-0.6
N9695 G1 X-5.553 Y10.153 Z-6.493
N9700 X-5.569 Y10.109 Z-6.473
N9705 X-5.583 Y10.071 Z-6.442
N9710 X-5.593 Y10.041 Z-6.402
N9715 X-5.6 Y10.023 Z-6.354
N9720 X-5.602 Y10.017 Z-6.304
N9725 G0 Z2.51
N9730 X-6.597 Y-12.344
N9735 Z-6.
N9740 G1 Z-6.5 F800.
N9745 X-6.401 Y-12.348
N9750 X-5.96
N9755 X-5.957
N9760 G2 X-5.772 Y-12.32 I0.409 J-2.103
N9765 G1 X-5.766 Y-12.319
N9770 G2 X-5.72 Y-12.317 I0.046 J-0.498 F30000.
N9775 G1 X-5.376
N9780 G2 X-5.33 Y-12.319 I0. J-0.5
N9785 G1 X-5.324 Y-12.32 F800.
N9790 G2 X-5.139 Y-12.348 I-0.224 J-2.131
N9795 G1 X-5.136
N9800 X6.661
N9805 G3 X7.111 Y-12.308 I0.106 J1.368
N9810 X7.428 Y-12.031 I-0.23 J0.583
N9815 G1 X7.444 Y-11.988 Z-6.495
N9820 X7.46 Y-11.948 Z-6.479
N9825 X7.473 Y-11.912 Z-6.453
N9830 X7.48 Y-11.884 Z-6.422
N9835 X7.485 Y-11.863 Z-6.386
N9840 X7.488 Y-11.849 Z-6.346
N9845 X7.489 Y-11.845 Z-6.304
N9850 G0 Z4.
(2D POCKET1)
N9860 M8
N9865 G0 X-16.69 Y-17.246
N9870 Z4.
N9875 Z3.
N9880 G2 X-16.717 Y-17.22 Z2.81 I16.69 J17.246 F800.
N9885 X-16.793 Y-17.146 Z2.649 I16.717 J17.22
N9890 X-16.907 Y-17.034 Z2.54 I16.793 J17.146
N9895 X-17.041 Y-16.9 Z2.5 I16.907 J17.034
N9900 X-24. Y0. Z2.251 I17.041 J16.9
N9905 X24. Z1.251 I24. J0.
N9910 X0. Y-24. Z0.751 I-24. J0.
N9915 X-0.052 I-0.026 J24.
N9920 X-24. Y0. Z0.251 I0.052 J24.
N9925 X24. Z-0.749 I24. J0.
N9930 X0. Y-24. Z-1.249 I-24. J0.
N9935 X-0.052 I-0.026 J24.
N9940 X-24. Y0. Z-1.749 I0.052 J24.
N9945 X-16.9 Y17.041 Z-2. I24. J0.
N9950 X16.9 Y-17.041 I16.9 J-17.041
N9955 X0. Y-24. I-16.9 J17.041
N9960 X-0.052 I-0.026 J24.
N9965 X-24. Y0. I0.052 J24.
N9970 X-16.9 Y17.041 I24. J0.
N9975 G3 X-16.894 Y17.39 I-0.176 J0.178
N9980 G1 X-17.236 Y17.754
N9985 G3 X-17.594 Y17.761 I-0.182 J-0.171
N9990 X-25. Y0. I17.594 J-17.761
N9995 X25. I25. J0.
N10000 X0. Y25. I-25. J0.
N10005 X-0.052 I-0.026 J-25.
N10010 X-17.594 Y17.761 I0.052 J-25.
N10015 X-17.73 Y17.626 Z-1.962 I17.594 J-17.761
N10020 X-17.844 Y17.51 Z-1.854 I17.73 J-17.626
N10025 X-17.919 Y17.433 Z-1.691 I17.844 J-17.51
N10030 X-17.946 Y17.405 Z-1.5 I17.919 J-17.433
N10035 G0 Z3.
N10040 X17.954 Y17.397
N10045 G1 Z1. F800.
N10050 G3 X17.928 Y17.424 Z0.81 I-17.954 J-17.397
N10055 X17.853 Y17.5 Z0.649 I-17.928 J-17.424
N10060 X17.741 Y17.614 Z0.54 I-17.853 J-17.5
N10065 X17.607 Y17.748 Z0.5 I-17.741 J-17.614
N10070 X0. Y25. Z0.251 I-17.607 J-17.748
N10075 X-0.052 I-0.026 J-25.
N10080 X-25. Y0. Z-0.249 I0.052 J-25.
N10085 X25. Z-1.249 I25. J0.
N10090 X0. Y25. Z-1.749 I-25. J0.
N10095 X-0.052 I-0.026 J-25.
N10100 X-25. Y0. Z-2.249 I0.052 J-25.
N10105 X25. Z-3.249 I25. J0.
N10110 X0. Y25. Z-3.749 I-25. J0.
N10115 X-0.052 I-0.026 J-25.
N10120 X-17.748 Y17.607 Z-4. I0.052 J-25.
N10125 X-25. Y0. I17.748 J-17.607
N10130 X25. I25. J0.
N10135 X0. Y25. I-25. J0.
N10140 X-0.052 I-0.026 J-25.
N10145 X-17.748 Y17.607 I0.052 J-25.
N10150 X-17.753 Y17.259 I0.177 J-0.176
N10155 G1 X-17.41 Y16.895
N10160 G3 X-17.05 Y16.89 I0.182 J0.171
N10165 G2 X17.05 Y-16.89 I17.05 J-16.89
N10170 X0. Y-24. I-17.05 J16.89
N10175 X-0.052 I-0.026 J24.
N10180 X-24. Y0. I0.052 J24.
N10185 X-17.05 Y16.89 I24. J0.
N10190 X17.05 Y-16.89 Z-5. I17.05 J-16.89
N10195 X0. Y-24. Z-5.251 I-17.05 J16.89
N10200 X-0.052 Z-5.252 I-0.026 J24.
N10205 X-24. Y0. Z-5.751 I0.052 J24.
N10210 X-17.05 Y16.89 Z-6. I24. J0.
N10215 X17.05 Y-16.89 I17.05 J-16.89
N10220 X-17.05 Y16.89 I-17.05 J16.89
N10225 X17.05 Y-16.89 I17.05 J-16.89
N10230 X0. Y-24. I-17.05 J16.89
N10235 X-0.052 I-0.026 J24.
N10240 X-24. Y0. I0.052 J24.
N10245 X-17.05 Y16.89 I24. J0.
N10250 G3 X-17.045 Y17.237 I-0.178 J0.176
N10255 G1 X-17.386 Y17.603
N10260 G3 X-17.746 Y17.609 I-0.183 J-0.17
N10265 X-25. Y0. I17.746 J-17.609
N10270 X25. I25. J0.
N10275 X0. Y25. I-25. J0.
N10280 X-0.052 I-0.026 J-25.
N10285 X-17.746 Y17.609 I0.052 J-25.
N10290 X-17.881 Y17.472 Z-5.962 I17.746 J-17.609
N10295 X-17.994 Y17.356 Z-5.854 I17.881 J-17.472
N10300 X-18.069 Y17.278 Z-5.691 I17.994 J-17.356
N10305 X-18.095 Y17.25 Z-5.5 I18.069 J-17.278
N10310 G0 Z4.
N10320 M9
N10325 G53 Z0.
N10330 M30
%
