%
(ON SOCKET T16 WOOD 75MM BACK)
(T16  D=3.175 CR=0. - ZMIN=-7. - FLAT END MILL)
N10 G90 G94 G17 G91.1
N15 G21
N20 G53 G0 Z0.
(2D ADAPTIVE1 6)
N25 M9
N30 T16 M6
N35 S3000 M3
N40 G54
N45 M8
N55 G0 X9.624 Y1.006
N60 G43 Z10. H16
N65 #100=600. (CUTTING)
N70 #103=600. (ENTRY)
N75 #104=600. (EXIT)
N80 #105=8000. (DIRECT)
N85 #107=500. (RAMPING)
N90 G0 Z2.868
N95 G1 Z2.55 F#103
N100 G3 X11.621 Y-1.255 Z2.385 I0.999 J-1.13 F#107
N105 X9.624 Y1.006 Z2.219 I-0.999 J1.13
N110 X11.621 Y-1.255 Z2.054 I0.999 J-1.13
N115 X9.624 Y1.006 Z1.888 I-0.999 J1.13
N120 X11.621 Y-1.255 Z1.723 I0.999 J-1.13
N125 X9.624 Y1.006 Z1.557 I-0.999 J1.13
N130 X11.621 Y-1.255 Z1.392 I0.999 J-1.13
N135 X9.624 Y1.006 Z1.226 I-0.999 J1.13
N140 X11.621 Y-1.255 Z1.061 I0.999 J-1.13
N145 X9.624 Y1.006 Z0.895 I-0.999 J1.13
N150 X11.621 Y-1.255 Z0.73 I0.999 J-1.13
N155 X9.624 Y1.006 Z0.565 I-0.999 J1.13
N160 X11.621 Y-1.255 Z0.399 I0.999 J-1.13
N165 X9.624 Y1.006 Z0.234 I-0.999 J1.13
N170 X11.621 Y-1.255 Z0.068 I0.999 J-1.13
N175 X9.624 Y1.006 Z-0.097 I-0.999 J1.13
N180 X11.621 Y-1.255 Z-0.263 I0.999 J-1.13
N185 X9.624 Y1.006 Z-0.428 I-0.999 J1.13
N190 X11.621 Y-1.255 Z-0.594 I0.999 J-1.13
N195 X9.624 Y1.006 Z-0.759 I-0.999 J1.13
N200 X11.621 Y-1.255 Z-0.924 I0.999 J-1.13
N205 X9.624 Y1.006 Z-1.09 I-0.999 J1.13
N210 X11.621 Y-1.255 Z-1.255 I0.999 J-1.13
N215 X12.131 Y-0.125 Z-1.3 I-0.999 J1.13
N220 X9.115 I-1.508 J0.
N225 X12.131 I1.508 J0.
N230 G1 X12.148 Y0.538 F#100
N235 G3 X11.755 Y1.543 I-1.055 J0.167
N240 X9.524 Y1.724 I-1.236 J-1.405
N245 X8.776 Y-1.277 I1.087 J-1.865
N250 X11.795 Y-1.947 I1.836 J1.136
N255 X12.769 Y-0.578 I-1.203 J1.887
N260 X12.226 Y2.045 I-2.23 J0.907
N265 X8.458 Y1.783 I-1.755 J-1.984
N270 X11.436 Y-2.915 I2.148 J-1.931
N275 X13.291 Y-1.346 I-0.83 J2.862
N280 X12.355 Y2.912 I-2.793 J1.618
N285 X7.402 Y1.653 I-1.898 J-2.903
N290 X12.414 Y-3.362 I3.211 J-1.803
N295 X13.866 Y2.518 I-2.023 J3.619
N300 X7.977 Y3.497 I-3.423 J-2.389
N305 X8.85 Y-4.293 I2.596 J-3.653
N310 X13.935 Y-3.245 I1.791 J4.171
N315 X9.575 Y5.067 I-3.452 J3.488
N320 X5.65 Y-2.199 I0.927 J-5.194
N325 X13.791 Y-4.504 I4.978 J2.053
N330 X9.29 Y5.905 I-3.314 J4.745
N335 X4.5 Y-1.483 I1.195 J-6.021
N340 X14.072 Y-5.386 I6.127 J1.339
N345 X9.867 Y6.892 I-3.591 J5.629
N350 X3.558 Y-1.365 I0.605 J-7.001
N355 X13.855 Y-6.551 I7.066 J1.215
N360 X10.133 Y7.824 I-3.371 J6.797
N365 X2.533 Y-0.101 I0.319 J-7.912
N370 X13.932 Y-7.532 I8.089 J-0.051
N375 X10.482 Y8.755 I-3.443 J7.78
N380 X1.753 Y1.486 I-0.048 J-8.818
N385 X13.931 Y-8.539 I8.865 J-1.64
N390 X19.211 Y3.85 I-3.418 J8.776
N395 X7.746 Y9.312 I-8.768 J-3.639
N400 X0.807 Y-1.833 I2.731 J-9.432
N405 X15.04 Y-9.081 I9.822 J1.689
N410 X11.236 Y10.603 I-4.547 J9.331
N415 X0.374 Y3.559 I-0.817 J-10.637
N420 X10.243 Y-11.039 I10.226 J-3.722
N425 X19.849 Y-6.134 I0.383 J11.107
N430 X10.554 Y11.582 I-9.366 J6.382
N435 X-0.779 Y3.076 I-0.128 J-11.632
N440 X6.079 Y-11.089 I11.358 J-3.244
N445 X19.448 Y-8.146 I4.575 J11.059
N450 X13.167 Y12.231 I-8.954 J8.397
N455 X-1.529 Y3.866 I-2.748 J-12.263
N460 X-0.563 Y-6.381 I12.005 J-4.037
N465 X14.825 Y-12.249 I11.192 J6.239
N470 X22.192 Y-5.939 I-4.247 J12.415
N475 X10.554 Y13.49 I-11.718 J6.181
N480 X-2.474 Y4.057 I-0.128 J-13.535
N485 X-1.711 Y-6.248 I12.93 J-4.223
N490 X6.016 Y-13.113 I12.301 J6.063
N495 X21.534 Y-8.656 I4.629 J13.123
N500 X24.665 Y0.075 I-10.765 J8.789
N505 G1 X24.629 Y0.737
N510 G3 X21.847 Y8.733 I-13.518 J-0.221
N515 X13.238 Y14.165 I-11.26 J-8.307
N520 G1 X13.174 Y14.163
N525 X8.648
N530 G3 X5.568 Y13.595 I0.166 J-9.545
N535 X2.409 Y12.027 I4.501 J-13.037
N540 G1 X2.232 Y11.871
N545 X2.1 Y11.676
N550 X2.023 Y11.453
N555 G3 X2.025 Y11.329 I0.313 J-0.055 F#104
N560 X2.45 Y11.102 I0.31 J0.069 F#105
N565 G1 X8.752 Y13.549
N570 G3 X8.769 Y14.134 I-0.115 J0.296
N575 X8.648 Y14.163 I-0.132 J-0.289 F#103
N580 G1 X5.49 F#100
N585 G3 X3.873 Y13.823 I0.193 J-4.944
N590 X2.441 Y13.13 I2.24 J-6.452
N595 X2.03 Y12.285 I0.516 J-0.774
N600 X2.068 Y12.167 I0.316 J0.037 F#104
N605 X2.484 Y12.036 I0.277 J0.154 F#105
N610 G1 X5.617 Y13.56
N615 G3 X5.61 Y14.134 I-0.139 J0.286
N620 X5.49 Y14.163 I-0.132 J-0.289 F#103
N625 G2 X4.287 Y14.324 I-0.161 J3.357 F#100
N630 G3 X3.091 Y14.259 I-0.484 J-2.118
N635 X2.99 Y14.187 I0.13 J-0.29 F#104
N640 X3.245 Y13.652 I0.231 J-0.218 F#100
N645 G1 X4.146 Y13.721
N650 G3 X4.209 Y14.343 I-0.024 J0.317
N655 X3.835 Y14.407 I-0.334 J-0.835
N660 G1 X3.534 Y14.384
N665 X3.384 Y14.371
N670 G3 X2.78 Y14.109 I0.719 J-2.487
N675 G1 X2.482 Y13.849
N680 G3 X2.129 Y13.309 I1.582 J-1.417
N685 X1.993 Y12.709 I2.212 J-0.819
N690 G2 X2.04 Y11.505 I-5.748 J-0.829
N695 X0.753 Y10.155 I-1.69 J0.323
N700 G3 X-0.727 Y9.044 I2.191 J-4.459
N705 X-2.83 Y5.804 I8.181 J-7.613
N710 X6.079 Y-14.144 I13.414 J-5.972
N715 G1 X6.17 Y-14.158
N720 X6.262 Y-14.163
N725 X13.912
N730 G3 X16.297 Y-13.698 I-0.105 J6.892
N735 X21.231 Y-10.434 I-4.976 J12.883
N740 X24.641 Y-5.165 I-10.411 J10.475
N745 G1 X24.656 Y-5.052
N750 X24.663 Y-4.941
N755 Y-0.282
N760 Y-0.157 F#104
N765 Y-0.049 F#105
N770 Y0.075 F#103
N775 Y4.437 F#100
N780 G3 X24.275 Y6.331 I-5.648 J-0.169
N785 X21.873 Y10.23 I-11.663 J-4.496
N790 X16.556 Y14.128 I-11.174 J-9.668
N795 G1 X16.424 Y14.153
N800 X16.291 Y14.163
N805 X13.174
N810 X13.137 Y14.152 Z-1.294 F#104
N815 X13.104 Y14.142 Z-1.276
N820 X13.078 Y14.135 Z-1.248
N825 X13.061 Y14.13 Z-1.214
N830 X13.055 Y14.128 Z-1.175
N835 G0 Z5.
N840 X24.439 Y4.721
N845 Z-0.665
N850 G1 Z-0.983 F#103
N855 X24.442 Y4.713 Z-1.053
N860 X24.449 Y4.691 Z-1.12
N865 X24.461 Y4.655 Z-1.18
N870 X24.477 Y4.607 Z-1.231
N875 X24.496 Y4.55 Z-1.269
N880 X24.517 Y4.486 Z-1.292
N885 X24.539 Y4.419 Z-1.3
N890 G3 X24.663 Y4.437 I0.06 J0.02
N895 G1 Y6.693 F#100
N900 G3 X24.252 Y8.323 I-4.204 J-0.192
N905 X22.549 Y10.909 I-9.259 J-4.242
N910 X18.687 Y14.112 I-11.401 J-9.82
N915 G1 X18.523 Y14.148
N920 X18.359 Y14.163
N925 X16.291
N930 G3 X16.17 Y14.134 I0.011 J-0.317 F#104
N935 X16.091 Y13.608 I0.132 J-0.289 F#105
N940 G1 X24.134 Y6.467
N945 G3 X24.634 Y6.572 I0.211 J0.237
N950 X24.663 Y6.693 I-0.289 J0.132 F#103
N955 G1 Y8.498 F#100
N960 G3 X24.162 Y10.14 I-3.729 J-0.239
N965 X22.316 Y12.542 I-8.493 J-4.618
N970 X20.468 Y14.089 I-8.746 J-8.568
N975 G1 X20.28 Y14.142
N980 X20.087 Y14.163
N985 X18.359
N990 X18.322 Y14.154 Z-1.294 F#104
N995 X18.288 Y14.146 Z-1.276
N1000 X18.261 Y14.14 Z-1.248
N1005 X18.244 Y14.135 Z-1.214
N1010 X18.238 Y14.134 Z-1.175
N1015 G0 Z5.
N1020 X24.439 Y8.781
N1025 Z-0.665
N1030 G1 Z-0.983 F#103
N1035 X24.442 Y8.774 Z-1.053
N1040 X24.449 Y8.752 Z-1.12
N1045 X24.461 Y8.716 Z-1.18
N1050 X24.477 Y8.668 Z-1.231
N1055 X24.496 Y8.611 Z-1.269
N1060 X24.517 Y8.547 Z-1.292
N1065 X24.539 Y8.48 Z-1.3
N1070 G3 X24.663 Y8.498 I0.06 J0.02
N1075 G1 Y10.002 F#100
N1080 G3 X24.234 Y11.479 I-3.208 J-0.13
N1085 X23.021 Y13.149 I-6.688 J-3.583
N1090 G1 X22.556 Y13.621
N1095 X22.221 Y13.925
N1100 X22.035 Y14.057
N1105 X21.822 Y14.138
N1110 X21.595 Y14.165
N1115 G3 X21.475 Y14.136 I0.013 J-0.317 F#104
N1120 X21.35 Y13.663 I0.134 J-0.288 F#105
N1125 G1 X24.087 Y9.828
N1130 G3 X24.634 Y9.881 I0.258 J0.184
N1135 X24.663 Y10.002 I-0.289 J0.132 F#103
N1140 Y11.655 I-57.265 J0.841 F#100
N1145 X24.027 Y13.211 I-3.645 J-0.582
N1150 X23.315 Y14.101 I-4.264 J-2.679
N1155 X22.42 Y14.316 I-0.635 J-0.672
N1160 X22.313 Y14.255 I0.1 J-0.301 F#104
N1165 X22.26 Y13.833 I0.208 J-0.24 F#105
N1170 G1 X24.091 Y11.208
N1175 G3 X24.63 Y11.237 I0.26 J0.182
N1180 X24.667 Y11.355 I-0.279 J0.152 F#103
N1185 G2 X24.855 Y12.252 I4.374 J-0.446 F#100
N1190 G3 X24.453 Y13.877 I-2.498 J0.244
N1195 X24.357 Y13.956 I-0.246 J-0.201 F#104
N1200 X23.896 Y13.611 I-0.151 J-0.28 F#100
N1205 G1 X24.204 Y12.133
N1210 G3 X24.819 Y12.107 I0.311 J0.065
N1215 X24.918 Y12.558 I-1.491 J0.565
N1220 G1 X24.902 Y12.859
N1225 X24.894 Y13.01
N1230 G3 X24.658 Y13.614 I-2.26 J-0.534
N1235 G1 X24.426 Y13.912
N1240 X24.396 Y13.948
N1245 X24.358 Y13.984
N1250 X23.989 Y14.248
N1255 G3 X23.425 Y14.443 I-0.992 J-1.956
N1260 G1 X23.387 Y14.448
N1265 X22.936 Y14.455
N1270 X22.899 Y14.452
N1275 X22.861 Y14.445
N1280 X22.184 Y14.247
N1285 X22.034 Y14.209
N1290 X21.883 Y14.182
N1295 X21.733 Y14.166
N1300 X21.282 Y14.163
N1305 X20.087
N1310 X20.05 Y14.154 Z-1.294 F#104
N1315 X20.016 Y14.146 Z-1.276
N1320 X19.99 Y14.14 Z-1.248
N1325 X19.973 Y14.135 Z-1.214
N1330 X19.967 Y14.134 Z-1.175
N1335 G0 Z5.
N1340 X1.019 Y10.211
N1345 Z-0.983
N1350 G1 Z-1.3 F#103
N1355 X0.976 Y10.213
N1360 G3 X0.895 Y10.203 I-0.01 J-0.254
N1365 G2 X-0.006 Y10.116 I-0.684 J2.393 F#100
N1370 G3 X-1.433 Y9.39 I0.59 J-2.924
N1375 X-2.687 Y7.993 I4.328 J-5.145
N1380 X-4.71 Y3.132 I11.217 J-7.521
N1385 X3.853 Y-14.288 I15.297 J-3.295
N1390 G1 X4.076 Y-14.363
N1395 X4.31 Y-14.379
N1400 X4.54 Y-14.336
N1405 G2 X5.339 Y-14.162 I0.918 J-2.301
N1410 G1 X5.941 Y-14.163
N1415 X6.262
N1420 G3 X6.382 Y-14.134 I-0.011 J0.317 F#104
N1425 G1 X6.447 Y-14.105 Z-1.292
N1430 X6.508 Y-14.077 Z-1.269
N1435 X6.562 Y-14.052 Z-1.231
N1440 X6.608 Y-14.031 Z-1.18
N1445 X6.643 Y-14.015 Z-1.12
N1450 X6.664 Y-14.006 Z-1.053
N1455 X6.671 Y-14.002 Z-0.983
N1460 G0 Z5.
N1465 X-0.141 Y9.891
N1470 Z-0.665
N1475 G1 Z-0.983 F#103
N1480 X-0.133 Y9.894 Z-1.053
N1485 X-0.111 Y9.901 Z-1.12
N1490 X-0.075 Y9.913 Z-1.18
N1495 X-0.027 Y9.929 Z-1.231
N1500 X0.03 Y9.948 Z-1.269
N1505 X0.094 Y9.969 Z-1.292
N1510 X0.161 Y9.991 Z-1.3
N1515 G3 X0.143 Y10.115 I-0.02 J0.06
N1520 G1 X-0.91 F#100
N1525 G3 X-2.215 Y9.623 I0.123 J-2.308
N1530 X-3.58 Y8.249 I3.187 J-4.528
N1535 X-5.282 Y4.735 I9.673 J-6.854
N1540 X1.65 Y-14.16 I15.845 J-4.907
N1545 G1 X1.805 Y-14.243
N1550 X1.974 Y-14.294
N1555 X2.15 Y-14.311
N1560 G2 X3.683 Y-14.487 I0.189 J-5.102
N1565 G3 X4.212 Y-14.445 I0.048 J2.752
N1570 G1 X4.54 Y-14.336
N1575 G3 X4.646 Y-14.271 I-0.109 J0.298 F#104
N1580 G1 X4.698 Y-14.223 Z-1.292
N1585 X4.748 Y-14.178 Z-1.269
N1590 X4.792 Y-14.137 Z-1.231
N1595 X4.829 Y-14.103 Z-1.18
N1600 X4.857 Y-14.078 Z-1.12
N1605 X4.874 Y-14.062 Z-1.053
N1610 X4.88 Y-14.056 Z-0.983
N1615 G0 Z5.
N1620 X-1.194 Y9.891
N1625 Z-0.665
N1630 G1 Z-0.983 F#103
N1635 X-1.186 Y9.894 Z-1.053
N1640 X-1.164 Y9.901 Z-1.12
N1645 X-1.128 Y9.913 Z-1.18
N1650 X-1.08 Y9.929 Z-1.231
N1655 X-1.023 Y9.948 Z-1.269
N1660 X-0.959 Y9.969 Z-1.292
N1665 X-0.892 Y9.991 Z-1.3
N1670 G3 X-0.91 Y10.115 I-0.02 J0.06
N1675 G1 X-2.03 F#100
N1680 G3 X-3.346 Y9.594 I0.155 J-2.313
N1685 X-4.668 Y8.219 I3.215 J-4.415
N1690 X-6.291 Y4.711 I9.638 J-6.589
N1695 X-0.098 Y-14.112 I16.828 J-4.893
N1700 G1 X0.073 Y-14.221
N1705 X0.266 Y-14.288
N1710 X0.468 Y-14.311
N1715 X2.15
N1720 G3 X2.271 Y-14.282 I-0.011 J0.317 F#104
N1725 G1 X2.335 Y-14.253 Z-1.292
N1730 X2.396 Y-14.225 Z-1.269
N1735 X2.451 Y-14.2 Z-1.231
N1740 X2.497 Y-14.179 Z-1.18
N1745 X2.531 Y-14.163 Z-1.12
N1750 X2.552 Y-14.154 Z-1.053
N1755 X2.56 Y-14.15 Z-0.983
N1760 G0 Z5.
N1765 X-2.314 Y9.891
N1770 Z-0.665
N1775 G1 Z-0.983 F#103
N1780 X-2.307 Y9.894 Z-1.053
N1785 X-2.284 Y9.901 Z-1.12
N1790 X-2.248 Y9.913 Z-1.18
N1795 X-2.201 Y9.929 Z-1.231
N1800 X-2.143 Y9.948 Z-1.269
N1805 X-2.08 Y9.969 Z-1.292
N1810 X-2.013 Y9.991 Z-1.3
N1815 G3 X-2.03 Y10.115 I-0.02 J0.06
N1820 G1 X-3.083 F#100
N1825 G3 X-4.568 Y9.477 I0.154 J-2.406
N1830 X-5.909 Y7.932 I3.602 J-4.482
N1835 X-7.403 Y4.293 I10.612 J-6.481
N1840 X-1.66 Y-14.079 I17.925 J-4.481
N1845 G1 X-1.479 Y-14.205
N1850 X-1.271 Y-14.284
N1855 X-1.051 Y-14.311
N1860 X0.468
N1865 G3 X0.589 Y-14.282 I-0.011 J0.317 F#104
N1870 G1 X0.653 Y-14.253 Z-1.292
N1875 X0.714 Y-14.225 Z-1.269
N1880 X0.769 Y-14.2 Z-1.231
N1885 X0.815 Y-14.179 Z-1.18
N1890 X0.849 Y-14.163 Z-1.12
N1895 X0.871 Y-14.154 Z-1.053
N1900 X0.878 Y-14.15 Z-0.983
N1905 G0 Z5.
N1910 X-3.367 Y9.891
N1915 Z-0.665
N1920 G1 Z-0.983 F#103
N1925 X-3.359 Y9.894 Z-1.053
N1930 X-3.337 Y9.901 Z-1.12
N1935 X-3.301 Y9.913 Z-1.18
N1940 X-3.253 Y9.929 Z-1.231
N1945 X-3.196 Y9.948 Z-1.269
N1950 X-3.133 Y9.969 Z-1.292
N1955 X-3.066 Y9.991 Z-1.3
N1960 G3 X-3.083 Y10.115 I-0.02 J0.06
N1965 G1 X-4.136 F#100
N1970 G3 X-5.603 Y9.496 I0.127 J-2.35
N1975 X-6.895 Y8.014 I3.464 J-4.324
N1980 X-8.366 Y4.4 I10.344 J-6.318
N1985 X-6.429 Y-9.697 I18.735 J-4.607
N1990 X-3.11 Y-14.054 I16.504 J9.13
N1995 G1 X-2.921 Y-14.193
N2000 X-2.704 Y-14.281
N2005 X-2.471 Y-14.311
N2010 X-1.051
N2015 G3 X-0.93 Y-14.282 I-0.011 J0.317 F#104
N2020 G1 X-0.866 Y-14.253 Z-1.292
N2025 X-0.805 Y-14.225 Z-1.269
N2030 X-0.75 Y-14.2 Z-1.231
N2035 X-0.705 Y-14.179 Z-1.18
N2040 X-0.67 Y-14.163 Z-1.12
N2045 X-0.649 Y-14.154 Z-1.053
N2050 X-0.642 Y-14.15 Z-0.983
N2055 G0 Z5.
N2060 X-4.42 Y9.891
N2065 Z-0.665
N2070 G1 Z-0.983 F#103
N2075 X-4.412 Y9.894 Z-1.053
N2080 X-4.39 Y9.901 Z-1.12
N2085 X-4.354 Y9.913 Z-1.18
N2090 X-4.306 Y9.929 Z-1.231
N2095 X-4.249 Y9.948 Z-1.269
N2100 X-4.185 Y9.969 Z-1.292
N2105 X-4.118 Y9.991 Z-1.3
N2110 G3 X-4.136 Y10.115 I-0.02 J0.06
N2115 G1 X-5.189 F#100
N2120 G3 X-6.645 Y9.499 I0.118 J-2.311
N2125 X-7.898 Y8.055 I3.387 J-4.205
N2130 X-9.173 Y5.094 I9.524 J-5.856
N2135 X-8.831 Y-6.645 I19.103 J-5.318
N2140 X-4.471 Y-14.045 I19.172 J6.311
N2145 G1 X-4.281 Y-14.189
N2150 X-4.06 Y-14.28
N2155 X-3.824 Y-14.311
N2160 X-2.471
N2165 G3 X-2.35 Y-14.282 I-0.011 J0.317 F#104
N2170 G1 X-2.286 Y-14.253 Z-1.292
N2175 X-2.225 Y-14.225 Z-1.269
N2180 X-2.17 Y-14.2 Z-1.231
N2185 X-2.124 Y-14.179 Z-1.18
N2190 X-2.09 Y-14.163 Z-1.12
N2195 X-2.069 Y-14.154 Z-1.053
N2200 X-2.061 Y-14.15 Z-0.983
N2205 G0 Z5.
N2210 X-5.473 Y9.891
N2215 Z-0.665
N2220 G1 Z-0.983 F#103
N2225 X-5.465 Y9.894 Z-1.053
N2230 X-5.443 Y9.901 Z-1.12
N2235 X-5.407 Y9.913 Z-1.18
N2240 X-5.359 Y9.929 Z-1.231
N2245 X-5.302 Y9.948 Z-1.269
N2250 X-5.238 Y9.969 Z-1.292
N2255 X-5.171 Y9.991 Z-1.3
N2260 G3 X-5.189 Y10.115 I-0.02 J0.06
N2265 G1 X-6.242 F#100
N2270 G3 X-7.692 Y9.491 I0.126 J-2.292
N2275 X-8.92 Y8.055 I3.361 J-4.118
N2280 X-10.166 Y5.097 I9.471 J-5.729
N2285 X-10.04 Y-6.023 I19.832 J-5.335
N2290 X-5.784 Y-14.025 I20.431 J5.734
N2295 G1 X-5.589 Y-14.179
N2300 X-5.361 Y-14.277
N2305 X-5.115 Y-14.311
N2310 X-3.824
N2315 G3 X-3.703 Y-14.282 I-0.011 J0.317 F#104
N2320 G1 X-3.639 Y-14.253 Z-1.292
N2325 X-3.578 Y-14.225 Z-1.269
N2330 X-3.523 Y-14.2 Z-1.231
N2335 X-3.477 Y-14.179 Z-1.18
N2340 X-3.443 Y-14.163 Z-1.12
N2345 X-3.421 Y-14.154 Z-1.053
N2350 X-3.414 Y-14.15 Z-0.983
N2355 G0 Z5.
N2360 X-6.525 Y9.891
N2365 Z-0.665
N2370 G1 Z-0.983 F#103
N2375 X-6.518 Y9.894 Z-1.053
N2380 X-6.496 Y9.901 Z-1.12
N2385 X-6.46 Y9.913 Z-1.18
N2390 X-6.412 Y9.929 Z-1.231
N2395 X-6.355 Y9.948 Z-1.269
N2400 X-6.291 Y9.969 Z-1.292
N2405 X-6.224 Y9.991 Z-1.3
N2410 G3 X-6.242 Y10.115 I-0.02 J0.06
N2415 G1 X-7.294 F#100
N2420 G3 X-8.742 Y9.473 I0.146 J-2.285
N2425 X-9.957 Y8.022 I3.393 J-4.075
N2430 X-11.169 Y5.055 I9.539 J-5.629
N2435 X-11.202 Y-5.434 I20.566 J-5.31
N2440 X-7.075 Y-13.976 I21.631 J5.185
N2445 X-6.359 Y-14.311 I0.725 J0.615
N2450 G1 X-5.115
N2455 G3 X-4.994 Y-14.282 I-0.011 J0.317 F#104
N2460 G1 X-4.93 Y-14.253 Z-1.292
N2465 X-4.869 Y-14.225 Z-1.269
N2470 X-4.814 Y-14.2 Z-1.231
N2475 X-4.768 Y-14.179 Z-1.18
N2480 X-4.734 Y-14.163 Z-1.12
N2485 X-4.713 Y-14.154 Z-1.053
N2490 X-4.705 Y-14.15 Z-0.983
N2495 G0 Z5.
N2500 X-7.578 Y9.891
N2505 Z-0.665
N2510 G1 Z-0.983 F#103
N2515 X-7.571 Y9.894 Z-1.053
N2520 X-7.548 Y9.901 Z-1.12
N2525 X-7.512 Y9.913 Z-1.18
N2530 X-7.465 Y9.929 Z-1.231
N2535 X-7.408 Y9.948 Z-1.269
N2540 X-7.344 Y9.969 Z-1.292
N2545 X-7.277 Y9.991 Z-1.3
N2550 G3 X-7.294 Y10.115 I-0.02 J0.06
N2555 G1 X-8.347 F#100
N2560 G3 X-9.591 Y9.614 I0.128 J-2.114
N2565 X-11.005 Y7.956 I3.192 J-4.155
N2570 X-12.181 Y4.97 I9.639 J-5.52
N2575 X-12.326 Y-4.88 I21.296 J-5.241
N2580 X-8.292 Y-13.974 I22.734 J4.642
N2585 X-7.572 Y-14.311 I0.733 J0.628
N2590 G1 X-6.359
N2595 G3 X-6.238 Y-14.282 I-0.011 J0.317 F#104
N2600 G1 X-6.174 Y-14.253 Z-1.292
N2605 X-6.113 Y-14.225 Z-1.269
N2610 X-6.058 Y-14.2 Z-1.231
N2615 X-6.012 Y-14.179 Z-1.18
N2620 X-5.978 Y-14.163 Z-1.12
N2625 X-5.956 Y-14.154 Z-1.053
N2630 X-5.949 Y-14.15 Z-0.983
N2635 G0 Z5.
N2640 X-8.631 Y9.891
N2645 Z-0.665
N2650 G1 Z-0.983 F#103
N2655 X-8.623 Y9.894 Z-1.053
N2660 X-8.601 Y9.901 Z-1.12
N2665 X-8.565 Y9.913 Z-1.18
N2670 X-8.517 Y9.929 Z-1.231
N2675 X-8.46 Y9.948 Z-1.269
N2680 X-8.397 Y9.969 Z-1.292
N2685 X-8.33 Y9.991 Z-1.3
N2690 G3 X-8.347 Y10.115 I-0.02 J0.06
N2695 G1 X-9.332 F#100
N2700 G3 X-10.747 Y9.5 I0.125 J-2.223
N2705 X-11.92 Y8.11 I3.238 J-3.923
N2710 X-13.12 Y5.162 I9.201 J-5.463
N2715 X-13.568 Y-3.383 I21.387 J-5.404
N2720 X-9.647 Y-13.745 I24.047 J3.175
N2725 G1 X-9.458 Y-13.994
N2730 X-9.26 Y-14.165
N2735 X-9.022 Y-14.273
N2740 X-8.763 Y-14.311
N2745 X-7.572
N2750 G3 X-7.452 Y-14.282 I-0.011 J0.317 F#104
N2755 G1 X-7.388 Y-14.253 Z-1.292
N2760 X-7.327 Y-14.225 Z-1.269
N2765 X-7.272 Y-14.2 Z-1.231
N2770 X-7.226 Y-14.179 Z-1.18
N2775 X-7.192 Y-14.163 Z-1.12
N2780 X-7.17 Y-14.154 Z-1.053
N2785 X-7.163 Y-14.15 Z-0.983
N2790 G0 Z5.
N2795 X-9.616 Y9.891
N2800 Z-0.665
N2805 G1 Z-0.983 F#103
N2810 X-9.609 Y9.894 Z-1.053
N2815 X-9.586 Y9.901 Z-1.12
N2820 X-9.55 Y9.913 Z-1.18
N2825 X-9.503 Y9.929 Z-1.231
N2830 X-9.445 Y9.948 Z-1.269
N2835 X-9.382 Y9.969 Z-1.292
N2840 X-9.315 Y9.991 Z-1.3
N2845 G3 X-9.332 Y10.115 I-0.02 J0.06
N2850 G1 X-10.385 F#100
N2855 G3 X-11.619 Y9.612 I0.129 J-2.086
N2860 X-13.005 Y7.969 I3.163 J-4.073
N2865 X-14.152 Y4.989 I9.483 J-5.362
N2870 X-14.527 Y-3.563 I22.235 J-5.259
N2875 X-10.779 Y-13.789 I24.853 J3.308
N2880 X-10.134 Y-14.289 I0.955 J0.568
N2885 G1 X-9.923 Y-14.311
N2890 X-8.763
N2895 G3 X-8.643 Y-14.282 I-0.011 J0.317 F#104
N2900 G1 X-8.578 Y-14.253 Z-1.292
N2905 X-8.517 Y-14.225 Z-1.269
N2910 X-8.463 Y-14.2 Z-1.231
N2915 X-8.417 Y-14.179 Z-1.18
N2920 X-8.382 Y-14.163 Z-1.12
N2925 X-8.361 Y-14.154 Z-1.053
N2930 X-8.354 Y-14.15 Z-0.983
N2935 G0 Z5.
N2940 X-10.669 Y9.891
N2945 Z-0.665
N2950 G1 Z-0.983 F#103
N2955 X-10.661 Y9.894 Z-1.053
N2960 X-10.639 Y9.901 Z-1.12
N2965 X-10.603 Y9.913 Z-1.18
N2970 X-10.555 Y9.929 Z-1.231
N2975 X-10.498 Y9.948 Z-1.269
N2980 X-10.435 Y9.969 Z-1.292
N2985 X-10.368 Y9.991 Z-1.3
N2990 G3 X-10.385 Y10.115 I-0.02 J0.06
N2995 G1 X-11.355 F#100
N3000 G3 X-12.76 Y9.502 I0.121 J-2.193
N3005 X-13.911 Y8.129 I3.198 J-3.851
N3010 X-15.086 Y5.2 I9.06 J-5.334
N3015 X-15.665 Y-2.031 I21.859 J-5.39
N3020 X-11.961 Y-13.735 I25.998 J1.789
N3025 X-11.466 Y-14.224 I1.127 J0.646
N3030 G1 X-11.273 Y-14.288
N3035 X-11.071 Y-14.311
N3040 X-9.923
N3045 G3 X-9.802 Y-14.282 I-0.011 J0.317 F#104
N3050 G1 X-9.738 Y-14.253 Z-1.292
N3055 X-9.677 Y-14.225 Z-1.269
N3060 X-9.622 Y-14.2 Z-1.231
N3065 X-9.576 Y-14.179 Z-1.18
N3070 X-9.542 Y-14.163 Z-1.12
N3075 X-9.52 Y-14.154 Z-1.053
N3080 X-9.513 Y-14.15 Z-0.983
N3085 G0 Z5.
N3090 X-11.639 Y9.891
N3095 Z-0.665
N3100 G1 Z-0.983 F#103
N3105 X-11.631 Y9.894 Z-1.053
N3110 X-11.609 Y9.901 Z-1.12
N3115 X-11.573 Y9.913 Z-1.18
N3120 X-11.526 Y9.929 Z-1.231
N3125 X-11.468 Y9.948 Z-1.269
N3130 X-11.405 Y9.969 Z-1.292
N3135 X-11.338 Y9.991 Z-1.3
N3140 G3 X-11.355 Y10.115 I-0.02 J0.06
N3145 G1 X-12.408 F#100
N3150 G3 X-13.638 Y9.605 I0.138 J-2.071
N3155 X-15.001 Y7.967 I3.16 J-4.017
N3160 X-16.128 Y4.975 I9.436 J-5.261
N3165 X-16.567 Y-2.924 I23.089 J-5.246
N3170 X-13.2 Y-13.552 I26.806 J2.645
N3175 G1 X-13.011 Y-13.844
N3180 G3 X-12.201 Y-14.312 I0.826 J0.495
N3185 G1 X-11.071 Y-14.311
N3190 G3 X-10.951 Y-14.282 I-0.011 J0.317 F#104
N3195 G1 X-10.886 Y-14.253 Z-1.292
N3200 X-10.825 Y-14.225 Z-1.269
N3205 X-10.771 Y-14.2 Z-1.231
N3210 X-10.725 Y-14.179 Z-1.18
N3215 X-10.69 Y-14.163 Z-1.12
N3220 X-10.669 Y-14.154 Z-1.053
N3225 X-10.662 Y-14.15 Z-0.983
N3230 G0 Z5.
N3235 X-12.692 Y9.891
N3240 Z-0.665
N3245 G1 Z-0.983 F#103
N3250 X-12.684 Y9.894 Z-1.053
N3255 X-12.662 Y9.901 Z-1.12
N3260 X-12.626 Y9.913 Z-1.18
N3265 X-12.578 Y9.929 Z-1.231
N3270 X-12.521 Y9.948 Z-1.269
N3275 X-12.457 Y9.969 Z-1.292
N3280 X-12.39 Y9.991 Z-1.3
N3285 G3 X-12.408 Y10.115 I-0.02 J0.06
N3290 G1 X-13.393 F#100
N3295 G3 X-14.617 Y9.62 I0.117 J-2.05
N3300 X-15.953 Y8.044 I3.072 J-3.958
N3305 X-17.087 Y5.078 I9.256 J-5.24
N3310 X-17.615 Y-2.161 I23.013 J-5.316
N3315 X-14.344 Y-13.498 I27.849 J1.894
N3320 G1 X-14.153 Y-13.804
N3325 G3 X-13.317 Y-14.312 I0.859 J0.472
N3330 G1 X-12.201 Y-14.311
N3335 G3 X-12.081 Y-14.282 I-0.011 J0.317 F#104
N3340 G1 X-12.017 Y-14.253 Z-1.292
N3345 X-11.956 Y-14.225 Z-1.269
N3350 X-11.901 Y-14.2 Z-1.231
N3355 X-11.855 Y-14.179 Z-1.18
N3360 X-11.821 Y-14.163 Z-1.12
N3365 X-11.799 Y-14.154 Z-1.053
N3370 X-11.792 Y-14.15 Z-0.983
N3375 G0 Z5.
N3380 X-13.677 Y9.891
N3385 Z-0.665
N3390 G1 Z-0.983 F#103
N3395 X-13.669 Y9.894 Z-1.053
N3400 X-13.647 Y9.901 Z-1.12
N3405 X-13.611 Y9.913 Z-1.18
N3410 X-13.563 Y9.929 Z-1.231
N3415 X-13.506 Y9.948 Z-1.269
N3420 X-13.443 Y9.969 Z-1.292
N3425 X-13.376 Y9.991 Z-1.3
N3430 G3 X-13.393 Y10.115 I-0.02 J0.06
N3435 G1 X-14.363 F#100
N3440 G3 X-15.765 Y9.496 I0.124 J-2.177
N3445 X-17.142 Y7.682 I3.55 J-4.124
N3450 X-18.182 Y4.588 I10.582 J-5.28
N3455 X-18.493 Y-3.321 I24.62 J-4.93
N3460 X-15.487 Y-13.422 I28.642 J3.027
N3465 G1 X-15.295 Y-13.745
N3470 G3 X-14.631 Y-14.289 I0.949 J0.48
N3475 G1 X-14.424 Y-14.311
N3480 X-13.317
N3485 G3 X-13.197 Y-14.282 I-0.011 J0.317 F#104
N3490 G1 X-13.132 Y-14.253 Z-1.292
N3495 X-13.071 Y-14.225 Z-1.269
N3500 X-13.016 Y-14.2 Z-1.231
N3505 X-12.971 Y-14.179 Z-1.18
N3510 X-12.936 Y-14.163 Z-1.12
N3515 X-12.915 Y-14.154 Z-1.053
N3520 X-12.908 Y-14.15 Z-0.983
N3525 G0 Z5.
N3530 X-14.647 Y9.891
N3535 Z-0.665
N3540 G1 Z-0.983 F#103
N3545 X-14.639 Y9.894 Z-1.053
N3550 X-14.617 Y9.901 Z-1.12
N3555 X-14.581 Y9.913 Z-1.18
N3560 X-14.534 Y9.929 Z-1.231
N3565 X-14.476 Y9.948 Z-1.269
N3570 X-14.413 Y9.969 Z-1.292
N3575 X-14.346 Y9.991 Z-1.3
N3580 G3 X-14.363 Y10.115 I-0.02 J0.06
N3585 G1 X-15.348 F#100
N3590 G3 X-16.747 Y9.506 I0.109 J-2.162
N3595 X-17.856 Y8.179 I3.098 J-3.716
N3600 X-18.999 Y5.301 I8.799 J-5.16
N3605 X-19.62 Y-1.272 I22.817 J-5.472
N3610 X-16.593 Y-13.392 I29.725 J0.986
N3615 X-16.108 Y-14.101 I2.349 J1.086
N3620 G1 X-15.928 Y-14.214
N3625 X-15.729 Y-14.286
N3630 X-15.518 Y-14.311
N3635 X-14.424
N3640 G3 X-14.303 Y-14.282 I-0.011 J0.317 F#104
N3645 G1 X-14.239 Y-14.253 Z-1.292
N3650 X-14.178 Y-14.225 Z-1.269
N3655 X-14.123 Y-14.2 Z-1.231
N3660 X-14.077 Y-14.179 Z-1.18
N3665 X-14.043 Y-14.163 Z-1.12
N3670 X-14.022 Y-14.154 Z-1.053
N3675 X-14.014 Y-14.15 Z-0.983
N3680 G0 Z5.
N3685 X-15.632 Y9.891
N3690 Z-0.665
N3695 G1 Z-0.983 F#103
N3700 X-15.625 Y9.894 Z-1.053
N3705 X-15.602 Y9.901 Z-1.12
N3710 X-15.566 Y9.913 Z-1.18
N3715 X-15.519 Y9.929 Z-1.231
N3720 X-15.462 Y9.948 Z-1.269
N3725 X-15.398 Y9.969 Z-1.292
N3730 X-15.331 Y9.991 Z-1.3
N3735 G3 X-15.348 Y10.115 I-0.02 J0.06
N3740 G1 X-16.401 F#100
N3745 G3 X-17.62 Y9.606 I0.137 J-2.042
N3750 X-18.944 Y8.008 I3.092 J-3.909
N3755 X-20.048 Y5.033 I9.252 J-5.126
N3760 X-20.553 Y-2.21 I24.294 J-5.332
N3765 X-17.617 Y-13.517 I30.438 J1.869
N3770 G1 X-17.442 Y-13.793
N3775 G3 X-16.602 Y-14.312 I0.861 J0.454
N3780 G1 X-15.518 Y-14.311
N3785 G3 X-15.398 Y-14.282 I-0.011 J0.317 F#104
N3790 G1 X-15.333 Y-14.253 Z-1.292
N3795 X-15.272 Y-14.225 Z-1.269
N3800 X-15.218 Y-14.2 Z-1.231
N3805 X-15.172 Y-14.179 Z-1.18
N3810 X-15.137 Y-14.163 Z-1.12
N3815 X-15.116 Y-14.154 Z-1.053
N3820 X-15.109 Y-14.15 Z-0.983
N3825 G0 Z5.
N3830 X-16.685 Y9.891
N3835 Z-0.665
N3840 G1 Z-0.983 F#103
N3845 X-16.677 Y9.894 Z-1.053
N3850 X-16.655 Y9.901 Z-1.12
N3855 X-16.619 Y9.913 Z-1.18
N3860 X-16.571 Y9.929 Z-1.231
N3865 X-16.514 Y9.948 Z-1.269
N3870 X-16.451 Y9.969 Z-1.292
N3875 X-16.384 Y9.991 Z-1.3
N3880 G3 X-16.401 Y10.115 I-0.02 J0.06
N3885 G1 X-17.371 F#100
N3890 G3 X-18.586 Y9.625 I0.11 J-2.024
N3895 X-19.894 Y8.076 I3.015 J-3.874
N3900 X-21.006 Y5.135 I9.083 J-5.115
N3905 X-21.573 Y-1.444 I23.865 J-5.372
N3910 X-18.934 Y-12.999 I31.549 J1.128
N3915 X-18.414 Y-13.947 I5.098 J2.176
N3920 X-17.681 Y-14.311 I0.735 J0.562
N3925 G1 X-16.602
N3930 G3 X-16.482 Y-14.282 I-0.011 J0.317 F#104
N3935 G1 X-16.417 Y-14.253 Z-1.292
N3940 X-16.356 Y-14.225 Z-1.269
N3945 X-16.302 Y-14.2 Z-1.231
N3950 X-16.256 Y-14.179 Z-1.18
N3955 X-16.221 Y-14.163 Z-1.12
N3960 X-16.2 Y-14.154 Z-1.053
N3965 X-16.193 Y-14.15 Z-0.983
N3970 G0 Z5.
N3975 X-17.655 Y9.891
N3980 Z-0.665
N3985 G1 Z-0.983 F#103
N3990 X-17.648 Y9.894 Z-1.053
N3995 X-17.625 Y9.901 Z-1.12
N4000 X-17.589 Y9.913 Z-1.18
N4005 X-17.542 Y9.929 Z-1.231
N4010 X-17.484 Y9.948 Z-1.269
N4015 X-17.421 Y9.969 Z-1.292
N4020 X-17.354 Y9.991 Z-1.3
N4025 G3 X-17.371 Y10.115 I-0.02 J0.06
N4030 G1 X-18.357 F#100
N4035 G3 X-19.57 Y9.629 I0.105 J-2.02
N4040 X-20.87 Y8.093 I2.96 J-3.826
N4045 X-21.978 Y5.171 I9.007 J-5.086
N4050 X-22.555 Y-1.408 I24.065 J-5.423
N4055 X-20.004 Y-12.986 I32.347 J1.057
N4060 X-19.491 Y-13.941 I5.04 J2.092
N4065 X-18.752 Y-14.311 I0.741 J0.556
N4070 G1 X-17.681
N4075 G3 X-17.56 Y-14.282 I-0.011 J0.317 F#104
N4080 G1 X-17.496 Y-14.253 Z-1.292
N4085 X-17.435 Y-14.225 Z-1.269
N4090 X-17.38 Y-14.2 Z-1.231
N4095 X-17.334 Y-14.179 Z-1.18
N4100 X-17.3 Y-14.163 Z-1.12
N4105 X-17.279 Y-14.154 Z-1.053
N4110 X-17.271 Y-14.15 Z-0.983
N4115 G0 Z5.
N4120 X-18.64 Y9.891
N4125 Z-0.665
N4130 G1 Z-0.983 F#103
N4135 X-18.633 Y9.894 Z-1.053
N4140 X-18.61 Y9.901 Z-1.12
N4145 X-18.574 Y9.913 Z-1.18
N4150 X-18.527 Y9.929 Z-1.231
N4155 X-18.47 Y9.948 Z-1.269
N4160 X-18.406 Y9.969 Z-1.292
N4165 X-18.339 Y9.991 Z-1.3
N4170 G3 X-18.357 Y10.115 I-0.02 J0.06
N4175 G1 X-19.327 F#100
N4180 G3 X-20.719 Y9.496 I0.121 J-2.15
N4185 X-22.061 Y7.715 I3.489 J-4.025
N4190 X-23.08 Y4.629 I10.444 J-5.16
N4195 X-23.475 Y-2.624 I26.234 J-5.066
N4200 X-21.097 Y-12.906 I33.181 J2.256
N4205 X-20.564 Y-13.929 I5.241 J2.082
N4210 X-19.816 Y-14.311 I0.751 J0.548
N4215 G1 X-18.752
N4220 G3 X-18.632 Y-14.282 I-0.011 J0.317 F#104
N4225 G1 X-18.567 Y-14.253 Z-1.292
N4230 X-18.506 Y-14.225 Z-1.269
N4235 X-18.451 Y-14.2 Z-1.231
N4240 X-18.406 Y-14.179 Z-1.18
N4245 X-18.371 Y-14.163 Z-1.12
N4250 X-18.35 Y-14.154 Z-1.053
N4255 X-18.343 Y-14.15 Z-0.983
N4260 G0 Z5.
N4265 X-19.61 Y9.891
N4270 Z-0.665
N4275 G1 Z-0.983 F#103
N4280 X-19.603 Y9.894 Z-1.053
N4285 X-19.58 Y9.901 Z-1.12
N4290 X-19.545 Y9.913 Z-1.18
N4295 X-19.497 Y9.929 Z-1.231
N4300 X-19.44 Y9.948 Z-1.269
N4305 X-19.376 Y9.969 Z-1.292
N4310 X-19.309 Y9.991 Z-1.3
N4315 G3 X-19.327 Y10.115 I-0.02 J0.06
N4320 G1 X-20.312 F#100
N4325 G3 X-21.702 Y9.499 I0.118 J-2.144
N4330 X-22.799 Y8.165 I3.107 J-3.673
N4335 X-23.911 Y5.295 I8.778 J-5.05
N4340 X-24.52 Y-1.281 I24.24 J-5.561
N4345 X-22.151 Y-12.904 I33.916 J0.859
N4350 X-21.626 Y-13.924 I5.129 J1.993
N4355 X-20.874 Y-14.311 I0.755 J0.543
N4360 G1 X-19.816
N4365 G3 X-19.695 Y-14.282 I-0.011 J0.317 F#104
N4370 G1 X-19.631 Y-14.253 Z-1.292
N4375 X-19.57 Y-14.225 Z-1.269
N4380 X-19.515 Y-14.2 Z-1.231
N4385 X-19.47 Y-14.179 Z-1.18
N4390 X-19.435 Y-14.163 Z-1.12
N4395 X-19.414 Y-14.154 Z-1.053
N4400 X-19.406 Y-14.15 Z-0.983
N4405 G0 Z5.
N4410 X-20.595 Y9.891
N4415 Z-0.665
N4420 G1 Z-0.983 F#103
N4425 X-20.588 Y9.894 Z-1.053
N4430 X-20.566 Y9.901 Z-1.12
N4435 X-20.53 Y9.913 Z-1.18
N4440 X-20.482 Y9.929 Z-1.231
N4445 X-20.425 Y9.948 Z-1.269
N4450 X-20.361 Y9.969 Z-1.292
N4455 X-20.294 Y9.991 Z-1.3
N4460 G3 X-20.312 Y10.115 I-0.02 J0.06
N4465 G1 X-21.282 F#100
N4470 G3 X-22.666 Y9.516 I0.097 J-2.125
N4475 X-23.751 Y8.218 I3.024 J-3.629
N4480 X-24.873 Y5.37 I8.599 J-5.034
N4485 X-25.313 Y2.894 I16.241 J-4.159
N4490 G1 Y-2.933
N4495 G3 X-24.477 Y-8.822 I25.369 J0.597
N4500 X-23.066 Y-13.228 I28.934 J6.83
N4505 X-22.54 Y-14.084 I2.853 J1.165
N4510 X-21.734 Y-14.307 I0.654 J0.795
N4515 G1 X-20.874 Y-14.311
N4520 G3 X-20.754 Y-14.282 I-0.011 J0.317 F#104
N4525 G1 X-20.69 Y-14.253 Z-1.292
N4530 X-20.628 Y-14.225 Z-1.269
N4535 X-20.574 Y-14.2 Z-1.231
N4540 X-20.528 Y-14.179 Z-1.18
N4545 X-20.494 Y-14.163 Z-1.12
N4550 X-20.472 Y-14.154 Z-1.053
N4555 X-20.465 Y-14.15 Z-0.983
N4560 G0 Z5.
N4565 X-25.089 Y-3.217
N4570 Z-0.665
N4575 G1 Z-0.983 F#103
N4580 X-25.092 Y-3.209 Z-1.053
N4585 X-25.099 Y-3.187 Z-1.12
N4590 X-25.111 Y-3.151 Z-1.18
N4595 X-25.127 Y-3.103 Z-1.231
N4600 X-25.146 Y-3.046 Z-1.269
N4605 X-25.167 Y-2.982 Z-1.292
N4610 X-25.189 Y-2.915 Z-1.3
N4615 G3 X-25.313 Y-2.933 I-0.06 J-0.02
N4620 G1 Y-8.347 F#100
N4625 G3 X-24.943 Y-10.74 I9.528 J0.246
N4630 X-23.963 Y-13.537 I16.467 J4.199
N4635 X-23.369 Y-14.334 I2.368 J1.146
N4640 X-22.485 Y-14.426 I0.529 J0.786
N4645 G1 X-22.431 Y-14.395 F#104
N4650 X-22.385 Y-14.353
N4655 G3 X-22.324 Y-14.016 I-0.232 J0.216 F#105
N4660 G1 X-24.702 Y-8.238
N4665 G3 X-25.284 Y-8.227 I-0.294 J-0.121
N4670 X-25.313 Y-8.347 I0.289 J-0.132 F#103
N4675 G2 X-25.33 Y-11.751 I-85.032 J-1.261 F#100
N4680 G3 X-24.517 Y-14.249 I4.974 J0.236
N4685 X-23.854 Y-14.831 I1.611 J1.168
N4690 X-22.974 Y-14.717 I0.333 J0.882
N4695 G2 X-22.486 Y-14.425 I1.068 J-1.231
N4700 G1 X-22.432 Y-14.394 F#104
N4705 X-22.385 Y-14.353
N4710 G3 X-22.378 Y-13.928 I-0.232 J0.216 F#105
N4715 G1 X-24.769 Y-11.194
N4720 G3 X-25.28 Y-11.239 I-0.239 J-0.209
N4725 X-25.322 Y-11.355 I0.272 J-0.164 F#103
N4730 G2 X-25.6 Y-12.179 I-1.924 J0.192 F#100
N4735 G3 X-25.37 Y-14.275 I2.499 J-0.787
N4740 X-24.437 Y-15.278 I1.918 J0.85
N4745 G1 X-24.224 Y-15.319
N4750 X-24.009 Y-15.318
N4755 X-23.8 Y-15.268
N4760 G3 X-23.697 Y-15.2 I-0.12 J0.294 F#104
N4765 X-23.634 Y-14.836 I-0.223 J0.226 F#105
N4770 G1 X-24.971 Y-12.065
N4775 G3 X-25.451 Y-11.952 I-0.286 J-0.138
N4780 X-25.533 Y-12.046 I0.195 J-0.251 F#103
N4785 X-26.034 Y-12.806 I22.938 J-15.666 F#100
N4790 G1 X-26.067 Y-12.871
N4795 X-26.095 Y-12.938
N4800 X-26.118 Y-13.007
N4805 G3 X-25.52 Y-13.213 I0.308 J-0.078 F#104
N4810 G1 X-25.462 Y-13.081 F#100
N4815 G3 X-26.013 Y-12.772 I-0.29 J0.128
N4820 X-26.205 Y-13.425 I1.321 J-0.742
N4825 X-26.125 Y-14.213 I2.173 J-0.18
N4830 G1 X-26.096 Y-14.269 F#104
N4835 X-26.056 Y-14.317
N4840 G3 X-25.512 Y-14.086 I0.227 J0.222 F#100
N4845 G1 X-25.535 Y-13.221
N4850 G3 X-26.154 Y-13.13 I-0.317 J-0.009
N4855 X-26.233 Y-13.461 I1.099 J-0.436
N4860 G1 X-26.216 Y-13.912
N4865 X-26.212 Y-13.95
N4870 G3 X-26.005 Y-14.515 I3.05 J0.796
N4875 X-25.645 Y-14.958 I2.914 J2.
N4880 G1 X-25.267 Y-15.211
N4885 X-25.23 Y-15.234
N4890 G3 X-24.666 Y-15.398 I0.997 J2.38
N4895 X-24.064 Y-15.367 I0.151 J2.961
N4900 X-23.536 Y-15.156 I-0.731 J2.589
N4905 G1 X-23.087 Y-14.798
N4910 X-22.974 Y-14.716
N4915 G3 X-22.893 Y-14.622 I-0.195 J0.25 F#104
N4920 G1 X-22.858 Y-14.561 Z-1.292
N4925 X-22.825 Y-14.503 Z-1.269
N4930 X-22.795 Y-14.45 Z-1.231
N4935 X-22.771 Y-14.407 Z-1.18
N4940 X-22.752 Y-14.374 Z-1.12
N4945 X-22.74 Y-14.353 Z-1.053
N4950 X-22.736 Y-14.346 Z-0.983
N4955 G0 Z5.
N4960 X-21.566 Y9.891
N4965 Z-0.665
N4970 G1 Z-0.983 F#103
N4975 X-21.558 Y9.894 Z-1.053
N4980 X-21.536 Y9.901 Z-1.12
N4985 X-21.5 Y9.913 Z-1.18
N4990 X-21.452 Y9.929 Z-1.231
N4995 X-21.395 Y9.948 Z-1.269
N5000 X-21.331 Y9.969 Z-1.292
N5005 X-21.264 Y9.991 Z-1.3
N5010 G3 X-21.282 Y10.115 I-0.02 J0.06
N5015 G1 X-22.267 F#100
N5020 G3 X-23.649 Y9.517 I0.095 J-2.115
N5025 X-24.742 Y8.204 I3.043 J-3.645
N5030 X-25.321 Y7.006 I4.841 J-3.08
N5035 G1 X-25.335 Y6.849
N5040 X-25.326 Y6.693
N5045 X-25.313 Y6.242
N5050 Y2.894
N5055 G3 X-25.284 Y2.773 I0.317 J0.011 F#104
N5060 X-24.7 Y2.788 I0.289 J0.132 F#105
N5065 G1 X-21.984 Y9.681
N5070 G3 X-22.146 Y10.086 I-0.295 J0.116
N5075 X-22.267 Y10.115 I-0.133 J-0.288 F#103
N5080 G2 X-23.052 Y10.223 I-0.055 J2.493 F#100
N5085 G3 X-24.437 Y9.715 I-0.039 J-2.034
N5090 X-25.698 Y8.209 I2.422 J-3.308
N5095 X-25.55 Y7.363 I1.007 J-0.26
N5100 G1 X-25.512 Y7.313 F#104
N5105 X-25.466 Y7.272
N5110 G3 X-25.054 Y7.31 I0.183 J0.259 F#105
N5115 G1 X-22.768 Y9.664
N5120 G3 X-22.796 Y10.133 I-0.228 J0.221
N5125 X-22.906 Y10.19 I-0.199 J-0.247 F#103
N5130 G2 X-23.414 Y10.436 I0.764 J2.226 F#100
N5135 G3 X-24.603 Y10.337 I-0.476 J-1.47
N5140 X-26.144 Y8.986 I1.209 J-2.933
N5145 X-26.023 Y7.965 I0.837 J-0.418
N5150 G1 X-25.708 Y7.595
N5155 X-25.643 Y7.509
N5160 X-25.599 Y7.445
N5165 G3 X-25.507 Y7.362 I0.255 J0.19 F#104
N5170 X-25.092 Y7.441 I0.163 J0.273 F#105
N5175 G1 X-23.202 Y9.904
N5180 G3 X-23.193 Y10.278 I-0.252 J0.193
N5185 X-23.283 Y10.364 I-0.261 J-0.181 F#103
N5190 G1 X-23.538 Y10.516 F#100
N5195 X-23.839 Y10.705
N5200 G3 X-25.007 Y10.793 I-0.679 J-1.22
N5205 X-26.332 Y9.965 I0.613 J-2.455
N5210 G1 X-26.355 Y9.905 F#104
N5215 X-26.365 Y9.842
N5220 G3 X-25.954 Y9.499 I0.315 J-0.041 F#100
N5225 G1 X-23.922 Y10.14
N5230 G3 X-23.839 Y10.705 I-0.096 J0.303
N5235 X-24.064 Y10.833 I-0.691 J-0.955
N5240 G1 X-24.515 Y10.946
N5245 G3 X-25.173 Y10.907 I-0.178 J-2.532
N5250 G1 X-25.546 Y10.754
N5255 X-25.643 Y10.711
N5260 G3 X-26.115 Y10.306 I2.075 J-2.891
N5265 G1 X-26.346 Y9.926
N5270 X-26.368 Y9.889
N5275 G3 X-26.512 Y9.287 I2.319 J-0.876
N5280 X-26.458 Y8.723 I3.159 J0.018
N5285 X-26.223 Y8.196 I3.107 J1.072
N5290 G1 X-26.023 Y7.966
N5295 G3 X-25.923 Y7.892 I0.234 J0.214 F#104
N5300 G1 X-25.859 Y7.862 Z-1.292
N5305 X-25.798 Y7.834 Z-1.269
N5310 X-25.743 Y7.808 Z-1.231
N5315 X-25.698 Y7.787 Z-1.18
N5320 X-25.664 Y7.771 Z-1.12
N5325 X-25.642 Y7.761 Z-1.053
N5330 X-25.635 Y7.758 Z-0.983
N5335 G0 Z5.
N5340 X14.196 Y-13.939
N5345 Z-0.665
N5350 G1 Z-0.983 F#103
N5355 X14.188 Y-13.942 Z-1.053
N5360 X14.166 Y-13.949 Z-1.12
N5365 X14.13 Y-13.961 Z-1.18
N5370 X14.082 Y-13.977 Z-1.231
N5375 X14.025 Y-13.996 Z-1.269
N5380 X13.962 Y-14.017 Z-1.292
N5385 X13.894 Y-14.039 Z-1.3
N5390 G3 X13.912 Y-14.163 I0.02 J-0.06
N5395 G1 X16.469 F#100
N5400 G3 X18.302 Y-13.709 I-0.163 J4.59
N5405 X20.986 Y-11.969 I-4.487 J9.86
N5410 X24.617 Y-7.5 I-10.024 J11.856
N5415 G1 X24.649 Y-7.345
N5420 X24.663 Y-7.189
N5425 Y-4.941
N5430 G3 X24.634 Y-4.82 I-0.317 J-0.011 F#104
N5435 X24.107 Y-4.741 I-0.289 J-0.132 F#105
N5440 G1 X16.242 Y-13.635
N5445 G3 X16.348 Y-14.134 I0.238 J-0.21
N5450 X16.469 Y-14.163 I0.132 J0.289 F#103
N5455 G1 X18.424 F#100
N5460 G3 X20.175 Y-13.619 I-0.275 J3.975
N5465 X22.653 Y-11.724 I-4.918 J8.998
N5470 X24.597 Y-9.367 I-9.843 J10.101
N5475 G1 X24.644 Y-9.186
N5480 X24.663 Y-9.002
N5485 Y-7.189
N5490 G3 X24.634 Y-7.068 I-0.317 J-0.011 F#104
N5495 X24.108 Y-6.989 I-0.289 J-0.132 F#105
N5500 G1 X18.198 Y-13.634
N5505 G3 X18.304 Y-14.134 I0.237 J-0.211
N5510 X18.424 Y-14.163 I0.132 J0.289 F#103
N5515 G1 X19.928 F#100
N5520 G3 X21.496 Y-13.717 I-0.099 J3.331
N5525 X23.243 Y-12.453 I-3.737 J7.006
N5530 X24.568 Y-11.003 I-6.692 J7.445
N5535 G1 X24.637 Y-10.797
N5540 X24.663 Y-10.584
N5545 G3 X24.634 Y-10.463 I-0.317 J-0.011 F#104
N5550 X24.157 Y-10.339 I-0.289 J-0.132 F#105
N5555 G1 X19.751 Y-13.59
N5560 G3 X19.808 Y-14.134 I0.188 J-0.256
N5565 X19.928 Y-14.163 I0.132 J0.289 F#103
N5570 G1 X21.432 F#100
N5575 G3 X22.839 Y-13.752 I-0.109 J2.994
N5580 X24.68 Y-12.275 I-2.909 J5.511
N5585 G1 X24.765 Y-12.038
N5590 X24.791 Y-11.79
N5595 X24.75 Y-11.543
N5600 G3 X24.687 Y-11.437 I-0.3 J-0.105 F#104
N5605 X24.263 Y-11.392 I-0.237 J-0.212 F#105
N5610 G1 X21.256 Y-13.589
N5615 G3 X21.312 Y-14.134 I0.187 J-0.256
N5620 X21.432 Y-14.163 I0.132 J0.289 F#103
N5625 G2 X22.528 Y-14.256 I0.229 J-3.785 F#100
N5630 G3 X23.98 Y-13.891 I0.129 J2.558
N5635 X24.844 Y-13.256 I-1.115 J2.423
N5640 G1 X24.92 Y-13.114
N5645 X24.976 Y-12.964
N5650 G3 X24.98 Y-12.841 I-0.309 J0.073 F#104
N5655 X24.532 Y-12.603 I-0.313 J-0.05 F#105
N5660 G1 X22.329 Y-13.634
N5665 G3 X22.269 Y-14.173 I0.135 J-0.288
N5670 X22.38 Y-14.228 I0.194 J0.251 F#103
N5675 G1 X22.786 Y-14.324 F#100
N5680 X22.952 Y-14.363
N5685 X23.087 Y-14.391
N5690 G3 X23.654 Y-14.349 I-0.05 J4.578
N5695 X24.14 Y-14.152 I-1.795 J5.137
N5700 X24.56 Y-13.811 I-2.838 J3.92
N5705 X24.864 Y-13.349 I-4.318 J3.17
N5710 G1 X24.875 Y-13.311
N5715 G3 X24.986 Y-12.257 I-1.779 J0.721
N5720 G1 X24.785 Y-11.656
N5725 X24.738 Y-11.506
N5730 X24.701 Y-11.355
N5735 X24.676 Y-11.205
N5740 X24.663 Y-10.754
N5745 Y-9.002
N5750 X24.654 Y-8.964 Z-1.294 F#104
N5755 X24.646 Y-8.931 Z-1.276
N5760 X24.64 Y-8.904 Z-1.248
N5765 X24.635 Y-8.887 Z-1.214
N5770 X24.634 Y-8.881 Z-1.175
N5775 G0 Z10.
(2D ADAPTIVE1 7)
N5785 M8
N5790 G0 X13.294 Y4.427
N5795 #100=600. (CUTTING)
N5800 #103=600. (ENTRY)
N5805 #104=600. (EXIT)
N5810 #105=6000. (DIRECT)
N5815 #107=500. (RAMPING)
N5820 Z10.
N5825 Z1.567
N5830 G1 Z1.25 F#103
N5835 G3 X13.706 Y1.439 Z1.085 I0.206 J-1.494 F#107
N5840 X13.294 Y4.427 Z0.919 I-0.206 J1.494
N5845 X13.706 Y1.439 Z0.754 I0.206 J-1.494
N5850 X13.294 Y4.427 Z0.588 I-0.206 J1.494
N5855 X13.706 Y1.439 Z0.423 I0.206 J-1.494
N5860 X13.294 Y4.427 Z0.257 I-0.206 J1.494
N5865 X13.706 Y1.439 Z0.092 I0.206 J-1.494
N5870 X13.294 Y4.427 Z-0.074 I-0.206 J1.494
N5875 X13.706 Y1.439 Z-0.239 I0.206 J-1.494
N5880 X13.294 Y4.427 Z-0.405 I-0.206 J1.494
N5885 X13.706 Y1.439 Z-0.57 I0.206 J-1.494
N5890 X13.294 Y4.427 Z-0.735 I-0.206 J1.494
N5895 X13.706 Y1.439 Z-0.901 I0.206 J-1.494
N5900 X13.294 Y4.427 Z-1.066 I-0.206 J1.494
N5905 X13.706 Y1.439 Z-1.232 I0.206 J-1.494
N5910 X13.294 Y4.427 Z-1.397 I-0.206 J1.494
N5915 X13.706 Y1.439 Z-1.563 I0.206 J-1.494
N5920 X13.294 Y4.427 Z-1.728 I-0.206 J1.494
N5925 X13.706 Y1.439 Z-1.894 I0.206 J-1.494
N5930 X13.294 Y4.427 Z-2.059 I-0.206 J1.494
N5935 X13.706 Y1.439 Z-2.224 I0.206 J-1.494
N5940 X15.008 Y2.933 Z-2.3 I-0.206 J1.494
N5945 X11.992 I-1.508 J0.
N5950 X15.008 I1.508 J0.
N5955 G1 X15.025 Y3.595 F#100
N5960 G3 X14.632 Y4.601 I-1.055 J0.167
N5965 X12.401 Y4.781 I-1.236 J-1.405
N5970 X11.653 Y1.78 I1.087 J-1.865
N5975 X14.672 Y1.111 I1.836 J1.136
N5980 X15.646 Y2.479 I-1.203 J1.887
N5985 X15.104 Y5.103 I-2.23 J0.907
N5990 X11.335 Y4.841 I-1.755 J-1.984
N5995 X14.313 Y0.142 I2.148 J-1.931
N6000 X16.168 Y1.711 I-0.83 J2.862
N6005 X15.232 Y5.97 I-2.793 J1.618
N6010 X10.279 Y4.71 I-1.898 J-2.903
N6015 X15.291 Y-0.304 I3.211 J-1.803
N6020 X16.743 Y5.576 I-2.023 J3.619
N6025 X10.854 Y6.554 I-3.423 J-2.389
N6030 X11.727 Y-1.235 I2.596 J-3.653
N6035 X16.812 Y-0.187 I1.791 J4.171
N6040 X12.452 Y8.124 I-3.452 J3.488
N6045 X8.527 Y0.858 I0.927 J-5.194
N6050 X16.668 Y-1.447 I4.978 J2.053
N6055 X12.167 Y8.963 I-3.314 J4.745
N6060 X7.377 Y1.574 I1.195 J-6.021
N6065 X16.949 Y-2.328 I6.127 J1.339
N6070 X12.744 Y9.949 I-3.591 J5.629
N6075 X6.435 Y1.692 I0.605 J-7.001
N6080 X16.733 Y-3.494 I7.066 J1.215
N6085 X13.01 Y10.882 I-3.371 J6.797
N6090 X5.41 Y2.957 I0.319 J-7.912
N6095 X16.809 Y-4.474 I8.089 J-0.051
N6100 X13.359 Y11.813 I-3.443 J7.78
N6105 X4.63 Y4.543 I-0.048 J-8.818
N6110 X16.808 Y-5.482 I8.865 J-1.64
N6115 X22.088 Y6.907 I-3.418 J8.776
N6120 X10.623 Y12.369 I-8.768 J-3.639
N6125 X3.684 Y1.224 I2.731 J-9.432
N6130 X17.917 Y-6.024 I9.822 J1.689
N6135 X14.113 Y13.661 I-4.547 J9.331
N6140 X3.251 Y6.616 I-0.817 J-10.637
N6145 X13.12 Y-7.982 I10.226 J-3.722
N6150 X22.726 Y-3.076 I0.383 J11.107
N6155 X24.663 Y2.513 I-9.141 J6.297
N6160 X24.53 Y5.148 I-20.359 J0.292
N6165 X16.662 Y14.143 I-11.129 J-1.796
N6170 G1 X16.563 Y14.157
N6175 X16.463 Y14.163
N6180 X11.055
N6185 G3 X8.939 Y13.738 I0.186 J-6.415
N6190 X3.834 Y9.745 I3.869 J-10.205
N6195 X2.362 Y6.948 I8.939 J-6.489
N6200 G1 X2.344 Y6.836
N6205 X2.338 Y6.724
N6210 Y0.075
N6215 G3 X2.912 Y-2.307 I5.925 J0.169
N6220 X5.631 Y-5.948 I9.557 J4.299
N6225 X18.025 Y-8.054 I7.883 J8.869
N6230 X24.637 Y-1.577 I-4.587 J11.295
N6235 G1 X24.654 Y-1.454
N6240 X24.663 Y-1.333
N6245 Y2.513
N6250 G3 X24.634 Y2.634 I-0.317 J-0.011 F#104
N6255 X24.518 Y2.769 I-0.289 J-0.132 F#105
N6260 G1 X24.215 Y2.965
N6265 G2 X24.451 Y3.33 I0.118 J0.183
N6270 X24.539 Y3.216 I-0.118 J-0.183
N6275 G3 X24.573 Y3.178 I0.06 J0.02
N6280 X24.663 Y3.234 I0.027 J0.057 F#103
N6285 G1 Y6.994 F#100
N6290 G3 X24.179 Y8.934 I-4.98 J-0.211
N6295 X21.494 Y12.502 I-9.433 J-4.305
N6300 X19.163 Y14.123 I-7.436 J-8.209
N6305 G1 X19.016 Y14.151
N6310 X18.869 Y14.163
N6315 X16.463
N6320 G3 X16.343 Y14.134 I0.011 J-0.317 F#104
N6325 X16.266 Y13.606 I0.132 J-0.289 F#105
N6330 G1 X24.137 Y6.765
N6335 G3 X24.634 Y6.873 I0.208 J0.24
N6340 X24.663 Y6.994 I-0.289 J0.132 F#103
N6345 G1 Y8.949 F#100
N6350 G3 X24.153 Y10.681 I-3.831 J-0.185
N6355 X22.386 Y12.965 I-7.618 J-4.069
N6360 X21.002 Y14.088 I-6.054 J-6.046
N6365 G1 X20.815 Y14.142
N6370 X20.624 Y14.163
N6375 X18.869
N6380 G3 X18.748 Y14.134 I0.011 J-0.317 F#104
N6385 X18.668 Y13.608 I0.132 J-0.289 F#105
N6390 G1 X24.134 Y8.723
N6395 G3 X24.634 Y8.828 I0.212 J0.237
N6400 X24.663 Y8.949 I-0.289 J0.132 F#103
N6405 G1 Y10.603 F#100
N6410 G3 X24.199 Y12.066 I-3.195 J-0.207
N6415 X22.527 Y14.074 I-6.189 J-3.454
N6420 G1 X22.324 Y14.158
N6425 X22.109 Y14.197
N6430 X21.892 Y14.183
N6435 G3 X21.778 Y14.134 I0.067 J-0.31 F#104
N6440 X21.703 Y13.686 I0.181 J-0.261 F#105
N6445 G1 X24.089 Y10.427
N6450 G3 X24.634 Y10.483 I0.256 J0.188
N6455 X24.663 Y10.603 I-0.289 J0.132 F#103
N6460 G1 Y11.205 F#100
N6465 G2 X24.731 Y11.804 I2.725 J-0.01
N6470 G3 X24.27 Y13.322 I-2.843 J-0.034
N6475 X23.432 Y14.346 I-2.665 J-1.327
N6480 G1 X23.217 Y14.423
N6485 X22.994 Y14.454
N6490 G3 X22.873 Y14.427 I0.007 J-0.317 F#104
N6495 X22.726 Y13.976 I0.128 J-0.291 F#105
N6500 G1 X24.124 Y11.581
N6505 G3 X24.649 Y11.545 I0.274 J0.16
N6510 X24.705 Y11.656 I-0.25 J0.195 F#103
N6515 X24.919 Y12.521 I-8.423 J2.548 F#100
N6520 X24.892 Y13.025 I-23.362 J-0.98
N6525 X24.658 Y13.614 I-2.392 J-0.61
N6530 G1 X24.426 Y13.912
N6535 X24.396 Y13.948
N6540 X24.358 Y13.984
N6545 X23.989 Y14.248
N6550 G3 X23.425 Y14.443 I-0.992 J-1.956
N6555 G1 X23.387 Y14.448
N6560 X22.936 Y14.455
N6565 X22.899 Y14.452
N6570 X22.861 Y14.445
N6575 X22.184 Y14.247
N6580 X22.034 Y14.209
N6585 X21.883 Y14.182
N6590 X21.733 Y14.166
N6595 X21.282 Y14.163
N6600 X20.624
N6605 X20.586 Y14.154 Z-2.294 F#104
N6610 X20.553 Y14.146 Z-2.276
N6615 X20.526 Y14.14 Z-2.248
N6620 X20.509 Y14.135 Z-2.214
N6625 X20.503 Y14.134 Z-2.175
N6630 G0 Z5.
N6635 X10.771 Y13.939
N6640 Z-1.665
N6645 G1 Z-1.982 F#103
N6650 X10.778 Y13.942 Z-2.053
N6655 X10.801 Y13.949 Z-2.12
N6660 X10.837 Y13.961 Z-2.18
N6665 X10.884 Y13.977 Z-2.231
N6670 X10.941 Y13.996 Z-2.269
N6675 X11.005 Y14.017 Z-2.292
N6680 X11.072 Y14.039 Z-2.3
N6685 G3 X11.055 Y14.163 I-0.02 J0.06
N6690 G1 X8.648 F#100
N6695 G3 X7.075 Y13.771 I0.175 J-4.056
N6700 X4.701 Y12.169 I3.541 J-7.811
N6705 X2.388 Y9.241 I7.925 J-8.638
N6710 G1 X2.352 Y9.081
N6715 X2.338 Y8.919
N6720 Y6.724
N6725 G3 X2.366 Y6.603 I0.317 J0.011 F#104
N6730 X2.898 Y6.53 I0.289 J0.132 F#105
N6735 G1 X8.88 Y13.641
N6740 G3 X8.769 Y14.134 I-0.243 J0.204
N6745 X8.648 Y14.163 I-0.132 J-0.289 F#103
N6750 G1 X6.911 F#100
N6755 G3 X5.389 Y13.716 I0.169 J-3.392
N6760 X3.302 Y12.084 I3.726 J-6.914
N6765 G1 X2.859 Y11.591
N6770 X2.538 Y11.188
N6775 X2.429 Y11.014
N6780 X2.361 Y10.819
N6785 X2.338 Y10.615
N6790 G3 X2.366 Y10.494 I0.317 J0.011 F#104
N6795 X2.847 Y10.373 I0.289 J0.132 F#105
N6800 G1 X7.092 Y13.592
N6805 G3 X7.032 Y14.134 I-0.192 J0.253
N6810 X6.911 Y14.163 I-0.132 J-0.289 F#103
N6815 G1 X5.49 F#100
N6820 G3 X3.798 Y13.595 I0.113 J-3.142
N6825 X2.433 Y12.474 I3.371 J-5.498
N6830 X2.243 Y11.609 I0.689 J-0.605
N6835 X2.304 Y11.501 I0.301 J0.1 F#104
N6840 X2.731 Y11.453 I0.24 J0.208 F#105
N6845 G1 X5.665 Y13.588
N6850 G3 X5.61 Y14.134 I-0.187 J0.257
N6855 X5.49 Y14.163 I-0.132 J-0.289 F#103
N6860 G2 X4.441 Y14.284 I-0.162 J3.192 F#100
N6865 G3 X3.027 Y13.941 I-0.142 J-2.504
N6870 X2.115 Y13.226 I0.856 J-2.029
N6875 G1 X2.056 Y13.06
N6880 G3 X2.048 Y12.936 I0.307 J-0.082 F#104
N6885 X2.494 Y12.689 I0.315 J0.042 F#105
N6890 G1 X4.631 Y13.657
N6895 G3 X4.697 Y14.195 I-0.131 J0.289
N6900 X4.587 Y14.252 I-0.197 J-0.249 F#103
N6905 G1 X3.986 Y14.402 F#100
N6910 X3.948 Y14.407
N6915 X3.91 Y14.41
N6920 X3.459 Y14.385
N6925 X3.422 Y14.381
N6930 G3 X2.895 Y14.183 I0.644 J-2.516
N6935 G1 X2.858 Y14.159
N6940 X2.543 Y13.912
N6945 X2.482 Y13.86
N6950 G3 X2.15 Y13.373 I2.146 J-1.818
N6955 G1 X2.03 Y12.976
N6960 G3 X2.014 Y12.339 I1.919 J-0.369
N6965 G2 X2.309 Y11.356 I-11.179 J-3.894
N6970 G1 X2.328 Y11.205
N6975 X2.338 Y10.754
N6980 Y8.919
N6985 X2.346 Y8.882 Z-2.294 F#104
N6990 X2.354 Y8.848 Z-2.276
N6995 X2.36 Y8.821 Z-2.248
N7000 X2.365 Y8.804 Z-2.214
N7005 X2.366 Y8.798 Z-2.175
N7010 G0 Z5.
N7015 X2.561 Y-0.208
N7020 Z-1.665
N7025 G1 Z-1.982 F#103
N7030 X2.558 Y-0.201 Z-2.053
N7035 X2.551 Y-0.179 Z-2.12
N7040 X2.539 Y-0.143 Z-2.18
N7045 X2.523 Y-0.095 Z-2.231
N7050 X2.504 Y-0.038 Z-2.269
N7055 X2.483 Y0.026 Z-2.292
N7060 X2.461 Y0.093 Z-2.3
N7065 G3 X2.338 Y0.075 I-0.06 J-0.02
N7070 G1 Y-2.181 F#100
N7075 G3 X2.886 Y-4.024 I4.138 J0.229
N7080 X4.695 Y-6.371 I7.902 J4.219
N7085 X16.985 Y-9.413 I8.805 J9.222
N7090 X24.605 Y-3.679 I-3.478 J12.551
N7095 G1 X24.646 Y-3.506
N7100 X24.663 Y-3.333
N7105 Y-1.333
N7110 X24.654 Y-1.295 Z-2.294 F#104
N7115 X24.646 Y-1.262 Z-2.276
N7120 X24.64 Y-1.235 Z-2.248
N7125 X24.635 Y-1.218 Z-2.214
N7130 X24.634 Y-1.212 Z-2.175
N7135 G0 Z5.
N7140 X2.561 Y-2.465
N7145 Z-1.665
N7150 G1 Z-1.982 F#103
N7155 X2.558 Y-2.457 Z-2.053
N7160 X2.551 Y-2.435 Z-2.12
N7165 X2.539 Y-2.399 Z-2.18
N7170 X2.523 Y-2.351 Z-2.231
N7175 X2.504 Y-2.294 Z-2.269
N7180 X2.483 Y-2.23 Z-2.292
N7185 X2.461 Y-2.163 Z-2.3
N7190 G3 X2.338 Y-2.181 I-0.06 J-0.02
N7195 G1 Y-3.835 F#100
N7200 G3 X2.768 Y-5.307 I3.251 J0.152
N7205 X4.344 Y-7.314 I6.663 J3.61
N7210 X15.37 Y-10.714 I9.098 J9.928
N7215 X24.38 Y-5.637 I-1.796 J13.722
N7220 X24.663 Y-4.972 I-0.648 J0.668
N7225 G1 Y-3.333
N7230 G3 X24.634 Y-3.212 I-0.317 J-0.011 F#104
N7235 G1 X24.605 Y-3.148 Z-2.292
N7240 X24.577 Y-3.087 Z-2.269
N7245 X24.552 Y-3.032 Z-2.231
N7250 X24.531 Y-2.986 Z-2.18
N7255 X24.515 Y-2.952 Z-2.12
N7260 X24.506 Y-2.931 Z-2.053
N7265 X24.502 Y-2.923 Z-1.982
N7270 G0 Z5.
N7275 X2.561 Y-4.119
N7280 Z-1.665
N7285 G1 Z-1.982 F#103
N7290 X2.558 Y-4.111 Z-2.053
N7295 X2.551 Y-4.089 Z-2.12
N7300 X2.539 Y-4.053 Z-2.18
N7305 X2.523 Y-4.005 Z-2.231
N7310 X2.504 Y-3.948 Z-2.269
N7315 X2.483 Y-3.885 Z-2.292
N7320 X2.461 Y-3.818 Z-2.3
N7325 G3 X2.338 Y-3.835 I-0.06 J-0.02
N7330 G1 Y-5.339 F#100
N7335 G3 X2.772 Y-6.684 I2.877 J0.187
N7340 X4.31 Y-8.51 I6.031 J3.521
N7345 X10.184 Y-11.426 I8.752 J10.252
N7350 X24.409 Y-7.066 I3.342 J14.481
N7355 G1 X24.548 Y-6.881
N7360 X24.633 Y-6.665
N7365 X24.663 Y-6.436
N7370 Y-4.972
N7375 G3 X24.634 Y-4.852 I-0.317 J-0.011 F#104
N7380 G1 X24.605 Y-4.787 Z-2.292
N7385 X24.577 Y-4.726 Z-2.269
N7390 X24.552 Y-4.671 Z-2.231
N7395 X24.531 Y-4.626 Z-2.18
N7400 X24.515 Y-4.591 Z-2.12
N7405 X24.506 Y-4.57 Z-2.053
N7410 X24.502 Y-4.563 Z-1.982
N7415 G0 Z5.
N7420 X2.561 Y-5.623
N7425 Z-1.665
N7430 G1 Z-1.982 F#103
N7435 X2.558 Y-5.615 Z-2.053
N7440 X2.551 Y-5.593 Z-2.12
N7445 X2.539 Y-5.557 Z-2.18
N7450 X2.523 Y-5.509 Z-2.231
N7455 X2.504 Y-5.452 Z-2.269
N7460 X2.483 Y-5.389 Z-2.292
N7465 X2.461 Y-5.322 Z-2.3
N7470 G3 X2.338 Y-5.339 I-0.06 J-0.02
N7475 G1 Y-6.625 F#100
N7480 G3 X2.875 Y-8.12 I2.818 J0.168
N7485 X4.503 Y-9.845 I5.754 J3.802
N7490 X9.867 Y-12.341 I8.428 J11.1
N7495 X24.367 Y-8.467 I3.657 J15.386
N7500 G1 X24.527 Y-8.273
N7505 X24.628 Y-8.041
N7510 X24.663 Y-7.792
N7515 Y-6.436
N7520 G3 X24.634 Y-6.315 I-0.317 J-0.011 F#104
N7525 G1 X24.605 Y-6.251 Z-2.292
N7530 X24.577 Y-6.19 Z-2.269
N7535 X24.552 Y-6.135 Z-2.231
N7540 X24.531 Y-6.089 Z-2.18
N7545 X24.515 Y-6.055 Z-2.12
N7550 X24.506 Y-6.033 Z-2.053
N7555 X24.502 Y-6.026 Z-1.982
N7560 G0 Z5.
N7565 X2.561 Y-6.909
N7570 Z-1.665
N7575 G1 Z-1.982 F#103
N7580 X2.558 Y-6.901 Z-2.053
N7585 X2.551 Y-6.879 Z-2.12
N7590 X2.539 Y-6.843 Z-2.18
N7595 X2.523 Y-6.795 Z-2.231
N7600 X2.504 Y-6.738 Z-2.269
N7605 X2.483 Y-6.675 Z-2.292
N7610 X2.461 Y-6.607 Z-2.3
N7615 G3 X2.338 Y-6.625 I-0.06 J-0.02
N7620 G1 Y-7.896 F#100
N7625 G3 X2.871 Y-9.326 I2.653 J0.176
N7630 X4.456 Y-10.945 I5.386 J3.685
N7635 X8.593 Y-12.988 I7.92 J10.83
N7640 X24.355 Y-9.764 I4.939 J15.996
N7645 G1 X24.52 Y-9.566
N7650 X24.626 Y-9.33
N7655 X24.663 Y-9.074
N7660 Y-7.792
N7665 G3 X24.634 Y-7.671 I-0.317 J-0.011 F#104
N7670 G1 X24.605 Y-7.607 Z-2.292
N7675 X24.577 Y-7.546 Z-2.269
N7680 X24.552 Y-7.491 Z-2.231
N7685 X24.531 Y-7.445 Z-2.18
N7690 X24.515 Y-7.411 Z-2.12
N7695 X24.506 Y-7.389 Z-2.053
N7700 X24.502 Y-7.382 Z-1.982
N7705 G0 Z5.
N7710 X2.561 Y-8.18
N7715 Z-1.665
N7720 G1 Z-1.982 F#103
N7725 X2.558 Y-8.172 Z-2.053
N7730 X2.551 Y-8.15 Z-2.12
N7735 X2.539 Y-8.114 Z-2.18
N7740 X2.523 Y-8.066 Z-2.231
N7745 X2.504 Y-8.009 Z-2.269
N7750 X2.483 Y-7.945 Z-2.292
N7755 X2.461 Y-7.878 Z-2.3
N7760 G3 X2.338 Y-7.896 I-0.06 J-0.02
N7765 G1 Y-9.099 F#100
N7770 G3 X2.871 Y-10.492 I2.535 J0.173
N7775 X4.386 Y-12.005 I5.04 J3.533
N7780 X7.924 Y-13.781 I7.433 J10.393
N7785 X9.239 Y-14.163 I3.529 J9.691
N7790 G1 X9.323
N7795 X16.619
N7800 G3 X19.602 Y-13.601 I-0.158 J9.045
N7805 X24.333 Y-11.016 I-5.536 J15.754
N7810 X24.663 Y-10.306 I-0.618 J0.718
N7815 G1 Y-9.074
N7820 G3 X24.634 Y-8.954 I-0.317 J-0.011 F#104
N7825 G1 X24.605 Y-8.889 Z-2.292
N7830 X24.577 Y-8.828 Z-2.269
N7835 X24.552 Y-8.773 Z-2.231
N7840 X24.531 Y-8.728 Z-2.18
N7845 X24.515 Y-8.693 Z-2.12
N7850 X24.506 Y-8.672 Z-2.053
N7855 X24.502 Y-8.665 Z-1.982
N7860 G0 Z5.
N7865 X16.903 Y-13.939
N7870 Z-1.665
N7875 G1 Z-1.982 F#103
N7880 X16.896 Y-13.942 Z-2.053
N7885 X16.873 Y-13.949 Z-2.12
N7890 X16.837 Y-13.961 Z-2.18
N7895 X16.79 Y-13.977 Z-2.231
N7900 X16.732 Y-13.996 Z-2.269
N7905 X16.669 Y-14.017 Z-2.292
N7910 X16.602 Y-14.039 Z-2.3
N7915 G3 X16.619 Y-14.163 I0.02 J-0.06
N7920 G1 X19.627 F#100
N7925 G3 X21.412 Y-13.799 I-0.141 J5.255
N7930 X24.398 Y-12.149 I-4.091 J10.933
N7935 X24.694 Y-11.309 I-0.629 J0.693
N7940 X24.646 Y-11.194 I-0.312 J-0.063 F#104
N7945 X24.235 Y-11.09 I-0.264 J-0.177 F#105
N7950 G1 X19.492 Y-13.564
N7955 G3 X19.507 Y-14.134 I0.147 J-0.282
N7960 X19.627 Y-14.163 I0.132 J0.289 F#103
N7965 G1 X21.733 F#100
N7970 G3 X23.431 Y-13.763 I-0.093 J4.201
N7975 X24.682 Y-12.992 I-1.477 J3.797
N7980 X24.912 Y-12.038 I-0.657 J0.663
N7985 X24.847 Y-11.933 I-0.298 J-0.111 F#104
N7990 X24.453 Y-11.876 I-0.233 J-0.216 F#105
N7995 G1 X21.585 Y-13.572
N8000 G3 X21.613 Y-14.133 I0.162 J-0.273
N8005 X21.733 Y-14.163 I0.134 J0.288 F#103
N8010 G2 X22.314 Y-14.212 I0.093 J-2.338 F#100
N8015 G3 X23.16 Y-14.382 I1.31 J4.341
N8020 X23.793 Y-14.296 I0.037 J2.123
N8025 G1 X23.847 Y-14.265 F#104
N8030 X23.894 Y-14.223
N8035 G3 X23.651 Y-13.685 I-0.228 J0.221 F#100
N8040 G1 X22.933 Y-13.719
N8045 G3 X22.863 Y-14.342 I0.015 J-0.317
N8050 G1 X22.952 Y-14.363
N8055 X23.087 Y-14.391
N8060 G3 X23.654 Y-14.349 I-0.05 J4.578
N8065 X24.14 Y-14.152 I-1.795 J5.137
N8070 X24.56 Y-13.811 I-2.838 J3.92
N8075 X24.864 Y-13.349 I-4.318 J3.17
N8080 G1 X24.875 Y-13.311
N8085 G3 X24.986 Y-12.257 I-1.779 J0.721
N8090 G1 X24.785 Y-11.656
N8095 X24.738 Y-11.506
N8100 X24.701 Y-11.355
N8105 X24.676 Y-11.205
N8110 X24.663 Y-10.754
N8115 Y-10.306
N8120 G3 X24.634 Y-10.185 I-0.317 J-0.011 F#104
N8125 G1 X24.605 Y-10.121 Z-2.292
N8130 X24.577 Y-10.06 Z-2.269
N8135 X24.552 Y-10.005 Z-2.231
N8140 X24.531 Y-9.959 Z-2.18
N8145 X24.515 Y-9.925 Z-2.12
N8150 X24.506 Y-9.903 Z-2.053
N8155 X24.502 Y-9.896 Z-1.982
N8160 G0 Z5.
N8165 X2.561 Y-9.383
N8170 Z-1.665
N8175 G1 Z-1.982 F#103
N8180 X2.558 Y-9.375 Z-2.053
N8185 X2.551 Y-9.353 Z-2.12
N8190 X2.539 Y-9.317 Z-2.18
N8195 X2.523 Y-9.27 Z-2.231
N8200 X2.504 Y-9.212 Z-2.269
N8205 X2.483 Y-9.149 Z-2.292
N8210 X2.461 Y-9.082 Z-2.3
N8215 G3 X2.338 Y-9.099 I-0.06 J-0.02
N8220 G1 Y-10.235 F#100
N8225 G3 X2.838 Y-11.578 I2.414 J0.134
N8230 X4.231 Y-12.982 I4.668 J3.239
N8235 X6.219 Y-14.128 I5.745 J7.664
N8240 G1 X6.349 Y-14.153
N8245 X6.481 Y-14.163
N8250 G3 X6.602 Y-14.134 I-0.011 J0.317 F#104
N8255 X6.688 Y-13.614 I-0.132 J0.289 F#105
N8260 G1 X2.873 Y-10.015
N8265 G3 X2.366 Y-10.114 I-0.218 J-0.231
N8270 X2.338 Y-10.235 I0.289 J-0.132 F#103
N8275 X2.341 Y-11.621 I22.03 J-0.643 F#100
N8280 X3.159 Y-13.102 I3.139 J0.767
N8285 X4.237 Y-14.063 I4.402 J3.859
N8290 G1 X4.467 Y-14.18
N8295 X4.721 Y-14.229
N8300 X4.978 Y-14.205
N8305 G3 X5.089 Y-14.15 I-0.083 J0.306 F#104
N8310 X5.132 Y-13.689 I-0.194 J0.251 F#105
N8315 G1 X2.884 Y-11.148
N8320 G3 X2.369 Y-11.204 I-0.238 J-0.21
N8325 X2.331 Y-11.322 I0.277 J-0.155 F#103
N8330 G2 X2.165 Y-12.071 I-3.709 J0.429 F#100
N8335 G3 X2.619 Y-13.55 I2.237 J-0.123
N8340 X3.33 Y-14.349 I2.203 J1.245
N8345 G1 X3.545 Y-14.433
N8350 X3.772 Y-14.464
N8355 G3 X3.893 Y-14.437 I-0.007 J0.317 F#104
N8360 X4.038 Y-13.985 I-0.128 J0.291 F#105
N8365 G1 X2.779 Y-11.863
N8370 G3 X2.265 Y-11.818 I-0.273 J-0.162
N8375 X2.204 Y-11.926 I0.241 J-0.206 F#103
N8380 G1 X2.066 Y-12.408 F#100
N8385 G3 X2.299 Y-13.613 I1.82 J-0.273
N8390 G1 X2.526 Y-13.912
N8395 X2.549 Y-13.943
N8400 G3 X3.045 Y-14.301 I1.773 J1.931
N8405 G1 X3.384 Y-14.412
N8410 X3.534 Y-14.457
N8415 G3 X4.136 Y-14.453 I0.283 J2.451
N8420 G1 X4.738 Y-14.269
N8425 G2 X5.339 Y-14.164 I0.647 J-1.933
N8430 G1 X5.941 Y-14.163
N8435 X9.323
N8440 G3 X9.443 Y-14.134 I-0.011 J0.317 F#104
N8445 G1 X9.507 Y-14.105 Z-2.292
N8450 X9.568 Y-14.077 Z-2.269
N8455 X9.623 Y-14.052 Z-2.231
N8460 X9.669 Y-14.031 Z-2.18
N8465 X9.703 Y-14.015 Z-2.12
N8470 X9.725 Y-14.006 Z-2.053
N8475 X9.732 Y-14.002 Z-1.982
N8480 G0 Z10.
(2D ADAPTIVE1 8)
N8490 M8
N8495 G0 X-6.235 Y-0.488
N8500 #100=600. (CUTTING)
N8505 #103=600. (ENTRY)
N8510 #104=600. (EXIT)
N8515 #105=60000. (DIRECT)
N8520 #107=500. (RAMPING)
N8525 Z10.
N8530 Z1.567
N8535 G1 Z1.25 F#103
N8540 G3 X-9.089 Y0.488 Z1.085 I-1.427 J0.488 F#107
N8545 X-6.235 Y-0.488 Z0.919 I1.427 J-0.488
N8550 X-9.089 Y0.488 Z0.754 I-1.427 J0.488
N8555 X-6.235 Y-0.488 Z0.588 I1.427 J-0.488
N8560 X-9.089 Y0.488 Z0.423 I-1.427 J0.488
N8565 X-6.235 Y-0.488 Z0.257 I1.427 J-0.488
N8570 X-9.089 Y0.488 Z0.092 I-1.427 J0.488
N8575 X-6.235 Y-0.488 Z-0.074 I1.427 J-0.488
N8580 X-9.089 Y0.488 Z-0.239 I-1.427 J0.488
N8585 X-6.235 Y-0.488 Z-0.405 I1.427 J-0.488
N8590 X-9.089 Y0.488 Z-0.57 I-1.427 J0.488
N8595 X-6.235 Y-0.488 Z-0.735 I1.427 J-0.488
N8600 X-9.089 Y0.488 Z-0.901 I-1.427 J0.488
N8605 X-6.235 Y-0.488 Z-1.066 I1.427 J-0.488
N8610 X-9.089 Y0.488 Z-1.232 I-1.427 J0.488
N8615 X-6.235 Y-0.488 Z-1.397 I1.427 J-0.488
N8620 X-9.089 Y0.488 Z-1.563 I-1.427 J0.488
N8625 X-6.235 Y-0.488 Z-1.728 I1.427 J-0.488
N8630 X-9.089 Y0.488 Z-1.894 I-1.427 J0.488
N8635 X-6.235 Y-0.488 Z-2.059 I1.427 J-0.488
N8640 X-9.089 Y0.488 Z-2.224 I-1.427 J0.488
N8645 X-6.235 Y-0.488 Z-2.39 I1.427 J-0.488
N8650 X-9.089 Y0.488 Z-2.555 I-1.427 J0.488
N8655 X-6.235 Y-0.488 Z-2.721 I1.427 J-0.488
N8660 X-9.089 Y0.488 Z-2.886 I-1.427 J0.488
N8665 X-6.235 Y-0.488 Z-3.052 I1.427 J-0.488
N8670 X-9.089 Y0.488 Z-3.217 I-1.427 J0.488
N8675 X-6.235 Y-0.488 Z-3.383 I1.427 J-0.488
N8680 X-6.154 Y0. Z-3.4 I-1.427 J0.488
N8685 X-9.17 I-1.508 J0.
N8690 X-6.154 I1.508 J0.
N8695 G1 X-6.136 Y0.682 F#100
N8700 G3 X-6.666 Y1.776 I-1.12 J0.133
N8705 X-8.909 Y1.755 I-1.107 J-1.545
N8710 X-6.425 Y-1.786 I1.242 J-1.771
N8715 X-5.766 Y-1.047 I-1.242 J1.771
N8720 X-5.398 Y1.02 I-2.633 J1.535
N8725 X-8.103 Y2.807 I-2.343 J-0.605
N8730 X-10.457 Y-0.787 I0.345 J-2.793
N8735 X-5.233 Y-1.609 I2.798 J0.774
N8740 X-5.194 Y2.337 I-2.661 J2.
N8745 X-9.983 Y2.833 I-2.638 J-2.1
N8750 X-8.684 Y-3.554 I2.281 J-2.861
N8755 X-4.64 Y-2.169 I1.037 J3.566
N8760 X-6.067 Y4.043 I-3.159 J2.544
N8765 X-12.006 Y1.226 I-1.761 J-3.956
N8770 X-5.053 Y-3.709 I4.34 J-1.251
N8775 X-5.233 Y4.556 I-2.773 J4.074
N8780 X-12.496 Y2.34 I-2.615 J-4.439
N8785 X-5.408 Y-4.904 I4.823 J-2.37
N8790 X-6.311 Y5.953 I-2.401 J5.266
N8795 G1 X-6.402 Y5.958
N8800 X-6.491 Y5.963
N8805 X-8.436
N8810 G3 X-11.976 Y4.491 I0.091 J-5.214
N8815 X-11.218 Y-5.175 I4.241 J-4.53
N8820 X-9.721 Y-5.935 I3.202 J4.449
N8825 G1 X-9.609 Y-5.955
N8830 X-9.496 Y-5.963
N8835 X-6.578
N8840 G3 X-3.881 Y-5.006 I-0.173 J4.768
N8845 X-1.615 Y-2.112 I-3.614 J5.164
N8850 G1 X-1.595 Y-1.992
N8855 X-1.587 Y-1.872
N8860 Y1.78
N8865 G3 X-2.494 Y4.343 I-4.45 J-0.132
N8870 X-4.104 Y5.9 I-4.578 J-3.123
N8875 G1 X-4.283 Y5.945
N8880 X-4.463 Y5.963
N8885 X-6.491
N8890 X-6.616 F#104
N8895 X-8.311 F#105
N8900 X-8.436 F#103
N8905 X-10.448 F#100
N8910 G3 X-12.26 Y5.29 I0.147 J-3.171
N8915 X-14.392 Y2.429 I3.51 J-4.84
N8920 X-11.931 Y-5.781 I6.653 J-2.48
N8925 G1 X-11.764 Y-5.881
N8930 X-11.579 Y-5.942
N8935 X-11.385 Y-5.963
N8940 X-9.496
N8945 G3 X-9.375 Y-5.934 I-0.011 J0.317 F#104
N8950 X-9.191 Y-5.619 I-0.132 J0.289 F#105
N8955 G1 X-10.143 Y5.672
N8960 G3 X-10.327 Y5.934 I-0.316 J-0.027
N8965 X-10.448 Y5.963 I-0.132 J-0.289 F#103
N8970 G1 X-11.841 F#100
N8975 G3 X-13.399 Y5.31 I0.188 J-2.635
N8980 X-15.018 Y3.236 I3.418 J-4.337
N8985 X-14.274 Y-4.679 I7.122 J-3.323
N8990 G1 X-13.956 Y-5.112
N8995 X-13.605 Y-5.517
N9000 X-13.434 Y-5.69
N9005 X-13.243 Y-5.838
N9010 X-13.019 Y-5.931
N9015 X-12.78 Y-5.963
N9020 X-11.385
N9025 G3 X-11.264 Y-5.934 I-0.011 J0.317 F#104
N9030 X-11.079 Y-5.632 I-0.132 J0.289 F#105
N9035 G1 X-11.535 Y5.658
N9040 G3 X-11.721 Y5.934 I-0.317 J-0.013
N9045 X-11.841 Y5.963 I-0.132 J-0.289 F#103
N9050 G1 X-13.01 F#100
N9055 G3 X-14.285 Y5.46 I0.147 J-2.239
N9060 X-15.803 Y3.619 I2.999 J-4.019
N9065 X-16.526 Y-1.69 I7.302 J-3.698
N9070 X-14.731 Y-5.624 I8.592 J1.544
N9075 X-14.015 Y-5.963 I0.722 J0.598
N9080 G1 X-12.78
N9085 G3 X-12.659 Y-5.934 I-0.011 J0.317 F#104
N9090 X-12.473 Y-5.639 I-0.132 J0.289 F#105
N9095 G1 X-12.703 Y5.652
N9100 G3 X-12.889 Y5.934 I-0.317 J-0.006
N9105 X-13.01 Y5.963 I-0.132 J-0.289 F#103
N9110 G1 X-14.008 F#100
N9115 G3 X-15.412 Y5.381 I0.091 J-2.207
N9120 X-16.86 Y3.431 I3.24 J-3.918
N9125 X-17.562 Y-1.078 I7.86 J-3.533
N9130 X-15.897 Y-5.613 I9.436 J0.892
N9135 X-15.167 Y-5.963 I0.742 J0.61
N9140 G1 X-14.015
N9145 G3 X-13.894 Y-5.934 I-0.011 J0.317 F#104
N9150 X-13.708 Y-5.645 I-0.132 J0.289 F#105
N9155 G1 X-13.702 Y5.645
N9160 G3 X-13.888 Y5.934 I-0.317 J0.
N9165 X-14.008 Y5.963 I-0.132 J-0.289 F#103
N9170 G1 X-15.092 F#100
N9175 G3 X-16.478 Y5.323 I0.164 J-2.176
N9180 X-17.7 Y3.681 I3.198 J-3.657
N9185 X-18.547 Y-0.253 I7.795 J-3.737
N9190 X-17.081 Y-5.501 I10.299 J0.048
N9195 X-16.484 Y-5.938 I0.879 J0.574
N9200 G1 X-16.268 Y-5.963
N9205 X-15.167
N9210 G3 X-15.047 Y-5.934 I-0.011 J0.317 F#104
N9215 X-14.861 Y-5.647 I-0.132 J0.289 F#105
N9220 G1 X-14.785 Y5.643
N9225 G3 X-14.971 Y5.934 I-0.317 J0.002
N9230 X-15.092 Y5.963 I-0.132 J-0.289 F#103
N9235 G1 X-16.067 F#100
N9240 G3 X-17.437 Y5.337 I0.137 J-2.111
N9245 X-18.64 Y3.707 I3.161 J-3.594
N9250 X-19.473 Y0.352 I7.791 J-3.714
N9255 X-18.309 Y-5.221 I10.988 J-0.613
N9260 G1 X-18.158 Y-5.47
N9265 G3 X-17.335 Y-5.964 I0.836 J0.462
N9270 G1 X-16.268 Y-5.963
N9275 G3 X-16.147 Y-5.934 I-0.011 J0.317 F#104
N9280 X-15.961 Y-5.651 I-0.132 J0.289 F#105
N9285 G1 X-15.761 Y5.64
N9290 G3 X-15.947 Y5.934 I-0.317 J0.006
N9295 X-16.067 Y5.963 I-0.132 J-0.289 F#103
N9300 G1 X-17.034 F#100
N9305 G3 X-18.387 Y5.348 I0.124 J-2.07
N9310 X-19.575 Y3.738 I3.121 J-3.546
N9315 X-20.358 Y0.994 I7.651 J-3.666
N9320 X-19.36 Y-5.2 I11.424 J-1.338
N9325 G1 X-19.221 Y-5.44
N9330 G3 X-18.381 Y-5.964 I0.857 J0.438
N9335 G1 X-17.335 Y-5.963
N9340 G3 X-17.215 Y-5.934 I-0.011 J0.317 F#104
N9345 X-17.029 Y-5.654 I-0.132 J0.289 F#105
N9350 G1 X-16.728 Y5.637
N9355 G3 X-16.914 Y5.934 I-0.317 J0.008
N9360 X-17.034 Y5.963 I-0.132 J-0.289 F#103
N9365 G1 X-18.033 F#100
N9370 G3 X-19.22 Y5.456 I0.128 J-1.943
N9375 X-20.564 Y3.644 I2.997 J-3.629
N9380 X-21.324 Y0.784 I7.863 J-3.619
N9385 X-20.494 Y-4.968 I12.098 J-1.191
N9390 X-20.034 Y-5.722 I2.456 J0.981
N9395 G1 X-19.847 Y-5.852
N9400 X-19.636 Y-5.934
N9405 X-19.41 Y-5.963
N9410 X-18.381
N9415 G3 X-18.26 Y-5.934 I-0.011 J0.317 F#104
N9420 X-18.074 Y-5.655 I-0.132 J0.289 F#105
N9425 G1 X-17.726 Y5.635
N9430 G3 X-17.912 Y5.934 I-0.317 J0.01
N9435 X-18.033 Y5.963 I-0.132 J-0.289 F#103
N9440 G1 X-18.961 F#100
N9445 G3 X-20.308 Y5.337 I0.133 J-2.049
N9450 X-21.475 Y3.722 I3.165 J-3.516
N9455 X-22.262 Y0.869 I8.012 J-3.744
N9460 X-21.528 Y-4.915 I12.603 J-1.34
N9465 X-21.063 Y-5.711 I2.636 J1.004
N9470 G1 X-20.874 Y-5.847
N9475 X-20.658 Y-5.933
N9480 X-20.428 Y-5.963
N9485 X-19.41
N9490 G3 X-19.29 Y-5.934 I-0.011 J0.317 F#104
N9495 X-19.104 Y-5.658 I-0.132 J0.289 F#105
N9500 G1 X-18.655 Y5.633
N9505 G3 X-18.841 Y5.934 I-0.317 J0.013
N9510 X-18.961 Y5.963 I-0.132 J-0.289 F#103
N9515 G1 X-19.89 F#100
N9520 G3 X-21.23 Y5.359 I0.105 J-2.023
N9525 X-22.394 Y3.775 I3.077 J-3.48
N9530 X-23.201 Y0.938 I7.964 J-3.8
N9535 X-22.553 Y-4.859 I12.985 J-1.483
N9540 X-22.195 Y-5.566 I4.188 J1.678
N9545 X-21.437 Y-5.963 I0.759 J0.527
N9550 G1 X-20.428
N9555 G3 X-20.307 Y-5.934 I-0.011 J0.317 F#104
N9560 X-20.121 Y-5.66 I-0.132 J0.289 F#105
N9565 G1 X-19.584 Y5.63
N9570 G3 X-19.769 Y5.934 I-0.317 J0.015
N9575 X-19.89 Y5.963 I-0.132 J-0.289 F#103
N9580 G1 X-20.819 F#100
N9585 G3 X-22.153 Y5.378 I0.083 J-2.005
N9590 X-23.318 Y3.816 I3.028 J-3.473
N9595 X-24.141 Y0.998 I7.91 J-3.84
N9600 X-23.565 Y-4.817 I13.279 J-1.62
N9605 X-23.198 Y-5.561 I4.264 J1.639
N9610 X-22.403 Y-5.97 I0.769 J0.518
N9615 G1 X-22.212 Y-5.965
N9620 X-22.057 Y-5.963
N9625 X-21.437
N9630 G3 X-21.316 Y-5.934 I-0.011 J0.317 F#104
N9635 X-21.131 Y-5.663 I-0.132 J0.289 F#105
N9640 G1 X-20.513 Y5.628
N9645 G3 X-20.698 Y5.934 I-0.317 J0.017
N9650 X-20.819 Y5.963 I-0.132 J-0.289 F#103
N9655 G1 X-21.833 F#100
N9660 G3 X-23.012 Y5.454 I0.127 J-1.918
N9665 X-24.356 Y3.619 I3.046 J-3.639
N9670 X-24.922 Y1.867 I5.965 J-2.895
N9675 G1 X-24.913 Y-2.399
N9680 G3 X-24.394 Y-5.152 I7.522 J-0.01
N9685 X-23.873 Y-5.937 I2.241 J0.922
N9690 X-22.833 Y-6.034 I0.598 J0.79
N9695 G1 X-22.676 Y-6.001
N9700 X-22.521 Y-5.973
N9705 X-22.403 Y-5.97
N9710 G3 X-22.284 Y-5.938 I-0.021 J0.317 F#104
N9715 X-22.16 Y-5.476 I-0.14 J0.285 F#105
N9720 G1 X-24.331 Y-2.234
N9725 G3 X-24.884 Y-2.279 I-0.264 J-0.177
N9730 X-24.913 Y-2.399 I0.289 J-0.132 F#103
N9735 G1 Y-5.031 F#100
N9740 G3 X-24.422 Y-6.235 I1.663 J-0.025
N9745 X-23.321 Y-6.27 I0.575 J0.75
N9750 G1 X-23.275 Y-6.228 F#104
N9755 X-23.238 Y-6.178
N9760 G3 X-23.298 Y-5.778 I-0.272 J0.164 F#105
N9765 G1 X-24.383 Y-4.805
N9770 G3 X-24.884 Y-4.91 I-0.212 J-0.236
N9775 X-24.913 Y-5.031 I0.289 J-0.132 F#103
N9780 G1 Y-5.959 F#100
N9785 X-24.905 Y-6.109
N9790 G3 X-23.55 Y-6.451 I0.775 J0.215
N9795 X-23.487 Y-6.344 I-0.237 J0.212 F#104
N9800 X-23.686 Y-5.938 I-0.3 J0.105 F#105
N9805 G1 X-24.495 Y-5.669
N9810 G3 X-24.884 Y-5.839 I-0.1 J-0.301
N9815 X-24.913 Y-5.959 I0.289 J-0.132 F#103
N9820 G1 Y-6.392 F#100
N9825 X-24.905 Y-6.542
N9830 X-24.856 Y-6.684
N9835 G3 X-23.773 Y-6.704 I0.549 J0.351
N9840 X-23.718 Y-6.592 I-0.457 J0.294 F#104
N9845 X-23.687 Y-6.384 I-0.512 J0.182 F#105
N9850 X-24.896 Y-6.269 I-0.613 J-0.03
N9855 X-24.913 Y-6.392 I0.596 J-0.145 F#103
N9860 G1 Y-6.78 F#100
N9865 X-24.905 Y-6.93
N9870 G3 X-23.913 Y-6.928 I0.496 J0.242
N9875 X-23.883 Y-6.808 I-0.336 J0.149 F#104
N9880 X-23.884 Y-6.733 I-0.367 J0.029 F#105
N9885 X-24.893 Y-6.657 I-0.512 J-0.065
N9890 X-24.913 Y-6.78 I0.497 J-0.141 F#103
N9895 G1 Y-6.888 F#100
N9900 X-24.909 Y-7.09
N9905 X-24.899 Y-7.239
N9910 X-24.822 Y-7.368
N9915 X-24.659 Y-7.47
N9920 X-24.47 Y-7.501
N9925 X-24.283 Y-7.459
N9930 X-24.126 Y-7.348
N9935 X-24.024 Y-7.185
N9940 G3 X-24.006 Y-7.063 I-0.306 J0.106 F#104
N9945 G1 X-24.008 Y-7.041 F#105
N9950 G3 X-24.891 Y-6.967 I-0.449 J-0.054
N9955 X-24.909 Y-7.09 I0.434 J-0.128 F#103
N9960 G1 X-24.907 Y-7.198 F#100
N9965 X-24.888 Y-7.399
N9970 X-24.865 Y-7.547
N9975 X-24.778 Y-7.669
N9980 X-24.633 Y-7.736
N9985 X-24.473 Y-7.746
N9990 X-24.321 Y-7.697
N9995 X-24.198 Y-7.596
N10000 X-24.119 Y-7.457
N10005 G3 X-24.106 Y-7.334 I-0.312 J0.095 F#104
N10010 G1 X-24.108 Y-7.315 F#105
N10015 G3 X-24.877 Y-7.276 I-0.388 J-0.057
N10020 X-24.888 Y-7.399 I0.38 J-0.097 F#103
N10025 G1 X-24.877 Y-7.507 F#100
N10030 X-24.864 Y-7.561
N10035 X-24.843 Y-7.614
N10040 X-24.816 Y-7.662
N10045 X-24.788 Y-7.697
N10050 X-24.752 Y-7.732
N10055 X-24.72 Y-7.758
N10060 X-24.688 Y-7.777
N10065 X-24.632 Y-7.802
N10070 X-24.604 Y-7.811
N10075 X-24.576 Y-7.817
N10080 X-24.534 Y-7.822
N10085 X-24.487
N10090 X-24.441 Y-7.817
N10095 X-24.379 Y-7.799
N10100 X-24.34 Y-7.782
N10105 X-24.301 Y-7.76
N10110 X-24.263 Y-7.73
N10115 X-24.224 Y-7.688
N10120 X-24.203 Y-7.662
N10125 G3 X-23.992 Y-7.1 I-8.266 J3.421
N10130 G1 X-23.985 Y-7.06 Z-3.393 F#104
N10135 X-23.979 Y-7.024 Z-3.372
N10140 X-23.973 Y-6.997 Z-3.341
N10145 X-23.974 Y-6.983 Z-3.31
N10150 Y-6.978 Z-3.275
N10155 G0 Z5.
N10160 X-22.116 Y5.739
N10165 Z-2.765
N10170 G1 Z-3.082 F#103
N10175 X-22.109 Y5.742 Z-3.153
N10180 X-22.086 Y5.749 Z-3.22
N10185 X-22.051 Y5.761 Z-3.28
N10190 X-22.003 Y5.777 Z-3.331
N10195 X-21.946 Y5.796 Z-3.369
N10200 X-21.882 Y5.817 Z-3.392
N10205 X-21.815 Y5.839 Z-3.4
N10210 G3 X-21.833 Y5.963 I-0.02 J0.06
N10215 G2 X-22.717 Y5.999 I-0.19 J6.066 F#100
N10220 G3 X-23.896 Y5.518 I0.084 J-1.89
N10225 X-24.839 Y4.448 I2.095 J-2.796
N10230 G1 X-24.893 Y4.268
N10235 X-24.913 Y4.081
N10240 G3 X-24.884 Y3.961 I0.317 J0.011 F#104
N10245 X-24.396 Y3.845 I0.289 J0.132 F#105
N10250 G1 X-22.437 Y5.426
N10255 G3 X-22.455 Y5.934 I-0.199 J0.247
N10260 X-22.568 Y5.983 I-0.181 J-0.261 F#103
N10265 G2 X-23.17 Y6.174 I0.333 J2.099 F#100
N10270 G3 X-24.35 Y5.938 I-0.298 J-1.58
N10275 X-24.912 Y5.09 I0.357 J-0.847
N10280 X-24.884 Y4.97 I0.317 J0.011 F#104
N10285 X-24.449 Y4.82 I0.289 J0.132 F#105
N10290 G1 X-23.038 Y5.554
N10295 G3 X-22.938 Y6.035 I-0.147 J0.282
N10300 X-23.033 Y6.114 I-0.247 J-0.199 F#103
N10305 G2 X-23.572 Y6.454 I1.415 J2.844 F#100
N10310 G3 X-24.915 Y5.626 I-0.409 J-0.84
N10315 G1 X-24.906 Y5.564 F#104
N10320 X-24.884 Y5.505
N10325 G3 X-24.447 Y5.356 I0.289 J0.132 F#105
N10330 G1 X-23.513 Y5.85
N10335 G3 X-23.376 Y6.268 I-0.148 J0.281
N10340 X-23.45 Y6.367 I-0.286 J-0.138 F#103
N10345 G2 X-23.789 Y6.729 I2.294 J2.492 F#100
N10350 G1 X-23.915 Y6.811
N10355 G3 X-24.913 Y6.115 I-0.256 J-0.696
N10360 X-24.884 Y5.995 I0.317 J0.011 F#104
N10365 X-24.462 Y5.838 I0.289 J0.132 F#105
N10370 G1 X-23.812 Y6.138
N10375 G3 X-23.638 Y6.504 I-0.133 J0.288
N10380 X-23.691 Y6.616 I-0.308 J-0.077 F#103
N10385 G2 X-23.936 Y6.99 I1.4 J1.184 F#100
N10390 G1 X-24.052 Y7.086
N10395 G3 X-24.913 Y6.517 I-0.243 J-0.568
N10400 X-24.883 Y6.397 I0.303 J0.011 F#104
N10405 X-24.835 Y6.325 I0.274 J0.131 F#105
N10410 X-23.864 Y6.805 I0.419 J0.376
N10415 X-23.9 Y6.924 I-0.553 J-0.105 F#103
N10420 G1 X-23.957 Y7.043 F#100
N10425 X-23.987 Y7.122
N10430 X-24.047 Y7.26
N10435 X-24.16 Y7.358
N10440 G3 X-24.913 Y6.864 I-0.214 J-0.494
N10445 X-24.883 Y6.744 I0.301 J0.011 F#104
N10450 G1 X-24.874 Y6.728 F#105
N10455 G3 X-23.962 Y7. I0.426 J0.238
N10460 X-23.987 Y7.122 I-0.486 J-0.035 F#103
N10465 G1 X-24.015 Y7.198 F#100
N10470 X-24.069 Y7.361
N10475 X-24.121 Y7.502
N10480 X-24.229 Y7.606
N10485 X-24.406 Y7.651
N10490 X-24.587 Y7.626
N10495 X-24.746 Y7.536
N10500 X-24.859 Y7.392
N10505 X-24.911 Y7.216
N10510 G3 X-24.893 Y7.094 I0.311 J-0.018 F#104
N10515 G1 X-24.887 Y7.077 F#105
N10520 G3 X-24.054 Y7.238 I0.399 J0.169
N10525 X-24.069 Y7.361 I-0.434 J0.009 F#103
N10530 X-24.204 Y7.733 I-1.561 J-0.354 F#100
N10535 G1 X-24.235 Y7.761 F#104
N10540 X-24.27 Y7.783
N10545 X-24.31 Y7.798
N10550 G3 X-24.487 Y7.775 I-0.063 J-0.21 F#100
N10555 X-24.26 Y7.405 I0.113 J-0.185
N10560 X-24.179 Y7.687 I-0.113 J0.185
N10565 G1 X-24.191 Y7.708
N10570 X-24.206 Y7.73
N10575 X-24.224 Y7.753
N10580 X-24.259 Y7.789
N10585 X-24.294 Y7.817
N10590 X-24.336 Y7.842
N10595 X-24.379 Y7.86
N10600 X-24.418 Y7.872
N10605 X-24.456 Y7.879
N10610 X-24.495 Y7.882
N10615 X-24.534
N10620 X-24.572 Y7.876
N10625 X-24.611 Y7.867
N10630 X-24.65 Y7.852
N10635 X-24.688 Y7.834
N10640 X-24.716 Y7.817
N10645 X-24.756 Y7.784
N10650 X-24.796 Y7.741
N10655 X-24.823 Y7.702
N10660 G3 X-24.912 Y7.198 I1.189 J-0.471
N10665 G1 X-24.913 Y1.866
N10670 X-24.904 Y1.828 Z-3.394 F#104
N10675 X-24.896 Y1.795 Z-3.376
N10680 X-24.89 Y1.768 Z-3.348
N10685 X-24.885 Y1.751 Z-3.314
N10690 X-24.884 Y1.745 Z-3.275
N10695 G0 Z5.
N10700 X-6.699 Y-5.934
N10705 Z-3.082
N10710 G1 Z-3.4 F#103
N10715 G3 X-6.578 Y-5.963 I0.132 J0.289
N10720 G1 X-4.721 F#100
N10725 G3 X-2.921 Y-5.261 I-0.213 J3.209
N10730 X-1.666 Y-4. I-2.685 J3.926
N10735 G1 X-1.609 Y-3.807
N10740 X-1.587 Y-3.609
N10745 Y-1.872
N10750 G3 X-1.616 Y-1.751 I-0.317 J-0.011 F#104
N10755 X-2.159 Y-1.693 I-0.289 J-0.132 F#105
N10760 G1 X-4.964 Y-5.455
N10765 G3 X-4.842 Y-5.934 I0.255 J-0.19
N10770 X-4.721 Y-5.963 I0.132 J0.289 F#103
N10775 G2 X-3.792 Y-6.005 I0.27 J-4.279 F#100
N10780 G3 X-3.004 Y-5.976 I0.35 J1.205
N10785 X-1.8 Y-5.313 I-0.746 J2.78
N10790 G1 X-1.686 Y-5.131
N10795 X-1.612 Y-4.929
N10800 X-1.587 Y-4.717
N10805 G3 X-1.616 Y-4.596 I-0.317 J-0.011 F#104
N10810 X-2.062 Y-4.452 I-0.289 J-0.132 F#105
N10815 G1 X-3.806 Y-5.442
N10820 G3 X-3.854 Y-5.961 I0.157 J-0.276
N10825 X-3.745 Y-6.021 I0.205 J0.243 F#103
N10830 G2 X-3.157 Y-6.285 I-0.47 J-1.835 F#100
N10835 G3 X-1.84 Y-6.054 I0.45 J1.306
N10840 G1 X-1.706 Y-5.858
N10845 X-1.618 Y-5.64
N10850 X-1.587 Y-5.406
N10855 G3 X-1.616 Y-5.286 I-0.317 J-0.011 F#104
N10860 X-2.032 Y-5.127 I-0.289 J-0.132 F#105
N10865 G1 X-3.238 Y-5.655
N10870 G3 X-3.374 Y-6.123 I0.127 J-0.291
N10875 X-3.287 Y-6.21 I0.264 J0.177 F#103
N10880 G2 X-2.84 Y-6.564 I-1.039 J-1.768 F#100
N10885 G1 X-2.712 Y-6.642
N10890 G3 X-1.588 Y-5.864 I0.293 J0.778
N10895 X-1.616 Y-5.744 I-0.317 J-0.011 F#104
N10900 X-2.037 Y-5.587 I-0.289 J-0.132 F#105
N10905 G1 X-2.848 Y-5.959
N10910 G3 X-3.014 Y-6.356 I0.133 J-0.288
N10915 X-2.95 Y-6.462 I0.299 J0.108 F#103
N10920 G1 X-2.836 Y-6.578 F#100
N10925 X-2.709 Y-6.75
N10930 X-2.621 Y-6.872
N10935 X-2.496 Y-6.954
N10940 G3 X-1.587 Y-6.322 I0.235 J0.631
N10945 X-1.608 Y-6.2 I-0.478 J-0.017 F#104
N10950 X-1.701 Y-6.03 I-0.458 J-0.139 F#105
N10955 X-2.761 Y-6.637 I-0.474 J-0.402
N10960 X-2.709 Y-6.75 I0.587 J0.205 F#103
N10965 G1 X-2.62 Y-6.888 F#100
N10970 X-2.554 Y-7.02
N10975 X-2.48 Y-7.15
N10980 X-2.359 Y-7.239
N10985 G3 X-1.587 Y-6.702 I0.199 J0.537
N10990 X-1.613 Y-6.58 I-0.364 J-0.013 F#104
N10995 X-1.652 Y-6.507 I-0.339 J-0.134 F#105
N11000 X-2.592 Y-6.901 I-0.428 J-0.296
N11005 X-2.554 Y-7.02 I0.511 J0.098 F#103
N11010 G1 X-2.542 Y-7.043 F#100
N11015 X-2.486 Y-7.198
N11020 X-2.47 Y-7.244
N11025 X-2.416 Y-7.384
N11030 X-2.305 Y-7.486
N11035 G3 X-1.587 Y-7.024 I0.211 J0.461
N11040 X-1.615 Y-6.913 I-0.277 J-0.01 F#104
N11045 G1 X-1.619 Y-6.905
N11050 G3 X-2.489 Y-7.121 I-0.409 J-0.21 F#105
N11055 X-2.47 Y-7.244 I0.46 J0.007 F#103
N11060 G1 X-2.434 Y-7.352 F#100
N11065 X-2.387 Y-7.507
N11070 X-2.334 Y-7.648
N11075 X-2.222 Y-7.747
N11080 X-2.06 Y-7.782
N11085 X-1.898 Y-7.756
N11090 X-1.755 Y-7.672
N11095 X-1.653 Y-7.543
N11100 X-1.604 Y-7.386
N11105 G3 X-1.621 Y-7.263 I-0.296 J0.023 F#104
N11110 G1 X-1.626 Y-7.25 F#105
N11115 G3 X-2.4 Y-7.384 I-0.372 J-0.153
N11120 X-2.387 Y-7.507 I0.402 J-0.019 F#103
N11125 G1 X-2.337 Y-7.662 F#100
N11130 X-2.322 Y-7.695
N11135 X-2.303 Y-7.729
N11140 X-2.278 Y-7.762
N11145 X-2.244 Y-7.795
N11150 X-2.219 Y-7.817
N11155 X-2.187 Y-7.84
N11160 X-2.154 Y-7.858
N11165 X-2.09 Y-7.882
N11170 X-2.051 Y-7.89
N11175 X-2.012 Y-7.894
N11180 X-1.974
N11185 X-1.935 Y-7.89
N11190 X-1.857 Y-7.869
N11195 X-1.819 Y-7.851
N11200 X-1.78 Y-7.827
N11205 X-1.766 Y-7.817
N11210 X-1.724 Y-7.778
N11215 X-1.691 Y-7.739
N11220 X-1.668 Y-7.701
N11225 G3 X-1.591 Y-7.198 I-1.197 J0.44
N11230 G1 X-1.587 Y-3.609
N11235 X-1.596 Y-3.572 Z-3.394 F#104
N11240 X-1.604 Y-3.538 Z-3.376
N11245 X-1.61 Y-3.512 Z-3.348
N11250 X-1.615 Y-3.494 Z-3.314
N11255 X-1.616 Y-3.489 Z-3.275
N11260 G0 Z5.
N11265 Y1.659
N11270 Z-3.082
N11275 G1 Z-3.4 F#103
N11280 G3 X-1.587 Y1.78 I-0.289 J0.132
N11285 G1 Y3.568 F#100
N11290 G3 X-2.253 Y5.301 I-3.063 J-0.182
N11295 G1 X-2.453 Y5.573
N11300 X-2.64 Y5.786
N11305 G3 X-3.625 Y6.044 I-0.689 J-0.621
N11310 X-3.73 Y5.978 I0.113 J-0.297 F#104
N11315 X-3.767 Y5.558 I0.218 J-0.231 F#105
N11320 G1 X-2.16 Y3.39
N11325 G3 X-1.616 Y3.447 I0.255 J0.189
N11330 X-1.587 Y3.568 I-0.289 J0.132 F#103
N11335 G1 Y4.876 F#100
N11340 G3 X-2.18 Y6.213 I-1.823 J-0.008
N11345 G1 X-2.418 Y6.323
N11350 X-2.673 Y6.371
N11355 X-2.932 Y6.347
N11360 X-3.173 Y6.253
N11365 G3 X-3.264 Y6.169 I0.165 J-0.271 F#104
N11370 X-3.231 Y5.757 I0.256 J-0.187 F#105
N11375 G1 X-2.129 Y4.662
N11380 G3 X-1.616 Y4.755 I0.224 J0.225
N11385 X-1.587 Y4.876 I-0.289 J0.132 F#103
N11390 G1 Y5.804 F#100
N11395 G3 X-2.032 Y6.58 I-0.79 J0.062
N11400 X-2.95 Y6.424 I-0.348 J-0.73
N11405 X-3.024 Y6.324 I0.213 J-0.235 F#104
N11410 X-2.867 Y5.899 I0.287 J-0.136 F#105
N11415 G1 X-2.035 Y5.526
N11420 G3 X-1.616 Y5.684 I0.13 J0.29
N11425 X-1.587 Y5.804 I-0.289 J0.132 F#103
N11430 G1 Y6.348 F#100
N11435 X-1.595 Y6.498
N11440 G3 X-2.709 Y6.688 I-0.61 J-0.213
N11445 X-2.772 Y6.581 I0.434 J-0.324 F#104
N11450 X-2.815 Y6.328 I0.497 J-0.216 F#105
N11455 X-1.604 Y6.225 I0.613 J0.041
N11460 X-1.587 Y6.348 I-0.597 J0.145 F#103
N11465 G1 X-1.588 Y6.702 F#100
N11470 X-1.596 Y6.852
N11475 X-1.654 Y6.99
N11480 G3 X-2.578 Y6.899 I-0.433 J-0.337
N11485 X-2.614 Y6.779 I0.403 J-0.184 F#104
N11490 X-2.618 Y6.696 I0.438 J-0.065 F#105
N11495 X-1.607 Y6.579 I0.515 J0.021
N11500 X-1.588 Y6.702 I-0.496 J0.139 F#103
N11505 G1 X-1.593 Y7.043 F#100
N11510 X-1.602 Y7.192
N11515 X-1.675 Y7.324
N11520 X-1.833 Y7.427
N11525 X-2.018 Y7.462
N11530 X-2.202 Y7.424
N11535 X-2.358 Y7.317
N11540 X-2.46 Y7.159
N11545 G3 X-2.48 Y7.037 I0.322 J-0.115 F#104
N11550 G1 X-2.479 Y7.017 F#105
N11555 G3 X-1.613 Y6.92 I0.443 J0.035
N11560 X-1.593 Y7.043 I-0.424 J0.132 F#103
N11565 X-1.652 Y7.596 I-1.359 J0.134 F#100
N11570 G1 X-1.671 Y7.604 F#104
N11575 X-1.69 Y7.6
N11580 X-1.704 Y7.587
N11585 X-1.708 Y7.57
N11590 X-1.711 Y7.513
N11595 X-1.72 Y7.358 F#105
N11600 G2 X-1.954 Y7.371 I-0.117 J0.006
N11605 X-1.727 Y7.407 I0.117 J-0.006
N11610 G3 X-1.692 Y7.37 I0.059 J0.023
N11615 X-1.605 Y7.43 I0.024 J0.059 F#103
N11620 G1 X-1.61 Y7.468 F#100
N11625 X-1.619 Y7.507
N11630 X-1.625 Y7.526
N11635 X-1.64 Y7.56
N11640 X-1.658 Y7.594
N11645 X-1.681 Y7.628
N11650 X-1.712 Y7.662
N11655 X-1.746 Y7.692
N11660 X-1.78 Y7.716
N11665 X-1.84 Y7.743
N11670 X-1.868 Y7.753
N11675 X-1.896 Y7.762
N11680 G3 X-1.963 Y7.262 I-0.033 J-0.25 F#104
N11685 X-1.679 Y7.544 I0.033 J0.25
N11690 X-1.78 Y7.716 I-0.251 J-0.032 F#100
N11695 G1 X-1.819 Y7.736
N11700 X-1.857 Y7.751
N11705 X-1.896 Y7.762
N11710 X-1.935 Y7.769
N11715 X-1.974 Y7.77
N11720 X-2.012 Y7.769
N11725 X-2.051 Y7.763
N11730 X-2.09 Y7.752
N11735 X-2.126 Y7.737
N11740 X-2.162 Y7.719
N11745 X-2.199 Y7.695
N11750 X-2.235 Y7.662
N11755 X-2.244 Y7.653
N11760 X-2.274 Y7.616
N11765 X-2.297 Y7.58
N11770 X-2.329 Y7.507
N11775 X-2.424 Y7.252
N11780 X-2.465 Y7.134 F#104
N11785 X-6.867 Y-5.541 F#105
N11790 G3 X-6.882 Y-5.691 I0.3 J-0.104
N11795 G1 X-6.861 Y-5.741 Z-3.395 F#104
N11800 X-6.841 Y-5.789 Z-3.381
N11805 X-6.822 Y-5.835 Z-3.358
N11810 X-6.784 Y-5.866 Z-3.322
N11815 X-6.751 Y-5.892 Z-3.278
N11820 X-6.726 Y-5.913 Z-3.227
N11825 X-6.709 Y-5.927 Z-3.171
N11830 X-6.7 Y-5.934 Z-3.111
N11835 X-6.699 Z-3.082
N11840 G0 Z10.
(2D ADAPTIVE1 9)
N11850 M8
N11855 G0 X-9.404 Y0.388
N11860 #100=600. (CUTTING)
N11865 #103=600. (ENTRY)
N11870 #104=600. (EXIT)
N11875 #105=6000. (DIRECT)
N11880 #107=500. (RAMPING)
N11885 Z10.
N11890 Z-0.533
N11895 G1 Z-0.85 F#103
N11900 G3 X-6.49 Y-0.388 Z-1.015 I1.457 J-0.388 F#107
N11905 X-9.404 Y0.388 Z-1.181 I-1.457 J0.388
N11910 X-6.49 Y-0.388 Z-1.346 I1.457 J-0.388
N11915 X-9.404 Y0.388 Z-1.512 I-1.457 J0.388
N11920 X-6.49 Y-0.388 Z-1.677 I1.457 J-0.388
N11925 X-9.404 Y0.388 Z-1.843 I-1.457 J0.388
N11930 X-6.49 Y-0.388 Z-2.008 I1.457 J-0.388
N11935 X-9.404 Y0.388 Z-2.174 I-1.457 J0.388
N11940 X-6.49 Y-0.388 Z-2.339 I1.457 J-0.388
N11945 X-9.404 Y0.388 Z-2.505 I-1.457 J0.388
N11950 X-6.49 Y-0.388 Z-2.67 I1.457 J-0.388
N11955 X-9.404 Y0.388 Z-2.835 I-1.457 J0.388
N11960 X-6.49 Y-0.388 Z-3.001 I1.457 J-0.388
N11965 X-9.404 Y0.388 Z-3.166 I-1.457 J0.388
N11970 X-6.49 Y-0.388 Z-3.332 I1.457 J-0.388
N11975 X-9.404 Y0.388 Z-3.497 I-1.457 J0.388
N11980 X-6.49 Y-0.388 Z-3.663 I1.457 J-0.388
N11985 X-9.404 Y0.388 Z-3.828 I-1.457 J0.388
N11990 X-6.49 Y-0.388 Z-3.994 I1.457 J-0.388
N11995 X-9.404 Y0.388 Z-4.159 I-1.457 J0.388
N12000 X-6.49 Y-0.388 Z-4.324 I1.457 J-0.388
N12005 X-9.404 Y0.388 Z-4.49 I-1.457 J0.388
N12010 X-6.49 Y-0.388 Z-4.655 I1.457 J-0.388
N12015 X-9.404 Y0.388 Z-4.821 I-1.457 J0.388
N12020 X-8.143 Y-1.495 Z-4.91 I1.457 J-0.388
N12025 X-6.439 Y0. Z-5. I0.196 J1.495
N12030 X-9.455 I-1.508 J0.
N12035 X-6.439 I1.508 J0.
N12040 G1 X-6.422 Y0.642 F#100
N12045 G3 X-6.795 Y1.651 I-1.036 J0.191
N12050 X-9.023 Y1.861 I-1.254 J-1.383
N12055 X-7.06 Y-1.977 I1.062 J-1.878
N12060 X-5.814 Y-0.492 I-0.891 J2.012
N12065 X-6.32 Y2.15 I-2.219 J0.945
N12070 X-10.088 Y1.934 I-1.777 J-1.961
N12075 X-7.167 Y-2.8 I2.125 J-1.957
N12080 X-5.297 Y-1.258 I-0.791 J2.864
N12085 X-6.011 Y2.887 I-2.784 J1.655
N12090 X-10.879 Y2.215 I-2.105 J-2.723
N12095 X-6.196 Y-3.258 I2.92 J-2.242
N12100 X-4.827 Y2.82 I-1.974 J3.638
N12105 X-5.884 Y3.771 I-3.141 J-2.431
N12110 G1 X-6.07 Y3.825
N12115 X-6.26 Y3.845
N12120 X-9.405
N12125 G3 X-11.256 Y2.948 I0.202 J-2.777
N12130 X-12.371 Y-0.934 I2.972 J-2.956
N12135 X-10.596 Y-3.681 I4.344 J0.861
N12140 G1 X-10.434 Y-3.771
N12145 X-10.258 Y-3.826
N12150 X-10.073 Y-3.845
N12155 X-6.489
N12160 G3 X-4.783 Y-3.136 I-0.115 J2.682
N12165 X-4.047 Y-2.312 I-1.777 J2.33
N12170 G1 X-3.987 Y-2.123
N12175 X-3.966 Y-1.926
N12180 G3 X-3.994 Y-1.806 I-0.317 J-0.011 F#104
N12185 X-4.469 Y-1.68 I-0.289 J-0.132 F#105
N12190 G1 X-6.664 Y-3.27
N12195 G3 X-6.609 Y-3.816 I0.186 J-0.257
N12200 X-6.489 Y-3.845 I0.132 J0.289 F#103
N12205 G1 X-5.322 F#100
N12210 G3 X-4.242 Y-3.475 I0.017 J1.715
N12215 G1 X-4.093 Y-3.28
N12220 X-3.998 Y-3.055
N12225 X-3.966 Y-2.813
N12230 G3 X-3.994 Y-2.692 I-0.317 J-0.011 F#104
N12235 X-4.462 Y-2.562 I-0.289 J-0.132 F#105
N12240 G1 X-5.49 Y-3.265
N12245 G3 X-5.443 Y-3.816 I0.179 J-0.262
N12250 X-5.322 Y-3.845 I0.132 J0.289 F#103
N12255 X-4.226 Y-3.838 I0.456 J14.624 F#100
N12260 X-4.117 Y-3.778 I-0.094 J0.304 F#104
N12265 X-4.332 Y-3.217 I-0.203 J0.244 F#100
N12270 X-4.316 Y-3.636 I0.008 J-0.21
N12275 X-4.251 Y-3.229 I-0.008 J0.21
N12280 X-4.472 Y-3.825 I-0.11 J-0.298
N12285 X-4.372 Y-3.845 I0.11 J0.298
N12290 G1 X-4.301
N12295 X-4.265 Y-3.843
N12300 X-4.229 Y-3.838
N12305 X-4.192 Y-3.828
N12310 X-4.156 Y-3.813
N12315 X-4.126 Y-3.797
N12320 X-4.097 Y-3.777
N12325 X-4.065 Y-3.748
N12330 X-4.039 Y-3.718
N12335 X-4.01 Y-3.677
N12340 X-3.996 Y-3.651
N12345 X-3.985 Y-3.625
N12350 X-3.971 Y-3.572
N12355 X-3.966 Y-3.536
N12360 Y-3.427
N12365 Y2.114
N12370 G3 X-4.588 Y3.62 I-2.392 J-0.107
N12375 G1 X-4.772 Y3.741
N12380 X-4.978 Y3.818
N12385 X-5.196 Y3.845
N12390 G3 X-5.316 Y3.816 I0.011 J-0.317 F#104
N12395 X-5.452 Y3.355 I0.132 J-0.289 F#105
N12400 G1 X-4.55 Y1.954
N12405 G3 X-3.994 Y1.994 I0.267 J0.172
N12410 X-3.966 Y2.114 I-0.289 J0.132 F#103
N12415 G1 Y3.215 F#100
N12420 G3 X-4.561 Y3.844 I-0.59 J0.037
N12425 G1 X-4.623 Y3.836 F#104
N12430 X-4.681 Y3.816
N12435 G3 X-4.787 Y3.316 I0.132 J-0.289 F#105
N12440 G1 X-4.52 Y3.016
N12445 G3 X-3.994 Y3.095 I0.237 J0.211
N12450 X-3.966 Y3.215 I-0.289 J0.132 F#103
N12455 X-3.983 Y3.625 I-1.205 J0.153 F#100
N12460 G1 X-3.996 Y3.651
N12465 X-4.01 Y3.677
N12470 X-4.039 Y3.718
N12475 X-4.065 Y3.748
N12480 X-4.097 Y3.777
N12485 X-4.126 Y3.797
N12490 X-4.156 Y3.813
N12495 X-4.192 Y3.828
N12500 X-4.229 Y3.838
N12505 X-4.265 Y3.843
N12510 X-4.301 Y3.845
N12515 X-6.26
N12520 G3 X-6.301 Y3.84 I0.011 J-0.317 F#104
N12525 G1 X-6.382 Y3.82
N12530 X-9.21 Y3.112 F#105
N12535 G2 X-9.387 Y3.721 I-0.077 J0.308
N12540 G3 X-9.35 Y3.755 I-0.02 J0.06
N12545 X-9.405 Y3.845 I-0.057 J0.027 F#103
N12550 G1 X-10.572 F#100
N12555 G3 X-12.057 Y3.116 I0.152 J-2.188
N12560 X-13.214 Y0.906 I2.862 J-2.907
N12565 X-11.9 Y-3.658 I5.056 J-1.016
N12570 G1 X-11.723 Y-3.758
N12575 X-11.532 Y-3.823
N12580 X-11.333 Y-3.845
N12585 X-10.073
N12590 G3 X-9.953 Y-3.816 I-0.011 J0.317 F#104
N12595 X-9.768 Y-3.505 I-0.132 J0.289 F#105
N12600 G1 X-10.266 Y3.55
N12605 G3 X-10.451 Y3.816 I-0.317 J-0.022
N12610 X-10.571 Y3.845 I-0.132 J-0.289 F#103
N12615 G1 X-11.527 F#100
N12620 G3 X-12.808 Y3.274 I0.079 J-1.901
N12625 X-14.014 Y1.155 I2.716 J-2.948
N12630 X-13.157 Y-3.482 I5.609 J-1.362
N12635 X-12.426 Y-3.844 I0.731 J0.554
N12640 G1 X-11.333 Y-3.845
N12645 G3 X-11.212 Y-3.816 I-0.011 J0.317 F#104
N12650 X-11.026 Y-3.518 I-0.132 J0.289 F#105
N12655 G1 X-11.22 Y3.536
N12660 G3 X-11.406 Y3.816 I-0.317 J-0.009
N12665 X-11.527 Y3.845 I-0.132 J-0.289 F#103
N12670 G1 X-12.467 F#100
N12675 G3 X-13.731 Y3.241 I0.106 J-1.847
N12680 X-14.825 Y1.347 I2.764 J-2.861
N12685 X-14.204 Y-3.457 I5.993 J-1.667
N12690 X-13.448 Y-3.845 I0.765 J0.559
N12695 G1 X-12.426
N12700 G3 X-12.305 Y-3.816 I-0.011 J0.317 F#104
N12705 X-12.119 Y-3.525 I-0.132 J0.289 F#105
N12710 G1 X-12.161 Y3.529
N12715 G3 X-12.346 Y3.816 I-0.317 J-0.002
N12720 X-12.467 Y3.845 I-0.132 J-0.289 F#103
N12725 G1 X-13.342 F#100
N12730 G3 X-14.602 Y3.242 I0.093 J-1.814
N12735 X-15.699 Y1.321 I2.833 J-2.891
N12740 X-15.265 Y-3.341 I6.343 J-1.76
N12745 G1 X-15.216 Y-3.406
N12750 G3 X-14.432 Y-3.845 I0.785 J0.482
N12755 G1 X-13.448
N12760 G3 X-13.327 Y-3.816 I-0.011 J0.317 F#104
N12765 X-13.141 Y-3.532 I-0.132 J0.289 F#105
N12770 G1 X-13.036 Y3.522
N12775 G3 X-13.221 Y3.816 I-0.317 J0.005
N12780 X-13.342 Y3.845 I-0.132 J-0.289 F#103
N12785 G1 X-14.217 F#100
N12790 G3 X-15.477 Y3.236 I0.096 J-1.807
N12795 X-16.584 Y1.265 I2.904 J-2.93
N12800 X-16.297 Y-3.208 I6.566 J-1.824
N12805 X-15.627 Y-3.819 I1.011 J0.436
N12810 G1 X-15.395 Y-3.845
N12815 X-14.432
N12820 G3 X-14.311 Y-3.816 I-0.011 J0.317 F#104
N12825 X-14.125 Y-3.537 I-0.132 J0.289 F#105
N12830 G1 X-13.911 Y3.518
N12835 G3 X-14.096 Y3.816 I-0.317 J0.01
N12840 X-14.217 Y3.845 I-0.132 J-0.289 F#103
N12845 G1 X-15.092 F#100
N12850 G3 X-16.351 Y3.228 I0.106 J-1.811
N12855 X-17.364 Y1.57 I2.795 J-2.845
N12860 X-17.318 Y-3.037 I6.586 J-2.237
N12865 X-16.98 Y-3.593 I1.664 J0.632
N12870 G1 X-16.791 Y-3.729
N12875 X-16.575 Y-3.815
N12880 X-16.345 Y-3.845
N12885 X-15.395
N12890 G3 X-15.274 Y-3.816 I-0.011 J0.317 F#104
N12895 X-15.089 Y-3.541 I-0.132 J0.289 F#105
N12900 G1 X-14.786 Y3.514
N12905 G3 X-14.971 Y3.816 I-0.317 J0.014
N12910 X-15.092 Y3.845 I-0.132 J-0.289 F#103
N12915 G1 X-15.967 F#100
N12920 G3 X-17.228 Y3.22 I0.116 J-1.821
N12925 X-18.262 Y1.513 I2.877 J-2.909
N12930 X-18.242 Y-3.076 I6.623 J-2.266
N12935 X-17.757 Y-3.718 I1.336 J0.506
N12940 G1 X-17.528 Y-3.811
N12945 X-17.283 Y-3.845
N12950 X-16.345
N12955 G3 X-16.224 Y-3.816 I-0.011 J0.317 F#104
N12960 X-16.039 Y-3.544 I-0.132 J0.289 F#105
N12965 G1 X-15.661 Y3.51
N12970 G3 X-15.846 Y3.816 I-0.317 J0.017
N12975 X-15.967 Y3.845 I-0.132 J-0.289 F#103
N12980 G1 X-16.841 F#100
N12985 G3 X-17.962 Y3.35 I0.09 J-1.72
N12990 X-19.162 Y1.46 I2.74 J-3.066
N12995 X-19.25 Y-2.859 I6.688 J-2.296
N13000 X-18.879 Y-3.563 I2.152 J0.683
N13005 G1 X-18.685 Y-3.715
N13010 X-18.458 Y-3.812
N13015 X-18.214 Y-3.845
N13020 X-17.283
N13025 G3 X-17.163 Y-3.816 I-0.011 J0.317 F#104
N13030 X-16.978 Y-3.547 I-0.132 J0.289 F#105
N13035 G1 X-16.536 Y3.507
N13040 G3 X-16.721 Y3.816 I-0.317 J0.02
N13045 X-16.841 Y3.845 I-0.132 J-0.289 F#103
N13050 G1 X-17.716 F#100
N13055 G3 X-18.843 Y3.346 I0.094 J-1.734
N13060 X-20.063 Y1.424 I2.79 J-3.12
N13065 X-20.171 Y-2.872 I6.669 J-2.317
N13070 X-19.806 Y-3.562 I2.141 J0.69
N13075 G1 X-19.611 Y-3.715
N13080 X-19.385 Y-3.811
N13085 X-19.14 Y-3.845
N13090 X-18.214
N13095 G3 X-18.093 Y-3.816 I-0.011 J0.317 F#104
N13100 X-17.908 Y-3.55 I-0.132 J0.289 F#105
N13105 G1 X-17.411 Y3.505
N13110 G3 X-17.596 Y3.816 I-0.317 J0.022
N13115 X-17.716 Y3.845 I-0.132 J-0.289 F#103
N13120 G1 X-18.591 F#100
N13125 G3 X-19.722 Y3.347 I0.094 J-1.747
N13130 X-20.962 Y1.406 I2.818 J-3.167
N13135 X-21.093 Y-2.871 I6.642 J-2.344
N13140 X-20.73 Y-3.561 I2.154 J0.694
N13145 G1 X-20.535 Y-3.714
N13150 X-20.308 Y-3.811
N13155 X-20.063 Y-3.845
N13160 X-19.14
N13165 G3 X-19.02 Y-3.816 I-0.011 J0.317 F#104
N13170 X-18.835 Y-3.552 I-0.132 J0.289 F#105
N13175 G1 X-18.286 Y3.503
N13180 G3 X-18.471 Y3.816 I-0.317 J0.025
N13185 X-18.591 Y3.845 I-0.132 J-0.289 F#103
N13190 G1 X-19.466 F#100
N13195 G3 X-20.746 Y3.219 I0.122 J-1.871
N13200 X-21.859 Y1.407 I3.041 J-3.118
N13205 X-22.016 Y-2.86 I6.643 J-2.38
N13210 X-21.652 Y-3.558 I2.199 J0.702
N13215 G1 X-21.457 Y-3.713
N13220 X-21.229 Y-3.811
N13225 X-20.982 Y-3.845
N13230 X-20.063
N13235 G3 X-19.942 Y-3.816 I-0.011 J0.317 F#104
N13240 X-19.757 Y-3.554 I-0.132 J0.289 F#105
N13245 G1 X-19.161 Y3.5
N13250 G3 X-19.346 Y3.816 I-0.316 J0.027
N13255 X-19.466 Y3.845 I-0.132 J-0.289 F#103
N13260 G1 X-20.341 F#100
N13265 G3 X-21.624 Y3.229 I0.11 J-1.876
N13270 X-22.53 Y1.894 I2.202 J-2.469
N13275 G1 X-22.535 Y1.733
N13280 G3 X-22.506 Y1.612 I0.317 J0.011 F#104
N13285 X-21.998 Y1.515 I0.289 J0.132 F#105
N13290 G1 X-20.133 Y3.298
N13295 G3 X-20.22 Y3.816 I-0.219 J0.229
N13300 X-20.341 Y3.845 I-0.132 J-0.289 F#103
N13305 G1 X-21.216 F#100
N13310 G3 X-22.431 Y3.223 I-0.008 J-1.482
N13315 G1 X-22.506 Y3.006
N13320 X-22.535 Y2.781
N13325 G3 X-22.506 Y2.66 I0.317 J0.011 F#104
N13330 X-22.028 Y2.537 I0.289 J0.132 F#105
N13335 G1 X-21.038 Y3.272
N13340 G3 X-21.095 Y3.816 I-0.189 J0.255
N13345 X-21.216 Y3.845 I-0.132 J-0.289 F#103
N13350 G1 X-22.091 F#100
N13355 X-22.135 Y3.844
N13360 X-22.29 Y3.804
N13365 X-22.419 Y3.71
N13370 X-22.505 Y3.575
N13375 X-22.535 Y3.418
N13380 G3 X-22.511 Y3.296 I0.394 J0.014 F#104
N13385 X-22.011 Y3.058 I0.371 J0.136 F#105
N13390 X-22.013 Y3.822 I-0.132 J0.382
N13395 X-22.135 Y3.844 I-0.131 J-0.382 F#103
N13400 G1 X-22.237 Y3.842 F#100
N13405 X-22.273 Y3.836
N13410 X-22.309 Y3.825
N13415 X-22.346 Y3.809
N13420 X-22.382 Y3.787
N13425 X-22.422 Y3.758
N13430 X-22.443 Y3.738
N13435 X-22.461 Y3.718
N13440 X-22.486 Y3.683
N13445 X-22.505 Y3.648
N13450 X-22.519 Y3.613
N13455 X-22.529 Y3.572
N13460 X-22.534 Y3.536
N13465 X-22.535 Y3.427
N13470 Y-2.843
N13475 G3 X-22.106 Y-3.699 I0.977 J-0.046
N13480 G1 X-21.866 Y-3.807
N13485 X-21.607 Y-3.845
N13490 G3 X-21.486 Y-3.816 I-0.011 J0.317 F#104
N13495 X-21.381 Y-3.316 I-0.132 J0.289 F#105
N13500 G1 X-21.98 Y-2.643
N13505 G3 X-22.506 Y-2.723 I-0.237 J-0.211
N13510 X-22.535 Y-2.843 I0.289 J-0.132 F#103
N13515 G1 Y-3.5 F#100
N13520 X-22.534 Y-3.536
N13525 X-22.523 Y-3.592
N13530 X-22.515 Y-3.621
N13535 X-22.505 Y-3.648
N13540 G3 X-22.265 Y-3.749 I0.187 J0.11 F#104
N13545 X-22.371 Y-3.33 I-0.053 J0.21 F#100
N13550 X-22.534 Y-3.536 I0.053 J-0.21
N13555 G1 X-22.528 Y-3.578
N13560 X-22.519 Y-3.613
N13565 X-22.505 Y-3.648
N13570 X-22.486 Y-3.683
N13575 X-22.461 Y-3.718
N13580 X-22.443 Y-3.738
N13585 X-22.422 Y-3.758
N13590 X-22.382 Y-3.787
N13595 X-22.346 Y-3.809
N13600 X-22.309 Y-3.825
N13605 X-22.273 Y-3.836
N13610 X-22.237 Y-3.842
N13615 X-22.091 Y-3.845
N13620 X-20.982
N13625 G3 X-20.862 Y-3.816 I-0.011 J0.317 F#104
N13630 G1 X-20.798 Y-3.787 Z-4.992
N13635 X-20.736 Y-3.759 Z-4.969
N13640 X-20.682 Y-3.734 Z-4.931
N13645 X-20.636 Y-3.713 Z-4.88
N13650 X-20.602 Y-3.697 Z-4.82
N13655 X-20.58 Y-3.688 Z-4.753
N13660 X-20.573 Y-3.684 Z-4.682
N13665 G0 Z10.
(2D ADAPTIVE1 10)
N13675 M8
N13680 G0 X14.502 Y1.127
N13685 #100=600. (CUTTING)
N13690 #103=600. (ENTRY)
N13695 #104=600. (EXIT)
N13700 #107=500. (RAMPING)
N13705 Z10.
N13710 Z0.567
N13715 G1 Z0.25 F#103
N13720 G3 X12.498 Y-1.127 Z0.085 I-1.002 J-1.127 F#107
N13725 X14.502 Y1.127 Z-0.081 I1.002 J1.127
N13730 X12.498 Y-1.127 Z-0.246 I-1.002 J-1.127
N13735 X14.502 Y1.127 Z-0.412 I1.002 J1.127
N13740 X12.498 Y-1.127 Z-0.577 I-1.002 J-1.127
N13745 X14.502 Y1.127 Z-0.743 I1.002 J1.127
N13750 X12.498 Y-1.127 Z-0.908 I-1.002 J-1.127
N13755 X14.502 Y1.127 Z-1.074 I1.002 J1.127
N13760 X12.498 Y-1.127 Z-1.239 I-1.002 J-1.127
N13765 X14.502 Y1.127 Z-1.405 I1.002 J1.127
N13770 X12.498 Y-1.127 Z-1.57 I-1.002 J-1.127
N13775 X14.502 Y1.127 Z-1.735 I1.002 J1.127
N13780 X12.498 Y-1.127 Z-1.901 I-1.002 J-1.127
N13785 X14.502 Y1.127 Z-2.066 I1.002 J1.127
N13790 X12.498 Y-1.127 Z-2.232 I-1.002 J-1.127
N13795 X14.502 Y1.127 Z-2.397 I1.002 J1.127
N13800 X12.498 Y-1.127 Z-2.563 I-1.002 J-1.127
N13805 X14.502 Y1.127 Z-2.728 I1.002 J1.127
N13810 X12.498 Y-1.127 Z-2.894 I-1.002 J-1.127
N13815 X14.502 Y1.127 Z-3.059 I1.002 J1.127
N13820 X12.498 Y-1.127 Z-3.224 I-1.002 J-1.127
N13825 X14.502 Y1.127 Z-3.39 I1.002 J1.127
N13830 X12.498 Y-1.127 Z-3.555 I-1.002 J-1.127
N13835 X14.502 Y1.127 Z-3.721 I1.002 J1.127
N13840 X12.498 Y-1.127 Z-3.886 I-1.002 J-1.127
N13845 X14.502 Y1.127 Z-4.052 I1.002 J1.127
N13850 X12.498 Y-1.127 Z-4.217 I-1.002 J-1.127
N13855 X14.502 Y1.127 Z-4.383 I1.002 J1.127
N13860 X12.498 Y-1.127 Z-4.548 I-1.002 J-1.127
N13865 X14.502 Y1.127 Z-4.714 I1.002 J1.127
N13870 X12.498 Y-1.127 Z-4.879 I-1.002 J-1.127
N13875 X15.008 Y0. Z-5. I1.002 J1.127
N13880 X11.992 I-1.508 J0.
N13885 X15.008 I1.508 J0.
N13890 G1 X15.026 Y0.682 F#100
N13895 G3 X14.496 Y1.776 I-1.12 J0.133
N13900 X12.253 Y1.755 I-1.107 J-1.545
N13905 X14.737 Y-1.786 I1.242 J-1.771
N13910 X15.396 Y-1.047 I-1.242 J1.771
N13915 X15.764 Y1.02 I-2.633 J1.535
N13920 X13.059 Y2.807 I-2.343 J-0.605
N13925 X10.705 Y-0.787 I0.345 J-2.793
N13930 X15.928 Y-1.609 I2.798 J0.774
N13935 X15.968 Y2.337 I-2.661 J2.
N13940 X11.179 Y2.833 I-2.638 J-2.1
N13945 X12.478 Y-3.554 I2.281 J-2.861
N13950 X16.522 Y-2.169 I1.037 J3.566
N13955 X15.095 Y4.043 I-3.159 J2.544
N13960 X9.155 Y1.226 I-1.761 J-3.956
N13965 X16.109 Y-3.709 I4.34 J-1.251
N13970 X15.929 Y4.556 I-2.773 J4.074
N13975 X8.666 Y2.34 I-2.615 J-4.439
N13980 X15.754 Y-4.904 I4.823 J-2.37
N13985 X12.101 Y6.016 I-2.403 J5.267
N13990 X7.5 Y-1.827 I1.267 J-6.014
N13995 X17.009 Y-5.222 I6.006 J1.808
N14000 X12.667 Y7.009 I-3.652 J5.589
N14005 X6.449 Y-1.319 I0.682 J-6.995
N14010 X16.805 Y-6.39 I7.053 J1.293
N14015 X12.923 Y7.944 I-3.445 J6.759
N14020 X5.41 Y-0.066 I0.406 J-7.909
N14025 X16.893 Y-7.37 I8.089 J0.039
N14030 X13.262 Y8.879 I-3.529 J7.741
N14035 X4.612 Y1.512 I0.05 J-8.819
N14040 X16.903 Y-8.377 I8.883 J-1.541
N14045 X22.046 Y4.07 I-3.515 J8.739
N14050 X10.519 Y9.405 I-8.728 J-3.737
N14055 X3.845 Y-2.461 I2.84 J-9.407
N14060 X18.074 Y-8.879 I9.663 J2.443
N14065 X21.279 Y-6.346 I-4.473 J8.954
N14070 G1 X21.99 Y-5.34
N14075 X22.057 Y-5.231
N14080 X22.267 Y-4.876
N14085 X22.352 Y-4.721
N14090 X22.929 Y-3.483
N14095 X22.958 Y-3.405
N14100 X23.394 Y-1.78
N14105 X23.414 Y-1.625
N14110 X23.549 Y-0.077
N14115 Y0.077
N14120 X23.414 Y1.625
N14125 X23.394 Y1.78
N14130 X22.958 Y3.405
N14135 X22.929 Y3.483
N14140 X22.352 Y4.721
N14145 X22.267 Y4.876
N14150 X22.057 Y5.231
N14155 X21.99 Y5.34
N14160 X21.283 Y6.349
N14165 G3 X19.736 Y7.863 I-10.726 J-9.41
N14170 G1 X19.426 Y8.08
N14175 X18.696 Y8.591
N14180 G3 X17.104 Y9.372 I-7.954 J-14.186
N14185 G1 X16.949 Y9.444
N14190 X16.794 Y9.488
N14195 X15.401 Y9.861
N14200 X15.246 Y9.901
N14205 G3 X13.389 Y10.043 I-2.714 J-23.355
N14210 G1 X13.234 Y10.032
N14215 X11.841 Y9.911
N14220 X11.764 Y9.903
N14225 X11.686 Y9.885
N14230 X10.138 Y9.47
N14235 X10.061 Y9.448
N14240 X9.984 Y9.413
N14245 X8.591 Y8.763
N14250 G3 X6.994 Y7.664 I10.861 J-17.491
N14255 G1 X5.912 Y6.578
N14260 X5.804 Y6.47
N14265 X5.769 Y6.424
N14270 X4.876 Y5.148
N14275 X4.811 Y5.031
N14280 X4.721 Y4.862
N14285 X4.648 Y4.721
N14290 X4.071 Y3.483
N14295 G3 X3.592 Y1.625 I17.56 J-5.524
N14300 G1 X3.573 Y1.47
N14305 X3.451 Y0.077
N14310 X3.446 Y0.
N14315 X3.451 Y-0.077
N14320 X3.573 Y-1.47
N14325 X3.591 Y-1.625
N14330 G3 X4.054 Y-3.444 I20.502 J4.249
N14335 G1 X4.071 Y-3.483
N14340 X4.648 Y-4.721
N14345 X4.728 Y-4.876
N14350 X4.811 Y-5.031
N14355 X4.876 Y-5.148
N14360 X5.769 Y-6.424
N14365 X5.804 Y-6.47
N14370 X5.959 Y-6.626
N14375 X6.995 Y-7.662
N14380 G3 X8.591 Y-8.763 I11.527 J14.995
N14385 G1 X9.984 Y-9.413
N14390 X10.061 Y-9.448
N14395 X10.138 Y-9.47
N14400 X11.686 Y-9.885
N14405 X11.764 Y-9.903
N14410 X11.841 Y-9.911
N14415 X13.234 Y-10.032
N14420 X13.389 Y-10.042
N14425 G3 X15.403 Y-9.87 I-0.42 J16.838
N14430 G1 X16.794 Y-9.488
N14435 X16.949 Y-9.444
N14440 G3 X18.697 Y-8.593 I-8.381 J19.435
N14445 G1 X19.58 Y-7.971
N14450 G3 X20.335 Y-7.331 I-2.948 J4.235
N14455 G1 X20.373 Y-7.282 F#104
N14460 X20.4 Y-7.226
N14465 X20.425 Y-7.16 Z-4.992
N14470 X20.449 Y-7.097 Z-4.969
N14475 X20.47 Y-7.041 Z-4.931
N14480 X20.487 Y-6.994 Z-4.88
N14485 X20.501 Y-6.958 Z-4.82
N14490 X20.509 Y-6.936 Z-4.753
N14495 X20.512 Y-6.929 Z-4.682
N14500 G0 Z10.
(2D CONTOUR1 2)
N14510 M8
N14515 G0 X22.81 Y-0.317
N14520 #102=512. (FINISH)
N14525 #103=600. (ENTRY)
N14530 #104=600. (EXIT)
N14535 #108=200. (PLUNGE)
N14540 Z10.
N14545 Z2.7
N14550 G1 Z-1.3 F#103
N14555 Z-6.683 F#108
N14560 G18 G2 X23.128 Z-7. I0.318 K0.
N14565 G1 X23.445 F#103
N14570 G17 G3 X23.763 Y0. I0. J0.317
N14575 X3.237 I-10.263 J0. F#102
N14580 X23.763 I10.263 J0.
N14585 X23.445 Y0.317 I-0.318 J0. F#104
N14590 G1 X23.128
N14595 G18 G3 X22.81 Z-6.683 I0. K0.318
N14600 G0 Z10.
N14605 G17
(2D CONTOUR2 2)
N14610 M8
N14615 G0 X0.058 Y-13.458
N14620 #102=512. (FINISH)
N14625 #103=600. (ENTRY)
N14630 #104=600. (EXIT)
N14635 #108=200. (PLUNGE)
N14640 Z10.
N14645 Z5.
N14650 G1 Z1. F#103
N14655 Z-0.983 F#108
N14660 G19 G2 Y-13.776 Z-1.3 J-0.318 K0.
N14665 G1 Y-14.093 F#103
N14670 G17 G3 X0.376 Y-14.41 I0.318 J0.
N14675 G1 X2.675 F#102
N14680 G2 X3.197 Y-14.499 I0. J-1.588
N14685 G3 X4.653 Y-14.418 I0.63 J1.806
N14690 G2 X5.338 Y-14.262 I0.685 J-1.432
N14695 G1 X21.913
N14700 G2 X22.512 Y-14.38 I0. J-1.588
N14705 G3 X24.937 Y-11.738 I0.722 J1.771
N14710 G2 X24.763 Y-11.015 I1.413 J0.723
N14715 G1 Y11.293
N14720 G2 X24.892 Y11.922 I1.587 J0.
N14725 G3 X22.327 Y14.412 I-1.756 J0.757
N14730 G2 X21.655 Y14.262 I-0.672 J1.438
N14735 G1 X5.144
N14740 G2 X4.524 Y14.389 I0. J1.588
N14745 G3 X1.918 Y12.177 I-0.747 J-1.761
N14750 G2 X0.376 Y10.215 I-1.543 J-0.375
N14755 G1 X-22.416
N14760 G2 X-23.465 Y10.611 I0. J1.587
N14765 G3 X-26.175 Y10.428 I-1.264 J-1.435
N14770 X-25.97 Y7.72 I1.445 J-1.252
N14775 G2 X-25.413 Y6.512 I-1.03 J-1.208
N14780 G1 Y-11.221
N14785 G2 X-25.846 Y-12.311 I-1.587 J0.
N14790 G3 X-25.761 Y-15.022 I1.39 J-1.313
N14795 X-23.05 Y-14.921 I1.305 J1.398
N14800 G2 X-21.883 Y-14.41 I1.167 J-1.077
N14805 G1 X0.376
N14810 G3 X0.693 Y-14.093 I0. J0.317 F#104
N14815 G1 Y-13.776
N14820 G19 G3 Y-13.458 Z-0.983 J0. K0.317
N14825 G0 Z10.
N14830 G17
(2D CONTOUR3 2)
N14835 M8
N14840 G0 X23.81 Y-3.318
N14845 #102=512. (FINISH)
N14850 #103=600. (ENTRY)
N14855 #104=600. (EXIT)
N14860 #108=200. (PLUNGE)
N14865 Z10.
N14870 Z3.7
N14875 G1 Z-0.3 F#103
N14880 Z-1.983 F#108
N14885 G18 G2 X24.128 Z-2.3 I0.318 K0.
N14890 G1 X24.445 F#103
N14895 G17 G3 X24.763 Y-3. I0. J0.318
N14900 G1 Y11.293 F#102
N14905 G2 X24.892 Y11.922 I1.587 J0.
N14910 G3 X22.327 Y14.412 I-1.756 J0.757
N14915 G2 X21.655 Y14.262 I-0.672 J1.438
N14920 G1 X5.144
N14925 G2 X4.524 Y14.389 I0. J1.588
N14930 G3 X2.068 Y11.769 I-0.747 J-1.761
N14935 G2 X2.237 Y11.055 I-1.418 J-0.713
N14940 G1 Y-11.224
N14945 G2 X2.091 Y-11.89 I-1.587 J0.
N14950 G3 X4.653 Y-14.418 I1.736 J-0.803
N14955 G2 X5.338 Y-14.262 I0.685 J-1.432
N14960 G1 X21.913
N14965 G2 X22.512 Y-14.38 I0. J-1.588
N14970 G3 X24.937 Y-11.738 I0.722 J1.771
N14975 G2 X24.763 Y-11.015 I1.413 J0.723
N14980 G1 Y-3.
N14985 G3 X24.445 Y-2.682 I-0.318 J0. F#104
N14990 G1 X24.128
N14995 G18 G3 X23.81 Z-1.983 I0. K0.317
N15000 G0 Z10.
N15005 G17
(2D POCKET4 2)
N15010 M8
N15015 G0 X-21.527 Y3.404
N15020 #100=600. (CUTTING)
N15025 #103=600. (ENTRY)
N15030 #104=600. (EXIT)
N15035 Z8.
N15040 Z-0.4
N15045 G1 Z-5.778 F#103
N15050 X-21.533 Y3.407 Z-5.835
N15055 X-21.553 Y3.418 Z-5.889
N15060 X-21.585 Y3.434 Z-5.935
N15065 X-21.626 Y3.454 Z-5.97
N15070 X-21.673 Y3.479 Z-5.992
N15075 X-21.725 Y3.505 Z-6.
N15080 G3 X-21.869 Y3.539 I-0.144 J-0.283
N15085 G1 X-21.914 F#100
N15090 G3 X-22.229 Y3.224 I0. J-0.315
N15095 G1 Y3.179
N15100 Y2.025 F#104
N15105 G19 G2 Y1.708 Z-5.682 J0. K0.318
N15110 G1 Z-2.4
N15115 X-21.229 Y3.517
N15120 Z-5.81 F#103
N15125 X-21.234 Y3.521 Z-5.859
N15130 X-21.249 Y3.532 Z-5.905
N15135 X-21.274 Y3.55 Z-5.944
N15140 X-21.306 Y3.573 Z-5.974
N15145 X-21.343 Y3.6 Z-5.994
N15150 X-21.383 Y3.629 Z-6.
N15155 G17 G3 X-21.57 Y3.69 I-0.187 J-0.257
N15160 G1 X-22.064 F#100
N15165 G3 X-22.379 Y3.374 I0. J-0.315
N15170 G1 Y2.88
N15175 G3 X-22.062 I0.159 J0.
N15180 X-22.073 Y2.938 I-0.159 J0.
N15185 G1 X-22.162 Y3.163
N15190 G2 X-22.063 Y3.373 I0.148 J0.058
N15195 G1 X-21.57 Y3.531
N15200 G2 X-21.517 Y3.538 I0.048 J-0.151
N15205 G1 X-21.122 Y3.527
N15210 G3 X-20.959 Y3.683 I0.005 J0.159
N15215 X-21.117 Y3.845 I-0.159 J0.002
N15220 G1 X-22.535
N15225 Y2.427
N15230 G3 X-22.531 Y2.378 I0.318 J0. F#104
N15235 G1 X-22.377 Y1.41
N15240 X-22.366 Y1.34 Z-5.992
N15245 X-22.356 Y1.274 Z-5.969
N15250 X-22.346 Y1.214 Z-5.931
N15255 X-22.338 Y1.165 Z-5.88
N15260 X-22.333 Y1.127 Z-5.82
N15265 X-22.329 Y1.104 Z-5.753
N15270 X-22.328 Y1.096 Z-5.682
N15275 G0 Z3.
N15280 X-22.094 Y-2.856
N15285 Z-0.4
N15290 G1 Z-5.778 F#103
N15295 X-22.097 Y-2.863 Z-5.835
N15300 X-22.108 Y-2.883 Z-5.889
N15305 X-22.124 Y-2.914 Z-5.935
N15310 X-22.144 Y-2.955 Z-5.97
N15315 X-22.169 Y-3.003 Z-5.992
N15320 X-22.195 Y-3.054 Z-6.
N15325 G3 X-22.229 Y-3.198 I0.283 J-0.144
N15330 G1 Y-3.22 F#100
N15335 G3 X-21.91 Y-3.539 I0.319 J0.
N15340 G1 X-21.888
N15345 X-20.71 F#104
N15350 G18 G2 X-20.393 Z-5.682 I0. K0.318
N15355 G1 Z-2.4
N15360 X-22.207 Y-2.539
N15365 Z-5.81 F#103
N15370 X-22.211 Y-2.544 Z-5.859
N15375 X-22.222 Y-2.559 Z-5.905
N15380 X-22.24 Y-2.584 Z-5.944
N15385 X-22.263 Y-2.616 Z-5.974
N15390 X-22.29 Y-2.653 Z-5.994
N15395 X-22.319 Y-2.693 Z-6.
N15400 G17 G3 X-22.379 Y-2.88 I0.257 J-0.187
N15405 G1 Y-3.37 F#100
N15410 G3 X-22.06 Y-3.69 I0.319 J0.
N15415 G1 X-21.57
N15420 G3 Y-3.372 I0. J0.159
N15425 X-21.627 Y-3.383 I0. J-0.159
N15430 G1 X-21.853 Y-3.471
N15435 G2 X-22.061 Y-3.371 I-0.057 J0.148
N15440 G1 X-22.221 Y-2.88
N15445 G2 X-22.228 Y-2.826 I0.151 J0.049
N15450 G1 X-22.217 Y-2.432
N15455 G3 X-22.373 Y-2.269 I-0.159 J0.005
N15460 X-22.535 Y-2.427 I-0.002 J-0.159
N15465 G1 Y-3.845
N15470 X-21.117
N15475 G3 X-21.068 Y-3.841 I0. J0.318 F#104
N15480 G1 X-20.1 Y-3.687
N15485 X-20.03 Y-3.676 Z-5.992
N15490 X-19.964 Y-3.666 Z-5.969
N15495 X-19.904 Y-3.656 Z-5.931
N15500 X-19.855 Y-3.648 Z-5.88
N15505 X-19.817 Y-3.643 Z-5.82
N15510 X-19.794 Y-3.639 Z-5.753
N15515 X-19.786 Y-3.638 Z-5.682
N15520 G0 Z3.
