%
(base plate)
(T3 D=2.5 CR=0 TAPER=118deg - ZMIN=-10 - drill)
N10 G90 G94
N15 G17
N20 G21
N25 G28 G91 Z0
N30 G90

(Drill2)
N35 M9
N40 T3 M6
N45 S4500 M3
N50 G54
N55 M8
N65 G0 X270 Y157
N70 G43 Z20 H3
N80 Z10
N85 G98 G83 X270 Y157 Z-10 R2 Q10 F100
N90 G80
N100 X320 Y175 Z10
N105 G83 X320 Y175 Z-10 R-6 Q2 F100
N110 G80
N120 X270 Y237 Z10
N125 G83 X270 Y237 Z-10 R2 Q10 F100
N130 Y317
N135 G80
N145 X320 Y325 Z10
N150 G83 X320 Y325 Z-10 R-6 Q2 F100
N155 G80
N165 X270 Y397 Z10
N170 G83 X270 Y397 Z-10 R2 Q10 F100
N175 G80
N185 X320 Y475 Z10
N190 G83 X320 Y475 Z-10 R-6 Q2 F100
N195 G80
N205 X270 Y477 Z10
N210 G83 X270 Y477 Z-10 R2 Q10 F100
N215 X190 Y467
N220 Y457
N225 Y447
N230 Y437
N235 Y427
N240 Y417
N245 Y407
N250 Y397
N255 X150
N260 Y407
N265 Y417
N270 Y427
N275 Y437
N280 Y447
N285 Y457
N290 Y467
N295 X70 Y477
N300 G80
N310 X20 Y475 Z10
N315 G83 X20 Y475 Z-10 R-6 Q2 F100
N320 G80
N330 X70 Y397 Z10
N335 G83 X70 Y397 Z-10 R2 Q10 F100
N340 G80
N350 X20 Y325 Z10
N355 G83 X20 Y325 Z-10 R-6 Q2 F100
N360 G80
N370 X70 Y317 Z10
N375 G83 X70 Y317 Z-10 R2 Q10 F100
N380 Y237
N385 G80
N395 X20 Y175 Z10
N400 G83 X20 Y175 Z-10 R-6 Q2 F100
N405 G80
N415 X70 Y157 Z10
N420 G83 X70 Y157 Z-10 R2 Q10 F100
N425 G80
N435 X20 Y25 Z10
N440 G83 X20 Y25 Z-10 R-6 Q2 F100
N445 G80
N455 X70 Y77 Z10
N460 G83 X70 Y77 Z-10 R2 Q10 F100
N465 X150 Y87
N470 Y77
N475 Y67
N480 Y57
N485 Y47
N490 Y37
N495 Y27
N500 Y17
N505 X190
N510 Y27
N515 Y37
N520 Y47
N525 Y57
N530 Y67
N535 Y77
N540 Y87
N545 X270 Y77
N550 G80
N560 X320 Y25 Z10
N565 G83 X320 Y25 Z-10 R-6 Q2 F100
N570 G80
N575 Z20
N585 M9
N590 G28 G91 Z0
N595 G28 X0 Y0
N600 M30
%
