%
(1)
(T3 D=2.5 CR=0 TAPER=118deg - ZMIN=-10 - drill)
N10 G90 G94
N15 G17
N20 G21
N25 G28 G91 Z0
N30 G90

(Drill3 6)
N35 M9
N40 T3 M6
N45 S15000 M3
N50 G54
N55 M8
N65 G0 X342.5 Y-111
N70 G43 Z6 H3
N80 Z3
N85 Z2
N90 G1 Z-1 F200.3
N95 G0 Z4
N100 G1 Z-1.9 F200.3
N105 G0 Z3.1
N110 G1 Z-2.7 F200.3
N115 G0 Z2.3
N120 G1 Z-3.4 F200.3
N125 G0 Z1.6
N130 G1 Z-4 F200.3
N135 G0 Z1
N140 G1 Z-4.5 F200.3
N145 G0 Z0.5
N150 G1 Z-5 F200.3
N155 G0 Z0
N160 G1 Z-5.5 F200.3
N165 G0 Z-0.5
N170 G1 Z-6 F200.3
N175 G0 Z-1
N180 G1 Z-6.5 F200.3
N185 G0 Z-1.5
N190 G1 Z-7 F200.3
N195 G0 Z3
N200 Z-5
N205 G1 Z-7.5 F200.3
N210 G0 Z-2.5
N215 G1 Z-8 F200.3
N220 G0 Z-3
N225 G1 Z-8.5 F200.3
N230 G0 Z-3.5
N235 G1 Z-9 F200.3
N240 G0 Z-4
N245 G1 Z-9.5 F200.3
N250 G0 Z-4.5
N255 G1 Z-10 F200.3
N260 G0 Z-5
N265 G1 Z-10 F200.3
N270 G0 Z3
N275 X267.5
N280 Z2
N285 G1 Z-1 F200.3
N290 G0 Z4
N295 G1 Z-1.9 F200.3
N300 G0 Z3.1
N305 G1 Z-2.7 F200.3
N310 G0 Z2.3
N315 G1 Z-3.4 F200.3
N320 G0 Z1.6
N325 G1 Z-4 F200.3
N330 G0 Z1
N335 G1 Z-4.5 F200.3
N340 G0 Z0.5
N345 G1 Z-5 F200.3
N350 G0 Z0
N355 G1 Z-5.5 F200.3
N360 G0 Z-0.5
N365 G1 Z-6 F200.3
N370 G0 Z-1
N375 G1 Z-6.5 F200.3
N380 G0 Z-1.5
N385 G1 Z-7 F200.3
N390 G0 Z3
N395 Z-5
N400 G1 Z-7.5 F200.3
N405 G0 Z-2.5
N410 G1 Z-8 F200.3
N415 G0 Z-3
N420 G1 Z-8.5 F200.3
N425 G0 Z-3.5
N430 G1 Z-9 F200.3
N435 G0 Z-4
N440 G1 Z-9.5 F200.3
N445 G0 Z-4.5
N450 G1 Z-10 F200.3
N455 G0 Z-5
N460 G1 Z-10 F200.3
N465 G0 Z3
N470 X192.5
N475 Z2
N480 G1 Z-1 F200.3
N485 G0 Z4
N490 G1 Z-1.9 F200.3
N495 G0 Z3.1
N500 G1 Z-2.7 F200.3
N505 G0 Z2.3
N510 G1 Z-3.4 F200.3
N515 G0 Z1.6
N520 G1 Z-4 F200.3
N525 G0 Z1
N530 G1 Z-4.5 F200.3
N535 G0 Z0.5
N540 G1 Z-5 F200.3
N545 G0 Z0
N550 G1 Z-5.5 F200.3
N555 G0 Z-0.5
N560 G1 Z-6 F200.3
N565 G0 Z-1
N570 G1 Z-6.5 F200.3
N575 G0 Z-1.5
N580 G1 Z-7 F200.3
N585 G0 Z3
N590 Z-5
N595 G1 Z-7.5 F200.3
N600 G0 Z-2.5
N605 G1 Z-8 F200.3
N610 G0 Z-3
N615 G1 Z-8.5 F200.3
N620 G0 Z-3.5
N625 G1 Z-9 F200.3
N630 G0 Z-4
N635 G1 Z-9.5 F200.3
N640 G0 Z-4.5
N645 G1 Z-10 F200.3
N650 G0 Z-5
N655 G1 Z-10 F200.3
N660 G0 Z3
N665 X117.5
N670 Z2
N675 G1 Z-1 F200.3
N680 G0 Z4
N685 G1 Z-1.9 F200.3
N690 G0 Z3.1
N695 G1 Z-2.7 F200.3
N700 G0 Z2.3
N705 G1 Z-3.4 F200.3
N710 G0 Z1.6
N715 G1 Z-4 F200.3
N720 G0 Z1
N725 G1 Z-4.5 F200.3
N730 G0 Z0.5
N735 G1 Z-5 F200.3
N740 G0 Z0
N745 G1 Z-5.5 F200.3
N750 G0 Z-0.5
N755 G1 Z-6 F200.3
N760 G0 Z-1
N765 G1 Z-6.5 F200.3
N770 G0 Z-1.5
N775 G1 Z-7 F200.3
N780 G0 Z3
N785 Z-5
N790 G1 Z-7.5 F200.3
N795 G0 Z-2.5
N800 G1 Z-8 F200.3
N805 G0 Z-3
N810 G1 Z-8.5 F200.3
N815 G0 Z-3.5
N820 G1 Z-9 F200.3
N825 G0 Z-4
N830 G1 Z-9.5 F200.3
N835 G0 Z-4.5
N840 G1 Z-10 F200.3
N845 G0 Z-5
N850 G1 Z-10 F200.3
N855 G0 Z3
N860 X125 Y-93.605
N865 Z2
N870 G1 Z-1 F200.3
N875 G0 Z4
N880 G1 Z-1.9 F200.3
N885 G0 Z3.1
N890 G1 Z-2.7 F200.3
N895 G0 Z2.3
N900 G1 Z-3.4 F200.3
N905 G0 Z1.6
N910 G1 Z-4 F200.3
N915 G0 Z1
N920 G1 Z-4.5 F200.3
N925 G0 Z0.5
N930 G1 Z-5 F200.3
N935 G0 Z0
N940 G1 Z-5.5 F200.3
N945 G0 Z-0.5
N950 G1 Z-6 F200.3
N955 G0 Z-1
N960 G1 Z-6.5 F200.3
N965 G0 Z-1.5
N970 G1 Z-7 F200.3
N975 G0 Z3
N980 Z-5
N985 G1 Z-7.5 F200.3
N990 G0 Z-2.5
N995 G1 Z-8 F200.3
N1000 G0 Z-3
N1005 G1 Z-8.5 F200.3
N1010 G0 Z-3.5
N1015 G1 Z-9 F200.3
N1020 G0 Z-4
N1025 G1 Z-9.5 F200.3
N1030 G0 Z-4.5
N1035 G1 Z-10 F200.3
N1040 G0 Z-5
N1045 G1 Z-10 F200.3
N1050 G0 Z3
N1055 X140
N1060 Z2
N1065 G1 Z-1 F200.3
N1070 G0 Z4
N1075 G1 Z-1.9 F200.3
N1080 G0 Z3.1
N1085 G1 Z-2.7 F200.3
N1090 G0 Z2.3
N1095 G1 Z-3.4 F200.3
N1100 G0 Z1.6
N1105 G1 Z-4 F200.3
N1110 G0 Z1
N1115 G1 Z-4.5 F200.3
N1120 G0 Z0.5
N1125 G1 Z-5 F200.3
N1130 G0 Z0
N1135 G1 Z-5.5 F200.3
N1140 G0 Z-0.5
N1145 G1 Z-6 F200.3
N1150 G0 Z-1
N1155 G1 Z-6.5 F200.3
N1160 G0 Z-1.5
N1165 G1 Z-7 F200.3
N1170 G0 Z3
N1175 Z-5
N1180 G1 Z-7.5 F200.3
N1185 G0 Z-2.5
N1190 G1 Z-8 F200.3
N1195 G0 Z-3
N1200 G1 Z-8.5 F200.3
N1205 G0 Z-3.5
N1210 G1 Z-9 F200.3
N1215 G0 Z-4
N1220 G1 Z-9.5 F200.3
N1225 G0 Z-4.5
N1230 G1 Z-10 F200.3
N1235 G0 Z-5
N1240 G1 Z-10 F200.3
N1245 G0 Z3
N1250 Y-55.605
N1255 Z2
N1260 G1 Z-1 F200.3
N1265 G0 Z4
N1270 G1 Z-1.9 F200.3
N1275 G0 Z3.1
N1280 G1 Z-2.7 F200.3
N1285 G0 Z2.3
N1290 G1 Z-3.4 F200.3
N1295 G0 Z1.6
N1300 G1 Z-4 F200.3
N1305 G0 Z1
N1310 G1 Z-4.5 F200.3
N1315 G0 Z0.5
N1320 G1 Z-5 F200.3
N1325 G0 Z0
N1330 G1 Z-5.5 F200.3
N1335 G0 Z-0.5
N1340 G1 Z-6 F200.3
N1345 G0 Z-1
N1350 G1 Z-6.5 F200.3
N1355 G0 Z-1.5
N1360 G1 Z-7 F200.3
N1365 G0 Z3
N1370 Z-5
N1375 G1 Z-7.5 F200.3
N1380 G0 Z-2.5
N1385 G1 Z-8 F200.3
N1390 G0 Z-3
N1395 G1 Z-8.5 F200.3
N1400 G0 Z-3.5
N1405 G1 Z-9 F200.3
N1410 G0 Z-4
N1415 G1 Z-9.5 F200.3
N1420 G0 Z-4.5
N1425 G1 Z-10 F200.3
N1430 G0 Z-5
N1435 G1 Z-10 F200.3
N1440 G0 Z3
N1445 X125
N1450 Z2
N1455 G1 Z-1 F200.3
N1460 G0 Z4
N1465 G1 Z-1.9 F200.3
N1470 G0 Z3.1
N1475 G1 Z-2.7 F200.3
N1480 G0 Z2.3
N1485 G1 Z-3.4 F200.3
N1490 G0 Z1.6
N1495 G1 Z-4 F200.3
N1500 G0 Z1
N1505 G1 Z-4.5 F200.3
N1510 G0 Z0.5
N1515 G1 Z-5 F200.3
N1520 G0 Z0
N1525 G1 Z-5.5 F200.3
N1530 G0 Z-0.5
N1535 G1 Z-6 F200.3
N1540 G0 Z-1
N1545 G1 Z-6.5 F200.3
N1550 G0 Z-1.5
N1555 G1 Z-7 F200.3
N1560 G0 Z3
N1565 Z-5
N1570 G1 Z-7.5 F200.3
N1575 G0 Z-2.5
N1580 G1 Z-8 F200.3
N1585 G0 Z-3
N1590 G1 Z-8.5 F200.3
N1595 G0 Z-3.5
N1600 G1 Z-9 F200.3
N1605 G0 Z-4
N1610 G1 Z-9.5 F200.3
N1615 G0 Z-4.5
N1620 G1 Z-10 F200.3
N1625 G0 Z-5
N1630 G1 Z-10 F200.3
N1635 G0 Z3
N1640 X117.5 Y-39
N1645 Z2
N1650 G1 Z-1 F200.3
N1655 G0 Z4
N1660 G1 Z-1.9 F200.3
N1665 G0 Z3.1
N1670 G1 Z-2.7 F200.3
N1675 G0 Z2.3
N1680 G1 Z-3.4 F200.3
N1685 G0 Z1.6
N1690 G1 Z-4 F200.3
N1695 G0 Z1
N1700 G1 Z-4.5 F200.3
N1705 G0 Z0.5
N1710 G1 Z-5 F200.3
N1715 G0 Z0
N1720 G1 Z-5.5 F200.3
N1725 G0 Z-0.5
N1730 G1 Z-6 F200.3
N1735 G0 Z-1
N1740 G1 Z-6.5 F200.3
N1745 G0 Z-1.5
N1750 G1 Z-7 F200.3
N1755 G0 Z3
N1760 Z-5
N1765 G1 Z-7.5 F200.3
N1770 G0 Z-2.5
N1775 G1 Z-8 F200.3
N1780 G0 Z-3
N1785 G1 Z-8.5 F200.3
N1790 G0 Z-3.5
N1795 G1 Z-9 F200.3
N1800 G0 Z-4
N1805 G1 Z-9.5 F200.3
N1810 G0 Z-4.5
N1815 G1 Z-10 F200.3
N1820 G0 Z-5
N1825 G1 Z-10 F200.3
N1830 G0 Z3
N1835 X192.5
N1840 Z2
N1845 G1 Z-1 F200.3
N1850 G0 Z4
N1855 G1 Z-1.9 F200.3
N1860 G0 Z3.1
N1865 G1 Z-2.7 F200.3
N1870 G0 Z2.3
N1875 G1 Z-3.4 F200.3
N1880 G0 Z1.6
N1885 G1 Z-4 F200.3
N1890 G0 Z1
N1895 G1 Z-4.5 F200.3
N1900 G0 Z0.5
N1905 G1 Z-5 F200.3
N1910 G0 Z0
N1915 G1 Z-5.5 F200.3
N1920 G0 Z-0.5
N1925 G1 Z-6 F200.3
N1930 G0 Z-1
N1935 G1 Z-6.5 F200.3
N1940 G0 Z-1.5
N1945 G1 Z-7 F200.3
N1950 G0 Z3
N1955 Z-5
N1960 G1 Z-7.5 F200.3
N1965 G0 Z-2.5
N1970 G1 Z-8 F200.3
N1975 G0 Z-3
N1980 G1 Z-8.5 F200.3
N1985 G0 Z-3.5
N1990 G1 Z-9 F200.3
N1995 G0 Z-4
N2000 G1 Z-9.5 F200.3
N2005 G0 Z-4.5
N2010 G1 Z-10 F200.3
N2015 G0 Z-5
N2020 G1 Z-10 F200.3
N2025 G0 Z3
N2030 X267.5
N2035 Z2
N2040 G1 Z-1 F200.3
N2045 G0 Z4
N2050 G1 Z-1.9 F200.3
N2055 G0 Z3.1
N2060 G1 Z-2.7 F200.3
N2065 G0 Z2.3
N2070 G1 Z-3.4 F200.3
N2075 G0 Z1.6
N2080 G1 Z-4 F200.3
N2085 G0 Z1
N2090 G1 Z-4.5 F200.3
N2095 G0 Z0.5
N2100 G1 Z-5 F200.3
N2105 G0 Z0
N2110 G1 Z-5.5 F200.3
N2115 G0 Z-0.5
N2120 G1 Z-6 F200.3
N2125 G0 Z-1
N2130 G1 Z-6.5 F200.3
N2135 G0 Z-1.5
N2140 G1 Z-7 F200.3
N2145 G0 Z3
N2150 Z-5
N2155 G1 Z-7.5 F200.3
N2160 G0 Z-2.5
N2165 G1 Z-8 F200.3
N2170 G0 Z-3
N2175 G1 Z-8.5 F200.3
N2180 G0 Z-3.5
N2185 G1 Z-9 F200.3
N2190 G0 Z-4
N2195 G1 Z-9.5 F200.3
N2200 G0 Z-4.5
N2205 G1 Z-10 F200.3
N2210 G0 Z-5
N2215 G1 Z-10 F200.3
N2220 G0 Z3
N2225 X342.5
N2230 Z2
N2235 G1 Z-1 F200.3
N2240 G0 Z4
N2245 G1 Z-1.9 F200.3
N2250 G0 Z3.1
N2255 G1 Z-2.7 F200.3
N2260 G0 Z2.3
N2265 G1 Z-3.4 F200.3
N2270 G0 Z1.6
N2275 G1 Z-4 F200.3
N2280 G0 Z1
N2285 G1 Z-4.5 F200.3
N2290 G0 Z0.5
N2295 G1 Z-5 F200.3
N2300 G0 Z0
N2305 G1 Z-5.5 F200.3
N2310 G0 Z-0.5
N2315 G1 Z-6 F200.3
N2320 G0 Z-1
N2325 G1 Z-6.5 F200.3
N2330 G0 Z-1.5
N2335 G1 Z-7 F200.3
N2340 G0 Z3
N2345 Z-5
N2350 G1 Z-7.5 F200.3
N2355 G0 Z-2.5
N2360 G1 Z-8 F200.3
N2365 G0 Z-3
N2370 G1 Z-8.5 F200.3
N2375 G0 Z-3.5
N2380 G1 Z-9 F200.3
N2385 G0 Z-4
N2390 G1 Z-9.5 F200.3
N2395 G0 Z-4.5
N2400 G1 Z-10 F200.3
N2405 G0 Z-5
N2410 G1 Z-10 F200.3
N2415 G0 Z3
N2420 X417.5
N2425 Z2
N2430 G1 Z-1 F200.3
N2435 G0 Z4
N2440 G1 Z-1.9 F200.3
N2445 G0 Z3.1
N2450 G1 Z-2.7 F200.3
N2455 G0 Z2.3
N2460 G1 Z-3.4 F200.3
N2465 G0 Z1.6
N2470 G1 Z-4 F200.3
N2475 G0 Z1
N2480 G1 Z-4.5 F200.3
N2485 G0 Z0.5
N2490 G1 Z-5 F200.3
N2495 G0 Z0
N2500 G1 Z-5.5 F200.3
N2505 G0 Z-0.5
N2510 G1 Z-6 F200.3
N2515 G0 Z-1
N2520 G1 Z-6.5 F200.3
N2525 G0 Z-1.5
N2530 G1 Z-7 F200.3
N2535 G0 Z3
N2540 Z-5
N2545 G1 Z-7.5 F200.3
N2550 G0 Z-2.5
N2555 G1 Z-8 F200.3
N2560 G0 Z-3
N2565 G1 Z-8.5 F200.3
N2570 G0 Z-3.5
N2575 G1 Z-9 F200.3
N2580 G0 Z-4
N2585 G1 Z-9.5 F200.3
N2590 G0 Z-4.5
N2595 G1 Z-10 F200.3
N2600 G0 Z-5
N2605 G1 Z-10 F200.3
N2610 G0 Z3
N2615 X492.5
N2620 Z2
N2625 G1 Z-1 F200.3
N2630 G0 Z4
N2635 G1 Z-1.9 F200.3
N2640 G0 Z3.1
N2645 G1 Z-2.7 F200.3
N2650 G0 Z2.3
N2655 G1 Z-3.4 F200.3
N2660 G0 Z1.6
N2665 G1 Z-4 F200.3
N2670 G0 Z1
N2675 G1 Z-4.5 F200.3
N2680 G0 Z0.5
N2685 G1 Z-5 F200.3
N2690 G0 Z0
N2695 G1 Z-5.5 F200.3
N2700 G0 Z-0.5
N2705 G1 Z-6 F200.3
N2710 G0 Z-1
N2715 G1 Z-6.5 F200.3
N2720 G0 Z-1.5
N2725 G1 Z-7 F200.3
N2730 G0 Z3
N2735 Z-5
N2740 G1 Z-7.5 F200.3
N2745 G0 Z-2.5
N2750 G1 Z-8 F200.3
N2755 G0 Z-3
N2760 G1 Z-8.5 F200.3
N2765 G0 Z-3.5
N2770 G1 Z-9 F200.3
N2775 G0 Z-4
N2780 G1 Z-9.5 F200.3
N2785 G0 Z-4.5
N2790 G1 Z-10 F200.3
N2795 G0 Z-5
N2800 G1 Z-10 F200.3
N2805 G0 Z3
N2810 X567.5
N2815 Z2
N2820 G1 Z-1 F200.3
N2825 G0 Z4
N2830 G1 Z-1.9 F200.3
N2835 G0 Z3.1
N2840 G1 Z-2.7 F200.3
N2845 G0 Z2.3
N2850 G1 Z-3.4 F200.3
N2855 G0 Z1.6
N2860 G1 Z-4 F200.3
N2865 G0 Z1
N2870 G1 Z-4.5 F200.3
N2875 G0 Z0.5
N2880 G1 Z-5 F200.3
N2885 G0 Z0
N2890 G1 Z-5.5 F200.3
N2895 G0 Z-0.5
N2900 G1 Z-6 F200.3
N2905 G0 Z-1
N2910 G1 Z-6.5 F200.3
N2915 G0 Z-1.5
N2920 G1 Z-7 F200.3
N2925 G0 Z3
N2930 Z-5
N2935 G1 Z-7.5 F200.3
N2940 G0 Z-2.5
N2945 G1 Z-8 F200.3
N2950 G0 Z-3
N2955 G1 Z-8.5 F200.3
N2960 G0 Z-3.5
N2965 G1 Z-9 F200.3
N2970 G0 Z-4
N2975 G1 Z-9.5 F200.3
N2980 G0 Z-4.5
N2985 G1 Z-10 F200.3
N2990 G0 Z-5
N2995 G1 Z-10 F200.3
N3000 G0 Z3
N3005 X642.5
N3010 Z2
N3015 G1 Z-1 F200.3
N3020 G0 Z4
N3025 G1 Z-1.9 F200.3
N3030 G0 Z3.1
N3035 G1 Z-2.7 F200.3
N3040 G0 Z2.3
N3045 G1 Z-3.4 F200.3
N3050 G0 Z1.6
N3055 G1 Z-4 F200.3
N3060 G0 Z1
N3065 G1 Z-4.5 F200.3
N3070 G0 Z0.5
N3075 G1 Z-5 F200.3
N3080 G0 Z0
N3085 G1 Z-5.5 F200.3
N3090 G0 Z-0.5
N3095 G1 Z-6 F200.3
N3100 G0 Z-1
N3105 G1 Z-6.5 F200.3
N3110 G0 Z-1.5
N3115 G1 Z-7 F200.3
N3120 G0 Z3
N3125 Z-5
N3130 G1 Z-7.5 F200.3
N3135 G0 Z-2.5
N3140 G1 Z-8 F200.3
N3145 G0 Z-3
N3150 G1 Z-8.5 F200.3
N3155 G0 Z-3.5
N3160 G1 Z-9 F200.3
N3165 G0 Z-4
N3170 G1 Z-9.5 F200.3
N3175 G0 Z-4.5
N3180 G1 Z-10 F200.3
N3185 G0 Z-5
N3190 G1 Z-10 F200.3
N3195 G0 Z3
N3200 X717.5
N3205 Z2
N3210 G1 Z-1 F200.3
N3215 G0 Z4
N3220 G1 Z-1.9 F200.3
N3225 G0 Z3.1
N3230 G1 Z-2.7 F200.3
N3235 G0 Z2.3
N3240 G1 Z-3.4 F200.3
N3245 G0 Z1.6
N3250 G1 Z-4 F200.3
N3255 G0 Z1
N3260 G1 Z-4.5 F200.3
N3265 G0 Z0.5
N3270 G1 Z-5 F200.3
N3275 G0 Z0
N3280 G1 Z-5.5 F200.3
N3285 G0 Z-0.5
N3290 G1 Z-6 F200.3
N3295 G0 Z-1
N3300 G1 Z-6.5 F200.3
N3305 G0 Z-1.5
N3310 G1 Z-7 F200.3
N3315 G0 Z3
N3320 Z-5
N3325 G1 Z-7.5 F200.3
N3330 G0 Z-2.5
N3335 G1 Z-8 F200.3
N3340 G0 Z-3
N3345 G1 Z-8.5 F200.3
N3350 G0 Z-3.5
N3355 G1 Z-9 F200.3
N3360 G0 Z-4
N3365 G1 Z-9.5 F200.3
N3370 G0 Z-4.5
N3375 G1 Z-10 F200.3
N3380 G0 Z-5
N3385 G1 Z-10 F200.3
N3390 G0 Z3
N3395 X792.5
N3400 Z2
N3405 G1 Z-1 F200.3
N3410 G0 Z4
N3415 G1 Z-1.9 F200.3
N3420 G0 Z3.1
N3425 G1 Z-2.7 F200.3
N3430 G0 Z2.3
N3435 G1 Z-3.4 F200.3
N3440 G0 Z1.6
N3445 G1 Z-4 F200.3
N3450 G0 Z1
N3455 G1 Z-4.5 F200.3
N3460 G0 Z0.5
N3465 G1 Z-5 F200.3
N3470 G0 Z0
N3475 G1 Z-5.5 F200.3
N3480 G0 Z-0.5
N3485 G1 Z-6 F200.3
N3490 G0 Z-1
N3495 G1 Z-6.5 F200.3
N3500 G0 Z-1.5
N3505 G1 Z-7 F200.3
N3510 G0 Z3
N3515 Z-5
N3520 G1 Z-7.5 F200.3
N3525 G0 Z-2.5
N3530 G1 Z-8 F200.3
N3535 G0 Z-3
N3540 G1 Z-8.5 F200.3
N3545 G0 Z-3.5
N3550 G1 Z-9 F200.3
N3555 G0 Z-4
N3560 G1 Z-9.5 F200.3
N3565 G0 Z-4.5
N3570 G1 Z-10 F200.3
N3575 G0 Z-5
N3580 G1 Z-10 F200.3
N3585 G0 Z3
N3590 X817.5 Y-6
N3595 Z2
N3600 G1 Z-1 F200.3
N3605 G0 Z4
N3610 G1 Z-1.9 F200.3
N3615 G0 Z3.1
N3620 G1 Z-2.7 F200.3
N3625 G0 Z2.3
N3630 G1 Z-3.4 F200.3
N3635 G0 Z1.6
N3640 G1 Z-4 F200.3
N3645 G0 Z1
N3650 G1 Z-4.5 F200.3
N3655 G0 Z0.5
N3660 G1 Z-5 F200.3
N3665 G0 Z0
N3670 G1 Z-5.5 F200.3
N3675 G0 Z-0.5
N3680 G1 Z-6 F200.3
N3685 G0 Z-1
N3690 G1 Z-6.5 F200.3
N3695 G0 Z-1.5
N3700 G1 Z-7 F200.3
N3705 G0 Z3
N3710 Z-5
N3715 G1 Z-7.5 F200.3
N3720 G0 Z-2.5
N3725 G1 Z-8 F200.3
N3730 G0 Z-3
N3735 G1 Z-8.5 F200.3
N3740 G0 Z-3.5
N3745 G1 Z-9 F200.3
N3750 G0 Z-4
N3755 G1 Z-9.5 F200.3
N3760 G0 Z-4.5
N3765 G1 Z-10 F200.3
N3770 G0 Z-5
N3775 G1 Z-10 F200.3
N3780 G0 Z3
N3785 X792.5
N3790 Z2
N3795 G1 Z-1 F200.3
N3800 G0 Z4
N3805 G1 Z-1.9 F200.3
N3810 G0 Z3.1
N3815 G1 Z-2.7 F200.3
N3820 G0 Z2.3
N3825 G1 Z-3.4 F200.3
N3830 G0 Z1.6
N3835 G1 Z-4 F200.3
N3840 G0 Z1
N3845 G1 Z-4.5 F200.3
N3850 G0 Z0.5
N3855 G1 Z-5 F200.3
N3860 G0 Z0
N3865 G1 Z-5.5 F200.3
N3870 G0 Z-0.5
N3875 G1 Z-6 F200.3
N3880 G0 Z-1
N3885 G1 Z-6.5 F200.3
N3890 G0 Z-1.5
N3895 G1 Z-7 F200.3
N3900 G0 Z3
N3905 Z-5
N3910 G1 Z-7.5 F200.3
N3915 G0 Z-2.5
N3920 G1 Z-8 F200.3
N3925 G0 Z-3
N3930 G1 Z-8.5 F200.3
N3935 G0 Z-3.5
N3940 G1 Z-9 F200.3
N3945 G0 Z-4
N3950 G1 Z-9.5 F200.3
N3955 G0 Z-4.5
N3960 G1 Z-10 F200.3
N3965 G0 Z-5
N3970 G1 Z-10 F200.3
N3975 G0 Z3
N3980 X767.5
N3985 Z2
N3990 G1 Z-1 F200.3
N3995 G0 Z4
N4000 G1 Z-1.9 F200.3
N4005 G0 Z3.1
N4010 G1 Z-2.7 F200.3
N4015 G0 Z2.3
N4020 G1 Z-3.4 F200.3
N4025 G0 Z1.6
N4030 G1 Z-4 F200.3
N4035 G0 Z1
N4040 G1 Z-4.5 F200.3
N4045 G0 Z0.5
N4050 G1 Z-5 F200.3
N4055 G0 Z0
N4060 G1 Z-5.5 F200.3
N4065 G0 Z-0.5
N4070 G1 Z-6 F200.3
N4075 G0 Z-1
N4080 G1 Z-6.5 F200.3
N4085 G0 Z-1.5
N4090 G1 Z-7 F200.3
N4095 G0 Z3
N4100 Z-5
N4105 G1 Z-7.5 F200.3
N4110 G0 Z-2.5
N4115 G1 Z-8 F200.3
N4120 G0 Z-3
N4125 G1 Z-8.5 F200.3
N4130 G0 Z-3.5
N4135 G1 Z-9 F200.3
N4140 G0 Z-4
N4145 G1 Z-9.5 F200.3
N4150 G0 Z-4.5
N4155 G1 Z-10 F200.3
N4160 G0 Z-5
N4165 G1 Z-10 F200.3
N4170 G0 Z3
N4175 X742.5
N4180 Z2
N4185 G1 Z-1 F200.3
N4190 G0 Z4
N4195 G1 Z-1.9 F200.3
N4200 G0 Z3.1
N4205 G1 Z-2.7 F200.3
N4210 G0 Z2.3
N4215 G1 Z-3.4 F200.3
N4220 G0 Z1.6
N4225 G1 Z-4 F200.3
N4230 G0 Z1
N4235 G1 Z-4.5 F200.3
N4240 G0 Z0.5
N4245 G1 Z-5 F200.3
N4250 G0 Z0
N4255 G1 Z-5.5 F200.3
N4260 G0 Z-0.5
N4265 G1 Z-6 F200.3
N4270 G0 Z-1
N4275 G1 Z-6.5 F200.3
N4280 G0 Z-1.5
N4285 G1 Z-7 F200.3
N4290 G0 Z3
N4295 Z-5
N4300 G1 Z-7.5 F200.3
N4305 G0 Z-2.5
N4310 G1 Z-8 F200.3
N4315 G0 Z-3
N4320 G1 Z-8.5 F200.3
N4325 G0 Z-3.5
N4330 G1 Z-9 F200.3
N4335 G0 Z-4
N4340 G1 Z-9.5 F200.3
N4345 G0 Z-4.5
N4350 G1 Z-10 F200.3
N4355 G0 Z-5
N4360 G1 Z-10 F200.3
N4365 G0 Z3
N4370 X717.5
N4375 Z2
N4380 G1 Z-1 F200.3
N4385 G0 Z4
N4390 G1 Z-1.9 F200.3
N4395 G0 Z3.1
N4400 G1 Z-2.7 F200.3
N4405 G0 Z2.3
N4410 G1 Z-3.4 F200.3
N4415 G0 Z1.6
N4420 G1 Z-4 F200.3
N4425 G0 Z1
N4430 G1 Z-4.5 F200.3
N4435 G0 Z0.5
N4440 G1 Z-5 F200.3
N4445 G0 Z0
N4450 G1 Z-5.5 F200.3
N4455 G0 Z-0.5
N4460 G1 Z-6 F200.3
N4465 G0 Z-1
N4470 G1 Z-6.5 F200.3
N4475 G0 Z-1.5
N4480 G1 Z-7 F200.3
N4485 G0 Z3
N4490 Z-5
N4495 G1 Z-7.5 F200.3
N4500 G0 Z-2.5
N4505 G1 Z-8 F200.3
N4510 G0 Z-3
N4515 G1 Z-8.5 F200.3
N4520 G0 Z-3.5
N4525 G1 Z-9 F200.3
N4530 G0 Z-4
N4535 G1 Z-9.5 F200.3
N4540 G0 Z-4.5
N4545 G1 Z-10 F200.3
N4550 G0 Z-5
N4555 G1 Z-10 F200.3
N4560 G0 Z3
N4565 X692.5
N4570 Z2
N4575 G1 Z-1 F200.3
N4580 G0 Z4
N4585 G1 Z-1.9 F200.3
N4590 G0 Z3.1
N4595 G1 Z-2.7 F200.3
N4600 G0 Z2.3
N4605 G1 Z-3.4 F200.3
N4610 G0 Z1.6
N4615 G1 Z-4 F200.3
N4620 G0 Z1
N4625 G1 Z-4.5 F200.3
N4630 G0 Z0.5
N4635 G1 Z-5 F200.3
N4640 G0 Z0
N4645 G1 Z-5.5 F200.3
N4650 G0 Z-0.5
N4655 G1 Z-6 F200.3
N4660 G0 Z-1
N4665 G1 Z-6.5 F200.3
N4670 G0 Z-1.5
N4675 G1 Z-7 F200.3
N4680 G0 Z3
N4685 Z-5
N4690 G1 Z-7.5 F200.3
N4695 G0 Z-2.5
N4700 G1 Z-8 F200.3
N4705 G0 Z-3
N4710 G1 Z-8.5 F200.3
N4715 G0 Z-3.5
N4720 G1 Z-9 F200.3
N4725 G0 Z-4
N4730 G1 Z-9.5 F200.3
N4735 G0 Z-4.5
N4740 G1 Z-10 F200.3
N4745 G0 Z-5
N4750 G1 Z-10 F200.3
N4755 G0 Z3
N4760 X667.5
N4765 Z2
N4770 G1 Z-1 F200.3
N4775 G0 Z4
N4780 G1 Z-1.9 F200.3
N4785 G0 Z3.1
N4790 G1 Z-2.7 F200.3
N4795 G0 Z2.3
N4800 G1 Z-3.4 F200.3
N4805 G0 Z1.6
N4810 G1 Z-4 F200.3
N4815 G0 Z1
N4820 G1 Z-4.5 F200.3
N4825 G0 Z0.5
N4830 G1 Z-5 F200.3
N4835 G0 Z0
N4840 G1 Z-5.5 F200.3
N4845 G0 Z-0.5
N4850 G1 Z-6 F200.3
N4855 G0 Z-1
N4860 G1 Z-6.5 F200.3
N4865 G0 Z-1.5
N4870 G1 Z-7 F200.3
N4875 G0 Z3
N4880 Z-5
N4885 G1 Z-7.5 F200.3
N4890 G0 Z-2.5
N4895 G1 Z-8 F200.3
N4900 G0 Z-3
N4905 G1 Z-8.5 F200.3
N4910 G0 Z-3.5
N4915 G1 Z-9 F200.3
N4920 G0 Z-4
N4925 G1 Z-9.5 F200.3
N4930 G0 Z-4.5
N4935 G1 Z-10 F200.3
N4940 G0 Z-5
N4945 G1 Z-10 F200.3
N4950 G0 Z3
N4955 X642.5
N4960 Z2
N4965 G1 Z-1 F200.3
N4970 G0 Z4
N4975 G1 Z-1.9 F200.3
N4980 G0 Z3.1
N4985 G1 Z-2.7 F200.3
N4990 G0 Z2.3
N4995 G1 Z-3.4 F200.3
N5000 G0 Z1.6
N5005 G1 Z-4 F200.3
N5010 G0 Z1
N5015 G1 Z-4.5 F200.3
N5020 G0 Z0.5
N5025 G1 Z-5 F200.3
N5030 G0 Z0
N5035 G1 Z-5.5 F200.3
N5040 G0 Z-0.5
N5045 G1 Z-6 F200.3
N5050 G0 Z-1
N5055 G1 Z-6.5 F200.3
N5060 G0 Z-1.5
N5065 G1 Z-7 F200.3
N5070 G0 Z3
N5075 Z-5
N5080 G1 Z-7.5 F200.3
N5085 G0 Z-2.5
N5090 G1 Z-8 F200.3
N5095 G0 Z-3
N5100 G1 Z-8.5 F200.3
N5105 G0 Z-3.5
N5110 G1 Z-9 F200.3
N5115 G0 Z-4
N5120 G1 Z-9.5 F200.3
N5125 G0 Z-4.5
N5130 G1 Z-10 F200.3
N5135 G0 Z-5
N5140 G1 Z-10 F200.3
N5145 G0 Z3
N5150 X617.5
N5155 Z2
N5160 G1 Z-1 F200.3
N5165 G0 Z4
N5170 G1 Z-1.9 F200.3
N5175 G0 Z3.1
N5180 G1 Z-2.7 F200.3
N5185 G0 Z2.3
N5190 G1 Z-3.4 F200.3
N5195 G0 Z1.6
N5200 G1 Z-4 F200.3
N5205 G0 Z1
N5210 G1 Z-4.5 F200.3
N5215 G0 Z0.5
N5220 G1 Z-5 F200.3
N5225 G0 Z0
N5230 G1 Z-5.5 F200.3
N5235 G0 Z-0.5
N5240 G1 Z-6 F200.3
N5245 G0 Z-1
N5250 G1 Z-6.5 F200.3
N5255 G0 Z-1.5
N5260 G1 Z-7 F200.3
N5265 G0 Z3
N5270 Z-5
N5275 G1 Z-7.5 F200.3
N5280 G0 Z-2.5
N5285 G1 Z-8 F200.3
N5290 G0 Z-3
N5295 G1 Z-8.5 F200.3
N5300 G0 Z-3.5
N5305 G1 Z-9 F200.3
N5310 G0 Z-4
N5315 G1 Z-9.5 F200.3
N5320 G0 Z-4.5
N5325 G1 Z-10 F200.3
N5330 G0 Z-5
N5335 G1 Z-10 F200.3
N5340 G0 Z3
N5345 X592.5
N5350 Z2
N5355 G1 Z-1 F200.3
N5360 G0 Z4
N5365 G1 Z-1.9 F200.3
N5370 G0 Z3.1
N5375 G1 Z-2.7 F200.3
N5380 G0 Z2.3
N5385 G1 Z-3.4 F200.3
N5390 G0 Z1.6
N5395 G1 Z-4 F200.3
N5400 G0 Z1
N5405 G1 Z-4.5 F200.3
N5410 G0 Z0.5
N5415 G1 Z-5 F200.3
N5420 G0 Z0
N5425 G1 Z-5.5 F200.3
N5430 G0 Z-0.5
N5435 G1 Z-6 F200.3
N5440 G0 Z-1
N5445 G1 Z-6.5 F200.3
N5450 G0 Z-1.5
N5455 G1 Z-7 F200.3
N5460 G0 Z3
N5465 Z-5
N5470 G1 Z-7.5 F200.3
N5475 G0 Z-2.5
N5480 G1 Z-8 F200.3
N5485 G0 Z-3
N5490 G1 Z-8.5 F200.3
N5495 G0 Z-3.5
N5500 G1 Z-9 F200.3
N5505 G0 Z-4
N5510 G1 Z-9.5 F200.3
N5515 G0 Z-4.5
N5520 G1 Z-10 F200.3
N5525 G0 Z-5
N5530 G1 Z-10 F200.3
N5535 G0 Z3
N5540 X567.5
N5545 Z2
N5550 G1 Z-1 F200.3
N5555 G0 Z4
N5560 G1 Z-1.9 F200.3
N5565 G0 Z3.1
N5570 G1 Z-2.7 F200.3
N5575 G0 Z2.3
N5580 G1 Z-3.4 F200.3
N5585 G0 Z1.6
N5590 G1 Z-4 F200.3
N5595 G0 Z1
N5600 G1 Z-4.5 F200.3
N5605 G0 Z0.5
N5610 G1 Z-5 F200.3
N5615 G0 Z0
N5620 G1 Z-5.5 F200.3
N5625 G0 Z-0.5
N5630 G1 Z-6 F200.3
N5635 G0 Z-1
N5640 G1 Z-6.5 F200.3
N5645 G0 Z-1.5
N5650 G1 Z-7 F200.3
N5655 G0 Z3
N5660 Z-5
N5665 G1 Z-7.5 F200.3
N5670 G0 Z-2.5
N5675 G1 Z-8 F200.3
N5680 G0 Z-3
N5685 G1 Z-8.5 F200.3
N5690 G0 Z-3.5
N5695 G1 Z-9 F200.3
N5700 G0 Z-4
N5705 G1 Z-9.5 F200.3
N5710 G0 Z-4.5
N5715 G1 Z-10 F200.3
N5720 G0 Z-5
N5725 G1 Z-10 F200.3
N5730 G0 Z3
N5735 X542.5
N5740 Z2
N5745 G1 Z-1 F200.3
N5750 G0 Z4
N5755 G1 Z-1.9 F200.3
N5760 G0 Z3.1
N5765 G1 Z-2.7 F200.3
N5770 G0 Z2.3
N5775 G1 Z-3.4 F200.3
N5780 G0 Z1.6
N5785 G1 Z-4 F200.3
N5790 G0 Z1
N5795 G1 Z-4.5 F200.3
N5800 G0 Z0.5
N5805 G1 Z-5 F200.3
N5810 G0 Z0
N5815 G1 Z-5.5 F200.3
N5820 G0 Z-0.5
N5825 G1 Z-6 F200.3
N5830 G0 Z-1
N5835 G1 Z-6.5 F200.3
N5840 G0 Z-1.5
N5845 G1 Z-7 F200.3
N5850 G0 Z3
N5855 Z-5
N5860 G1 Z-7.5 F200.3
N5865 G0 Z-2.5
N5870 G1 Z-8 F200.3
N5875 G0 Z-3
N5880 G1 Z-8.5 F200.3
N5885 G0 Z-3.5
N5890 G1 Z-9 F200.3
N5895 G0 Z-4
N5900 G1 Z-9.5 F200.3
N5905 G0 Z-4.5
N5910 G1 Z-10 F200.3
N5915 G0 Z-5
N5920 G1 Z-10 F200.3
N5925 G0 Z3
N5930 X517.5
N5935 Z2
N5940 G1 Z-1 F200.3
N5945 G0 Z4
N5950 G1 Z-1.9 F200.3
N5955 G0 Z3.1
N5960 G1 Z-2.7 F200.3
N5965 G0 Z2.3
N5970 G1 Z-3.4 F200.3
N5975 G0 Z1.6
N5980 G1 Z-4 F200.3
N5985 G0 Z1
N5990 G1 Z-4.5 F200.3
N5995 G0 Z0.5
N6000 G1 Z-5 F200.3
N6005 G0 Z0
N6010 G1 Z-5.5 F200.3
N6015 G0 Z-0.5
N6020 G1 Z-6 F200.3
N6025 G0 Z-1
N6030 G1 Z-6.5 F200.3
N6035 G0 Z-1.5
N6040 G1 Z-7 F200.3
N6045 G0 Z3
N6050 Z-5
N6055 G1 Z-7.5 F200.3
N6060 G0 Z-2.5
N6065 G1 Z-8 F200.3
N6070 G0 Z-3
N6075 G1 Z-8.5 F200.3
N6080 G0 Z-3.5
N6085 G1 Z-9 F200.3
N6090 G0 Z-4
N6095 G1 Z-9.5 F200.3
N6100 G0 Z-4.5
N6105 G1 Z-10 F200.3
N6110 G0 Z-5
N6115 G1 Z-10 F200.3
N6120 G0 Z3
N6125 X492.5
N6130 Z2
N6135 G1 Z-1 F200.3
N6140 G0 Z4
N6145 G1 Z-1.9 F200.3
N6150 G0 Z3.1
N6155 G1 Z-2.7 F200.3
N6160 G0 Z2.3
N6165 G1 Z-3.4 F200.3
N6170 G0 Z1.6
N6175 G1 Z-4 F200.3
N6180 G0 Z1
N6185 G1 Z-4.5 F200.3
N6190 G0 Z0.5
N6195 G1 Z-5 F200.3
N6200 G0 Z0
N6205 G1 Z-5.5 F200.3
N6210 G0 Z-0.5
N6215 G1 Z-6 F200.3
N6220 G0 Z-1
N6225 G1 Z-6.5 F200.3
N6230 G0 Z-1.5
N6235 G1 Z-7 F200.3
N6240 G0 Z3
N6245 Z-5
N6250 G1 Z-7.5 F200.3
N6255 G0 Z-2.5
N6260 G1 Z-8 F200.3
N6265 G0 Z-3
N6270 G1 Z-8.5 F200.3
N6275 G0 Z-3.5
N6280 G1 Z-9 F200.3
N6285 G0 Z-4
N6290 G1 Z-9.5 F200.3
N6295 G0 Z-4.5
N6300 G1 Z-10 F200.3
N6305 G0 Z-5
N6310 G1 Z-10 F200.3
N6315 G0 Z3
N6320 X467.5
N6325 Z2
N6330 G1 Z-1 F200.3
N6335 G0 Z4
N6340 G1 Z-1.9 F200.3
N6345 G0 Z3.1
N6350 G1 Z-2.7 F200.3
N6355 G0 Z2.3
N6360 G1 Z-3.4 F200.3
N6365 G0 Z1.6
N6370 G1 Z-4 F200.3
N6375 G0 Z1
N6380 G1 Z-4.5 F200.3
N6385 G0 Z0.5
N6390 G1 Z-5 F200.3
N6395 G0 Z0
N6400 G1 Z-5.5 F200.3
N6405 G0 Z-0.5
N6410 G1 Z-6 F200.3
N6415 G0 Z-1
N6420 G1 Z-6.5 F200.3
N6425 G0 Z-1.5
N6430 G1 Z-7 F200.3
N6435 G0 Z3
N6440 Z-5
N6445 G1 Z-7.5 F200.3
N6450 G0 Z-2.5
N6455 G1 Z-8 F200.3
N6460 G0 Z-3
N6465 G1 Z-8.5 F200.3
N6470 G0 Z-3.5
N6475 G1 Z-9 F200.3
N6480 G0 Z-4
N6485 G1 Z-9.5 F200.3
N6490 G0 Z-4.5
N6495 G1 Z-10 F200.3
N6500 G0 Z-5
N6505 G1 Z-10 F200.3
N6510 G0 Z3
N6515 X442.5
N6520 Z2
N6525 G1 Z-1 F200.3
N6530 G0 Z4
N6535 G1 Z-1.9 F200.3
N6540 G0 Z3.1
N6545 G1 Z-2.7 F200.3
N6550 G0 Z2.3
N6555 G1 Z-3.4 F200.3
N6560 G0 Z1.6
N6565 G1 Z-4 F200.3
N6570 G0 Z1
N6575 G1 Z-4.5 F200.3
N6580 G0 Z0.5
N6585 G1 Z-5 F200.3
N6590 G0 Z0
N6595 G1 Z-5.5 F200.3
N6600 G0 Z-0.5
N6605 G1 Z-6 F200.3
N6610 G0 Z-1
N6615 G1 Z-6.5 F200.3
N6620 G0 Z-1.5
N6625 G1 Z-7 F200.3
N6630 G0 Z3
N6635 Z-5
N6640 G1 Z-7.5 F200.3
N6645 G0 Z-2.5
N6650 G1 Z-8 F200.3
N6655 G0 Z-3
N6660 G1 Z-8.5 F200.3
N6665 G0 Z-3.5
N6670 G1 Z-9 F200.3
N6675 G0 Z-4
N6680 G1 Z-9.5 F200.3
N6685 G0 Z-4.5
N6690 G1 Z-10 F200.3
N6695 G0 Z-5
N6700 G1 Z-10 F200.3
N6705 G0 Z3
N6710 X417.5
N6715 Z2
N6720 G1 Z-1 F200.3
N6725 G0 Z4
N6730 G1 Z-1.9 F200.3
N6735 G0 Z3.1
N6740 G1 Z-2.7 F200.3
N6745 G0 Z2.3
N6750 G1 Z-3.4 F200.3
N6755 G0 Z1.6
N6760 G1 Z-4 F200.3
N6765 G0 Z1
N6770 G1 Z-4.5 F200.3
N6775 G0 Z0.5
N6780 G1 Z-5 F200.3
N6785 G0 Z0
N6790 G1 Z-5.5 F200.3
N6795 G0 Z-0.5
N6800 G1 Z-6 F200.3
N6805 G0 Z-1
N6810 G1 Z-6.5 F200.3
N6815 G0 Z-1.5
N6820 G1 Z-7 F200.3
N6825 G0 Z3
N6830 Z-5
N6835 G1 Z-7.5 F200.3
N6840 G0 Z-2.5
N6845 G1 Z-8 F200.3
N6850 G0 Z-3
N6855 G1 Z-8.5 F200.3
N6860 G0 Z-3.5
N6865 G1 Z-9 F200.3
N6870 G0 Z-4
N6875 G1 Z-9.5 F200.3
N6880 G0 Z-4.5
N6885 G1 Z-10 F200.3
N6890 G0 Z-5
N6895 G1 Z-10 F200.3
N6900 G0 Z3
N6905 X392.5
N6910 Z2
N6915 G1 Z-1 F200.3
N6920 G0 Z4
N6925 G1 Z-1.9 F200.3
N6930 G0 Z3.1
N6935 G1 Z-2.7 F200.3
N6940 G0 Z2.3
N6945 G1 Z-3.4 F200.3
N6950 G0 Z1.6
N6955 G1 Z-4 F200.3
N6960 G0 Z1
N6965 G1 Z-4.5 F200.3
N6970 G0 Z0.5
N6975 G1 Z-5 F200.3
N6980 G0 Z0
N6985 G1 Z-5.5 F200.3
N6990 G0 Z-0.5
N6995 G1 Z-6 F200.3
N7000 G0 Z-1
N7005 G1 Z-6.5 F200.3
N7010 G0 Z-1.5
N7015 G1 Z-7 F200.3
N7020 G0 Z3
N7025 Z-5
N7030 G1 Z-7.5 F200.3
N7035 G0 Z-2.5
N7040 G1 Z-8 F200.3
N7045 G0 Z-3
N7050 G1 Z-8.5 F200.3
N7055 G0 Z-3.5
N7060 G1 Z-9 F200.3
N7065 G0 Z-4
N7070 G1 Z-9.5 F200.3
N7075 G0 Z-4.5
N7080 G1 Z-10 F200.3
N7085 G0 Z-5
N7090 G1 Z-10 F200.3
N7095 G0 Z3
N7100 X367.5
N7105 Z2
N7110 G1 Z-1 F200.3
N7115 G0 Z4
N7120 G1 Z-1.9 F200.3
N7125 G0 Z3.1
N7130 G1 Z-2.7 F200.3
N7135 G0 Z2.3
N7140 G1 Z-3.4 F200.3
N7145 G0 Z1.6
N7150 G1 Z-4 F200.3
N7155 G0 Z1
N7160 G1 Z-4.5 F200.3
N7165 G0 Z0.5
N7170 G1 Z-5 F200.3
N7175 G0 Z0
N7180 G1 Z-5.5 F200.3
N7185 G0 Z-0.5
N7190 G1 Z-6 F200.3
N7195 G0 Z-1
N7200 G1 Z-6.5 F200.3
N7205 G0 Z-1.5
N7210 G1 Z-7 F200.3
N7215 G0 Z3
N7220 Z-5
N7225 G1 Z-7.5 F200.3
N7230 G0 Z-2.5
N7235 G1 Z-8 F200.3
N7240 G0 Z-3
N7245 G1 Z-8.5 F200.3
N7250 G0 Z-3.5
N7255 G1 Z-9 F200.3
N7260 G0 Z-4
N7265 G1 Z-9.5 F200.3
N7270 G0 Z-4.5
N7275 G1 Z-10 F200.3
N7280 G0 Z-5
N7285 G1 Z-10 F200.3
N7290 G0 Z3
N7295 X342.5
N7300 Z2
N7305 G1 Z-1 F200.3
N7310 G0 Z4
N7315 G1 Z-1.9 F200.3
N7320 G0 Z3.1
N7325 G1 Z-2.7 F200.3
N7330 G0 Z2.3
N7335 G1 Z-3.4 F200.3
N7340 G0 Z1.6
N7345 G1 Z-4 F200.3
N7350 G0 Z1
N7355 G1 Z-4.5 F200.3
N7360 G0 Z0.5
N7365 G1 Z-5 F200.3
N7370 G0 Z0
N7375 G1 Z-5.5 F200.3
N7380 G0 Z-0.5
N7385 G1 Z-6 F200.3
N7390 G0 Z-1
N7395 G1 Z-6.5 F200.3
N7400 G0 Z-1.5
N7405 G1 Z-7 F200.3
N7410 G0 Z3
N7415 Z-5
N7420 G1 Z-7.5 F200.3
N7425 G0 Z-2.5
N7430 G1 Z-8 F200.3
N7435 G0 Z-3
N7440 G1 Z-8.5 F200.3
N7445 G0 Z-3.5
N7450 G1 Z-9 F200.3
N7455 G0 Z-4
N7460 G1 Z-9.5 F200.3
N7465 G0 Z-4.5
N7470 G1 Z-10 F200.3
N7475 G0 Z-5
N7480 G1 Z-10 F200.3
N7485 G0 Z3
N7490 X317.5
N7495 Z2
N7500 G1 Z-1 F200.3
N7505 G0 Z4
N7510 G1 Z-1.9 F200.3
N7515 G0 Z3.1
N7520 G1 Z-2.7 F200.3
N7525 G0 Z2.3
N7530 G1 Z-3.4 F200.3
N7535 G0 Z1.6
N7540 G1 Z-4 F200.3
N7545 G0 Z1
N7550 G1 Z-4.5 F200.3
N7555 G0 Z0.5
N7560 G1 Z-5 F200.3
N7565 G0 Z0
N7570 G1 Z-5.5 F200.3
N7575 G0 Z-0.5
N7580 G1 Z-6 F200.3
N7585 G0 Z-1
N7590 G1 Z-6.5 F200.3
N7595 G0 Z-1.5
N7600 G1 Z-7 F200.3
N7605 G0 Z3
N7610 Z-5
N7615 G1 Z-7.5 F200.3
N7620 G0 Z-2.5
N7625 G1 Z-8 F200.3
N7630 G0 Z-3
N7635 G1 Z-8.5 F200.3
N7640 G0 Z-3.5
N7645 G1 Z-9 F200.3
N7650 G0 Z-4
N7655 G1 Z-9.5 F200.3
N7660 G0 Z-4.5
N7665 G1 Z-10 F200.3
N7670 G0 Z-5
N7675 G1 Z-10 F200.3
N7680 G0 Z3
N7685 X292.5
N7690 Z2
N7695 G1 Z-1 F200.3
N7700 G0 Z4
N7705 G1 Z-1.9 F200.3
N7710 G0 Z3.1
N7715 G1 Z-2.7 F200.3
N7720 G0 Z2.3
N7725 G1 Z-3.4 F200.3
N7730 G0 Z1.6
N7735 G1 Z-4 F200.3
N7740 G0 Z1
N7745 G1 Z-4.5 F200.3
N7750 G0 Z0.5
N7755 G1 Z-5 F200.3
N7760 G0 Z0
N7765 G1 Z-5.5 F200.3
N7770 G0 Z-0.5
N7775 G1 Z-6 F200.3
N7780 G0 Z-1
N7785 G1 Z-6.5 F200.3
N7790 G0 Z-1.5
N7795 G1 Z-7 F200.3
N7800 G0 Z3
N7805 Z-5
N7810 G1 Z-7.5 F200.3
N7815 G0 Z-2.5
N7820 G1 Z-8 F200.3
N7825 G0 Z-3
N7830 G1 Z-8.5 F200.3
N7835 G0 Z-3.5
N7840 G1 Z-9 F200.3
N7845 G0 Z-4
N7850 G1 Z-9.5 F200.3
N7855 G0 Z-4.5
N7860 G1 Z-10 F200.3
N7865 G0 Z-5
N7870 G1 Z-10 F200.3
N7875 G0 Z3
N7880 X267.5
N7885 Z2
N7890 G1 Z-1 F200.3
N7895 G0 Z4
N7900 G1 Z-1.9 F200.3
N7905 G0 Z3.1
N7910 G1 Z-2.7 F200.3
N7915 G0 Z2.3
N7920 G1 Z-3.4 F200.3
N7925 G0 Z1.6
N7930 G1 Z-4 F200.3
N7935 G0 Z1
N7940 G1 Z-4.5 F200.3
N7945 G0 Z0.5
N7950 G1 Z-5 F200.3
N7955 G0 Z0
N7960 G1 Z-5.5 F200.3
N7965 G0 Z-0.5
N7970 G1 Z-6 F200.3
N7975 G0 Z-1
N7980 G1 Z-6.5 F200.3
N7985 G0 Z-1.5
N7990 G1 Z-7 F200.3
N7995 G0 Z3
N8000 Z-5
N8005 G1 Z-7.5 F200.3
N8010 G0 Z-2.5
N8015 G1 Z-8 F200.3
N8020 G0 Z-3
N8025 G1 Z-8.5 F200.3
N8030 G0 Z-3.5
N8035 G1 Z-9 F200.3
N8040 G0 Z-4
N8045 G1 Z-9.5 F200.3
N8050 G0 Z-4.5
N8055 G1 Z-10 F200.3
N8060 G0 Z-5
N8065 G1 Z-10 F200.3
N8070 G0 Z3
N8075 X242.5
N8080 Z2
N8085 G1 Z-1 F200.3
N8090 G0 Z4
N8095 G1 Z-1.9 F200.3
N8100 G0 Z3.1
N8105 G1 Z-2.7 F200.3
N8110 G0 Z2.3
N8115 G1 Z-3.4 F200.3
N8120 G0 Z1.6
N8125 G1 Z-4 F200.3
N8130 G0 Z1
N8135 G1 Z-4.5 F200.3
N8140 G0 Z0.5
N8145 G1 Z-5 F200.3
N8150 G0 Z0
N8155 G1 Z-5.5 F200.3
N8160 G0 Z-0.5
N8165 G1 Z-6 F200.3
N8170 G0 Z-1
N8175 G1 Z-6.5 F200.3
N8180 G0 Z-1.5
N8185 G1 Z-7 F200.3
N8190 G0 Z3
N8195 Z-5
N8200 G1 Z-7.5 F200.3
N8205 G0 Z-2.5
N8210 G1 Z-8 F200.3
N8215 G0 Z-3
N8220 G1 Z-8.5 F200.3
N8225 G0 Z-3.5
N8230 G1 Z-9 F200.3
N8235 G0 Z-4
N8240 G1 Z-9.5 F200.3
N8245 G0 Z-4.5
N8250 G1 Z-10 F200.3
N8255 G0 Z-5
N8260 G1 Z-10 F200.3
N8265 G0 Z3
N8270 X217.5
N8275 Z2
N8280 G1 Z-1 F200.3
N8285 G0 Z4
N8290 G1 Z-1.9 F200.3
N8295 G0 Z3.1
N8300 G1 Z-2.7 F200.3
N8305 G0 Z2.3
N8310 G1 Z-3.4 F200.3
N8315 G0 Z1.6
N8320 G1 Z-4 F200.3
N8325 G0 Z1
N8330 G1 Z-4.5 F200.3
N8335 G0 Z0.5
N8340 G1 Z-5 F200.3
N8345 G0 Z0
N8350 G1 Z-5.5 F200.3
N8355 G0 Z-0.5
N8360 G1 Z-6 F200.3
N8365 G0 Z-1
N8370 G1 Z-6.5 F200.3
N8375 G0 Z-1.5
N8380 G1 Z-7 F200.3
N8385 G0 Z3
N8390 Z-5
N8395 G1 Z-7.5 F200.3
N8400 G0 Z-2.5
N8405 G1 Z-8 F200.3
N8410 G0 Z-3
N8415 G1 Z-8.5 F200.3
N8420 G0 Z-3.5
N8425 G1 Z-9 F200.3
N8430 G0 Z-4
N8435 G1 Z-9.5 F200.3
N8440 G0 Z-4.5
N8445 G1 Z-10 F200.3
N8450 G0 Z-5
N8455 G1 Z-10 F200.3
N8460 G0 Z3
N8465 X192.5
N8470 Z2
N8475 G1 Z-1 F200.3
N8480 G0 Z4
N8485 G1 Z-1.9 F200.3
N8490 G0 Z3.1
N8495 G1 Z-2.7 F200.3
N8500 G0 Z2.3
N8505 G1 Z-3.4 F200.3
N8510 G0 Z1.6
N8515 G1 Z-4 F200.3
N8520 G0 Z1
N8525 G1 Z-4.5 F200.3
N8530 G0 Z0.5
N8535 G1 Z-5 F200.3
N8540 G0 Z0
N8545 G1 Z-5.5 F200.3
N8550 G0 Z-0.5
N8555 G1 Z-6 F200.3
N8560 G0 Z-1
N8565 G1 Z-6.5 F200.3
N8570 G0 Z-1.5
N8575 G1 Z-7 F200.3
N8580 G0 Z3
N8585 Z-5
N8590 G1 Z-7.5 F200.3
N8595 G0 Z-2.5
N8600 G1 Z-8 F200.3
N8605 G0 Z-3
N8610 G1 Z-8.5 F200.3
N8615 G0 Z-3.5
N8620 G1 Z-9 F200.3
N8625 G0 Z-4
N8630 G1 Z-9.5 F200.3
N8635 G0 Z-4.5
N8640 G1 Z-10 F200.3
N8645 G0 Z-5
N8650 G1 Z-10 F200.3
N8655 G0 Z3
N8660 X167.5
N8665 Z2
N8670 G1 Z-1 F200.3
N8675 G0 Z4
N8680 G1 Z-1.9 F200.3
N8685 G0 Z3.1
N8690 G1 Z-2.7 F200.3
N8695 G0 Z2.3
N8700 G1 Z-3.4 F200.3
N8705 G0 Z1.6
N8710 G1 Z-4 F200.3
N8715 G0 Z1
N8720 G1 Z-4.5 F200.3
N8725 G0 Z0.5
N8730 G1 Z-5 F200.3
N8735 G0 Z0
N8740 G1 Z-5.5 F200.3
N8745 G0 Z-0.5
N8750 G1 Z-6 F200.3
N8755 G0 Z-1
N8760 G1 Z-6.5 F200.3
N8765 G0 Z-1.5
N8770 G1 Z-7 F200.3
N8775 G0 Z3
N8780 Z-5
N8785 G1 Z-7.5 F200.3
N8790 G0 Z-2.5
N8795 G1 Z-8 F200.3
N8800 G0 Z-3
N8805 G1 Z-8.5 F200.3
N8810 G0 Z-3.5
N8815 G1 Z-9 F200.3
N8820 G0 Z-4
N8825 G1 Z-9.5 F200.3
N8830 G0 Z-4.5
N8835 G1 Z-10 F200.3
N8840 G0 Z-5
N8845 G1 Z-10 F200.3
N8850 G0 Z3
N8855 X142.5
N8860 Z2
N8865 G1 Z-1 F200.3
N8870 G0 Z4
N8875 G1 Z-1.9 F200.3
N8880 G0 Z3.1
N8885 G1 Z-2.7 F200.3
N8890 G0 Z2.3
N8895 G1 Z-3.4 F200.3
N8900 G0 Z1.6
N8905 G1 Z-4 F200.3
N8910 G0 Z1
N8915 G1 Z-4.5 F200.3
N8920 G0 Z0.5
N8925 G1 Z-5 F200.3
N8930 G0 Z0
N8935 G1 Z-5.5 F200.3
N8940 G0 Z-0.5
N8945 G1 Z-6 F200.3
N8950 G0 Z-1
N8955 G1 Z-6.5 F200.3
N8960 G0 Z-1.5
N8965 G1 Z-7 F200.3
N8970 G0 Z3
N8975 Z-5
N8980 G1 Z-7.5 F200.3
N8985 G0 Z-2.5
N8990 G1 Z-8 F200.3
N8995 G0 Z-3
N9000 G1 Z-8.5 F200.3
N9005 G0 Z-3.5
N9010 G1 Z-9 F200.3
N9015 G0 Z-4
N9020 G1 Z-9.5 F200.3
N9025 G0 Z-4.5
N9030 G1 Z-10 F200.3
N9035 G0 Z-5
N9040 G1 Z-10 F200.3
N9045 G0 Z3
N9050 X117.5
N9055 Z2
N9060 G1 Z-1 F200.3
N9065 G0 Z4
N9070 G1 Z-1.9 F200.3
N9075 G0 Z3.1
N9080 G1 Z-2.7 F200.3
N9085 G0 Z2.3
N9090 G1 Z-3.4 F200.3
N9095 G0 Z1.6
N9100 G1 Z-4 F200.3
N9105 G0 Z1
N9110 G1 Z-4.5 F200.3
N9115 G0 Z0.5
N9120 G1 Z-5 F200.3
N9125 G0 Z0
N9130 G1 Z-5.5 F200.3
N9135 G0 Z-0.5
N9140 G1 Z-6 F200.3
N9145 G0 Z-1
N9150 G1 Z-6.5 F200.3
N9155 G0 Z-1.5
N9160 G1 Z-7 F200.3
N9165 G0 Z3
N9170 Z-5
N9175 G1 Z-7.5 F200.3
N9180 G0 Z-2.5
N9185 G1 Z-8 F200.3
N9190 G0 Z-3
N9195 G1 Z-8.5 F200.3
N9200 G0 Z-3.5
N9205 G1 Z-9 F200.3
N9210 G0 Z-4
N9215 G1 Z-9.5 F200.3
N9220 G0 Z-4.5
N9225 G1 Z-10 F200.3
N9230 G0 Z-5
N9235 G1 Z-10 F200.3
N9240 G0 Z3
N9245 X92.5
N9250 Z2
N9255 G1 Z-1 F200.3
N9260 G0 Z4
N9265 G1 Z-1.9 F200.3
N9270 G0 Z3.1
N9275 G1 Z-2.7 F200.3
N9280 G0 Z2.3
N9285 G1 Z-3.4 F200.3
N9290 G0 Z1.6
N9295 G1 Z-4 F200.3
N9300 G0 Z1
N9305 G1 Z-4.5 F200.3
N9310 G0 Z0.5
N9315 G1 Z-5 F200.3
N9320 G0 Z0
N9325 G1 Z-5.5 F200.3
N9330 G0 Z-0.5
N9335 G1 Z-6 F200.3
N9340 G0 Z-1
N9345 G1 Z-6.5 F200.3
N9350 G0 Z-1.5
N9355 G1 Z-7 F200.3
N9360 G0 Z3
N9365 Z-5
N9370 G1 Z-7.5 F200.3
N9375 G0 Z-2.5
N9380 G1 Z-8 F200.3
N9385 G0 Z-3
N9390 G1 Z-8.5 F200.3
N9395 G0 Z-3.5
N9400 G1 Z-9 F200.3
N9405 G0 Z-4
N9410 G1 Z-9.5 F200.3
N9415 G0 Z-4.5
N9420 G1 Z-10 F200.3
N9425 G0 Z-5
N9430 G1 Z-10 F200.3
N9435 G0 Z3
N9440 X67.5
N9445 Z2
N9450 G1 Z-1 F200.3
N9455 G0 Z4
N9460 G1 Z-1.9 F200.3
N9465 G0 Z3.1
N9470 G1 Z-2.7 F200.3
N9475 G0 Z2.3
N9480 G1 Z-3.4 F200.3
N9485 G0 Z1.6
N9490 G1 Z-4 F200.3
N9495 G0 Z1
N9500 G1 Z-4.5 F200.3
N9505 G0 Z0.5
N9510 G1 Z-5 F200.3
N9515 G0 Z0
N9520 G1 Z-5.5 F200.3
N9525 G0 Z-0.5
N9530 G1 Z-6 F200.3
N9535 G0 Z-1
N9540 G1 Z-6.5 F200.3
N9545 G0 Z-1.5
N9550 G1 Z-7 F200.3
N9555 G0 Z3
N9560 Z-5
N9565 G1 Z-7.5 F200.3
N9570 G0 Z-2.5
N9575 G1 Z-8 F200.3
N9580 G0 Z-3
N9585 G1 Z-8.5 F200.3
N9590 G0 Z-3.5
N9595 G1 Z-9 F200.3
N9600 G0 Z-4
N9605 G1 Z-9.5 F200.3
N9610 G0 Z-4.5
N9615 G1 Z-10 F200.3
N9620 G0 Z-5
N9625 G1 Z-10 F200.3
N9630 G0 Z3
N9635 X42.5
N9640 Z2
N9645 G1 Z-1 F200.3
N9650 G0 Z4
N9655 G1 Z-1.9 F200.3
N9660 G0 Z3.1
N9665 G1 Z-2.7 F200.3
N9670 G0 Z2.3
N9675 G1 Z-3.4 F200.3
N9680 G0 Z1.6
N9685 G1 Z-4 F200.3
N9690 G0 Z1
N9695 G1 Z-4.5 F200.3
N9700 G0 Z0.5
N9705 G1 Z-5 F200.3
N9710 G0 Z0
N9715 G1 Z-5.5 F200.3
N9720 G0 Z-0.5
N9725 G1 Z-6 F200.3
N9730 G0 Z-1
N9735 G1 Z-6.5 F200.3
N9740 G0 Z-1.5
N9745 G1 Z-7 F200.3
N9750 G0 Z3
N9755 Z-5
N9760 G1 Z-7.5 F200.3
N9765 G0 Z-2.5
N9770 G1 Z-8 F200.3
N9775 G0 Z-3
N9780 G1 Z-8.5 F200.3
N9785 G0 Z-3.5
N9790 G1 Z-9 F200.3
N9795 G0 Z-4
N9800 G1 Z-9.5 F200.3
N9805 G0 Z-4.5
N9810 G1 Z-10 F200.3
N9815 G0 Z-5
N9820 G1 Z-10 F200.3
N9825 G0 Z3
N9830 Y-39
N9835 Z2
N9840 G1 Z-1 F200.3
N9845 G0 Z4
N9850 G1 Z-1.9 F200.3
N9855 G0 Z3.1
N9860 G1 Z-2.7 F200.3
N9865 G0 Z2.3
N9870 G1 Z-3.4 F200.3
N9875 G0 Z1.6
N9880 G1 Z-4 F200.3
N9885 G0 Z1
N9890 G1 Z-4.5 F200.3
N9895 G0 Z0.5
N9900 G1 Z-5 F200.3
N9905 G0 Z0
N9910 G1 Z-5.5 F200.3
N9915 G0 Z-0.5
N9920 G1 Z-6 F200.3
N9925 G0 Z-1
N9930 G1 Z-6.5 F200.3
N9935 G0 Z-1.5
N9940 G1 Z-7 F200.3
N9945 G0 Z3
N9950 Z-5
N9955 G1 Z-7.5 F200.3
N9960 G0 Z-2.5
N9965 G1 Z-8 F200.3
N9970 G0 Z-3
N9975 G1 Z-8.5 F200.3
N9980 G0 Z-3.5
N9985 G1 Z-9 F200.3
N9990 G0 Z-4
N9995 G1 Z-9.5 F200.3
N10000 G0 Z-4.5
N10005 G1 Z-10 F200.3
N10010 G0 Z-5
N10015 G1 Z-10 F200.3
N10020 G0 Z3
N10025 X55 Y-59
N10030 Z2
N10035 G1 Z-1 F200.3
N10040 G0 Z4
N10045 G1 Z-1.9 F200.3
N10050 G0 Z3.1
N10055 G1 Z-2.7 F200.3
N10060 G0 Z2.3
N10065 G1 Z-3.4 F200.3
N10070 G0 Z1.6
N10075 G1 Z-4 F200.3
N10080 G0 Z1
N10085 G1 Z-4.5 F200.3
N10090 G0 Z0.5
N10095 G1 Z-5 F200.3
N10100 G0 Z0
N10105 G1 Z-5.5 F200.3
N10110 G0 Z-0.5
N10115 G1 Z-6 F200.3
N10120 G0 Z-1
N10125 G1 Z-6.5 F200.3
N10130 G0 Z-1.5
N10135 G1 Z-7 F200.3
N10140 G0 Z3
N10145 Z-5
N10150 G1 Z-7.5 F200.3
N10155 G0 Z-2.5
N10160 G1 Z-8 F200.3
N10165 G0 Z-3
N10170 G1 Z-8.5 F200.3
N10175 G0 Z-3.5
N10180 G1 Z-9 F200.3
N10185 G0 Z-4
N10190 G1 Z-9.5 F200.3
N10195 G0 Z-4.5
N10200 G1 Z-10 F200.3
N10205 G0 Z-5
N10210 G1 Z-10 F200.3
N10215 G0 Z3
N10220 Y-67
N10225 Z2
N10230 G1 Z-1 F200.3
N10235 G0 Z4
N10240 G1 Z-1.9 F200.3
N10245 G0 Z3.1
N10250 G1 Z-2.7 F200.3
N10255 G0 Z2.3
N10260 G1 Z-3.4 F200.3
N10265 G0 Z1.6
N10270 G1 Z-4 F200.3
N10275 G0 Z1
N10280 G1 Z-4.5 F200.3
N10285 G0 Z0.5
N10290 G1 Z-5 F200.3
N10295 G0 Z0
N10300 G1 Z-5.5 F200.3
N10305 G0 Z-0.5
N10310 G1 Z-6 F200.3
N10315 G0 Z-1
N10320 G1 Z-6.5 F200.3
N10325 G0 Z-1.5
N10330 G1 Z-7 F200.3
N10335 G0 Z3
N10340 Z-5
N10345 G1 Z-7.5 F200.3
N10350 G0 Z-2.5
N10355 G1 Z-8 F200.3
N10360 G0 Z-3
N10365 G1 Z-8.5 F200.3
N10370 G0 Z-3.5
N10375 G1 Z-9 F200.3
N10380 G0 Z-4
N10385 G1 Z-9.5 F200.3
N10390 G0 Z-4.5
N10395 G1 Z-10 F200.3
N10400 G0 Z-5
N10405 G1 Z-10 F200.3
N10410 G0 Z3
N10415 X64
N10420 Z2
N10425 G1 Z-1 F200.3
N10430 G0 Z4
N10435 G1 Z-1.9 F200.3
N10440 G0 Z3.1
N10445 G1 Z-2.7 F200.3
N10450 G0 Z2.3
N10455 G1 Z-3.4 F200.3
N10460 G0 Z1.6
N10465 G1 Z-4 F200.3
N10470 G0 Z1
N10475 G1 Z-4.5 F200.3
N10480 G0 Z0.5
N10485 G1 Z-5 F200.3
N10490 G0 Z0
N10495 G1 Z-5.5 F200.3
N10500 G0 Z-0.5
N10505 G1 Z-6 F200.3
N10510 G0 Z-1
N10515 G1 Z-6.5 F200.3
N10520 G0 Z-1.5
N10525 G1 Z-7 F200.3
N10530 G0 Z3
N10535 Z-5
N10540 G1 Z-7.5 F200.3
N10545 G0 Z-2.5
N10550 G1 Z-8 F200.3
N10555 G0 Z-3
N10560 G1 Z-8.5 F200.3
N10565 G0 Z-3.5
N10570 G1 Z-9 F200.3
N10575 G0 Z-4
N10580 G1 Z-9.5 F200.3
N10585 G0 Z-4.5
N10590 G1 Z-10 F200.3
N10595 G0 Z-5
N10600 G1 Z-10 F200.3
N10605 G0 Z3
N10610 Y-59
N10615 Z2
N10620 G1 Z-1 F200.3
N10625 G0 Z4
N10630 G1 Z-1.9 F200.3
N10635 G0 Z3.1
N10640 G1 Z-2.7 F200.3
N10645 G0 Z2.3
N10650 G1 Z-3.4 F200.3
N10655 G0 Z1.6
N10660 G1 Z-4 F200.3
N10665 G0 Z1
N10670 G1 Z-4.5 F200.3
N10675 G0 Z0.5
N10680 G1 Z-5 F200.3
N10685 G0 Z0
N10690 G1 Z-5.5 F200.3
N10695 G0 Z-0.5
N10700 G1 Z-6 F200.3
N10705 G0 Z-1
N10710 G1 Z-6.5 F200.3
N10715 G0 Z-1.5
N10720 G1 Z-7 F200.3
N10725 G0 Z3
N10730 Z-5
N10735 G1 Z-7.5 F200.3
N10740 G0 Z-2.5
N10745 G1 Z-8 F200.3
N10750 G0 Z-3
N10755 G1 Z-8.5 F200.3
N10760 G0 Z-3.5
N10765 G1 Z-9 F200.3
N10770 G0 Z-4
N10775 G1 Z-9.5 F200.3
N10780 G0 Z-4.5
N10785 G1 Z-10 F200.3
N10790 G0 Z-5
N10795 G1 Z-10 F200.3
N10800 G0 Z3
N10805 Y-83
N10810 Z2
N10815 G1 Z-1 F200.3
N10820 G0 Z4
N10825 G1 Z-1.9 F200.3
N10830 G0 Z3.1
N10835 G1 Z-2.7 F200.3
N10840 G0 Z2.3
N10845 G1 Z-3.4 F200.3
N10850 G0 Z1.6
N10855 G1 Z-4 F200.3
N10860 G0 Z1
N10865 G1 Z-4.5 F200.3
N10870 G0 Z0.5
N10875 G1 Z-5 F200.3
N10880 G0 Z0
N10885 G1 Z-5.5 F200.3
N10890 G0 Z-0.5
N10895 G1 Z-6 F200.3
N10900 G0 Z-1
N10905 G1 Z-6.5 F200.3
N10910 G0 Z-1.5
N10915 G1 Z-7 F200.3
N10920 G0 Z3
N10925 Z-5
N10930 G1 Z-7.5 F200.3
N10935 G0 Z-2.5
N10940 G1 Z-8 F200.3
N10945 G0 Z-3
N10950 G1 Z-8.5 F200.3
N10955 G0 Z-3.5
N10960 G1 Z-9 F200.3
N10965 G0 Z-4
N10970 G1 Z-9.5 F200.3
N10975 G0 Z-4.5
N10980 G1 Z-10 F200.3
N10985 G0 Z-5
N10990 G1 Z-10 F200.3
N10995 G0 Z3
N11000 Y-91
N11005 Z2
N11010 G1 Z-1 F200.3
N11015 G0 Z4
N11020 G1 Z-1.9 F200.3
N11025 G0 Z3.1
N11030 G1 Z-2.7 F200.3
N11035 G0 Z2.3
N11040 G1 Z-3.4 F200.3
N11045 G0 Z1.6
N11050 G1 Z-4 F200.3
N11055 G0 Z1
N11060 G1 Z-4.5 F200.3
N11065 G0 Z0.5
N11070 G1 Z-5 F200.3
N11075 G0 Z0
N11080 G1 Z-5.5 F200.3
N11085 G0 Z-0.5
N11090 G1 Z-6 F200.3
N11095 G0 Z-1
N11100 G1 Z-6.5 F200.3
N11105 G0 Z-1.5
N11110 G1 Z-7 F200.3
N11115 G0 Z3
N11120 Z-5
N11125 G1 Z-7.5 F200.3
N11130 G0 Z-2.5
N11135 G1 Z-8 F200.3
N11140 G0 Z-3
N11145 G1 Z-8.5 F200.3
N11150 G0 Z-3.5
N11155 G1 Z-9 F200.3
N11160 G0 Z-4
N11165 G1 Z-9.5 F200.3
N11170 G0 Z-4.5
N11175 G1 Z-10 F200.3
N11180 G0 Z-5
N11185 G1 Z-10 F200.3
N11190 G0 Z3
N11195 X55
N11200 Z2
N11205 G1 Z-1 F200.3
N11210 G0 Z4
N11215 G1 Z-1.9 F200.3
N11220 G0 Z3.1
N11225 G1 Z-2.7 F200.3
N11230 G0 Z2.3
N11235 G1 Z-3.4 F200.3
N11240 G0 Z1.6
N11245 G1 Z-4 F200.3
N11250 G0 Z1
N11255 G1 Z-4.5 F200.3
N11260 G0 Z0.5
N11265 G1 Z-5 F200.3
N11270 G0 Z0
N11275 G1 Z-5.5 F200.3
N11280 G0 Z-0.5
N11285 G1 Z-6 F200.3
N11290 G0 Z-1
N11295 G1 Z-6.5 F200.3
N11300 G0 Z-1.5
N11305 G1 Z-7 F200.3
N11310 G0 Z3
N11315 Z-5
N11320 G1 Z-7.5 F200.3
N11325 G0 Z-2.5
N11330 G1 Z-8 F200.3
N11335 G0 Z-3
N11340 G1 Z-8.5 F200.3
N11345 G0 Z-3.5
N11350 G1 Z-9 F200.3
N11355 G0 Z-4
N11360 G1 Z-9.5 F200.3
N11365 G0 Z-4.5
N11370 G1 Z-10 F200.3
N11375 G0 Z-5
N11380 G1 Z-10 F200.3
N11385 G0 Z3
N11390 Y-83
N11395 Z2
N11400 G1 Z-1 F200.3
N11405 G0 Z4
N11410 G1 Z-1.9 F200.3
N11415 G0 Z3.1
N11420 G1 Z-2.7 F200.3
N11425 G0 Z2.3
N11430 G1 Z-3.4 F200.3
N11435 G0 Z1.6
N11440 G1 Z-4 F200.3
N11445 G0 Z1
N11450 G1 Z-4.5 F200.3
N11455 G0 Z0.5
N11460 G1 Z-5 F200.3
N11465 G0 Z0
N11470 G1 Z-5.5 F200.3
N11475 G0 Z-0.5
N11480 G1 Z-6 F200.3
N11485 G0 Z-1
N11490 G1 Z-6.5 F200.3
N11495 G0 Z-1.5
N11500 G1 Z-7 F200.3
N11505 G0 Z3
N11510 Z-5
N11515 G1 Z-7.5 F200.3
N11520 G0 Z-2.5
N11525 G1 Z-8 F200.3
N11530 G0 Z-3
N11535 G1 Z-8.5 F200.3
N11540 G0 Z-3.5
N11545 G1 Z-9 F200.3
N11550 G0 Z-4
N11555 G1 Z-9.5 F200.3
N11560 G0 Z-4.5
N11565 G1 Z-10 F200.3
N11570 G0 Z-5
N11575 G1 Z-10 F200.3
N11580 G0 Z3
N11585 X42.5 Y-111
N11590 Z2
N11595 G1 Z-1 F200.3
N11600 G0 Z4
N11605 G1 Z-1.9 F200.3
N11610 G0 Z3.1
N11615 G1 Z-2.7 F200.3
N11620 G0 Z2.3
N11625 G1 Z-3.4 F200.3
N11630 G0 Z1.6
N11635 G1 Z-4 F200.3
N11640 G0 Z1
N11645 G1 Z-4.5 F200.3
N11650 G0 Z0.5
N11655 G1 Z-5 F200.3
N11660 G0 Z0
N11665 G1 Z-5.5 F200.3
N11670 G0 Z-0.5
N11675 G1 Z-6 F200.3
N11680 G0 Z-1
N11685 G1 Z-6.5 F200.3
N11690 G0 Z-1.5
N11695 G1 Z-7 F200.3
N11700 G0 Z3
N11705 Z-5
N11710 G1 Z-7.5 F200.3
N11715 G0 Z-2.5
N11720 G1 Z-8 F200.3
N11725 G0 Z-3
N11730 G1 Z-8.5 F200.3
N11735 G0 Z-3.5
N11740 G1 Z-9 F200.3
N11745 G0 Z-4
N11750 G1 Z-9.5 F200.3
N11755 G0 Z-4.5
N11760 G1 Z-10 F200.3
N11765 G0 Z-5
N11770 G1 Z-10 F200.3
N11775 G0 Z3
N11780 Y-144
N11785 Z2
N11790 G1 Z-1 F200.3
N11795 G0 Z4
N11800 G1 Z-1.9 F200.3
N11805 G0 Z3.1
N11810 G1 Z-2.7 F200.3
N11815 G0 Z2.3
N11820 G1 Z-3.4 F200.3
N11825 G0 Z1.6
N11830 G1 Z-4 F200.3
N11835 G0 Z1
N11840 G1 Z-4.5 F200.3
N11845 G0 Z0.5
N11850 G1 Z-5 F200.3
N11855 G0 Z0
N11860 G1 Z-5.5 F200.3
N11865 G0 Z-0.5
N11870 G1 Z-6 F200.3
N11875 G0 Z-1
N11880 G1 Z-6.5 F200.3
N11885 G0 Z-1.5
N11890 G1 Z-7 F200.3
N11895 G0 Z3
N11900 Z-5
N11905 G1 Z-7.5 F200.3
N11910 G0 Z-2.5
N11915 G1 Z-8 F200.3
N11920 G0 Z-3
N11925 G1 Z-8.5 F200.3
N11930 G0 Z-3.5
N11935 G1 Z-9 F200.3
N11940 G0 Z-4
N11945 G1 Z-9.5 F200.3
N11950 G0 Z-4.5
N11955 G1 Z-10 F200.3
N11960 G0 Z-5
N11965 G1 Z-10 F200.3
N11970 G0 Z3
N11975 X67.5
N11980 Z2
N11985 G1 Z-1 F200.3
N11990 G0 Z4
N11995 G1 Z-1.9 F200.3
N12000 G0 Z3.1
N12005 G1 Z-2.7 F200.3
N12010 G0 Z2.3
N12015 G1 Z-3.4 F200.3
N12020 G0 Z1.6
N12025 G1 Z-4 F200.3
N12030 G0 Z1
N12035 G1 Z-4.5 F200.3
N12040 G0 Z0.5
N12045 G1 Z-5 F200.3
N12050 G0 Z0
N12055 G1 Z-5.5 F200.3
N12060 G0 Z-0.5
N12065 G1 Z-6 F200.3
N12070 G0 Z-1
N12075 G1 Z-6.5 F200.3
N12080 G0 Z-1.5
N12085 G1 Z-7 F200.3
N12090 G0 Z3
N12095 Z-5
N12100 G1 Z-7.5 F200.3
N12105 G0 Z-2.5
N12110 G1 Z-8 F200.3
N12115 G0 Z-3
N12120 G1 Z-8.5 F200.3
N12125 G0 Z-3.5
N12130 G1 Z-9 F200.3
N12135 G0 Z-4
N12140 G1 Z-9.5 F200.3
N12145 G0 Z-4.5
N12150 G1 Z-10 F200.3
N12155 G0 Z-5
N12160 G1 Z-10 F200.3
N12165 G0 Z3
N12170 X92.5
N12175 Z2
N12180 G1 Z-1 F200.3
N12185 G0 Z4
N12190 G1 Z-1.9 F200.3
N12195 G0 Z3.1
N12200 G1 Z-2.7 F200.3
N12205 G0 Z2.3
N12210 G1 Z-3.4 F200.3
N12215 G0 Z1.6
N12220 G1 Z-4 F200.3
N12225 G0 Z1
N12230 G1 Z-4.5 F200.3
N12235 G0 Z0.5
N12240 G1 Z-5 F200.3
N12245 G0 Z0
N12250 G1 Z-5.5 F200.3
N12255 G0 Z-0.5
N12260 G1 Z-6 F200.3
N12265 G0 Z-1
N12270 G1 Z-6.5 F200.3
N12275 G0 Z-1.5
N12280 G1 Z-7 F200.3
N12285 G0 Z3
N12290 Z-5
N12295 G1 Z-7.5 F200.3
N12300 G0 Z-2.5
N12305 G1 Z-8 F200.3
N12310 G0 Z-3
N12315 G1 Z-8.5 F200.3
N12320 G0 Z-3.5
N12325 G1 Z-9 F200.3
N12330 G0 Z-4
N12335 G1 Z-9.5 F200.3
N12340 G0 Z-4.5
N12345 G1 Z-10 F200.3
N12350 G0 Z-5
N12355 G1 Z-10 F200.3
N12360 G0 Z3
N12365 X117.5
N12370 Z2
N12375 G1 Z-1 F200.3
N12380 G0 Z4
N12385 G1 Z-1.9 F200.3
N12390 G0 Z3.1
N12395 G1 Z-2.7 F200.3
N12400 G0 Z2.3
N12405 G1 Z-3.4 F200.3
N12410 G0 Z1.6
N12415 G1 Z-4 F200.3
N12420 G0 Z1
N12425 G1 Z-4.5 F200.3
N12430 G0 Z0.5
N12435 G1 Z-5 F200.3
N12440 G0 Z0
N12445 G1 Z-5.5 F200.3
N12450 G0 Z-0.5
N12455 G1 Z-6 F200.3
N12460 G0 Z-1
N12465 G1 Z-6.5 F200.3
N12470 G0 Z-1.5
N12475 G1 Z-7 F200.3
N12480 G0 Z3
N12485 Z-5
N12490 G1 Z-7.5 F200.3
N12495 G0 Z-2.5
N12500 G1 Z-8 F200.3
N12505 G0 Z-3
N12510 G1 Z-8.5 F200.3
N12515 G0 Z-3.5
N12520 G1 Z-9 F200.3
N12525 G0 Z-4
N12530 G1 Z-9.5 F200.3
N12535 G0 Z-4.5
N12540 G1 Z-10 F200.3
N12545 G0 Z-5
N12550 G1 Z-10 F200.3
N12555 G0 Z3
N12560 X142.5
N12565 Z2
N12570 G1 Z-1 F200.3
N12575 G0 Z4
N12580 G1 Z-1.9 F200.3
N12585 G0 Z3.1
N12590 G1 Z-2.7 F200.3
N12595 G0 Z2.3
N12600 G1 Z-3.4 F200.3
N12605 G0 Z1.6
N12610 G1 Z-4 F200.3
N12615 G0 Z1
N12620 G1 Z-4.5 F200.3
N12625 G0 Z0.5
N12630 G1 Z-5 F200.3
N12635 G0 Z0
N12640 G1 Z-5.5 F200.3
N12645 G0 Z-0.5
N12650 G1 Z-6 F200.3
N12655 G0 Z-1
N12660 G1 Z-6.5 F200.3
N12665 G0 Z-1.5
N12670 G1 Z-7 F200.3
N12675 G0 Z3
N12680 Z-5
N12685 G1 Z-7.5 F200.3
N12690 G0 Z-2.5
N12695 G1 Z-8 F200.3
N12700 G0 Z-3
N12705 G1 Z-8.5 F200.3
N12710 G0 Z-3.5
N12715 G1 Z-9 F200.3
N12720 G0 Z-4
N12725 G1 Z-9.5 F200.3
N12730 G0 Z-4.5
N12735 G1 Z-10 F200.3
N12740 G0 Z-5
N12745 G1 Z-10 F200.3
N12750 G0 Z3
N12755 X167.5
N12760 Z2
N12765 G1 Z-1 F200.3
N12770 G0 Z4
N12775 G1 Z-1.9 F200.3
N12780 G0 Z3.1
N12785 G1 Z-2.7 F200.3
N12790 G0 Z2.3
N12795 G1 Z-3.4 F200.3
N12800 G0 Z1.6
N12805 G1 Z-4 F200.3
N12810 G0 Z1
N12815 G1 Z-4.5 F200.3
N12820 G0 Z0.5
N12825 G1 Z-5 F200.3
N12830 G0 Z0
N12835 G1 Z-5.5 F200.3
N12840 G0 Z-0.5
N12845 G1 Z-6 F200.3
N12850 G0 Z-1
N12855 G1 Z-6.5 F200.3
N12860 G0 Z-1.5
N12865 G1 Z-7 F200.3
N12870 G0 Z3
N12875 Z-5
N12880 G1 Z-7.5 F200.3
N12885 G0 Z-2.5
N12890 G1 Z-8 F200.3
N12895 G0 Z-3
N12900 G1 Z-8.5 F200.3
N12905 G0 Z-3.5
N12910 G1 Z-9 F200.3
N12915 G0 Z-4
N12920 G1 Z-9.5 F200.3
N12925 G0 Z-4.5
N12930 G1 Z-10 F200.3
N12935 G0 Z-5
N12940 G1 Z-10 F200.3
N12945 G0 Z3
N12950 X192.5
N12955 Z2
N12960 G1 Z-1 F200.3
N12965 G0 Z4
N12970 G1 Z-1.9 F200.3
N12975 G0 Z3.1
N12980 G1 Z-2.7 F200.3
N12985 G0 Z2.3
N12990 G1 Z-3.4 F200.3
N12995 G0 Z1.6
N13000 G1 Z-4 F200.3
N13005 G0 Z1
N13010 G1 Z-4.5 F200.3
N13015 G0 Z0.5
N13020 G1 Z-5 F200.3
N13025 G0 Z0
N13030 G1 Z-5.5 F200.3
N13035 G0 Z-0.5
N13040 G1 Z-6 F200.3
N13045 G0 Z-1
N13050 G1 Z-6.5 F200.3
N13055 G0 Z-1.5
N13060 G1 Z-7 F200.3
N13065 G0 Z3
N13070 Z-5
N13075 G1 Z-7.5 F200.3
N13080 G0 Z-2.5
N13085 G1 Z-8 F200.3
N13090 G0 Z-3
N13095 G1 Z-8.5 F200.3
N13100 G0 Z-3.5
N13105 G1 Z-9 F200.3
N13110 G0 Z-4
N13115 G1 Z-9.5 F200.3
N13120 G0 Z-4.5
N13125 G1 Z-10 F200.3
N13130 G0 Z-5
N13135 G1 Z-10 F200.3
N13140 G0 Z3
N13145 X217.5
N13150 Z2
N13155 G1 Z-1 F200.3
N13160 G0 Z4
N13165 G1 Z-1.9 F200.3
N13170 G0 Z3.1
N13175 G1 Z-2.7 F200.3
N13180 G0 Z2.3
N13185 G1 Z-3.4 F200.3
N13190 G0 Z1.6
N13195 G1 Z-4 F200.3
N13200 G0 Z1
N13205 G1 Z-4.5 F200.3
N13210 G0 Z0.5
N13215 G1 Z-5 F200.3
N13220 G0 Z0
N13225 G1 Z-5.5 F200.3
N13230 G0 Z-0.5
N13235 G1 Z-6 F200.3
N13240 G0 Z-1
N13245 G1 Z-6.5 F200.3
N13250 G0 Z-1.5
N13255 G1 Z-7 F200.3
N13260 G0 Z3
N13265 Z-5
N13270 G1 Z-7.5 F200.3
N13275 G0 Z-2.5
N13280 G1 Z-8 F200.3
N13285 G0 Z-3
N13290 G1 Z-8.5 F200.3
N13295 G0 Z-3.5
N13300 G1 Z-9 F200.3
N13305 G0 Z-4
N13310 G1 Z-9.5 F200.3
N13315 G0 Z-4.5
N13320 G1 Z-10 F200.3
N13325 G0 Z-5
N13330 G1 Z-10 F200.3
N13335 G0 Z3
N13340 X242.5
N13345 Z2
N13350 G1 Z-1 F200.3
N13355 G0 Z4
N13360 G1 Z-1.9 F200.3
N13365 G0 Z3.1
N13370 G1 Z-2.7 F200.3
N13375 G0 Z2.3
N13380 G1 Z-3.4 F200.3
N13385 G0 Z1.6
N13390 G1 Z-4 F200.3
N13395 G0 Z1
N13400 G1 Z-4.5 F200.3
N13405 G0 Z0.5
N13410 G1 Z-5 F200.3
N13415 G0 Z0
N13420 G1 Z-5.5 F200.3
N13425 G0 Z-0.5
N13430 G1 Z-6 F200.3
N13435 G0 Z-1
N13440 G1 Z-6.5 F200.3
N13445 G0 Z-1.5
N13450 G1 Z-7 F200.3
N13455 G0 Z3
N13460 Z-5
N13465 G1 Z-7.5 F200.3
N13470 G0 Z-2.5
N13475 G1 Z-8 F200.3
N13480 G0 Z-3
N13485 G1 Z-8.5 F200.3
N13490 G0 Z-3.5
N13495 G1 Z-9 F200.3
N13500 G0 Z-4
N13505 G1 Z-9.5 F200.3
N13510 G0 Z-4.5
N13515 G1 Z-10 F200.3
N13520 G0 Z-5
N13525 G1 Z-10 F200.3
N13530 G0 Z3
N13535 X267.5
N13540 Z2
N13545 G1 Z-1 F200.3
N13550 G0 Z4
N13555 G1 Z-1.9 F200.3
N13560 G0 Z3.1
N13565 G1 Z-2.7 F200.3
N13570 G0 Z2.3
N13575 G1 Z-3.4 F200.3
N13580 G0 Z1.6
N13585 G1 Z-4 F200.3
N13590 G0 Z1
N13595 G1 Z-4.5 F200.3
N13600 G0 Z0.5
N13605 G1 Z-5 F200.3
N13610 G0 Z0
N13615 G1 Z-5.5 F200.3
N13620 G0 Z-0.5
N13625 G1 Z-6 F200.3
N13630 G0 Z-1
N13635 G1 Z-6.5 F200.3
N13640 G0 Z-1.5
N13645 G1 Z-7 F200.3
N13650 G0 Z3
N13655 Z-5
N13660 G1 Z-7.5 F200.3
N13665 G0 Z-2.5
N13670 G1 Z-8 F200.3
N13675 G0 Z-3
N13680 G1 Z-8.5 F200.3
N13685 G0 Z-3.5
N13690 G1 Z-9 F200.3
N13695 G0 Z-4
N13700 G1 Z-9.5 F200.3
N13705 G0 Z-4.5
N13710 G1 Z-10 F200.3
N13715 G0 Z-5
N13720 G1 Z-10 F200.3
N13725 G0 Z3
N13730 X292.5
N13735 Z2
N13740 G1 Z-1 F200.3
N13745 G0 Z4
N13750 G1 Z-1.9 F200.3
N13755 G0 Z3.1
N13760 G1 Z-2.7 F200.3
N13765 G0 Z2.3
N13770 G1 Z-3.4 F200.3
N13775 G0 Z1.6
N13780 G1 Z-4 F200.3
N13785 G0 Z1
N13790 G1 Z-4.5 F200.3
N13795 G0 Z0.5
N13800 G1 Z-5 F200.3
N13805 G0 Z0
N13810 G1 Z-5.5 F200.3
N13815 G0 Z-0.5
N13820 G1 Z-6 F200.3
N13825 G0 Z-1
N13830 G1 Z-6.5 F200.3
N13835 G0 Z-1.5
N13840 G1 Z-7 F200.3
N13845 G0 Z3
N13850 Z-5
N13855 G1 Z-7.5 F200.3
N13860 G0 Z-2.5
N13865 G1 Z-8 F200.3
N13870 G0 Z-3
N13875 G1 Z-8.5 F200.3
N13880 G0 Z-3.5
N13885 G1 Z-9 F200.3
N13890 G0 Z-4
N13895 G1 Z-9.5 F200.3
N13900 G0 Z-4.5
N13905 G1 Z-10 F200.3
N13910 G0 Z-5
N13915 G1 Z-10 F200.3
N13920 G0 Z3
N13925 X317.5
N13930 Z2
N13935 G1 Z-1 F200.3
N13940 G0 Z4
N13945 G1 Z-1.9 F200.3
N13950 G0 Z3.1
N13955 G1 Z-2.7 F200.3
N13960 G0 Z2.3
N13965 G1 Z-3.4 F200.3
N13970 G0 Z1.6
N13975 G1 Z-4 F200.3
N13980 G0 Z1
N13985 G1 Z-4.5 F200.3
N13990 G0 Z0.5
N13995 G1 Z-5 F200.3
N14000 G0 Z0
N14005 G1 Z-5.5 F200.3
N14010 G0 Z-0.5
N14015 G1 Z-6 F200.3
N14020 G0 Z-1
N14025 G1 Z-6.5 F200.3
N14030 G0 Z-1.5
N14035 G1 Z-7 F200.3
N14040 G0 Z3
N14045 Z-5
N14050 G1 Z-7.5 F200.3
N14055 G0 Z-2.5
N14060 G1 Z-8 F200.3
N14065 G0 Z-3
N14070 G1 Z-8.5 F200.3
N14075 G0 Z-3.5
N14080 G1 Z-9 F200.3
N14085 G0 Z-4
N14090 G1 Z-9.5 F200.3
N14095 G0 Z-4.5
N14100 G1 Z-10 F200.3
N14105 G0 Z-5
N14110 G1 Z-10 F200.3
N14115 G0 Z3
N14120 X342.5
N14125 Z2
N14130 G1 Z-1 F200.3
N14135 G0 Z4
N14140 G1 Z-1.9 F200.3
N14145 G0 Z3.1
N14150 G1 Z-2.7 F200.3
N14155 G0 Z2.3
N14160 G1 Z-3.4 F200.3
N14165 G0 Z1.6
N14170 G1 Z-4 F200.3
N14175 G0 Z1
N14180 G1 Z-4.5 F200.3
N14185 G0 Z0.5
N14190 G1 Z-5 F200.3
N14195 G0 Z0
N14200 G1 Z-5.5 F200.3
N14205 G0 Z-0.5
N14210 G1 Z-6 F200.3
N14215 G0 Z-1
N14220 G1 Z-6.5 F200.3
N14225 G0 Z-1.5
N14230 G1 Z-7 F200.3
N14235 G0 Z3
N14240 Z-5
N14245 G1 Z-7.5 F200.3
N14250 G0 Z-2.5
N14255 G1 Z-8 F200.3
N14260 G0 Z-3
N14265 G1 Z-8.5 F200.3
N14270 G0 Z-3.5
N14275 G1 Z-9 F200.3
N14280 G0 Z-4
N14285 G1 Z-9.5 F200.3
N14290 G0 Z-4.5
N14295 G1 Z-10 F200.3
N14300 G0 Z-5
N14305 G1 Z-10 F200.3
N14310 G0 Z3
N14315 X367.5
N14320 Z2
N14325 G1 Z-1 F200.3
N14330 G0 Z4
N14335 G1 Z-1.9 F200.3
N14340 G0 Z3.1
N14345 G1 Z-2.7 F200.3
N14350 G0 Z2.3
N14355 G1 Z-3.4 F200.3
N14360 G0 Z1.6
N14365 G1 Z-4 F200.3
N14370 G0 Z1
N14375 G1 Z-4.5 F200.3
N14380 G0 Z0.5
N14385 G1 Z-5 F200.3
N14390 G0 Z0
N14395 G1 Z-5.5 F200.3
N14400 G0 Z-0.5
N14405 G1 Z-6 F200.3
N14410 G0 Z-1
N14415 G1 Z-6.5 F200.3
N14420 G0 Z-1.5
N14425 G1 Z-7 F200.3
N14430 G0 Z3
N14435 Z-5
N14440 G1 Z-7.5 F200.3
N14445 G0 Z-2.5
N14450 G1 Z-8 F200.3
N14455 G0 Z-3
N14460 G1 Z-8.5 F200.3
N14465 G0 Z-3.5
N14470 G1 Z-9 F200.3
N14475 G0 Z-4
N14480 G1 Z-9.5 F200.3
N14485 G0 Z-4.5
N14490 G1 Z-10 F200.3
N14495 G0 Z-5
N14500 G1 Z-10 F200.3
N14505 G0 Z3
N14510 X392.5
N14515 Z2
N14520 G1 Z-1 F200.3
N14525 G0 Z4
N14530 G1 Z-1.9 F200.3
N14535 G0 Z3.1
N14540 G1 Z-2.7 F200.3
N14545 G0 Z2.3
N14550 G1 Z-3.4 F200.3
N14555 G0 Z1.6
N14560 G1 Z-4 F200.3
N14565 G0 Z1
N14570 G1 Z-4.5 F200.3
N14575 G0 Z0.5
N14580 G1 Z-5 F200.3
N14585 G0 Z0
N14590 G1 Z-5.5 F200.3
N14595 G0 Z-0.5
N14600 G1 Z-6 F200.3
N14605 G0 Z-1
N14610 G1 Z-6.5 F200.3
N14615 G0 Z-1.5
N14620 G1 Z-7 F200.3
N14625 G0 Z3
N14630 Z-5
N14635 G1 Z-7.5 F200.3
N14640 G0 Z-2.5
N14645 G1 Z-8 F200.3
N14650 G0 Z-3
N14655 G1 Z-8.5 F200.3
N14660 G0 Z-3.5
N14665 G1 Z-9 F200.3
N14670 G0 Z-4
N14675 G1 Z-9.5 F200.3
N14680 G0 Z-4.5
N14685 G1 Z-10 F200.3
N14690 G0 Z-5
N14695 G1 Z-10 F200.3
N14700 G0 Z3
N14705 X417.5
N14710 Z2
N14715 G1 Z-1 F200.3
N14720 G0 Z4
N14725 G1 Z-1.9 F200.3
N14730 G0 Z3.1
N14735 G1 Z-2.7 F200.3
N14740 G0 Z2.3
N14745 G1 Z-3.4 F200.3
N14750 G0 Z1.6
N14755 G1 Z-4 F200.3
N14760 G0 Z1
N14765 G1 Z-4.5 F200.3
N14770 G0 Z0.5
N14775 G1 Z-5 F200.3
N14780 G0 Z0
N14785 G1 Z-5.5 F200.3
N14790 G0 Z-0.5
N14795 G1 Z-6 F200.3
N14800 G0 Z-1
N14805 G1 Z-6.5 F200.3
N14810 G0 Z-1.5
N14815 G1 Z-7 F200.3
N14820 G0 Z3
N14825 Z-5
N14830 G1 Z-7.5 F200.3
N14835 G0 Z-2.5
N14840 G1 Z-8 F200.3
N14845 G0 Z-3
N14850 G1 Z-8.5 F200.3
N14855 G0 Z-3.5
N14860 G1 Z-9 F200.3
N14865 G0 Z-4
N14870 G1 Z-9.5 F200.3
N14875 G0 Z-4.5
N14880 G1 Z-10 F200.3
N14885 G0 Z-5
N14890 G1 Z-10 F200.3
N14895 G0 Z3
N14900 X442.5
N14905 Z2
N14910 G1 Z-1 F200.3
N14915 G0 Z4
N14920 G1 Z-1.9 F200.3
N14925 G0 Z3.1
N14930 G1 Z-2.7 F200.3
N14935 G0 Z2.3
N14940 G1 Z-3.4 F200.3
N14945 G0 Z1.6
N14950 G1 Z-4 F200.3
N14955 G0 Z1
N14960 G1 Z-4.5 F200.3
N14965 G0 Z0.5
N14970 G1 Z-5 F200.3
N14975 G0 Z0
N14980 G1 Z-5.5 F200.3
N14985 G0 Z-0.5
N14990 G1 Z-6 F200.3
N14995 G0 Z-1
N15000 G1 Z-6.5 F200.3
N15005 G0 Z-1.5
N15010 G1 Z-7 F200.3
N15015 G0 Z3
N15020 Z-5
N15025 G1 Z-7.5 F200.3
N15030 G0 Z-2.5
N15035 G1 Z-8 F200.3
N15040 G0 Z-3
N15045 G1 Z-8.5 F200.3
N15050 G0 Z-3.5
N15055 G1 Z-9 F200.3
N15060 G0 Z-4
N15065 G1 Z-9.5 F200.3
N15070 G0 Z-4.5
N15075 G1 Z-10 F200.3
N15080 G0 Z-5
N15085 G1 Z-10 F200.3
N15090 G0 Z3
N15095 X467.5
N15100 Z2
N15105 G1 Z-1 F200.3
N15110 G0 Z4
N15115 G1 Z-1.9 F200.3
N15120 G0 Z3.1
N15125 G1 Z-2.7 F200.3
N15130 G0 Z2.3
N15135 G1 Z-3.4 F200.3
N15140 G0 Z1.6
N15145 G1 Z-4 F200.3
N15150 G0 Z1
N15155 G1 Z-4.5 F200.3
N15160 G0 Z0.5
N15165 G1 Z-5 F200.3
N15170 G0 Z0
N15175 G1 Z-5.5 F200.3
N15180 G0 Z-0.5
N15185 G1 Z-6 F200.3
N15190 G0 Z-1
N15195 G1 Z-6.5 F200.3
N15200 G0 Z-1.5
N15205 G1 Z-7 F200.3
N15210 G0 Z3
N15215 Z-5
N15220 G1 Z-7.5 F200.3
N15225 G0 Z-2.5
N15230 G1 Z-8 F200.3
N15235 G0 Z-3
N15240 G1 Z-8.5 F200.3
N15245 G0 Z-3.5
N15250 G1 Z-9 F200.3
N15255 G0 Z-4
N15260 G1 Z-9.5 F200.3
N15265 G0 Z-4.5
N15270 G1 Z-10 F200.3
N15275 G0 Z-5
N15280 G1 Z-10 F200.3
N15285 G0 Z3
N15290 X492.5
N15295 Z2
N15300 G1 Z-1 F200.3
N15305 G0 Z4
N15310 G1 Z-1.9 F200.3
N15315 G0 Z3.1
N15320 G1 Z-2.7 F200.3
N15325 G0 Z2.3
N15330 G1 Z-3.4 F200.3
N15335 G0 Z1.6
N15340 G1 Z-4 F200.3
N15345 G0 Z1
N15350 G1 Z-4.5 F200.3
N15355 G0 Z0.5
N15360 G1 Z-5 F200.3
N15365 G0 Z0
N15370 G1 Z-5.5 F200.3
N15375 G0 Z-0.5
N15380 G1 Z-6 F200.3
N15385 G0 Z-1
N15390 G1 Z-6.5 F200.3
N15395 G0 Z-1.5
N15400 G1 Z-7 F200.3
N15405 G0 Z3
N15410 Z-5
N15415 G1 Z-7.5 F200.3
N15420 G0 Z-2.5
N15425 G1 Z-8 F200.3
N15430 G0 Z-3
N15435 G1 Z-8.5 F200.3
N15440 G0 Z-3.5
N15445 G1 Z-9 F200.3
N15450 G0 Z-4
N15455 G1 Z-9.5 F200.3
N15460 G0 Z-4.5
N15465 G1 Z-10 F200.3
N15470 G0 Z-5
N15475 G1 Z-10 F200.3
N15480 G0 Z3
N15485 X517.5
N15490 Z2
N15495 G1 Z-1 F200.3
N15500 G0 Z4
N15505 G1 Z-1.9 F200.3
N15510 G0 Z3.1
N15515 G1 Z-2.7 F200.3
N15520 G0 Z2.3
N15525 G1 Z-3.4 F200.3
N15530 G0 Z1.6
N15535 G1 Z-4 F200.3
N15540 G0 Z1
N15545 G1 Z-4.5 F200.3
N15550 G0 Z0.5
N15555 G1 Z-5 F200.3
N15560 G0 Z0
N15565 G1 Z-5.5 F200.3
N15570 G0 Z-0.5
N15575 G1 Z-6 F200.3
N15580 G0 Z-1
N15585 G1 Z-6.5 F200.3
N15590 G0 Z-1.5
N15595 G1 Z-7 F200.3
N15600 G0 Z3
N15605 Z-5
N15610 G1 Z-7.5 F200.3
N15615 G0 Z-2.5
N15620 G1 Z-8 F200.3
N15625 G0 Z-3
N15630 G1 Z-8.5 F200.3
N15635 G0 Z-3.5
N15640 G1 Z-9 F200.3
N15645 G0 Z-4
N15650 G1 Z-9.5 F200.3
N15655 G0 Z-4.5
N15660 G1 Z-10 F200.3
N15665 G0 Z-5
N15670 G1 Z-10 F200.3
N15675 G0 Z3
N15680 X542.5
N15685 Z2
N15690 G1 Z-1 F200.3
N15695 G0 Z4
N15700 G1 Z-1.9 F200.3
N15705 G0 Z3.1
N15710 G1 Z-2.7 F200.3
N15715 G0 Z2.3
N15720 G1 Z-3.4 F200.3
N15725 G0 Z1.6
N15730 G1 Z-4 F200.3
N15735 G0 Z1
N15740 G1 Z-4.5 F200.3
N15745 G0 Z0.5
N15750 G1 Z-5 F200.3
N15755 G0 Z0
N15760 G1 Z-5.5 F200.3
N15765 G0 Z-0.5
N15770 G1 Z-6 F200.3
N15775 G0 Z-1
N15780 G1 Z-6.5 F200.3
N15785 G0 Z-1.5
N15790 G1 Z-7 F200.3
N15795 G0 Z3
N15800 Z-5
N15805 G1 Z-7.5 F200.3
N15810 G0 Z-2.5
N15815 G1 Z-8 F200.3
N15820 G0 Z-3
N15825 G1 Z-8.5 F200.3
N15830 G0 Z-3.5
N15835 G1 Z-9 F200.3
N15840 G0 Z-4
N15845 G1 Z-9.5 F200.3
N15850 G0 Z-4.5
N15855 G1 Z-10 F200.3
N15860 G0 Z-5
N15865 G1 Z-10 F200.3
N15870 G0 Z3
N15875 X567.5
N15880 Z2
N15885 G1 Z-1 F200.3
N15890 G0 Z4
N15895 G1 Z-1.9 F200.3
N15900 G0 Z3.1
N15905 G1 Z-2.7 F200.3
N15910 G0 Z2.3
N15915 G1 Z-3.4 F200.3
N15920 G0 Z1.6
N15925 G1 Z-4 F200.3
N15930 G0 Z1
N15935 G1 Z-4.5 F200.3
N15940 G0 Z0.5
N15945 G1 Z-5 F200.3
N15950 G0 Z0
N15955 G1 Z-5.5 F200.3
N15960 G0 Z-0.5
N15965 G1 Z-6 F200.3
N15970 G0 Z-1
N15975 G1 Z-6.5 F200.3
N15980 G0 Z-1.5
N15985 G1 Z-7 F200.3
N15990 G0 Z3
N15995 Z-5
N16000 G1 Z-7.5 F200.3
N16005 G0 Z-2.5
N16010 G1 Z-8 F200.3
N16015 G0 Z-3
N16020 G1 Z-8.5 F200.3
N16025 G0 Z-3.5
N16030 G1 Z-9 F200.3
N16035 G0 Z-4
N16040 G1 Z-9.5 F200.3
N16045 G0 Z-4.5
N16050 G1 Z-10 F200.3
N16055 G0 Z-5
N16060 G1 Z-10 F200.3
N16065 G0 Z3
N16070 X592.5
N16075 Z2
N16080 G1 Z-1 F200.3
N16085 G0 Z4
N16090 G1 Z-1.9 F200.3
N16095 G0 Z3.1
N16100 G1 Z-2.7 F200.3
N16105 G0 Z2.3
N16110 G1 Z-3.4 F200.3
N16115 G0 Z1.6
N16120 G1 Z-4 F200.3
N16125 G0 Z1
N16130 G1 Z-4.5 F200.3
N16135 G0 Z0.5
N16140 G1 Z-5 F200.3
N16145 G0 Z0
N16150 G1 Z-5.5 F200.3
N16155 G0 Z-0.5
N16160 G1 Z-6 F200.3
N16165 G0 Z-1
N16170 G1 Z-6.5 F200.3
N16175 G0 Z-1.5
N16180 G1 Z-7 F200.3
N16185 G0 Z3
N16190 Z-5
N16195 G1 Z-7.5 F200.3
N16200 G0 Z-2.5
N16205 G1 Z-8 F200.3
N16210 G0 Z-3
N16215 G1 Z-8.5 F200.3
N16220 G0 Z-3.5
N16225 G1 Z-9 F200.3
N16230 G0 Z-4
N16235 G1 Z-9.5 F200.3
N16240 G0 Z-4.5
N16245 G1 Z-10 F200.3
N16250 G0 Z-5
N16255 G1 Z-10 F200.3
N16260 G0 Z3
N16265 X617.5
N16270 Z2
N16275 G1 Z-1 F200.3
N16280 G0 Z4
N16285 G1 Z-1.9 F200.3
N16290 G0 Z3.1
N16295 G1 Z-2.7 F200.3
N16300 G0 Z2.3
N16305 G1 Z-3.4 F200.3
N16310 G0 Z1.6
N16315 G1 Z-4 F200.3
N16320 G0 Z1
N16325 G1 Z-4.5 F200.3
N16330 G0 Z0.5
N16335 G1 Z-5 F200.3
N16340 G0 Z0
N16345 G1 Z-5.5 F200.3
N16350 G0 Z-0.5
N16355 G1 Z-6 F200.3
N16360 G0 Z-1
N16365 G1 Z-6.5 F200.3
N16370 G0 Z-1.5
N16375 G1 Z-7 F200.3
N16380 G0 Z3
N16385 Z-5
N16390 G1 Z-7.5 F200.3
N16395 G0 Z-2.5
N16400 G1 Z-8 F200.3
N16405 G0 Z-3
N16410 G1 Z-8.5 F200.3
N16415 G0 Z-3.5
N16420 G1 Z-9 F200.3
N16425 G0 Z-4
N16430 G1 Z-9.5 F200.3
N16435 G0 Z-4.5
N16440 G1 Z-10 F200.3
N16445 G0 Z-5
N16450 G1 Z-10 F200.3
N16455 G0 Z3
N16460 X642.5
N16465 Z2
N16470 G1 Z-1 F200.3
N16475 G0 Z4
N16480 G1 Z-1.9 F200.3
N16485 G0 Z3.1
N16490 G1 Z-2.7 F200.3
N16495 G0 Z2.3
N16500 G1 Z-3.4 F200.3
N16505 G0 Z1.6
N16510 G1 Z-4 F200.3
N16515 G0 Z1
N16520 G1 Z-4.5 F200.3
N16525 G0 Z0.5
N16530 G1 Z-5 F200.3
N16535 G0 Z0
N16540 G1 Z-5.5 F200.3
N16545 G0 Z-0.5
N16550 G1 Z-6 F200.3
N16555 G0 Z-1
N16560 G1 Z-6.5 F200.3
N16565 G0 Z-1.5
N16570 G1 Z-7 F200.3
N16575 G0 Z3
N16580 Z-5
N16585 G1 Z-7.5 F200.3
N16590 G0 Z-2.5
N16595 G1 Z-8 F200.3
N16600 G0 Z-3
N16605 G1 Z-8.5 F200.3
N16610 G0 Z-3.5
N16615 G1 Z-9 F200.3
N16620 G0 Z-4
N16625 G1 Z-9.5 F200.3
N16630 G0 Z-4.5
N16635 G1 Z-10 F200.3
N16640 G0 Z-5
N16645 G1 Z-10 F200.3
N16650 G0 Z3
N16655 X667.5
N16660 Z2
N16665 G1 Z-1 F200.3
N16670 G0 Z4
N16675 G1 Z-1.9 F200.3
N16680 G0 Z3.1
N16685 G1 Z-2.7 F200.3
N16690 G0 Z2.3
N16695 G1 Z-3.4 F200.3
N16700 G0 Z1.6
N16705 G1 Z-4 F200.3
N16710 G0 Z1
N16715 G1 Z-4.5 F200.3
N16720 G0 Z0.5
N16725 G1 Z-5 F200.3
N16730 G0 Z0
N16735 G1 Z-5.5 F200.3
N16740 G0 Z-0.5
N16745 G1 Z-6 F200.3
N16750 G0 Z-1
N16755 G1 Z-6.5 F200.3
N16760 G0 Z-1.5
N16765 G1 Z-7 F200.3
N16770 G0 Z3
N16775 Z-5
N16780 G1 Z-7.5 F200.3
N16785 G0 Z-2.5
N16790 G1 Z-8 F200.3
N16795 G0 Z-3
N16800 G1 Z-8.5 F200.3
N16805 G0 Z-3.5
N16810 G1 Z-9 F200.3
N16815 G0 Z-4
N16820 G1 Z-9.5 F200.3
N16825 G0 Z-4.5
N16830 G1 Z-10 F200.3
N16835 G0 Z-5
N16840 G1 Z-10 F200.3
N16845 G0 Z3
N16850 X692.5
N16855 Z2
N16860 G1 Z-1 F200.3
N16865 G0 Z4
N16870 G1 Z-1.9 F200.3
N16875 G0 Z3.1
N16880 G1 Z-2.7 F200.3
N16885 G0 Z2.3
N16890 G1 Z-3.4 F200.3
N16895 G0 Z1.6
N16900 G1 Z-4 F200.3
N16905 G0 Z1
N16910 G1 Z-4.5 F200.3
N16915 G0 Z0.5
N16920 G1 Z-5 F200.3
N16925 G0 Z0
N16930 G1 Z-5.5 F200.3
N16935 G0 Z-0.5
N16940 G1 Z-6 F200.3
N16945 G0 Z-1
N16950 G1 Z-6.5 F200.3
N16955 G0 Z-1.5
N16960 G1 Z-7 F200.3
N16965 G0 Z3
N16970 Z-5
N16975 G1 Z-7.5 F200.3
N16980 G0 Z-2.5
N16985 G1 Z-8 F200.3
N16990 G0 Z-3
N16995 G1 Z-8.5 F200.3
N17000 G0 Z-3.5
N17005 G1 Z-9 F200.3
N17010 G0 Z-4
N17015 G1 Z-9.5 F200.3
N17020 G0 Z-4.5
N17025 G1 Z-10 F200.3
N17030 G0 Z-5
N17035 G1 Z-10 F200.3
N17040 G0 Z3
N17045 X717.5
N17050 Z2
N17055 G1 Z-1 F200.3
N17060 G0 Z4
N17065 G1 Z-1.9 F200.3
N17070 G0 Z3.1
N17075 G1 Z-2.7 F200.3
N17080 G0 Z2.3
N17085 G1 Z-3.4 F200.3
N17090 G0 Z1.6
N17095 G1 Z-4 F200.3
N17100 G0 Z1
N17105 G1 Z-4.5 F200.3
N17110 G0 Z0.5
N17115 G1 Z-5 F200.3
N17120 G0 Z0
N17125 G1 Z-5.5 F200.3
N17130 G0 Z-0.5
N17135 G1 Z-6 F200.3
N17140 G0 Z-1
N17145 G1 Z-6.5 F200.3
N17150 G0 Z-1.5
N17155 G1 Z-7 F200.3
N17160 G0 Z3
N17165 Z-5
N17170 G1 Z-7.5 F200.3
N17175 G0 Z-2.5
N17180 G1 Z-8 F200.3
N17185 G0 Z-3
N17190 G1 Z-8.5 F200.3
N17195 G0 Z-3.5
N17200 G1 Z-9 F200.3
N17205 G0 Z-4
N17210 G1 Z-9.5 F200.3
N17215 G0 Z-4.5
N17220 G1 Z-10 F200.3
N17225 G0 Z-5
N17230 G1 Z-10 F200.3
N17235 G0 Z3
N17240 X742.5
N17245 Z2
N17250 G1 Z-1 F200.3
N17255 G0 Z4
N17260 G1 Z-1.9 F200.3
N17265 G0 Z3.1
N17270 G1 Z-2.7 F200.3
N17275 G0 Z2.3
N17280 G1 Z-3.4 F200.3
N17285 G0 Z1.6
N17290 G1 Z-4 F200.3
N17295 G0 Z1
N17300 G1 Z-4.5 F200.3
N17305 G0 Z0.5
N17310 G1 Z-5 F200.3
N17315 G0 Z0
N17320 G1 Z-5.5 F200.3
N17325 G0 Z-0.5
N17330 G1 Z-6 F200.3
N17335 G0 Z-1
N17340 G1 Z-6.5 F200.3
N17345 G0 Z-1.5
N17350 G1 Z-7 F200.3
N17355 G0 Z3
N17360 Z-5
N17365 G1 Z-7.5 F200.3
N17370 G0 Z-2.5
N17375 G1 Z-8 F200.3
N17380 G0 Z-3
N17385 G1 Z-8.5 F200.3
N17390 G0 Z-3.5
N17395 G1 Z-9 F200.3
N17400 G0 Z-4
N17405 G1 Z-9.5 F200.3
N17410 G0 Z-4.5
N17415 G1 Z-10 F200.3
N17420 G0 Z-5
N17425 G1 Z-10 F200.3
N17430 G0 Z3
N17435 X767.5
N17440 Z2
N17445 G1 Z-1 F200.3
N17450 G0 Z4
N17455 G1 Z-1.9 F200.3
N17460 G0 Z3.1
N17465 G1 Z-2.7 F200.3
N17470 G0 Z2.3
N17475 G1 Z-3.4 F200.3
N17480 G0 Z1.6
N17485 G1 Z-4 F200.3
N17490 G0 Z1
N17495 G1 Z-4.5 F200.3
N17500 G0 Z0.5
N17505 G1 Z-5 F200.3
N17510 G0 Z0
N17515 G1 Z-5.5 F200.3
N17520 G0 Z-0.5
N17525 G1 Z-6 F200.3
N17530 G0 Z-1
N17535 G1 Z-6.5 F200.3
N17540 G0 Z-1.5
N17545 G1 Z-7 F200.3
N17550 G0 Z3
N17555 Z-5
N17560 G1 Z-7.5 F200.3
N17565 G0 Z-2.5
N17570 G1 Z-8 F200.3
N17575 G0 Z-3
N17580 G1 Z-8.5 F200.3
N17585 G0 Z-3.5
N17590 G1 Z-9 F200.3
N17595 G0 Z-4
N17600 G1 Z-9.5 F200.3
N17605 G0 Z-4.5
N17610 G1 Z-10 F200.3
N17615 G0 Z-5
N17620 G1 Z-10 F200.3
N17625 G0 Z3
N17630 X792.5
N17635 Z2
N17640 G1 Z-1 F200.3
N17645 G0 Z4
N17650 G1 Z-1.9 F200.3
N17655 G0 Z3.1
N17660 G1 Z-2.7 F200.3
N17665 G0 Z2.3
N17670 G1 Z-3.4 F200.3
N17675 G0 Z1.6
N17680 G1 Z-4 F200.3
N17685 G0 Z1
N17690 G1 Z-4.5 F200.3
N17695 G0 Z0.5
N17700 G1 Z-5 F200.3
N17705 G0 Z0
N17710 G1 Z-5.5 F200.3
N17715 G0 Z-0.5
N17720 G1 Z-6 F200.3
N17725 G0 Z-1
N17730 G1 Z-6.5 F200.3
N17735 G0 Z-1.5
N17740 G1 Z-7 F200.3
N17745 G0 Z3
N17750 Z-5
N17755 G1 Z-7.5 F200.3
N17760 G0 Z-2.5
N17765 G1 Z-8 F200.3
N17770 G0 Z-3
N17775 G1 Z-8.5 F200.3
N17780 G0 Z-3.5
N17785 G1 Z-9 F200.3
N17790 G0 Z-4
N17795 G1 Z-9.5 F200.3
N17800 G0 Z-4.5
N17805 G1 Z-10 F200.3
N17810 G0 Z-5
N17815 G1 Z-10 F200.3
N17820 G0 Z3
N17825 X817.5
N17830 Z2
N17835 G1 Z-1 F200.3
N17840 G0 Z4
N17845 G1 Z-1.9 F200.3
N17850 G0 Z3.1
N17855 G1 Z-2.7 F200.3
N17860 G0 Z2.3
N17865 G1 Z-3.4 F200.3
N17870 G0 Z1.6
N17875 G1 Z-4 F200.3
N17880 G0 Z1
N17885 G1 Z-4.5 F200.3
N17890 G0 Z0.5
N17895 G1 Z-5 F200.3
N17900 G0 Z0
N17905 G1 Z-5.5 F200.3
N17910 G0 Z-0.5
N17915 G1 Z-6 F200.3
N17920 G0 Z-1
N17925 G1 Z-6.5 F200.3
N17930 G0 Z-1.5
N17935 G1 Z-7 F200.3
N17940 G0 Z3
N17945 Z-5
N17950 G1 Z-7.5 F200.3
N17955 G0 Z-2.5
N17960 G1 Z-8 F200.3
N17965 G0 Z-3
N17970 G1 Z-8.5 F200.3
N17975 G0 Z-3.5
N17980 G1 Z-9 F200.3
N17985 G0 Z-4
N17990 G1 Z-9.5 F200.3
N17995 G0 Z-4.5
N18000 G1 Z-10 F200.3
N18005 G0 Z-5
N18010 G1 Z-10 F200.3
N18015 G0 Z3
N18020 X792.5 Y-111
N18025 Z2
N18030 G1 Z-1 F200.3
N18035 G0 Z4
N18040 G1 Z-1.9 F200.3
N18045 G0 Z3.1
N18050 G1 Z-2.7 F200.3
N18055 G0 Z2.3
N18060 G1 Z-3.4 F200.3
N18065 G0 Z1.6
N18070 G1 Z-4 F200.3
N18075 G0 Z1
N18080 G1 Z-4.5 F200.3
N18085 G0 Z0.5
N18090 G1 Z-5 F200.3
N18095 G0 Z0
N18100 G1 Z-5.5 F200.3
N18105 G0 Z-0.5
N18110 G1 Z-6 F200.3
N18115 G0 Z-1
N18120 G1 Z-6.5 F200.3
N18125 G0 Z-1.5
N18130 G1 Z-7 F200.3
N18135 G0 Z3
N18140 Z-5
N18145 G1 Z-7.5 F200.3
N18150 G0 Z-2.5
N18155 G1 Z-8 F200.3
N18160 G0 Z-3
N18165 G1 Z-8.5 F200.3
N18170 G0 Z-3.5
N18175 G1 Z-9 F200.3
N18180 G0 Z-4
N18185 G1 Z-9.5 F200.3
N18190 G0 Z-4.5
N18195 G1 Z-10 F200.3
N18200 G0 Z-5
N18205 G1 Z-10 F200.3
N18210 G0 Z3
N18215 X717.5
N18220 Z2
N18225 G1 Z-1 F200.3
N18230 G0 Z4
N18235 G1 Z-1.9 F200.3
N18240 G0 Z3.1
N18245 G1 Z-2.7 F200.3
N18250 G0 Z2.3
N18255 G1 Z-3.4 F200.3
N18260 G0 Z1.6
N18265 G1 Z-4 F200.3
N18270 G0 Z1
N18275 G1 Z-4.5 F200.3
N18280 G0 Z0.5
N18285 G1 Z-5 F200.3
N18290 G0 Z0
N18295 G1 Z-5.5 F200.3
N18300 G0 Z-0.5
N18305 G1 Z-6 F200.3
N18310 G0 Z-1
N18315 G1 Z-6.5 F200.3
N18320 G0 Z-1.5
N18325 G1 Z-7 F200.3
N18330 G0 Z3
N18335 Z-5
N18340 G1 Z-7.5 F200.3
N18345 G0 Z-2.5
N18350 G1 Z-8 F200.3
N18355 G0 Z-3
N18360 G1 Z-8.5 F200.3
N18365 G0 Z-3.5
N18370 G1 Z-9 F200.3
N18375 G0 Z-4
N18380 G1 Z-9.5 F200.3
N18385 G0 Z-4.5
N18390 G1 Z-10 F200.3
N18395 G0 Z-5
N18400 G1 Z-10 F200.3
N18405 G0 Z3
N18410 X642.5
N18415 Z2
N18420 G1 Z-1 F200.3
N18425 G0 Z4
N18430 G1 Z-1.9 F200.3
N18435 G0 Z3.1
N18440 G1 Z-2.7 F200.3
N18445 G0 Z2.3
N18450 G1 Z-3.4 F200.3
N18455 G0 Z1.6
N18460 G1 Z-4 F200.3
N18465 G0 Z1
N18470 G1 Z-4.5 F200.3
N18475 G0 Z0.5
N18480 G1 Z-5 F200.3
N18485 G0 Z0
N18490 G1 Z-5.5 F200.3
N18495 G0 Z-0.5
N18500 G1 Z-6 F200.3
N18505 G0 Z-1
N18510 G1 Z-6.5 F200.3
N18515 G0 Z-1.5
N18520 G1 Z-7 F200.3
N18525 G0 Z3
N18530 Z-5
N18535 G1 Z-7.5 F200.3
N18540 G0 Z-2.5
N18545 G1 Z-8 F200.3
N18550 G0 Z-3
N18555 G1 Z-8.5 F200.3
N18560 G0 Z-3.5
N18565 G1 Z-9 F200.3
N18570 G0 Z-4
N18575 G1 Z-9.5 F200.3
N18580 G0 Z-4.5
N18585 G1 Z-10 F200.3
N18590 G0 Z-5
N18595 G1 Z-10 F200.3
N18600 G0 Z3
N18605 X567.5
N18610 Z2
N18615 G1 Z-1 F200.3
N18620 G0 Z4
N18625 G1 Z-1.9 F200.3
N18630 G0 Z3.1
N18635 G1 Z-2.7 F200.3
N18640 G0 Z2.3
N18645 G1 Z-3.4 F200.3
N18650 G0 Z1.6
N18655 G1 Z-4 F200.3
N18660 G0 Z1
N18665 G1 Z-4.5 F200.3
N18670 G0 Z0.5
N18675 G1 Z-5 F200.3
N18680 G0 Z0
N18685 G1 Z-5.5 F200.3
N18690 G0 Z-0.5
N18695 G1 Z-6 F200.3
N18700 G0 Z-1
N18705 G1 Z-6.5 F200.3
N18710 G0 Z-1.5
N18715 G1 Z-7 F200.3
N18720 G0 Z3
N18725 Z-5
N18730 G1 Z-7.5 F200.3
N18735 G0 Z-2.5
N18740 G1 Z-8 F200.3
N18745 G0 Z-3
N18750 G1 Z-8.5 F200.3
N18755 G0 Z-3.5
N18760 G1 Z-9 F200.3
N18765 G0 Z-4
N18770 G1 Z-9.5 F200.3
N18775 G0 Z-4.5
N18780 G1 Z-10 F200.3
N18785 G0 Z-5
N18790 G1 Z-10 F200.3
N18795 G0 Z3
N18800 X492.5
N18805 Z2
N18810 G1 Z-1 F200.3
N18815 G0 Z4
N18820 G1 Z-1.9 F200.3
N18825 G0 Z3.1
N18830 G1 Z-2.7 F200.3
N18835 G0 Z2.3
N18840 G1 Z-3.4 F200.3
N18845 G0 Z1.6
N18850 G1 Z-4 F200.3
N18855 G0 Z1
N18860 G1 Z-4.5 F200.3
N18865 G0 Z0.5
N18870 G1 Z-5 F200.3
N18875 G0 Z0
N18880 G1 Z-5.5 F200.3
N18885 G0 Z-0.5
N18890 G1 Z-6 F200.3
N18895 G0 Z-1
N18900 G1 Z-6.5 F200.3
N18905 G0 Z-1.5
N18910 G1 Z-7 F200.3
N18915 G0 Z3
N18920 Z-5
N18925 G1 Z-7.5 F200.3
N18930 G0 Z-2.5
N18935 G1 Z-8 F200.3
N18940 G0 Z-3
N18945 G1 Z-8.5 F200.3
N18950 G0 Z-3.5
N18955 G1 Z-9 F200.3
N18960 G0 Z-4
N18965 G1 Z-9.5 F200.3
N18970 G0 Z-4.5
N18975 G1 Z-10 F200.3
N18980 G0 Z-5
N18985 G1 Z-10 F200.3
N18990 G0 Z3
N18995 X417.5
N19000 Z2
N19005 G1 Z-1 F200.3
N19010 G0 Z4
N19015 G1 Z-1.9 F200.3
N19020 G0 Z3.1
N19025 G1 Z-2.7 F200.3
N19030 G0 Z2.3
N19035 G1 Z-3.4 F200.3
N19040 G0 Z1.6
N19045 G1 Z-4 F200.3
N19050 G0 Z1
N19055 G1 Z-4.5 F200.3
N19060 G0 Z0.5
N19065 G1 Z-5 F200.3
N19070 G0 Z0
N19075 G1 Z-5.5 F200.3
N19080 G0 Z-0.5
N19085 G1 Z-6 F200.3
N19090 G0 Z-1
N19095 G1 Z-6.5 F200.3
N19100 G0 Z-1.5
N19105 G1 Z-7 F200.3
N19110 G0 Z3
N19115 Z-5
N19120 G1 Z-7.5 F200.3
N19125 G0 Z-2.5
N19130 G1 Z-8 F200.3
N19135 G0 Z-3
N19140 G1 Z-8.5 F200.3
N19145 G0 Z-3.5
N19150 G1 Z-9 F200.3
N19155 G0 Z-4
N19160 G1 Z-9.5 F200.3
N19165 G0 Z-4.5
N19170 G1 Z-10 F200.3
N19175 G0 Z-5
N19180 G1 Z-10 F200.3
N19185 G0 Z3
N19190 X867.5
N19195 Z2
N19200 G1 Z-1 F200.3
N19205 G0 Z4
N19210 G1 Z-1.9 F200.3
N19215 G0 Z3.1
N19220 G1 Z-2.7 F200.3
N19225 G0 Z2.3
N19230 G1 Z-3.4 F200.3
N19235 G0 Z1.6
N19240 G1 Z-4 F200.3
N19245 G0 Z1
N19250 G1 Z-4.5 F200.3
N19255 G0 Z0.5
N19260 G1 Z-5 F200.3
N19265 G0 Z0
N19270 G1 Z-5.5 F200.3
N19275 G0 Z-0.5
N19280 G1 Z-6 F200.3
N19285 G0 Z-1
N19290 G1 Z-6.5 F200.3
N19295 G0 Z-1.5
N19300 G1 Z-7 F200.3
N19305 G0 Z3
N19310 Z-5
N19315 G1 Z-7.5 F200.3
N19320 G0 Z-2.5
N19325 G1 Z-8 F200.3
N19330 G0 Z-3
N19335 G1 Z-8.5 F200.3
N19340 G0 Z-3.5
N19345 G1 Z-9 F200.3
N19350 G0 Z-4
N19355 G1 Z-9.5 F200.3
N19360 G0 Z-4.5
N19365 G1 Z-10 F200.3
N19370 G0 Z-5
N19375 G1 Z-10 F200.3
N19380 G0 Z3
N19385 Y-39
N19390 Z2
N19395 G1 Z-1 F200.3
N19400 G0 Z4
N19405 G1 Z-1.9 F200.3
N19410 G0 Z3.1
N19415 G1 Z-2.7 F200.3
N19420 G0 Z2.3
N19425 G1 Z-3.4 F200.3
N19430 G0 Z1.6
N19435 G1 Z-4 F200.3
N19440 G0 Z1
N19445 G1 Z-4.5 F200.3
N19450 G0 Z0.5
N19455 G1 Z-5 F200.3
N19460 G0 Z0
N19465 G1 Z-5.5 F200.3
N19470 G0 Z-0.5
N19475 G1 Z-6 F200.3
N19480 G0 Z-1
N19485 G1 Z-6.5 F200.3
N19490 G0 Z-1.5
N19495 G1 Z-7 F200.3
N19500 G0 Z3
N19505 Z-5
N19510 G1 Z-7.5 F200.3
N19515 G0 Z-2.5
N19520 G1 Z-8 F200.3
N19525 G0 Z-3
N19530 G1 Z-8.5 F200.3
N19535 G0 Z-3.5
N19540 G1 Z-9 F200.3
N19545 G0 Z-4
N19550 G1 Z-9.5 F200.3
N19555 G0 Z-4.5
N19560 G1 Z-10 F200.3
N19565 G0 Z-5
N19570 G1 Z-10 F200.3
N19575 G0 Z3
N19580 Z6
N19590 M9
N19595 G28 G91 Z0
N19600 G28 X0 Y0
N19605 M30
%
