%
(1)
(T3 D=2.5 CR=0 TAPER=118deg - ZMIN=-2 - drill)
N10 G90 G94
N15 G17
N20 G21
N25 G28 G91 Z0
N30 G90

(Drill3 6)
N35 M9
N40 T3 M6
N45 S15000 M3
N50 G54
N55 M8
N65 G0 X342.5 Y-111
N70 G43 Z20 H3
N80 Z10
N85 G98 G81 X342.5 Y-111 Z-2 R2 F150.3
N90 X267.5
N95 X192.5
N100 X117.5
N105 X125 Y-93.605
N110 X140
N115 Y-55.605
N120 X125
N125 X117.5 Y-39
N130 X192.5
N135 X267.5
N140 X342.5
N145 X417.5
N150 X492.5
N155 X567.5
N160 X642.5
N165 X717.5
N170 X792.5
N175 X817.5 Y-6
N180 X792.5
N185 X767.5
N190 X742.5
N195 X717.5
N200 X692.5
N205 X667.5
N210 X642.5
N215 X617.5
N220 X592.5
N225 X567.5
N230 X542.5
N235 X517.5
N240 X492.5
N245 X467.5
N250 X442.5
N255 X417.5
N260 X392.5
N265 X367.5
N270 X342.5
N275 X317.5
N280 X292.5
N285 X267.5
N290 X242.5
N295 X217.5
N300 X192.5
N305 X167.5
N310 X142.5
N315 X117.5
N320 X92.5
N325 X67.5
N330 X42.5
N335 Y-39
N340 X55 Y-59
N345 Y-67
N350 X64
N355 Y-59
N360 Y-83
N365 Y-91
N370 X55
N375 Y-83
N380 X42.5 Y-111
N385 Y-144
N390 X67.5
N395 X92.5
N400 X117.5
N405 X142.5
N410 X167.5
N415 X192.5
N420 X217.5
N425 X242.5
N430 X267.5
N435 X292.5
N440 X317.5
N445 X342.5
N450 X367.5
N455 X392.5
N460 X417.5
N465 X442.5
N470 X467.5
N475 X492.5
N480 X517.5
N485 X542.5
N490 X567.5
N495 X592.5
N500 X617.5
N505 X642.5
N510 X667.5
N515 X692.5
N520 X717.5
N525 X742.5
N530 X767.5
N535 X792.5
N540 X817.5
N545 X792.5 Y-111
N550 X717.5
N555 X642.5
N560 X567.5
N565 X492.5
N570 X417.5
N575 X867.5
N580 Y-39
N585 G80
N590 Z20
N600 M9
N605 G28 G91 Z0
N610 G28 X0 Y0
N615 M30
%
