%
(1)
(T3 D=2.5 CR=0 TAPER=118deg - ZMIN=-1.5 - drill)
N10 G90 G94
N15 G17
N20 G21
N25 G28 G91 Z0
N30 G90

(Drill3 6)
N35 M9
N40 T3 M6
N45 S15000 M3
N50 G54
N55 M8
N65 G0 X342.5 Y-111
N70 G43 Z20 H3
N80 Z10
N85 Z2
N90 G1 Z-1.5 F150.3
N95 G0 Z10
N100 X267.5
N105 Z2
N110 G1 Z-1.5 F150.3
N115 G0 Z10
N120 X192.5
N125 Z2
N130 G1 Z-1.5 F150.3
N135 G0 Z10
N140 X117.5
N145 Z2
N150 G1 Z-1.5 F150.3
N155 G0 Z10
N160 X125 Y-93.605
N165 Z2
N170 G1 Z-1.5 F150.3
N175 G0 Z10
N180 X140
N185 Z2
N190 G1 Z-1.5 F150.3
N195 G0 Z10
N200 Y-55.605
N205 Z2
N210 G1 Z-1.5 F150.3
N215 G0 Z10
N220 X125
N225 Z2
N230 G1 Z-1.5 F150.3
N235 G0 Z10
N240 X117.5 Y-39
N245 Z2
N250 G1 Z-1.5 F150.3
N255 G0 Z10
N260 X192.5
N265 Z2
N270 G1 Z-1.5 F150.3
N275 G0 Z10
N280 X267.5
N285 Z2
N290 G1 Z-1.5 F150.3
N295 G0 Z10
N300 X342.5
N305 Z2
N310 G1 Z-1.5 F150.3
N315 G0 Z10
N320 X417.5
N325 Z2
N330 G1 Z-1.5 F150.3
N335 G0 Z10
N340 X492.5
N345 Z2
N350 G1 Z-1.5 F150.3
N355 G0 Z10
N360 X567.5
N365 Z2
N370 G1 Z-1.5 F150.3
N375 G0 Z10
N380 X642.5
N385 Z2
N390 G1 Z-1.5 F150.3
N395 G0 Z10
N400 X717.5
N405 Z2
N410 G1 Z-1.5 F150.3
N415 G0 Z10
N420 X792.5
N425 Z2
N430 G1 Z-1.5 F150.3
N435 G0 Z10
N440 X817.5 Y-6
N445 Z2
N450 G1 Z-1.5 F150.3
N455 G0 Z10
N460 X792.5
N465 Z2
N470 G1 Z-1.5 F150.3
N475 G0 Z10
N480 X767.5
N485 Z2
N490 G1 Z-1.5 F150.3
N495 G0 Z10
N500 X742.5
N505 Z2
N510 G1 Z-1.5 F150.3
N515 G0 Z10
N520 X717.5
N525 Z2
N530 G1 Z-1.5 F150.3
N535 G0 Z10
N540 X692.5
N545 Z2
N550 G1 Z-1.5 F150.3
N555 G0 Z10
N560 X667.5
N565 Z2
N570 G1 Z-1.5 F150.3
N575 G0 Z10
N580 X642.5
N585 Z2
N590 G1 Z-1.5 F150.3
N595 G0 Z10
N600 X617.5
N605 Z2
N610 G1 Z-1.5 F150.3
N615 G0 Z10
N620 X592.5
N625 Z2
N630 G1 Z-1.5 F150.3
N635 G0 Z10
N640 X567.5
N645 Z2
N650 G1 Z-1.5 F150.3
N655 G0 Z10
N660 X542.5
N665 Z2
N670 G1 Z-1.5 F150.3
N675 G0 Z10
N680 X517.5
N685 Z2
N690 G1 Z-1.5 F150.3
N695 G0 Z10
N700 X492.5
N705 Z2
N710 G1 Z-1.5 F150.3
N715 G0 Z10
N720 X467.5
N725 Z2
N730 G1 Z-1.5 F150.3
N735 G0 Z10
N740 X442.5
N745 Z2
N750 G1 Z-1.5 F150.3
N755 G0 Z10
N760 X417.5
N765 Z2
N770 G1 Z-1.5 F150.3
N775 G0 Z10
N780 X392.5
N785 Z2
N790 G1 Z-1.5 F150.3
N795 G0 Z10
N800 X367.5
N805 Z2
N810 G1 Z-1.5 F150.3
N815 G0 Z10
N820 X342.5
N825 Z2
N830 G1 Z-1.5 F150.3
N835 G0 Z10
N840 X317.5
N845 Z2
N850 G1 Z-1.5 F150.3
N855 G0 Z10
N860 X292.5
N865 Z2
N870 G1 Z-1.5 F150.3
N875 G0 Z10
N880 X267.5
N885 Z2
N890 G1 Z-1.5 F150.3
N895 G0 Z10
N900 X242.5
N905 Z2
N910 G1 Z-1.5 F150.3
N915 G0 Z10
N920 X217.5
N925 Z2
N930 G1 Z-1.5 F150.3
N935 G0 Z10
N940 X192.5
N945 Z2
N950 G1 Z-1.5 F150.3
N955 G0 Z10
N960 X167.5
N965 Z2
N970 G1 Z-1.5 F150.3
N975 G0 Z10
N980 X142.5
N985 Z2
N990 G1 Z-1.5 F150.3
N995 G0 Z10
N1000 X117.5
N1005 Z2
N1010 G1 Z-1.5 F150.3
N1015 G0 Z10
N1020 X92.5
N1025 Z2
N1030 G1 Z-1.5 F150.3
N1035 G0 Z10
N1040 X67.5
N1045 Z2
N1050 G1 Z-1.5 F150.3
N1055 G0 Z10
N1060 X42.5
N1065 Z2
N1070 G1 Z-1.5 F150.3
N1075 G0 Z10
N1080 Y-39
N1085 Z2
N1090 G1 Z-1.5 F150.3
N1095 G0 Z10
N1100 X55 Y-59
N1105 Z2
N1110 G1 Z-1.5 F150.3
N1115 G0 Z10
N1120 Y-67
N1125 Z2
N1130 G1 Z-1.5 F150.3
N1135 G0 Z10
N1140 X64
N1145 Z2
N1150 G1 Z-1.5 F150.3
N1155 G0 Z10
N1160 Y-59
N1165 Z2
N1170 G1 Z-1.5 F150.3
N1175 G0 Z10
N1180 Y-83
N1185 Z2
N1190 G1 Z-1.5 F150.3
N1195 G0 Z10
N1200 Y-91
N1205 Z2
N1210 G1 Z-1.5 F150.3
N1215 G0 Z10
N1220 X55
N1225 Z2
N1230 G1 Z-1.5 F150.3
N1235 G0 Z10
N1240 Y-83
N1245 Z2
N1250 G1 Z-1.5 F150.3
N1255 G0 Z10
N1260 X42.5 Y-111
N1265 Z2
N1270 G1 Z-1.5 F150.3
N1275 G0 Z10
N1280 Y-144
N1285 Z2
N1290 G1 Z-1.5 F150.3
N1295 G0 Z10
N1300 X67.5
N1305 Z2
N1310 G1 Z-1.5 F150.3
N1315 G0 Z10
N1320 X92.5
N1325 Z2
N1330 G1 Z-1.5 F150.3
N1335 G0 Z10
N1340 X117.5
N1345 Z2
N1350 G1 Z-1.5 F150.3
N1355 G0 Z10
N1360 X142.5
N1365 Z2
N1370 G1 Z-1.5 F150.3
N1375 G0 Z10
N1380 X167.5
N1385 Z2
N1390 G1 Z-1.5 F150.3
N1395 G0 Z10
N1400 X192.5
N1405 Z2
N1410 G1 Z-1.5 F150.3
N1415 G0 Z10
N1420 X217.5
N1425 Z2
N1430 G1 Z-1.5 F150.3
N1435 G0 Z10
N1440 X242.5
N1445 Z2
N1450 G1 Z-1.5 F150.3
N1455 G0 Z10
N1460 X267.5
N1465 Z2
N1470 G1 Z-1.5 F150.3
N1475 G0 Z10
N1480 X292.5
N1485 Z2
N1490 G1 Z-1.5 F150.3
N1495 G0 Z10
N1500 X317.5
N1505 Z2
N1510 G1 Z-1.5 F150.3
N1515 G0 Z10
N1520 X342.5
N1525 Z2
N1530 G1 Z-1.5 F150.3
N1535 G0 Z10
N1540 X367.5
N1545 Z2
N1550 G1 Z-1.5 F150.3
N1555 G0 Z10
N1560 X392.5
N1565 Z2
N1570 G1 Z-1.5 F150.3
N1575 G0 Z10
N1580 X417.5
N1585 Z2
N1590 G1 Z-1.5 F150.3
N1595 G0 Z10
N1600 X442.5
N1605 Z2
N1610 G1 Z-1.5 F150.3
N1615 G0 Z10
N1620 X467.5
N1625 Z2
N1630 G1 Z-1.5 F150.3
N1635 G0 Z10
N1640 X492.5
N1645 Z2
N1650 G1 Z-1.5 F150.3
N1655 G0 Z10
N1660 X517.5
N1665 Z2
N1670 G1 Z-1.5 F150.3
N1675 G0 Z10
N1680 X542.5
N1685 Z2
N1690 G1 Z-1.5 F150.3
N1695 G0 Z10
N1700 X567.5
N1705 Z2
N1710 G1 Z-1.5 F150.3
N1715 G0 Z10
N1720 X592.5
N1725 Z2
N1730 G1 Z-1.5 F150.3
N1735 G0 Z10
N1740 X617.5
N1745 Z2
N1750 G1 Z-1.5 F150.3
N1755 G0 Z10
N1760 X642.5
N1765 Z2
N1770 G1 Z-1.5 F150.3
N1775 G0 Z10
N1780 X667.5
N1785 Z2
N1790 G1 Z-1.5 F150.3
N1795 G0 Z10
N1800 X692.5
N1805 Z2
N1810 G1 Z-1.5 F150.3
N1815 G0 Z10
N1820 X717.5
N1825 Z2
N1830 G1 Z-1.5 F150.3
N1835 G0 Z10
N1840 X742.5
N1845 Z2
N1850 G1 Z-1.5 F150.3
N1855 G0 Z10
N1860 X767.5
N1865 Z2
N1870 G1 Z-1.5 F150.3
N1875 G0 Z10
N1880 X792.5
N1885 Z2
N1890 G1 Z-1.5 F150.3
N1895 G0 Z10
N1900 X817.5
N1905 Z2
N1910 G1 Z-1.5 F150.3
N1915 G0 Z10
N1920 X792.5 Y-111
N1925 Z2
N1930 G1 Z-1.5 F150.3
N1935 G0 Z10
N1940 X717.5
N1945 Z2
N1950 G1 Z-1.5 F150.3
N1955 G0 Z10
N1960 X642.5
N1965 Z2
N1970 G1 Z-1.5 F150.3
N1975 G0 Z10
N1980 X567.5
N1985 Z2
N1990 G1 Z-1.5 F150.3
N1995 G0 Z10
N2000 X492.5
N2005 Z2
N2010 G1 Z-1.5 F150.3
N2015 G0 Z10
N2020 X417.5
N2025 Z2
N2030 G1 Z-1.5 F150.3
N2035 G0 Z10
N2040 X867.5
N2045 Z2
N2050 G1 Z-1.5 F150.3
N2055 G0 Z10
N2060 Y-39
N2065 Z2
N2070 G1 Z-1.5 F150.3
N2075 G0 Z10
N2080 Z20
N2090 M9
N2095 G28 G91 Z0
N2100 G28 X0 Y0
N2105 M30
%
