%
(1)
(T3  D=2.5 CR=0. TAPER=118DEG - ZMIN=-15. - DRILL)
N10 G90 G94 G17 G91.1
N15 G21
N20 G53 G0 Z0.
(DRILL3 6)
N25 M9
N30 T3 M6
N35 S1910 M3
N40 G54
N45 M8
N55 G0 X-111. Y-867.5
N60 G43 Z6. H3
N70 G0 Z3.
N75 G98 G83 X-111. Y-867.5 Z-15. R2. Q1. F100.34
N80 X-39.
N85 Y-717.5
N90 X-111.
N95 Y-642.5
N100 X-39.
N105 Y-567.5
N110 X-111.
N115 Y-492.5
N120 X-39.
N125 Y-417.5
N130 X-111.
N135 Y-342.5
N140 X-39.
N145 Y-267.5
N150 X-111.
N155 Y-192.5
N160 X-39.
N165 X-111. Y-117.5
N170 X-93.605 Y-125.
N175 Y-140.
N180 X-55.605
N185 Y-125.
N190 X-39. Y-117.5
N195 X-59. Y-82.
N200 X-67.
N205 Y-73.
N210 X-59.
N215 Y-64.
N220 X-67.
N225 X-59. Y-55.
N230 X-67.
N235 Y-46.
N240 X-59.
N245 Y-37.
N250 X-67.
N255 X-83.
N260 X-91.
N265 Y-46.
N270 X-83.
N275 Y-55.
N280 X-91.
N285 Y-64.
N290 X-83.
N295 Y-73.
N300 X-91.
N305 Y-82.
N310 X-83.
N315 X-111. Y-42.5
N320 X-144.
N325 Y-67.5
N330 Y-92.5
N335 Y-117.5
N340 Y-142.5
N345 Y-167.5
N350 Y-192.5
N355 Y-217.5
N360 Y-242.5
N365 Y-267.5
N370 Y-292.5
N375 Y-317.5
N380 Y-342.5
N385 Y-367.5
N390 Y-392.5
N395 Y-417.5
N400 Y-442.5
N405 Y-467.5
N410 Y-492.5
N415 Y-517.5
N420 Y-542.5
N425 Y-567.5
N430 Y-592.5
N435 Y-617.5
N440 Y-642.5
N445 Y-667.5
N450 Y-692.5
N455 Y-717.5
N460 Y-742.5
N465 Y-767.5
N470 Y-792.5
N475 Y-817.5
N480 X-111. Y-792.5
N485 X-39.
N490 X-6. Y-817.5
N495 Y-792.5
N500 Y-767.5
N505 Y-742.5
N510 Y-717.5
N515 Y-692.5
N520 Y-667.5
N525 Y-642.5
N530 Y-617.5
N535 Y-592.5
N540 Y-567.5
N545 Y-542.5
N550 Y-517.5
N555 Y-492.5
N560 Y-467.5
N565 Y-442.5
N570 Y-417.5
N575 Y-392.5
N580 Y-367.5
N585 Y-342.5
N590 Y-317.5
N595 Y-292.5
N600 Y-267.5
N605 Y-242.5
N610 Y-217.5
N615 Y-192.5
N620 Y-167.5
N625 Y-142.5
N630 Y-117.5
N635 Y-92.5
N640 Y-67.5
N645 Y-42.5
N650 X-39.
N655 G80
N660 G0 Z6.
N670 M9
N675 G53 Z0.
N680 M30
%
