%
(1)
(T3  D=2.5 CR=0. TAPER=118DEG - ZMIN=-12. - DRILL)
N10 G90 G94 G17 G91.1
N15 G21
N20 G53 G0 Z0.
(DRILL3 4)
N25 M9
N30 T3 M6
N35 S1910 M3
N40 G54
N45 M8
N55 G0 X-111. Y-42.5
N60 G43 Z6. H3
N70 G0 Z3.
N75 G98 G83 X-111. Y-42.5 Z-12. R1. Q1. F100.34
N80 X-144.
N85 Y-67.5
N90 Y-92.5
N95 G80
N100 G0 Z6.
N110 M9
N115 G53 Z0.
N120 M30
%
