%
(1)
(T3  D=2.5 CR=0. TAPER=118DEG - ZMIN=-15. - DRILL)
N10 G90 G94 G17 G91.1
N15 G21
N20 G53 G0 Z0.
(DRILL3)
N25 M9
N30 T3 M6
N35 S1910 M3
N40 G54
N45 M8
N55 G0 X87.5 Y-39.
N60 G43 Z6. H3
N70 G0 Z3.
N75 G98 G83 X87.5 Y-39. Z-15. R1. Q1. F30.34
N80 X95. Y-55.605
N85 X110.
N90 Y-93.605
N95 X95.
N100 X87.5 Y-111.
N105 X162.5
N110 Y-144.
N115 X137.5
N120 X112.5
N125 X87.5
N130 X62.5
N135 X37.5
N140 X12.5
N145 Y-111.
N150 X7. Y-91.
N155 Y-83.
N160 X16.
N165 Y-91.
N170 X25.
N175 Y-83.
N180 X34. Y-91.
N185 Y-83.
N190 X43.
N195 Y-91.
N200 X52.
N205 Y-83.
N210 Y-59.
N215 Y-67.
N220 X43.
N225 Y-59.
N230 X34.
N235 Y-67.
N240 X25. Y-59.
N245 Y-67.
N250 X16.
N255 Y-59.
N260 X7.
N265 Y-67.
N270 X12.5 Y-39.
N275 Y-6.
N280 X37.5
N285 X62.5
N290 X87.5
N295 X112.5
N300 X137.5
N305 X162.5
N310 Y-39.
N315 G80
N320 G0 Z6.
N330 M9
N335 G53 Z0.
N340 M30
%
