%
(1)
(T3  D=2.5 CR=0. TAPER=118DEG - ZMIN=-12. - DRILL)
N10 G90 G94 G17 G91.1
N15 G21
N20 G53 G0 Z0.
(DRILL3 3)
N25 M9
N30 T3 M6
N35 S1910 M3
N40 G54
N45 M8
N55 G0 X-93.605 Y-125.
N60 G43 Z6. H3
N70 G0 Z3.
N75 G98 G83 X-93.605 Y-125. Z-12. R1. Q1. F100.34
N80 Y-140.
N85 X-55.605
N90 Y-125.
N95 X-39. Y-117.5
N100 X-59. Y-82.
N105 X-67.
N110 Y-73.
N115 X-59.
N120 Y-64.
N125 X-67.
N130 X-59. Y-55.
N135 X-67.
N140 Y-46.
N145 X-59.
N150 Y-37.
N155 X-67.
N160 X-91.
N165 X-83.
N170 Y-46.
N175 Y-55.
N180 X-91. Y-64.
N185 X-83.
N190 Y-73.
N195 X-91.
N200 Y-82.
N205 X-83.
N210 X-39. Y-42.5
N215 X-6.
N220 Y-67.5
N225 Y-92.5
N230 Y-117.5
N235 Y-142.5
N240 Y-167.5
N245 Y-192.5
N250 Y-217.5
N255 X-39. Y-192.5
N260 G80
N265 G0 Z6.
N275 M9
N280 G53 Z0.
N285 M30
%
