%
(1)
(T3  D=2.5 CR=0. TAPER=118DEG - ZMIN=-12. - DRILL)
N10 G90 G94 G17 G91.1
N15 G21
N20 G53 G0 Z0.
(DRILL3)
N25 M9
N30 T3 M6
N35 S1910 M3
N40 G54
N45 M8
N55 G0 X-39. Y-117.5
N60 G43 Z6. H3
N70 G0 Z3.
N75 G98 G83 X-39. Y-117.5 Z-12. R1. Q1. F100.34
N80 X-55.605 Y-125.
N85 Y-140.
N90 X-93.605
N95 Y-125.
N100 X-111. Y-117.5
N105 Y-192.5
N110 X-144.
N115 Y-167.5
N120 Y-142.5
N125 Y-117.5
N130 Y-92.5
N135 Y-67.5
N140 Y-42.5
N145 X-111.
N150 X-91. Y-37.
N155 X-83.
N160 Y-46.
N165 X-91.
N170 Y-55.
N175 X-83.
N180 X-91. Y-64.
N185 X-83.
N190 Y-73.
N195 X-91.
N200 Y-82.
N205 X-83.
N210 X-59.
N215 X-67.
N220 Y-73.
N225 X-59.
N230 Y-64.
N235 X-67.
N240 X-59. Y-55.
N245 X-67.
N250 Y-46.
N255 X-59.
N260 Y-37.
N265 X-67.
N270 X-39. Y-42.5
N275 X-6.
N280 Y-67.5
N285 Y-92.5
N290 Y-117.5
N295 Y-142.5
N300 Y-167.5
N305 Y-192.5
N310 X-39.
N315 G80
N320 G0 Z6.
N330 M9
N335 G53 Z0.
N340 M30
%
