%
(1)
(T3 D=2.5 CR=0 TAPER=118deg - ZMIN=-3 - drill)
N10 G90 G94
N15 G17
N20 G21
N25 G28 G91 Z0
N30 G90

(Drill3 6)
N35 M9
N40 T3 M6
N45 S1910 M3
N50 G54
N55 M8
N65 G0 X342.5 Y-111
N70 G43 Z6 H3
N80 Z3
N85 Z2
N90 G1 Z-1 F100.3
N95 G0 Z-0.5
N100 G1 Z-2 F100.3
N105 G0 Z-1.5
N110 G1 Z-3 F100.3
N115 G0 Z3
N120 X267.5
N125 Z2
N130 G1 Z-1 F100.3
N135 G0 Z-0.5
N140 G1 Z-2 F100.3
N145 G0 Z-1.5
N150 G1 Z-3 F100.3
N155 G0 Z3
N160 X192.5
N165 Z2
N170 G1 Z-1 F100.3
N175 G0 Z-0.5
N180 G1 Z-2 F100.3
N185 G0 Z-1.5
N190 G1 Z-3 F100.3
N195 G0 Z3
N200 X117.5
N205 Z2
N210 G1 Z-1 F100.3
N215 G0 Z-0.5
N220 G1 Z-2 F100.3
N225 G0 Z-1.5
N230 G1 Z-3 F100.3
N235 G0 Z3
N240 X125 Y-93.605
N245 Z2
N250 G1 Z-1 F100.3
N255 G0 Z-0.5
N260 G1 Z-2 F100.3
N265 G0 Z-1.5
N270 G1 Z-3 F100.3
N275 G0 Z3
N280 X140
N285 Z2
N290 G1 Z-1 F100.3
N295 G0 Z-0.5
N300 G1 Z-2 F100.3
N305 G0 Z-1.5
N310 G1 Z-3 F100.3
N315 G0 Z3
N320 Y-55.605
N325 Z2
N330 G1 Z-1 F100.3
N335 G0 Z-0.5
N340 G1 Z-2 F100.3
N345 G0 Z-1.5
N350 G1 Z-3 F100.3
N355 G0 Z3
N360 X125
N365 Z2
N370 G1 Z-1 F100.3
N375 G0 Z-0.5
N380 G1 Z-2 F100.3
N385 G0 Z-1.5
N390 G1 Z-3 F100.3
N395 G0 Z3
N400 X117.5 Y-39
N405 Z2
N410 G1 Z-1 F100.3
N415 G0 Z-0.5
N420 G1 Z-2 F100.3
N425 G0 Z-1.5
N430 G1 Z-3 F100.3
N435 G0 Z3
N440 X192.5
N445 Z2
N450 G1 Z-1 F100.3
N455 G0 Z-0.5
N460 G1 Z-2 F100.3
N465 G0 Z-1.5
N470 G1 Z-3 F100.3
N475 G0 Z3
N480 X267.5
N485 Z2
N490 G1 Z-1 F100.3
N495 G0 Z-0.5
N500 G1 Z-2 F100.3
N505 G0 Z-1.5
N510 G1 Z-3 F100.3
N515 G0 Z3
N520 X342.5
N525 Z2
N530 G1 Z-1 F100.3
N535 G0 Z-0.5
N540 G1 Z-2 F100.3
N545 G0 Z-1.5
N550 G1 Z-3 F100.3
N555 G0 Z3
N560 X417.5
N565 Z2
N570 G1 Z-1 F100.3
N575 G0 Z-0.5
N580 G1 Z-2 F100.3
N585 G0 Z-1.5
N590 G1 Z-3 F100.3
N595 G0 Z3
N600 X492.5
N605 Z2
N610 G1 Z-1 F100.3
N615 G0 Z-0.5
N620 G1 Z-2 F100.3
N625 G0 Z-1.5
N630 G1 Z-3 F100.3
N635 G0 Z3
N640 X567.5
N645 Z2
N650 G1 Z-1 F100.3
N655 G0 Z-0.5
N660 G1 Z-2 F100.3
N665 G0 Z-1.5
N670 G1 Z-3 F100.3
N675 G0 Z3
N680 X642.5
N685 Z2
N690 G1 Z-1 F100.3
N695 G0 Z-0.5
N700 G1 Z-2 F100.3
N705 G0 Z-1.5
N710 G1 Z-3 F100.3
N715 G0 Z3
N720 X717.5
N725 Z2
N730 G1 Z-1 F100.3
N735 G0 Z-0.5
N740 G1 Z-2 F100.3
N745 G0 Z-1.5
N750 G1 Z-3 F100.3
N755 G0 Z3
N760 X792.5
N765 Z2
N770 G1 Z-1 F100.3
N775 G0 Z-0.5
N780 G1 Z-2 F100.3
N785 G0 Z-1.5
N790 G1 Z-3 F100.3
N795 G0 Z3
N800 X817.5 Y-6
N805 Z2
N810 G1 Z-1 F100.3
N815 G0 Z-0.5
N820 G1 Z-2 F100.3
N825 G0 Z-1.5
N830 G1 Z-3 F100.3
N835 G0 Z3
N840 X792.5
N845 Z2
N850 G1 Z-1 F100.3
N855 G0 Z-0.5
N860 G1 Z-2 F100.3
N865 G0 Z-1.5
N870 G1 Z-3 F100.3
N875 G0 Z3
N880 X767.5
N885 Z2
N890 G1 Z-1 F100.3
N895 G0 Z-0.5
N900 G1 Z-2 F100.3
N905 G0 Z-1.5
N910 G1 Z-3 F100.3
N915 G0 Z3
N920 X742.5
N925 Z2
N930 G1 Z-1 F100.3
N935 G0 Z-0.5
N940 G1 Z-2 F100.3
N945 G0 Z-1.5
N950 G1 Z-3 F100.3
N955 G0 Z3
N960 X717.5
N965 Z2
N970 G1 Z-1 F100.3
N975 G0 Z-0.5
N980 G1 Z-2 F100.3
N985 G0 Z-1.5
N990 G1 Z-3 F100.3
N995 G0 Z3
N1000 X692.5
N1005 Z2
N1010 G1 Z-1 F100.3
N1015 G0 Z-0.5
N1020 G1 Z-2 F100.3
N1025 G0 Z-1.5
N1030 G1 Z-3 F100.3
N1035 G0 Z3
N1040 X667.5
N1045 Z2
N1050 G1 Z-1 F100.3
N1055 G0 Z-0.5
N1060 G1 Z-2 F100.3
N1065 G0 Z-1.5
N1070 G1 Z-3 F100.3
N1075 G0 Z3
N1080 X642.5
N1085 Z2
N1090 G1 Z-1 F100.3
N1095 G0 Z-0.5
N1100 G1 Z-2 F100.3
N1105 G0 Z-1.5
N1110 G1 Z-3 F100.3
N1115 G0 Z3
N1120 X617.5
N1125 Z2
N1130 G1 Z-1 F100.3
N1135 G0 Z-0.5
N1140 G1 Z-2 F100.3
N1145 G0 Z-1.5
N1150 G1 Z-3 F100.3
N1155 G0 Z3
N1160 X592.5
N1165 Z2
N1170 G1 Z-1 F100.3
N1175 G0 Z-0.5
N1180 G1 Z-2 F100.3
N1185 G0 Z-1.5
N1190 G1 Z-3 F100.3
N1195 G0 Z3
N1200 X567.5
N1205 Z2
N1210 G1 Z-1 F100.3
N1215 G0 Z-0.5
N1220 G1 Z-2 F100.3
N1225 G0 Z-1.5
N1230 G1 Z-3 F100.3
N1235 G0 Z3
N1240 X542.5
N1245 Z2
N1250 G1 Z-1 F100.3
N1255 G0 Z-0.5
N1260 G1 Z-2 F100.3
N1265 G0 Z-1.5
N1270 G1 Z-3 F100.3
N1275 G0 Z3
N1280 X517.5
N1285 Z2
N1290 G1 Z-1 F100.3
N1295 G0 Z-0.5
N1300 G1 Z-2 F100.3
N1305 G0 Z-1.5
N1310 G1 Z-3 F100.3
N1315 G0 Z3
N1320 X492.5
N1325 Z2
N1330 G1 Z-1 F100.3
N1335 G0 Z-0.5
N1340 G1 Z-2 F100.3
N1345 G0 Z-1.5
N1350 G1 Z-3 F100.3
N1355 G0 Z3
N1360 X467.5
N1365 Z2
N1370 G1 Z-1 F100.3
N1375 G0 Z-0.5
N1380 G1 Z-2 F100.3
N1385 G0 Z-1.5
N1390 G1 Z-3 F100.3
N1395 G0 Z3
N1400 X442.5
N1405 Z2
N1410 G1 Z-1 F100.3
N1415 G0 Z-0.5
N1420 G1 Z-2 F100.3
N1425 G0 Z-1.5
N1430 G1 Z-3 F100.3
N1435 G0 Z3
N1440 X417.5
N1445 Z2
N1450 G1 Z-1 F100.3
N1455 G0 Z-0.5
N1460 G1 Z-2 F100.3
N1465 G0 Z-1.5
N1470 G1 Z-3 F100.3
N1475 G0 Z3
N1480 X392.5
N1485 Z2
N1490 G1 Z-1 F100.3
N1495 G0 Z-0.5
N1500 G1 Z-2 F100.3
N1505 G0 Z-1.5
N1510 G1 Z-3 F100.3
N1515 G0 Z3
N1520 X367.5
N1525 Z2
N1530 G1 Z-1 F100.3
N1535 G0 Z-0.5
N1540 G1 Z-2 F100.3
N1545 G0 Z-1.5
N1550 G1 Z-3 F100.3
N1555 G0 Z3
N1560 X342.5
N1565 Z2
N1570 G1 Z-1 F100.3
N1575 G0 Z-0.5
N1580 G1 Z-2 F100.3
N1585 G0 Z-1.5
N1590 G1 Z-3 F100.3
N1595 G0 Z3
N1600 X317.5
N1605 Z2
N1610 G1 Z-1 F100.3
N1615 G0 Z-0.5
N1620 G1 Z-2 F100.3
N1625 G0 Z-1.5
N1630 G1 Z-3 F100.3
N1635 G0 Z3
N1640 X292.5
N1645 Z2
N1650 G1 Z-1 F100.3
N1655 G0 Z-0.5
N1660 G1 Z-2 F100.3
N1665 G0 Z-1.5
N1670 G1 Z-3 F100.3
N1675 G0 Z3
N1680 X267.5
N1685 Z2
N1690 G1 Z-1 F100.3
N1695 G0 Z-0.5
N1700 G1 Z-2 F100.3
N1705 G0 Z-1.5
N1710 G1 Z-3 F100.3
N1715 G0 Z3
N1720 X242.5
N1725 Z2
N1730 G1 Z-1 F100.3
N1735 G0 Z-0.5
N1740 G1 Z-2 F100.3
N1745 G0 Z-1.5
N1750 G1 Z-3 F100.3
N1755 G0 Z3
N1760 X217.5
N1765 Z2
N1770 G1 Z-1 F100.3
N1775 G0 Z-0.5
N1780 G1 Z-2 F100.3
N1785 G0 Z-1.5
N1790 G1 Z-3 F100.3
N1795 G0 Z3
N1800 X192.5
N1805 Z2
N1810 G1 Z-1 F100.3
N1815 G0 Z-0.5
N1820 G1 Z-2 F100.3
N1825 G0 Z-1.5
N1830 G1 Z-3 F100.3
N1835 G0 Z3
N1840 X167.5
N1845 Z2
N1850 G1 Z-1 F100.3
N1855 G0 Z-0.5
N1860 G1 Z-2 F100.3
N1865 G0 Z-1.5
N1870 G1 Z-3 F100.3
N1875 G0 Z3
N1880 X142.5
N1885 Z2
N1890 G1 Z-1 F100.3
N1895 G0 Z-0.5
N1900 G1 Z-2 F100.3
N1905 G0 Z-1.5
N1910 G1 Z-3 F100.3
N1915 G0 Z3
N1920 X117.5
N1925 Z2
N1930 G1 Z-1 F100.3
N1935 G0 Z-0.5
N1940 G1 Z-2 F100.3
N1945 G0 Z-1.5
N1950 G1 Z-3 F100.3
N1955 G0 Z3
N1960 X92.5
N1965 Z2
N1970 G1 Z-1 F100.3
N1975 G0 Z-0.5
N1980 G1 Z-2 F100.3
N1985 G0 Z-1.5
N1990 G1 Z-3 F100.3
N1995 G0 Z3
N2000 X67.5
N2005 Z2
N2010 G1 Z-1 F100.3
N2015 G0 Z-0.5
N2020 G1 Z-2 F100.3
N2025 G0 Z-1.5
N2030 G1 Z-3 F100.3
N2035 G0 Z3
N2040 X42.5
N2045 Z2
N2050 G1 Z-1 F100.3
N2055 G0 Z-0.5
N2060 G1 Z-2 F100.3
N2065 G0 Z-1.5
N2070 G1 Z-3 F100.3
N2075 G0 Z3
N2080 Y-39
N2085 Z2
N2090 G1 Z-1 F100.3
N2095 G0 Z-0.5
N2100 G1 Z-2 F100.3
N2105 G0 Z-1.5
N2110 G1 Z-3 F100.3
N2115 G0 Z3
N2120 X55 Y-59
N2125 Z2
N2130 G1 Z-1 F100.3
N2135 G0 Z-0.5
N2140 G1 Z-2 F100.3
N2145 G0 Z-1.5
N2150 G1 Z-3 F100.3
N2155 G0 Z3
N2160 Y-67
N2165 Z2
N2170 G1 Z-1 F100.3
N2175 G0 Z-0.5
N2180 G1 Z-2 F100.3
N2185 G0 Z-1.5
N2190 G1 Z-3 F100.3
N2195 G0 Z3
N2200 X64
N2205 Z2
N2210 G1 Z-1 F100.3
N2215 G0 Z-0.5
N2220 G1 Z-2 F100.3
N2225 G0 Z-1.5
N2230 G1 Z-3 F100.3
N2235 G0 Z3
N2240 Y-59
N2245 Z2
N2250 G1 Z-1 F100.3
N2255 G0 Z-0.5
N2260 G1 Z-2 F100.3
N2265 G0 Z-1.5
N2270 G1 Z-3 F100.3
N2275 G0 Z3
N2280 Y-83
N2285 Z2
N2290 G1 Z-1 F100.3
N2295 G0 Z-0.5
N2300 G1 Z-2 F100.3
N2305 G0 Z-1.5
N2310 G1 Z-3 F100.3
N2315 G0 Z3
N2320 Y-91
N2325 Z2
N2330 G1 Z-1 F100.3
N2335 G0 Z-0.5
N2340 G1 Z-2 F100.3
N2345 G0 Z-1.5
N2350 G1 Z-3 F100.3
N2355 G0 Z3
N2360 X55
N2365 Z2
N2370 G1 Z-1 F100.3
N2375 G0 Z-0.5
N2380 G1 Z-2 F100.3
N2385 G0 Z-1.5
N2390 G1 Z-3 F100.3
N2395 G0 Z3
N2400 Y-83
N2405 Z2
N2410 G1 Z-1 F100.3
N2415 G0 Z-0.5
N2420 G1 Z-2 F100.3
N2425 G0 Z-1.5
N2430 G1 Z-3 F100.3
N2435 G0 Z3
N2440 X42.5 Y-111
N2445 Z2
N2450 G1 Z-1 F100.3
N2455 G0 Z-0.5
N2460 G1 Z-2 F100.3
N2465 G0 Z-1.5
N2470 G1 Z-3 F100.3
N2475 G0 Z3
N2480 Y-144
N2485 Z2
N2490 G1 Z-1 F100.3
N2495 G0 Z-0.5
N2500 G1 Z-2 F100.3
N2505 G0 Z-1.5
N2510 G1 Z-3 F100.3
N2515 G0 Z3
N2520 X67.5
N2525 Z2
N2530 G1 Z-1 F100.3
N2535 G0 Z-0.5
N2540 G1 Z-2 F100.3
N2545 G0 Z-1.5
N2550 G1 Z-3 F100.3
N2555 G0 Z3
N2560 X92.5
N2565 Z2
N2570 G1 Z-1 F100.3
N2575 G0 Z-0.5
N2580 G1 Z-2 F100.3
N2585 G0 Z-1.5
N2590 G1 Z-3 F100.3
N2595 G0 Z3
N2600 X117.5
N2605 Z2
N2610 G1 Z-1 F100.3
N2615 G0 Z-0.5
N2620 G1 Z-2 F100.3
N2625 G0 Z-1.5
N2630 G1 Z-3 F100.3
N2635 G0 Z3
N2640 X142.5
N2645 Z2
N2650 G1 Z-1 F100.3
N2655 G0 Z-0.5
N2660 G1 Z-2 F100.3
N2665 G0 Z-1.5
N2670 G1 Z-3 F100.3
N2675 G0 Z3
N2680 X167.5
N2685 Z2
N2690 G1 Z-1 F100.3
N2695 G0 Z-0.5
N2700 G1 Z-2 F100.3
N2705 G0 Z-1.5
N2710 G1 Z-3 F100.3
N2715 G0 Z3
N2720 X192.5
N2725 Z2
N2730 G1 Z-1 F100.3
N2735 G0 Z-0.5
N2740 G1 Z-2 F100.3
N2745 G0 Z-1.5
N2750 G1 Z-3 F100.3
N2755 G0 Z3
N2760 X217.5
N2765 Z2
N2770 G1 Z-1 F100.3
N2775 G0 Z-0.5
N2780 G1 Z-2 F100.3
N2785 G0 Z-1.5
N2790 G1 Z-3 F100.3
N2795 G0 Z3
N2800 X242.5
N2805 Z2
N2810 G1 Z-1 F100.3
N2815 G0 Z-0.5
N2820 G1 Z-2 F100.3
N2825 G0 Z-1.5
N2830 G1 Z-3 F100.3
N2835 G0 Z3
N2840 X267.5
N2845 Z2
N2850 G1 Z-1 F100.3
N2855 G0 Z-0.5
N2860 G1 Z-2 F100.3
N2865 G0 Z-1.5
N2870 G1 Z-3 F100.3
N2875 G0 Z3
N2880 X292.5
N2885 Z2
N2890 G1 Z-1 F100.3
N2895 G0 Z-0.5
N2900 G1 Z-2 F100.3
N2905 G0 Z-1.5
N2910 G1 Z-3 F100.3
N2915 G0 Z3
N2920 X317.5
N2925 Z2
N2930 G1 Z-1 F100.3
N2935 G0 Z-0.5
N2940 G1 Z-2 F100.3
N2945 G0 Z-1.5
N2950 G1 Z-3 F100.3
N2955 G0 Z3
N2960 X342.5
N2965 Z2
N2970 G1 Z-1 F100.3
N2975 G0 Z-0.5
N2980 G1 Z-2 F100.3
N2985 G0 Z-1.5
N2990 G1 Z-3 F100.3
N2995 G0 Z3
N3000 X367.5
N3005 Z2
N3010 G1 Z-1 F100.3
N3015 G0 Z-0.5
N3020 G1 Z-2 F100.3
N3025 G0 Z-1.5
N3030 G1 Z-3 F100.3
N3035 G0 Z3
N3040 X392.5
N3045 Z2
N3050 G1 Z-1 F100.3
N3055 G0 Z-0.5
N3060 G1 Z-2 F100.3
N3065 G0 Z-1.5
N3070 G1 Z-3 F100.3
N3075 G0 Z3
N3080 X417.5
N3085 Z2
N3090 G1 Z-1 F100.3
N3095 G0 Z-0.5
N3100 G1 Z-2 F100.3
N3105 G0 Z-1.5
N3110 G1 Z-3 F100.3
N3115 G0 Z3
N3120 X442.5
N3125 Z2
N3130 G1 Z-1 F100.3
N3135 G0 Z-0.5
N3140 G1 Z-2 F100.3
N3145 G0 Z-1.5
N3150 G1 Z-3 F100.3
N3155 G0 Z3
N3160 X467.5
N3165 Z2
N3170 G1 Z-1 F100.3
N3175 G0 Z-0.5
N3180 G1 Z-2 F100.3
N3185 G0 Z-1.5
N3190 G1 Z-3 F100.3
N3195 G0 Z3
N3200 X492.5
N3205 Z2
N3210 G1 Z-1 F100.3
N3215 G0 Z-0.5
N3220 G1 Z-2 F100.3
N3225 G0 Z-1.5
N3230 G1 Z-3 F100.3
N3235 G0 Z3
N3240 X517.5
N3245 Z2
N3250 G1 Z-1 F100.3
N3255 G0 Z-0.5
N3260 G1 Z-2 F100.3
N3265 G0 Z-1.5
N3270 G1 Z-3 F100.3
N3275 G0 Z3
N3280 X542.5
N3285 Z2
N3290 G1 Z-1 F100.3
N3295 G0 Z-0.5
N3300 G1 Z-2 F100.3
N3305 G0 Z-1.5
N3310 G1 Z-3 F100.3
N3315 G0 Z3
N3320 X567.5
N3325 Z2
N3330 G1 Z-1 F100.3
N3335 G0 Z-0.5
N3340 G1 Z-2 F100.3
N3345 G0 Z-1.5
N3350 G1 Z-3 F100.3
N3355 G0 Z3
N3360 X592.5
N3365 Z2
N3370 G1 Z-1 F100.3
N3375 G0 Z-0.5
N3380 G1 Z-2 F100.3
N3385 G0 Z-1.5
N3390 G1 Z-3 F100.3
N3395 G0 Z3
N3400 X617.5
N3405 Z2
N3410 G1 Z-1 F100.3
N3415 G0 Z-0.5
N3420 G1 Z-2 F100.3
N3425 G0 Z-1.5
N3430 G1 Z-3 F100.3
N3435 G0 Z3
N3440 X642.5
N3445 Z2
N3450 G1 Z-1 F100.3
N3455 G0 Z-0.5
N3460 G1 Z-2 F100.3
N3465 G0 Z-1.5
N3470 G1 Z-3 F100.3
N3475 G0 Z3
N3480 X667.5
N3485 Z2
N3490 G1 Z-1 F100.3
N3495 G0 Z-0.5
N3500 G1 Z-2 F100.3
N3505 G0 Z-1.5
N3510 G1 Z-3 F100.3
N3515 G0 Z3
N3520 X692.5
N3525 Z2
N3530 G1 Z-1 F100.3
N3535 G0 Z-0.5
N3540 G1 Z-2 F100.3
N3545 G0 Z-1.5
N3550 G1 Z-3 F100.3
N3555 G0 Z3
N3560 X717.5
N3565 Z2
N3570 G1 Z-1 F100.3
N3575 G0 Z-0.5
N3580 G1 Z-2 F100.3
N3585 G0 Z-1.5
N3590 G1 Z-3 F100.3
N3595 G0 Z3
N3600 X742.5
N3605 Z2
N3610 G1 Z-1 F100.3
N3615 G0 Z-0.5
N3620 G1 Z-2 F100.3
N3625 G0 Z-1.5
N3630 G1 Z-3 F100.3
N3635 G0 Z3
N3640 X767.5
N3645 Z2
N3650 G1 Z-1 F100.3
N3655 G0 Z-0.5
N3660 G1 Z-2 F100.3
N3665 G0 Z-1.5
N3670 G1 Z-3 F100.3
N3675 G0 Z3
N3680 X792.5
N3685 Z2
N3690 G1 Z-1 F100.3
N3695 G0 Z-0.5
N3700 G1 Z-2 F100.3
N3705 G0 Z-1.5
N3710 G1 Z-3 F100.3
N3715 G0 Z3
N3720 X817.5
N3725 Z2
N3730 G1 Z-1 F100.3
N3735 G0 Z-0.5
N3740 G1 Z-2 F100.3
N3745 G0 Z-1.5
N3750 G1 Z-3 F100.3
N3755 G0 Z3
N3760 X792.5 Y-111
N3765 Z2
N3770 G1 Z-1 F100.3
N3775 G0 Z-0.5
N3780 G1 Z-2 F100.3
N3785 G0 Z-1.5
N3790 G1 Z-3 F100.3
N3795 G0 Z3
N3800 X717.5
N3805 Z2
N3810 G1 Z-1 F100.3
N3815 G0 Z-0.5
N3820 G1 Z-2 F100.3
N3825 G0 Z-1.5
N3830 G1 Z-3 F100.3
N3835 G0 Z3
N3840 X642.5
N3845 Z2
N3850 G1 Z-1 F100.3
N3855 G0 Z-0.5
N3860 G1 Z-2 F100.3
N3865 G0 Z-1.5
N3870 G1 Z-3 F100.3
N3875 G0 Z3
N3880 X567.5
N3885 Z2
N3890 G1 Z-1 F100.3
N3895 G0 Z-0.5
N3900 G1 Z-2 F100.3
N3905 G0 Z-1.5
N3910 G1 Z-3 F100.3
N3915 G0 Z3
N3920 X492.5
N3925 Z2
N3930 G1 Z-1 F100.3
N3935 G0 Z-0.5
N3940 G1 Z-2 F100.3
N3945 G0 Z-1.5
N3950 G1 Z-3 F100.3
N3955 G0 Z3
N3960 X417.5
N3965 Z2
N3970 G1 Z-1 F100.3
N3975 G0 Z-0.5
N3980 G1 Z-2 F100.3
N3985 G0 Z-1.5
N3990 G1 Z-3 F100.3
N3995 G0 Z3
N4000 X867.5
N4005 Z2
N4010 G1 Z-1 F100.3
N4015 G0 Z-0.5
N4020 G1 Z-2 F100.3
N4025 G0 Z-1.5
N4030 G1 Z-3 F100.3
N4035 G0 Z3
N4040 Y-39
N4045 Z2
N4050 G1 Z-1 F100.3
N4055 G0 Z-0.5
N4060 G1 Z-2 F100.3
N4065 G0 Z-1.5
N4070 G1 Z-3 F100.3
N4075 G0 Z3
N4080 Z6
N4090 M9
N4095 G28 G91 Z0
N4100 G28 X0 Y0
N4105 M30
%
