%
(1)
(T13  D=5.95 CR=0. - ZMIN=-4.5 - FLAT END MILL)
N10 G90 G94 G17 G91.1
N15 G21
N20 G53 G0 Z0.
(2D POCKET7 5)
N25 M9
N30 T13 M6
N35 S4000 M3
N40 G54
N45 M8
N55 G0 X-36.36 Y-117.752
N60 G43 Z11. H13
N65 #100=1000. (CUTTING)
N70 #103=1000. (ENTRY)
N75 #104=1000. (EXIT)
N80 #107=800. (RAMPING)
N85 G0 Z3.095
N90 G3 X-36.358 Y-117.724 Z2.915 I-2.815 J0.252 F#107
N95 X-36.352 Y-117.644 Z2.752 I-2.817 J0.224
N100 X-36.349 Y-117.517 Z2.621 I-2.823 J0.144
N105 X-36.352 Y-117.357 Z2.534 I-2.826 J0.017
N110 X-36.367 Y-117.179 Z2.5 I-2.823 J-0.143
N115 X-41.983 Y-117.821 Z2.19 I-2.808 J-0.321
N120 X-36.367 Y-117.179 Z1.88 I2.808 J0.321
N125 X-41.983 Y-117.821 Z1.57 I-2.808 J-0.321
N130 X-36.367 Y-117.179 Z1.26 I2.808 J0.321
N135 X-41.983 Y-117.821 Z0.95 I-2.808 J-0.321
N140 X-36.367 Y-117.179 Z0.64 I2.808 J0.321
N145 X-41.983 Y-117.821 Z0.33 I-2.808 J-0.321
N150 X-36.367 Y-117.179 Z0.02 I2.808 J0.321
N155 X-41.983 Y-117.821 Z-0.291 I-2.808 J-0.321
N160 X-36.367 Y-117.179 Z-0.601 I2.808 J0.321
N165 X-41.983 Y-117.821 Z-0.911 I-2.808 J-0.321
N170 X-36.367 Y-117.179 Z-1.221 I2.808 J0.321
N175 X-41.983 Y-117.821 Z-1.531 I-2.808 J-0.321
N180 X-36.367 Y-117.179 Z-1.841 I2.808 J0.321
N185 X-41.983 Y-117.821 Z-2.151 I-2.808 J-0.321
N190 X-36.367 Y-117.179 Z-2.461 I2.808 J0.321
N195 X-41.983 Y-117.821 Z-2.771 I-2.808 J-0.321
N200 X-36.367 Y-117.179 Z-3.081 I2.808 J0.321
N205 X-41.983 Y-117.821 Z-3.391 I-2.808 J-0.321
N210 X-36.367 Y-117.179 Z-3.701 I2.808 J0.321
N215 X-42.001 Y-117.5 Z-4. I-2.808 J-0.321
N220 X-38.975 I1.513 J0.
N225 X-39.025 I-0.025 J0. F#100
N230 X-38.725 I0.15 J0.
N235 X-39.275 I-0.275 J0.
N240 X-38.475 I0.4 J0.
N245 X-39.525 I-0.525 J0.
N250 X-38.225 I0.65 J0.
N255 X-39.775 I-0.775 J0.
N260 X-37.975 I0.9 J0.
N265 X-40.025 I-1.025 J0.
N270 X-37.725 I1.15 J0.
N275 X-40.275 I-1.275 J0.
N280 X-37.475 I1.4 J0.
N285 X-40.525 I-1.525 J0.
N290 X-37.225 I1.65 J0.
N295 X-40.775 I-1.775 J0.
N300 X-36.975 I1.9 J0.
N305 X-41.025 I-2.025 J0.
N310 X-36.725 I2.15 J0.
N315 X-41.275 I-2.275 J0.
N320 X-36.475 I2.4 J0.
N325 X-41.525 I-2.525 J0.
N330 X-36.225 I2.65 J0.
N335 X-41.775 I-2.775 J0.
N340 X-35.975 I2.9 J0.
N345 X-42.025 I-3.025 J0.
N350 X-35.975 I3.025 J0.
N355 X-36.003 Y-117.319 Z-3.971 I-0.595 J0. F#104
N360 X-36.075 Y-117.17 Z-3.886 I-0.567 J-0.181
N365 X-36.159 Y-117.069 Z-3.755 I-0.495 J-0.33
N370 X-36.224 Y-117.016 Z-3.589 I-0.411 J-0.431
N375 X-36.249 Y-116.999 Z-3.405 I-0.346 J-0.484
N380 G0 Z8.
N385 X-36.36 Y-42.752
N390 Z3.095
N395 G3 X-36.358 Y-42.724 Z2.915 I-2.815 J0.252 F#107
N400 X-36.352 Y-42.644 Z2.752 I-2.817 J0.224
N405 X-36.349 Y-42.517 Z2.621 I-2.823 J0.144
N410 X-36.352 Y-42.357 Z2.534 I-2.826 J0.017
N415 X-36.367 Y-42.179 Z2.5 I-2.823 J-0.143
N420 X-41.983 Y-42.821 Z2.19 I-2.808 J-0.321
N425 X-36.367 Y-42.179 Z1.88 I2.808 J0.321
N430 X-41.983 Y-42.821 Z1.57 I-2.808 J-0.321
N435 X-36.367 Y-42.179 Z1.26 I2.808 J0.321
N440 X-41.983 Y-42.821 Z0.95 I-2.808 J-0.321
N445 X-36.367 Y-42.179 Z0.64 I2.808 J0.321
N450 X-41.983 Y-42.821 Z0.33 I-2.808 J-0.321
N455 X-36.367 Y-42.179 Z0.02 I2.808 J0.321
N460 X-41.983 Y-42.821 Z-0.291 I-2.808 J-0.321
N465 X-36.367 Y-42.179 Z-0.601 I2.808 J0.321
N470 X-41.983 Y-42.821 Z-0.911 I-2.808 J-0.321
N475 X-36.367 Y-42.179 Z-1.221 I2.808 J0.321
N480 X-41.983 Y-42.821 Z-1.531 I-2.808 J-0.321
N485 X-36.367 Y-42.179 Z-1.841 I2.808 J0.321
N490 X-41.983 Y-42.821 Z-2.151 I-2.808 J-0.321
N495 X-36.367 Y-42.179 Z-2.461 I2.808 J0.321
N500 X-41.983 Y-42.821 Z-2.771 I-2.808 J-0.321
N505 X-36.367 Y-42.179 Z-3.081 I2.808 J0.321
N510 X-41.983 Y-42.821 Z-3.391 I-2.808 J-0.321
N515 X-36.367 Y-42.179 Z-3.701 I2.808 J0.321
N520 X-42.001 Y-42.5 Z-4. I-2.808 J-0.321
N525 X-38.975 I1.513 J0.
N530 X-39.025 I-0.025 J0. F#100
N535 X-38.725 I0.15 J0.
N540 X-39.275 I-0.275 J0.
N545 X-38.475 I0.4 J0.
N550 X-39.525 I-0.525 J0.
N555 X-38.225 I0.65 J0.
N560 X-39.775 I-0.775 J0.
N565 X-37.975 I0.9 J0.
N570 X-40.025 I-1.025 J0.
N575 X-37.725 I1.15 J0.
N580 X-40.275 I-1.275 J0.
N585 X-37.475 I1.4 J0.
N590 X-40.525 I-1.525 J0.
N595 X-37.225 I1.65 J0.
N600 X-40.775 I-1.775 J0.
N605 X-36.975 I1.9 J0.
N610 X-41.025 I-2.025 J0.
N615 X-36.725 I2.15 J0.
N620 X-41.275 I-2.275 J0.
N625 X-36.475 I2.4 J0.
N630 X-41.525 I-2.525 J0.
N635 X-36.225 I2.65 J0.
N640 X-41.775 I-2.775 J0.
N645 X-35.975 I2.9 J0.
N650 X-42.025 I-3.025 J0.
N655 X-35.975 I3.025 J0.
N660 X-36.003 Y-42.319 Z-3.971 I-0.595 J0. F#104
N665 X-36.075 Y-42.17 Z-3.886 I-0.567 J-0.181
N670 X-36.159 Y-42.069 Z-3.755 I-0.495 J-0.33
N675 X-36.224 Y-42.016 Z-3.589 I-0.411 J-0.431
N680 X-36.249 Y-41.999 Z-3.405 I-0.346 J-0.484
N685 G0 Z8.
N690 X-108.36 Y-42.752
N695 Z3.095
N700 G3 X-108.358 Y-42.724 Z2.915 I-2.815 J0.252 F#107
N705 X-108.352 Y-42.644 Z2.752 I-2.817 J0.224
N710 X-108.349 Y-42.517 Z2.621 I-2.823 J0.144
N715 X-108.352 Y-42.357 Z2.534 I-2.826 J0.017
N720 X-108.367 Y-42.179 Z2.5 I-2.823 J-0.143
N725 X-113.983 Y-42.821 Z2.19 I-2.808 J-0.321
N730 X-108.367 Y-42.179 Z1.88 I2.808 J0.321
N735 X-113.983 Y-42.821 Z1.57 I-2.808 J-0.321
N740 X-108.367 Y-42.179 Z1.26 I2.808 J0.321
N745 X-113.983 Y-42.821 Z0.95 I-2.808 J-0.321
N750 X-108.367 Y-42.179 Z0.64 I2.808 J0.321
N755 X-113.983 Y-42.821 Z0.33 I-2.808 J-0.321
N760 X-108.367 Y-42.179 Z0.02 I2.808 J0.321
N765 X-113.983 Y-42.821 Z-0.291 I-2.808 J-0.321
N770 X-108.367 Y-42.179 Z-0.601 I2.808 J0.321
N775 X-113.983 Y-42.821 Z-0.911 I-2.808 J-0.321
N780 X-108.367 Y-42.179 Z-1.221 I2.808 J0.321
N785 X-113.983 Y-42.821 Z-1.531 I-2.808 J-0.321
N790 X-108.367 Y-42.179 Z-1.841 I2.808 J0.321
N795 X-113.983 Y-42.821 Z-2.151 I-2.808 J-0.321
N800 X-108.367 Y-42.179 Z-2.461 I2.808 J0.321
N805 X-113.983 Y-42.821 Z-2.771 I-2.808 J-0.321
N810 X-108.367 Y-42.179 Z-3.081 I2.808 J0.321
N815 X-113.983 Y-42.821 Z-3.391 I-2.808 J-0.321
N820 X-108.367 Y-42.179 Z-3.701 I2.808 J0.321
N825 X-114.001 Y-42.5 Z-4. I-2.808 J-0.321
N830 X-110.975 I1.513 J0.
N835 X-111.025 I-0.025 J0. F#100
N840 X-110.725 I0.15 J0.
N845 X-111.275 I-0.275 J0.
N850 X-110.475 I0.4 J0.
N855 X-111.525 I-0.525 J0.
N860 X-110.225 I0.65 J0.
N865 X-111.775 I-0.775 J0.
N870 X-109.975 I0.9 J0.
N875 X-112.025 I-1.025 J0.
N880 X-109.725 I1.15 J0.
N885 X-112.275 I-1.275 J0.
N890 X-109.475 I1.4 J0.
N895 X-112.525 I-1.525 J0.
N900 X-109.225 I1.65 J0.
N905 X-112.775 I-1.775 J0.
N910 X-108.975 I1.9 J0.
N915 X-113.025 I-2.025 J0.
N920 X-108.725 I2.15 J0.
N925 X-113.275 I-2.275 J0.
N930 X-108.475 I2.4 J0.
N935 X-113.525 I-2.525 J0.
N940 X-108.225 I2.65 J0.
N945 X-113.775 I-2.775 J0.
N950 X-107.975 I2.9 J0.
N955 X-114.025 I-3.025 J0.
N960 X-107.975 I3.025 J0.
N965 X-108.003 Y-42.319 Z-3.971 I-0.595 J0. F#104
N970 X-108.075 Y-42.17 Z-3.886 I-0.567 J-0.181
N975 X-108.159 Y-42.069 Z-3.755 I-0.495 J-0.33
N980 X-108.224 Y-42.016 Z-3.589 I-0.411 J-0.431
N985 X-108.249 Y-41.999 Z-3.405 I-0.346 J-0.484
N990 G0 Z8.
N995 X-36.36 Y-192.752
N1000 Z3.095
N1005 G3 X-36.358 Y-192.724 Z2.915 I-2.815 J0.252 F#107
N1010 X-36.352 Y-192.644 Z2.752 I-2.817 J0.224
N1015 X-36.349 Y-192.517 Z2.621 I-2.823 J0.144
N1020 X-36.352 Y-192.357 Z2.534 I-2.826 J0.017
N1025 X-36.367 Y-192.179 Z2.5 I-2.823 J-0.143
N1030 X-41.983 Y-192.821 Z2.19 I-2.808 J-0.321
N1035 X-36.367 Y-192.179 Z1.88 I2.808 J0.321
N1040 X-41.983 Y-192.821 Z1.57 I-2.808 J-0.321
N1045 X-36.367 Y-192.179 Z1.26 I2.808 J0.321
N1050 X-41.983 Y-192.821 Z0.95 I-2.808 J-0.321
N1055 X-36.367 Y-192.179 Z0.64 I2.808 J0.321
N1060 X-41.983 Y-192.821 Z0.33 I-2.808 J-0.321
N1065 X-36.367 Y-192.179 Z0.02 I2.808 J0.321
N1070 X-41.983 Y-192.821 Z-0.291 I-2.808 J-0.321
N1075 X-36.367 Y-192.179 Z-0.601 I2.808 J0.321
N1080 X-41.983 Y-192.821 Z-0.911 I-2.808 J-0.321
N1085 X-36.367 Y-192.179 Z-1.221 I2.808 J0.321
N1090 X-41.983 Y-192.821 Z-1.531 I-2.808 J-0.321
N1095 X-36.367 Y-192.179 Z-1.841 I2.808 J0.321
N1100 X-41.983 Y-192.821 Z-2.151 I-2.808 J-0.321
N1105 X-36.367 Y-192.179 Z-2.461 I2.808 J0.321
N1110 X-41.983 Y-192.821 Z-2.771 I-2.808 J-0.321
N1115 X-36.367 Y-192.179 Z-3.081 I2.808 J0.321
N1120 X-41.983 Y-192.821 Z-3.391 I-2.808 J-0.321
N1125 X-36.367 Y-192.179 Z-3.701 I2.808 J0.321
N1130 X-42.001 Y-192.5 Z-4. I-2.808 J-0.321
N1135 X-38.975 I1.513 J0.
N1140 X-39.025 I-0.025 J0. F#100
N1145 X-38.725 I0.15 J0.
N1150 X-39.275 I-0.275 J0.
N1155 X-38.475 I0.4 J0.
N1160 X-39.525 I-0.525 J0.
N1165 X-38.225 I0.65 J0.
N1170 X-39.775 I-0.775 J0.
N1175 X-37.975 I0.9 J0.
N1180 X-40.025 I-1.025 J0.
N1185 X-37.725 I1.15 J0.
N1190 X-40.275 I-1.275 J0.
N1195 X-37.475 I1.4 J0.
N1200 X-40.525 I-1.525 J0.
N1205 X-37.225 I1.65 J0.
N1210 X-40.775 I-1.775 J0.
N1215 X-36.975 I1.9 J0.
N1220 X-41.025 I-2.025 J0.
N1225 X-36.725 I2.15 J0.
N1230 X-41.275 I-2.275 J0.
N1235 X-36.475 I2.4 J0.
N1240 X-41.525 I-2.525 J0.
N1245 X-36.225 I2.65 J0.
N1250 X-41.775 I-2.775 J0.
N1255 X-35.975 I2.9 J0.
N1260 X-42.025 I-3.025 J0.
N1265 X-35.975 I3.025 J0.
N1270 X-36.003 Y-192.319 Z-3.971 I-0.595 J0. F#104
N1275 X-36.075 Y-192.17 Z-3.886 I-0.567 J-0.181
N1280 X-36.159 Y-192.069 Z-3.755 I-0.495 J-0.33
N1285 X-36.224 Y-192.016 Z-3.589 I-0.411 J-0.431
N1290 X-36.249 Y-191.999 Z-3.405 I-0.346 J-0.484
N1295 G0 Z11.
(2D POCKET7 6)
N1305 M8
N1310 G0 X-82.839 Y-54.242
N1315 #100=1000. (CUTTING)
N1320 #103=1000. (ENTRY)
N1325 #104=1000. (EXIT)
N1330 #107=800. (RAMPING)
N1335 Z11.
N1340 Z3.095
N1345 G3 X-82.866 Y-54.237 Z2.915 I-0.161 J-0.758 F#107
N1350 X-82.946 Y-54.227 Z2.752 I-0.134 J-0.763
N1355 X-83.073 Y-54.228 Z2.621 I-0.054 J-0.773
N1360 X-83.229 Y-54.26 Z2.534 I0.073 J-0.772
N1365 X-83.393 Y-54.332 Z2.5 I0.229 J-0.74
N1370 X-82.607 Y-55.668 Z2.415 I0.393 J-0.668
N1375 X-83.393 Y-54.332 Z2.33 I-0.393 J0.668
N1380 X-82.607 Y-55.668 Z2.245 I0.393 J-0.668
N1385 X-83.393 Y-54.332 Z2.16 I-0.393 J0.668
N1390 X-82.607 Y-55.668 Z2.075 I0.393 J-0.668
N1395 X-83.393 Y-54.332 Z1.99 I-0.393 J0.668
N1400 X-82.607 Y-55.668 Z1.905 I0.393 J-0.668
N1405 X-83.393 Y-54.332 Z1.82 I-0.393 J0.668
N1410 X-82.607 Y-55.668 Z1.735 I0.393 J-0.668
N1415 X-83.393 Y-54.332 Z1.65 I-0.393 J0.668
N1420 X-82.607 Y-55.668 Z1.565 I0.393 J-0.668
N1425 X-83.393 Y-54.332 Z1.48 I-0.393 J0.668
N1430 X-82.607 Y-55.668 Z1.395 I0.393 J-0.668
N1435 X-83.393 Y-54.332 Z1.31 I-0.393 J0.668
N1440 X-82.607 Y-55.668 Z1.225 I0.393 J-0.668
N1445 X-83.393 Y-54.332 Z1.14 I-0.393 J0.668
N1450 X-82.607 Y-55.668 Z1.055 I0.393 J-0.668
N1455 X-83.393 Y-54.332 Z0.97 I-0.393 J0.668
N1460 X-82.607 Y-55.668 Z0.885 I0.393 J-0.668
N1465 X-83.393 Y-54.332 Z0.8 I-0.393 J0.668
N1470 X-82.607 Y-55.668 Z0.715 I0.393 J-0.668
N1475 X-83.393 Y-54.332 Z0.629 I-0.393 J0.668
N1480 X-82.607 Y-55.668 Z0.544 I0.393 J-0.668
N1485 X-83.393 Y-54.332 Z0.459 I-0.393 J0.668
N1490 X-82.607 Y-55.668 Z0.374 I0.393 J-0.668
N1495 X-83.393 Y-54.332 Z0.289 I-0.393 J0.668
N1500 X-82.607 Y-55.668 Z0.204 I0.393 J-0.668
N1505 X-83.393 Y-54.332 Z0.119 I-0.393 J0.668
N1510 X-82.607 Y-55.668 Z0.034 I0.393 J-0.668
N1515 X-83.393 Y-54.332 Z-0.051 I-0.393 J0.668
N1520 X-82.607 Y-55.668 Z-0.136 I0.393 J-0.668
N1525 X-83.393 Y-54.332 Z-0.221 I-0.393 J0.668
N1530 X-82.607 Y-55.668 Z-0.306 I0.393 J-0.668
N1535 X-83.393 Y-54.332 Z-0.391 I-0.393 J0.668
N1540 X-82.607 Y-55.668 Z-0.476 I0.393 J-0.668
N1545 X-83.393 Y-54.332 Z-0.561 I-0.393 J0.668
N1550 X-82.607 Y-55.668 Z-0.646 I0.393 J-0.668
N1555 X-83.393 Y-54.332 Z-0.731 I-0.393 J0.668
N1560 X-82.607 Y-55.668 Z-0.816 I0.393 J-0.668
N1565 X-83.393 Y-54.332 Z-0.901 I-0.393 J0.668
N1570 X-82.607 Y-55.668 Z-0.986 I0.393 J-0.668
N1575 X-83.393 Y-54.332 Z-1.071 I-0.393 J0.668
N1580 X-82.607 Y-55.668 Z-1.156 I0.393 J-0.668
N1585 X-83.393 Y-54.332 Z-1.241 I-0.393 J0.668
N1590 X-82.607 Y-55.668 Z-1.326 I0.393 J-0.668
N1595 X-83.393 Y-54.332 Z-1.411 I-0.393 J0.668
N1600 X-82.607 Y-55.668 Z-1.496 I0.393 J-0.668
N1605 X-83.393 Y-54.332 Z-1.581 I-0.393 J0.668
N1610 X-82.607 Y-55.668 Z-1.666 I0.393 J-0.668
N1615 X-83.393 Y-54.332 Z-1.751 I-0.393 J0.668
N1620 X-82.607 Y-55.668 Z-1.836 I0.393 J-0.668
N1625 X-83.393 Y-54.332 Z-1.921 I-0.393 J0.668
N1630 X-82.607 Y-55.668 Z-2.006 I0.393 J-0.668
N1635 X-83.393 Y-54.332 Z-2.091 I-0.393 J0.668
N1640 X-82.607 Y-55.668 Z-2.176 I0.393 J-0.668
N1645 X-83.393 Y-54.332 Z-2.261 I-0.393 J0.668
N1650 X-82.607 Y-55.668 Z-2.346 I0.393 J-0.668
N1655 X-83.393 Y-54.332 Z-2.431 I-0.393 J0.668
N1660 X-82.607 Y-55.668 Z-2.516 I0.393 J-0.668
N1665 X-83.393 Y-54.332 Z-2.601 I-0.393 J0.668
N1670 X-82.607 Y-55.668 Z-2.686 I0.393 J-0.668
N1675 X-83.393 Y-54.332 Z-2.771 I-0.393 J0.668
N1680 X-82.607 Y-55.668 Z-2.856 I0.393 J-0.668
N1685 X-83.393 Y-54.332 Z-2.941 I-0.393 J0.668
N1690 X-82.607 Y-55.668 Z-3.026 I0.393 J-0.668
N1695 X-83.393 Y-54.332 Z-3.112 I-0.393 J0.668
N1700 X-82.607 Y-55.668 Z-3.197 I0.393 J-0.668
N1705 X-83.393 Y-54.332 Z-3.282 I-0.393 J0.668
N1710 X-82.607 Y-55.668 Z-3.367 I0.393 J-0.668
N1715 X-83.393 Y-54.332 Z-3.452 I-0.393 J0.668
N1720 X-82.607 Y-55.668 Z-3.537 I0.393 J-0.668
N1725 X-83.393 Y-54.332 Z-3.622 I-0.393 J0.668
N1730 X-82.607 Y-55.668 Z-3.707 I0.393 J-0.668
N1735 X-83.393 Y-54.332 Z-3.792 I-0.393 J0.668
N1740 X-82.607 Y-55.668 Z-3.877 I0.393 J-0.668
N1745 X-83.393 Y-54.332 Z-3.962 I-0.393 J0.668
N1750 X-82.607 Y-55.668 Z-4.047 I0.393 J-0.668
N1755 X-83.393 Y-54.332 Z-4.132 I-0.393 J0.668
N1760 X-82.607 Y-55.668 Z-4.217 I0.393 J-0.668
N1765 X-83.393 Y-54.332 Z-4.302 I-0.393 J0.668
N1770 X-82.607 Y-55.668 Z-4.387 I0.393 J-0.668
N1775 X-83.393 Y-54.332 Z-4.472 I-0.393 J0.668
N1780 X-83.775 Y-55. Z-4.5 I0.393 J-0.668
N1785 X-82.975 I0.4 J0.
N1790 X-83.025 I-0.025 J0. F#100
N1795 X-82.725 I0.15 J0.
N1800 X-83.275 I-0.275 J0.
N1805 X-82.475 I0.4 J0.
N1810 X-83.525 I-0.525 J0.
N1815 X-82.225 I0.65 J0.
N1820 X-83.775 I-0.775 J0.
N1825 X-82.225 I0.775 J0.
N1830 X-82.253 Y-54.819 Z-4.471 I-0.595 J0. F#104
N1835 X-82.325 Y-54.67 Z-4.386 I-0.567 J-0.181
N1840 X-82.409 Y-54.569 Z-4.255 I-0.495 J-0.33
N1845 X-82.474 Y-54.516 Z-4.089 I-0.411 J-0.431
N1850 X-82.499 Y-54.499 Z-3.905 I-0.346 J-0.484
N1855 G0 Z8.
N1860 X-82.839 Y-63.242
N1865 Z3.095
N1870 G3 X-82.866 Y-63.237 Z2.915 I-0.161 J-0.758 F#107
N1875 X-82.946 Y-63.227 Z2.752 I-0.134 J-0.763
N1880 X-83.073 Y-63.228 Z2.621 I-0.054 J-0.773
N1885 X-83.229 Y-63.26 Z2.534 I0.073 J-0.772
N1890 X-83.393 Y-63.332 Z2.5 I0.229 J-0.74
N1895 X-82.607 Y-64.668 Z2.415 I0.393 J-0.668
N1900 X-83.393 Y-63.332 Z2.33 I-0.393 J0.668
N1905 X-82.607 Y-64.668 Z2.245 I0.393 J-0.668
N1910 X-83.393 Y-63.332 Z2.16 I-0.393 J0.668
N1915 X-82.607 Y-64.668 Z2.075 I0.393 J-0.668
N1920 X-83.393 Y-63.332 Z1.99 I-0.393 J0.668
N1925 X-82.607 Y-64.668 Z1.905 I0.393 J-0.668
N1930 X-83.393 Y-63.332 Z1.82 I-0.393 J0.668
N1935 X-82.607 Y-64.668 Z1.735 I0.393 J-0.668
N1940 X-83.393 Y-63.332 Z1.65 I-0.393 J0.668
N1945 X-82.607 Y-64.668 Z1.565 I0.393 J-0.668
N1950 X-83.393 Y-63.332 Z1.48 I-0.393 J0.668
N1955 X-82.607 Y-64.668 Z1.395 I0.393 J-0.668
N1960 X-83.393 Y-63.332 Z1.31 I-0.393 J0.668
N1965 X-82.607 Y-64.668 Z1.225 I0.393 J-0.668
N1970 X-83.393 Y-63.332 Z1.14 I-0.393 J0.668
N1975 X-82.607 Y-64.668 Z1.055 I0.393 J-0.668
N1980 X-83.393 Y-63.332 Z0.97 I-0.393 J0.668
N1985 X-82.607 Y-64.668 Z0.885 I0.393 J-0.668
N1990 X-83.393 Y-63.332 Z0.8 I-0.393 J0.668
N1995 X-82.607 Y-64.668 Z0.715 I0.393 J-0.668
N2000 X-83.393 Y-63.332 Z0.629 I-0.393 J0.668
N2005 X-82.607 Y-64.668 Z0.544 I0.393 J-0.668
N2010 X-83.393 Y-63.332 Z0.459 I-0.393 J0.668
N2015 X-82.607 Y-64.668 Z0.374 I0.393 J-0.668
N2020 X-83.393 Y-63.332 Z0.289 I-0.393 J0.668
N2025 X-82.607 Y-64.668 Z0.204 I0.393 J-0.668
N2030 X-83.393 Y-63.332 Z0.119 I-0.393 J0.668
N2035 X-82.607 Y-64.668 Z0.034 I0.393 J-0.668
N2040 X-83.393 Y-63.332 Z-0.051 I-0.393 J0.668
N2045 X-82.607 Y-64.668 Z-0.136 I0.393 J-0.668
N2050 X-83.393 Y-63.332 Z-0.221 I-0.393 J0.668
N2055 X-82.607 Y-64.668 Z-0.306 I0.393 J-0.668
N2060 X-83.393 Y-63.332 Z-0.391 I-0.393 J0.668
N2065 X-82.607 Y-64.668 Z-0.476 I0.393 J-0.668
N2070 X-83.393 Y-63.332 Z-0.561 I-0.393 J0.668
N2075 X-82.607 Y-64.668 Z-0.646 I0.393 J-0.668
N2080 X-83.393 Y-63.332 Z-0.731 I-0.393 J0.668
N2085 X-82.607 Y-64.668 Z-0.816 I0.393 J-0.668
N2090 X-83.393 Y-63.332 Z-0.901 I-0.393 J0.668
N2095 X-82.607 Y-64.668 Z-0.986 I0.393 J-0.668
N2100 X-83.393 Y-63.332 Z-1.071 I-0.393 J0.668
N2105 X-82.607 Y-64.668 Z-1.156 I0.393 J-0.668
N2110 X-83.393 Y-63.332 Z-1.241 I-0.393 J0.668
N2115 X-82.607 Y-64.668 Z-1.326 I0.393 J-0.668
N2120 X-83.393 Y-63.332 Z-1.411 I-0.393 J0.668
N2125 X-82.607 Y-64.668 Z-1.496 I0.393 J-0.668
N2130 X-83.393 Y-63.332 Z-1.581 I-0.393 J0.668
N2135 X-82.607 Y-64.668 Z-1.666 I0.393 J-0.668
N2140 X-83.393 Y-63.332 Z-1.751 I-0.393 J0.668
N2145 X-82.607 Y-64.668 Z-1.836 I0.393 J-0.668
N2150 X-83.393 Y-63.332 Z-1.921 I-0.393 J0.668
N2155 X-82.607 Y-64.668 Z-2.006 I0.393 J-0.668
N2160 X-83.393 Y-63.332 Z-2.091 I-0.393 J0.668
N2165 X-82.607 Y-64.668 Z-2.176 I0.393 J-0.668
N2170 X-83.393 Y-63.332 Z-2.261 I-0.393 J0.668
N2175 X-82.607 Y-64.668 Z-2.346 I0.393 J-0.668
N2180 X-83.393 Y-63.332 Z-2.431 I-0.393 J0.668
N2185 X-82.607 Y-64.668 Z-2.516 I0.393 J-0.668
N2190 X-83.393 Y-63.332 Z-2.601 I-0.393 J0.668
N2195 X-82.607 Y-64.668 Z-2.686 I0.393 J-0.668
N2200 X-83.393 Y-63.332 Z-2.771 I-0.393 J0.668
N2205 X-82.607 Y-64.668 Z-2.856 I0.393 J-0.668
N2210 X-83.393 Y-63.332 Z-2.941 I-0.393 J0.668
N2215 X-82.607 Y-64.668 Z-3.026 I0.393 J-0.668
N2220 X-83.393 Y-63.332 Z-3.112 I-0.393 J0.668
N2225 X-82.607 Y-64.668 Z-3.197 I0.393 J-0.668
N2230 X-83.393 Y-63.332 Z-3.282 I-0.393 J0.668
N2235 X-82.607 Y-64.668 Z-3.367 I0.393 J-0.668
N2240 X-83.393 Y-63.332 Z-3.452 I-0.393 J0.668
N2245 X-82.607 Y-64.668 Z-3.537 I0.393 J-0.668
N2250 X-83.393 Y-63.332 Z-3.622 I-0.393 J0.668
N2255 X-82.607 Y-64.668 Z-3.707 I0.393 J-0.668
N2260 X-83.393 Y-63.332 Z-3.792 I-0.393 J0.668
N2265 X-82.607 Y-64.668 Z-3.877 I0.393 J-0.668
N2270 X-83.393 Y-63.332 Z-3.962 I-0.393 J0.668
N2275 X-82.607 Y-64.668 Z-4.047 I0.393 J-0.668
N2280 X-83.393 Y-63.332 Z-4.132 I-0.393 J0.668
N2285 X-82.607 Y-64.668 Z-4.217 I0.393 J-0.668
N2290 X-83.393 Y-63.332 Z-4.302 I-0.393 J0.668
N2295 X-82.607 Y-64.668 Z-4.387 I0.393 J-0.668
N2300 X-83.393 Y-63.332 Z-4.472 I-0.393 J0.668
N2305 X-83.775 Y-64. Z-4.5 I0.393 J-0.668
N2310 X-82.975 I0.4 J0.
N2315 X-83.025 I-0.025 J0. F#100
N2320 X-82.725 I0.15 J0.
N2325 X-83.275 I-0.275 J0.
N2330 X-82.475 I0.4 J0.
N2335 X-83.525 I-0.525 J0.
N2340 X-82.225 I0.65 J0.
N2345 X-83.775 I-0.775 J0.
N2350 X-82.225 I0.775 J0.
N2355 X-82.253 Y-63.819 Z-4.471 I-0.595 J0. F#104
N2360 X-82.325 Y-63.67 Z-4.386 I-0.567 J-0.181
N2365 X-82.409 Y-63.569 Z-4.255 I-0.495 J-0.33
N2370 X-82.474 Y-63.516 Z-4.089 I-0.411 J-0.431
N2375 X-82.499 Y-63.499 Z-3.905 I-0.346 J-0.484
N2380 G0 Z8.
N2385 X-90.839 Y-63.242
N2390 Z3.095
N2395 G3 X-90.866 Y-63.237 Z2.915 I-0.161 J-0.758 F#107
N2400 X-90.946 Y-63.227 Z2.752 I-0.134 J-0.763
N2405 X-91.073 Y-63.228 Z2.621 I-0.054 J-0.773
N2410 X-91.229 Y-63.26 Z2.534 I0.073 J-0.772
N2415 X-91.393 Y-63.332 Z2.5 I0.229 J-0.74
N2420 X-90.607 Y-64.668 Z2.415 I0.393 J-0.668
N2425 X-91.393 Y-63.332 Z2.33 I-0.393 J0.668
N2430 X-90.607 Y-64.668 Z2.245 I0.393 J-0.668
N2435 X-91.393 Y-63.332 Z2.16 I-0.393 J0.668
N2440 X-90.607 Y-64.668 Z2.075 I0.393 J-0.668
N2445 X-91.393 Y-63.332 Z1.99 I-0.393 J0.668
N2450 X-90.607 Y-64.668 Z1.905 I0.393 J-0.668
N2455 X-91.393 Y-63.332 Z1.82 I-0.393 J0.668
N2460 X-90.607 Y-64.668 Z1.735 I0.393 J-0.668
N2465 X-91.393 Y-63.332 Z1.65 I-0.393 J0.668
N2470 X-90.607 Y-64.668 Z1.565 I0.393 J-0.668
N2475 X-91.393 Y-63.332 Z1.48 I-0.393 J0.668
N2480 X-90.607 Y-64.668 Z1.395 I0.393 J-0.668
N2485 X-91.393 Y-63.332 Z1.31 I-0.393 J0.668
N2490 X-90.607 Y-64.668 Z1.225 I0.393 J-0.668
N2495 X-91.393 Y-63.332 Z1.14 I-0.393 J0.668
N2500 X-90.607 Y-64.668 Z1.055 I0.393 J-0.668
N2505 X-91.393 Y-63.332 Z0.97 I-0.393 J0.668
N2510 X-90.607 Y-64.668 Z0.885 I0.393 J-0.668
N2515 X-91.393 Y-63.332 Z0.8 I-0.393 J0.668
N2520 X-90.607 Y-64.668 Z0.715 I0.393 J-0.668
N2525 X-91.393 Y-63.332 Z0.629 I-0.393 J0.668
N2530 X-90.607 Y-64.668 Z0.544 I0.393 J-0.668
N2535 X-91.393 Y-63.332 Z0.459 I-0.393 J0.668
N2540 X-90.607 Y-64.668 Z0.374 I0.393 J-0.668
N2545 X-91.393 Y-63.332 Z0.289 I-0.393 J0.668
N2550 X-90.607 Y-64.668 Z0.204 I0.393 J-0.668
N2555 X-91.393 Y-63.332 Z0.119 I-0.393 J0.668
N2560 X-90.607 Y-64.668 Z0.034 I0.393 J-0.668
N2565 X-91.393 Y-63.332 Z-0.051 I-0.393 J0.668
N2570 X-90.607 Y-64.668 Z-0.136 I0.393 J-0.668
N2575 X-91.393 Y-63.332 Z-0.221 I-0.393 J0.668
N2580 X-90.607 Y-64.668 Z-0.306 I0.393 J-0.668
N2585 X-91.393 Y-63.332 Z-0.391 I-0.393 J0.668
N2590 X-90.607 Y-64.668 Z-0.476 I0.393 J-0.668
N2595 X-91.393 Y-63.332 Z-0.561 I-0.393 J0.668
N2600 X-90.607 Y-64.668 Z-0.646 I0.393 J-0.668
N2605 X-91.393 Y-63.332 Z-0.731 I-0.393 J0.668
N2610 X-90.607 Y-64.668 Z-0.816 I0.393 J-0.668
N2615 X-91.393 Y-63.332 Z-0.901 I-0.393 J0.668
N2620 X-90.607 Y-64.668 Z-0.986 I0.393 J-0.668
N2625 X-91.393 Y-63.332 Z-1.071 I-0.393 J0.668
N2630 X-90.607 Y-64.668 Z-1.156 I0.393 J-0.668
N2635 X-91.393 Y-63.332 Z-1.241 I-0.393 J0.668
N2640 X-90.607 Y-64.668 Z-1.326 I0.393 J-0.668
N2645 X-91.393 Y-63.332 Z-1.411 I-0.393 J0.668
N2650 X-90.607 Y-64.668 Z-1.496 I0.393 J-0.668
N2655 X-91.393 Y-63.332 Z-1.581 I-0.393 J0.668
N2660 X-90.607 Y-64.668 Z-1.666 I0.393 J-0.668
N2665 X-91.393 Y-63.332 Z-1.751 I-0.393 J0.668
N2670 X-90.607 Y-64.668 Z-1.836 I0.393 J-0.668
N2675 X-91.393 Y-63.332 Z-1.921 I-0.393 J0.668
N2680 X-90.607 Y-64.668 Z-2.006 I0.393 J-0.668
N2685 X-91.393 Y-63.332 Z-2.091 I-0.393 J0.668
N2690 X-90.607 Y-64.668 Z-2.176 I0.393 J-0.668
N2695 X-91.393 Y-63.332 Z-2.261 I-0.393 J0.668
N2700 X-90.607 Y-64.668 Z-2.346 I0.393 J-0.668
N2705 X-91.393 Y-63.332 Z-2.431 I-0.393 J0.668
N2710 X-90.607 Y-64.668 Z-2.516 I0.393 J-0.668
N2715 X-91.393 Y-63.332 Z-2.601 I-0.393 J0.668
N2720 X-90.607 Y-64.668 Z-2.686 I0.393 J-0.668
N2725 X-91.393 Y-63.332 Z-2.771 I-0.393 J0.668
N2730 X-90.607 Y-64.668 Z-2.856 I0.393 J-0.668
N2735 X-91.393 Y-63.332 Z-2.941 I-0.393 J0.668
N2740 X-90.607 Y-64.668 Z-3.026 I0.393 J-0.668
N2745 X-91.393 Y-63.332 Z-3.112 I-0.393 J0.668
N2750 X-90.607 Y-64.668 Z-3.197 I0.393 J-0.668
N2755 X-91.393 Y-63.332 Z-3.282 I-0.393 J0.668
N2760 X-90.607 Y-64.668 Z-3.367 I0.393 J-0.668
N2765 X-91.393 Y-63.332 Z-3.452 I-0.393 J0.668
N2770 X-90.607 Y-64.668 Z-3.537 I0.393 J-0.668
N2775 X-91.393 Y-63.332 Z-3.622 I-0.393 J0.668
N2780 X-90.607 Y-64.668 Z-3.707 I0.393 J-0.668
N2785 X-91.393 Y-63.332 Z-3.792 I-0.393 J0.668
N2790 X-90.607 Y-64.668 Z-3.877 I0.393 J-0.668
N2795 X-91.393 Y-63.332 Z-3.962 I-0.393 J0.668
N2800 X-90.607 Y-64.668 Z-4.047 I0.393 J-0.668
N2805 X-91.393 Y-63.332 Z-4.132 I-0.393 J0.668
N2810 X-90.607 Y-64.668 Z-4.217 I0.393 J-0.668
N2815 X-91.393 Y-63.332 Z-4.302 I-0.393 J0.668
N2820 X-90.607 Y-64.668 Z-4.387 I0.393 J-0.668
N2825 X-91.393 Y-63.332 Z-4.472 I-0.393 J0.668
N2830 X-91.775 Y-64. Z-4.5 I0.393 J-0.668
N2835 X-90.975 I0.4 J0.
N2840 X-91.025 I-0.025 J0. F#100
N2845 X-90.725 I0.15 J0.
N2850 X-91.275 I-0.275 J0.
N2855 X-90.475 I0.4 J0.
N2860 X-91.525 I-0.525 J0.
N2865 X-90.225 I0.65 J0.
N2870 X-91.775 I-0.775 J0.
N2875 X-90.225 I0.775 J0.
N2880 X-90.253 Y-63.819 Z-4.471 I-0.595 J0. F#104
N2885 X-90.325 Y-63.67 Z-4.386 I-0.567 J-0.181
N2890 X-90.409 Y-63.569 Z-4.255 I-0.495 J-0.33
N2895 X-90.474 Y-63.516 Z-4.089 I-0.411 J-0.431
N2900 X-90.499 Y-63.499 Z-3.905 I-0.346 J-0.484
N2905 G0 Z8.
N2910 X-90.839 Y-72.242
N2915 Z3.095
N2920 G3 X-90.866 Y-72.237 Z2.915 I-0.161 J-0.758 F#107
N2925 X-90.946 Y-72.227 Z2.752 I-0.134 J-0.763
N2930 X-91.073 Y-72.228 Z2.621 I-0.054 J-0.773
N2935 X-91.229 Y-72.26 Z2.534 I0.073 J-0.772
N2940 X-91.393 Y-72.332 Z2.5 I0.229 J-0.74
N2945 X-90.607 Y-73.668 Z2.415 I0.393 J-0.668
N2950 X-91.393 Y-72.332 Z2.33 I-0.393 J0.668
N2955 X-90.607 Y-73.668 Z2.245 I0.393 J-0.668
N2960 X-91.393 Y-72.332 Z2.16 I-0.393 J0.668
N2965 X-90.607 Y-73.668 Z2.075 I0.393 J-0.668
N2970 X-91.393 Y-72.332 Z1.99 I-0.393 J0.668
N2975 X-90.607 Y-73.668 Z1.905 I0.393 J-0.668
N2980 X-91.393 Y-72.332 Z1.82 I-0.393 J0.668
N2985 X-90.607 Y-73.668 Z1.735 I0.393 J-0.668
N2990 X-91.393 Y-72.332 Z1.65 I-0.393 J0.668
N2995 X-90.607 Y-73.668 Z1.565 I0.393 J-0.668
N3000 X-91.393 Y-72.332 Z1.48 I-0.393 J0.668
N3005 X-90.607 Y-73.668 Z1.395 I0.393 J-0.668
N3010 X-91.393 Y-72.332 Z1.31 I-0.393 J0.668
N3015 X-90.607 Y-73.668 Z1.225 I0.393 J-0.668
N3020 X-91.393 Y-72.332 Z1.14 I-0.393 J0.668
N3025 X-90.607 Y-73.668 Z1.055 I0.393 J-0.668
N3030 X-91.393 Y-72.332 Z0.97 I-0.393 J0.668
N3035 X-90.607 Y-73.668 Z0.885 I0.393 J-0.668
N3040 X-91.393 Y-72.332 Z0.8 I-0.393 J0.668
N3045 X-90.607 Y-73.668 Z0.715 I0.393 J-0.668
N3050 X-91.393 Y-72.332 Z0.629 I-0.393 J0.668
N3055 X-90.607 Y-73.668 Z0.544 I0.393 J-0.668
N3060 X-91.393 Y-72.332 Z0.459 I-0.393 J0.668
N3065 X-90.607 Y-73.668 Z0.374 I0.393 J-0.668
N3070 X-91.393 Y-72.332 Z0.289 I-0.393 J0.668
N3075 X-90.607 Y-73.668 Z0.204 I0.393 J-0.668
N3080 X-91.393 Y-72.332 Z0.119 I-0.393 J0.668
N3085 X-90.607 Y-73.668 Z0.034 I0.393 J-0.668
N3090 X-91.393 Y-72.332 Z-0.051 I-0.393 J0.668
N3095 X-90.607 Y-73.668 Z-0.136 I0.393 J-0.668
N3100 X-91.393 Y-72.332 Z-0.221 I-0.393 J0.668
N3105 X-90.607 Y-73.668 Z-0.306 I0.393 J-0.668
N3110 X-91.393 Y-72.332 Z-0.391 I-0.393 J0.668
N3115 X-90.607 Y-73.668 Z-0.476 I0.393 J-0.668
N3120 X-91.393 Y-72.332 Z-0.561 I-0.393 J0.668
N3125 X-90.607 Y-73.668 Z-0.646 I0.393 J-0.668
N3130 X-91.393 Y-72.332 Z-0.731 I-0.393 J0.668
N3135 X-90.607 Y-73.668 Z-0.816 I0.393 J-0.668
N3140 X-91.393 Y-72.332 Z-0.901 I-0.393 J0.668
N3145 X-90.607 Y-73.668 Z-0.986 I0.393 J-0.668
N3150 X-91.393 Y-72.332 Z-1.071 I-0.393 J0.668
N3155 X-90.607 Y-73.668 Z-1.156 I0.393 J-0.668
N3160 X-91.393 Y-72.332 Z-1.241 I-0.393 J0.668
N3165 X-90.607 Y-73.668 Z-1.326 I0.393 J-0.668
N3170 X-91.393 Y-72.332 Z-1.411 I-0.393 J0.668
N3175 X-90.607 Y-73.668 Z-1.496 I0.393 J-0.668
N3180 X-91.393 Y-72.332 Z-1.581 I-0.393 J0.668
N3185 X-90.607 Y-73.668 Z-1.666 I0.393 J-0.668
N3190 X-91.393 Y-72.332 Z-1.751 I-0.393 J0.668
N3195 X-90.607 Y-73.668 Z-1.836 I0.393 J-0.668
N3200 X-91.393 Y-72.332 Z-1.921 I-0.393 J0.668
N3205 X-90.607 Y-73.668 Z-2.006 I0.393 J-0.668
N3210 X-91.393 Y-72.332 Z-2.091 I-0.393 J0.668
N3215 X-90.607 Y-73.668 Z-2.176 I0.393 J-0.668
N3220 X-91.393 Y-72.332 Z-2.261 I-0.393 J0.668
N3225 X-90.607 Y-73.668 Z-2.346 I0.393 J-0.668
N3230 X-91.393 Y-72.332 Z-2.431 I-0.393 J0.668
N3235 X-90.607 Y-73.668 Z-2.516 I0.393 J-0.668
N3240 X-91.393 Y-72.332 Z-2.601 I-0.393 J0.668
N3245 X-90.607 Y-73.668 Z-2.686 I0.393 J-0.668
N3250 X-91.393 Y-72.332 Z-2.771 I-0.393 J0.668
N3255 X-90.607 Y-73.668 Z-2.856 I0.393 J-0.668
N3260 X-91.393 Y-72.332 Z-2.941 I-0.393 J0.668
N3265 X-90.607 Y-73.668 Z-3.026 I0.393 J-0.668
N3270 X-91.393 Y-72.332 Z-3.112 I-0.393 J0.668
N3275 X-90.607 Y-73.668 Z-3.197 I0.393 J-0.668
N3280 X-91.393 Y-72.332 Z-3.282 I-0.393 J0.668
N3285 X-90.607 Y-73.668 Z-3.367 I0.393 J-0.668
N3290 X-91.393 Y-72.332 Z-3.452 I-0.393 J0.668
N3295 X-90.607 Y-73.668 Z-3.537 I0.393 J-0.668
N3300 X-91.393 Y-72.332 Z-3.622 I-0.393 J0.668
N3305 X-90.607 Y-73.668 Z-3.707 I0.393 J-0.668
N3310 X-91.393 Y-72.332 Z-3.792 I-0.393 J0.668
N3315 X-90.607 Y-73.668 Z-3.877 I0.393 J-0.668
N3320 X-91.393 Y-72.332 Z-3.962 I-0.393 J0.668
N3325 X-90.607 Y-73.668 Z-4.047 I0.393 J-0.668
N3330 X-91.393 Y-72.332 Z-4.132 I-0.393 J0.668
N3335 X-90.607 Y-73.668 Z-4.217 I0.393 J-0.668
N3340 X-91.393 Y-72.332 Z-4.302 I-0.393 J0.668
N3345 X-90.607 Y-73.668 Z-4.387 I0.393 J-0.668
N3350 X-91.393 Y-72.332 Z-4.472 I-0.393 J0.668
N3355 X-91.775 Y-73. Z-4.5 I0.393 J-0.668
N3360 X-90.975 I0.4 J0.
N3365 X-91.025 I-0.025 J0. F#100
N3370 X-90.725 I0.15 J0.
N3375 X-91.275 I-0.275 J0.
N3380 X-90.475 I0.4 J0.
N3385 X-91.525 I-0.525 J0.
N3390 X-90.225 I0.65 J0.
N3395 X-91.775 I-0.775 J0.
N3400 X-90.225 I0.775 J0.
N3405 X-90.253 Y-72.819 Z-4.471 I-0.595 J0. F#104
N3410 X-90.325 Y-72.67 Z-4.386 I-0.567 J-0.181
N3415 X-90.409 Y-72.569 Z-4.255 I-0.495 J-0.33
N3420 X-90.474 Y-72.516 Z-4.089 I-0.411 J-0.431
N3425 X-90.499 Y-72.499 Z-3.905 I-0.346 J-0.484
N3430 G0 Z8.
N3435 X-82.839 Y-72.242
N3440 Z3.095
N3445 G3 X-82.866 Y-72.237 Z2.915 I-0.161 J-0.758 F#107
N3450 X-82.946 Y-72.227 Z2.752 I-0.134 J-0.763
N3455 X-83.073 Y-72.228 Z2.621 I-0.054 J-0.773
N3460 X-83.229 Y-72.26 Z2.534 I0.073 J-0.772
N3465 X-83.393 Y-72.332 Z2.5 I0.229 J-0.74
N3470 X-82.607 Y-73.668 Z2.415 I0.393 J-0.668
N3475 X-83.393 Y-72.332 Z2.33 I-0.393 J0.668
N3480 X-82.607 Y-73.668 Z2.245 I0.393 J-0.668
N3485 X-83.393 Y-72.332 Z2.16 I-0.393 J0.668
N3490 X-82.607 Y-73.668 Z2.075 I0.393 J-0.668
N3495 X-83.393 Y-72.332 Z1.99 I-0.393 J0.668
N3500 X-82.607 Y-73.668 Z1.905 I0.393 J-0.668
N3505 X-83.393 Y-72.332 Z1.82 I-0.393 J0.668
N3510 X-82.607 Y-73.668 Z1.735 I0.393 J-0.668
N3515 X-83.393 Y-72.332 Z1.65 I-0.393 J0.668
N3520 X-82.607 Y-73.668 Z1.565 I0.393 J-0.668
N3525 X-83.393 Y-72.332 Z1.48 I-0.393 J0.668
N3530 X-82.607 Y-73.668 Z1.395 I0.393 J-0.668
N3535 X-83.393 Y-72.332 Z1.31 I-0.393 J0.668
N3540 X-82.607 Y-73.668 Z1.225 I0.393 J-0.668
N3545 X-83.393 Y-72.332 Z1.14 I-0.393 J0.668
N3550 X-82.607 Y-73.668 Z1.055 I0.393 J-0.668
N3555 X-83.393 Y-72.332 Z0.97 I-0.393 J0.668
N3560 X-82.607 Y-73.668 Z0.885 I0.393 J-0.668
N3565 X-83.393 Y-72.332 Z0.8 I-0.393 J0.668
N3570 X-82.607 Y-73.668 Z0.715 I0.393 J-0.668
N3575 X-83.393 Y-72.332 Z0.629 I-0.393 J0.668
N3580 X-82.607 Y-73.668 Z0.544 I0.393 J-0.668
N3585 X-83.393 Y-72.332 Z0.459 I-0.393 J0.668
N3590 X-82.607 Y-73.668 Z0.374 I0.393 J-0.668
N3595 X-83.393 Y-72.332 Z0.289 I-0.393 J0.668
N3600 X-82.607 Y-73.668 Z0.204 I0.393 J-0.668
N3605 X-83.393 Y-72.332 Z0.119 I-0.393 J0.668
N3610 X-82.607 Y-73.668 Z0.034 I0.393 J-0.668
N3615 X-83.393 Y-72.332 Z-0.051 I-0.393 J0.668
N3620 X-82.607 Y-73.668 Z-0.136 I0.393 J-0.668
N3625 X-83.393 Y-72.332 Z-0.221 I-0.393 J0.668
N3630 X-82.607 Y-73.668 Z-0.306 I0.393 J-0.668
N3635 X-83.393 Y-72.332 Z-0.391 I-0.393 J0.668
N3640 X-82.607 Y-73.668 Z-0.476 I0.393 J-0.668
N3645 X-83.393 Y-72.332 Z-0.561 I-0.393 J0.668
N3650 X-82.607 Y-73.668 Z-0.646 I0.393 J-0.668
N3655 X-83.393 Y-72.332 Z-0.731 I-0.393 J0.668
N3660 X-82.607 Y-73.668 Z-0.816 I0.393 J-0.668
N3665 X-83.393 Y-72.332 Z-0.901 I-0.393 J0.668
N3670 X-82.607 Y-73.668 Z-0.986 I0.393 J-0.668
N3675 X-83.393 Y-72.332 Z-1.071 I-0.393 J0.668
N3680 X-82.607 Y-73.668 Z-1.156 I0.393 J-0.668
N3685 X-83.393 Y-72.332 Z-1.241 I-0.393 J0.668
N3690 X-82.607 Y-73.668 Z-1.326 I0.393 J-0.668
N3695 X-83.393 Y-72.332 Z-1.411 I-0.393 J0.668
N3700 X-82.607 Y-73.668 Z-1.496 I0.393 J-0.668
N3705 X-83.393 Y-72.332 Z-1.581 I-0.393 J0.668
N3710 X-82.607 Y-73.668 Z-1.666 I0.393 J-0.668
N3715 X-83.393 Y-72.332 Z-1.751 I-0.393 J0.668
N3720 X-82.607 Y-73.668 Z-1.836 I0.393 J-0.668
N3725 X-83.393 Y-72.332 Z-1.921 I-0.393 J0.668
N3730 X-82.607 Y-73.668 Z-2.006 I0.393 J-0.668
N3735 X-83.393 Y-72.332 Z-2.091 I-0.393 J0.668
N3740 X-82.607 Y-73.668 Z-2.176 I0.393 J-0.668
N3745 X-83.393 Y-72.332 Z-2.261 I-0.393 J0.668
N3750 X-82.607 Y-73.668 Z-2.346 I0.393 J-0.668
N3755 X-83.393 Y-72.332 Z-2.431 I-0.393 J0.668
N3760 X-82.607 Y-73.668 Z-2.516 I0.393 J-0.668
N3765 X-83.393 Y-72.332 Z-2.601 I-0.393 J0.668
N3770 X-82.607 Y-73.668 Z-2.686 I0.393 J-0.668
N3775 X-83.393 Y-72.332 Z-2.771 I-0.393 J0.668
N3780 X-82.607 Y-73.668 Z-2.856 I0.393 J-0.668
N3785 X-83.393 Y-72.332 Z-2.941 I-0.393 J0.668
N3790 X-82.607 Y-73.668 Z-3.026 I0.393 J-0.668
N3795 X-83.393 Y-72.332 Z-3.112 I-0.393 J0.668
N3800 X-82.607 Y-73.668 Z-3.197 I0.393 J-0.668
N3805 X-83.393 Y-72.332 Z-3.282 I-0.393 J0.668
N3810 X-82.607 Y-73.668 Z-3.367 I0.393 J-0.668
N3815 X-83.393 Y-72.332 Z-3.452 I-0.393 J0.668
N3820 X-82.607 Y-73.668 Z-3.537 I0.393 J-0.668
N3825 X-83.393 Y-72.332 Z-3.622 I-0.393 J0.668
N3830 X-82.607 Y-73.668 Z-3.707 I0.393 J-0.668
N3835 X-83.393 Y-72.332 Z-3.792 I-0.393 J0.668
N3840 X-82.607 Y-73.668 Z-3.877 I0.393 J-0.668
N3845 X-83.393 Y-72.332 Z-3.962 I-0.393 J0.668
N3850 X-82.607 Y-73.668 Z-4.047 I0.393 J-0.668
N3855 X-83.393 Y-72.332 Z-4.132 I-0.393 J0.668
N3860 X-82.607 Y-73.668 Z-4.217 I0.393 J-0.668
N3865 X-83.393 Y-72.332 Z-4.302 I-0.393 J0.668
N3870 X-82.607 Y-73.668 Z-4.387 I0.393 J-0.668
N3875 X-83.393 Y-72.332 Z-4.472 I-0.393 J0.668
N3880 X-83.775 Y-73. Z-4.5 I0.393 J-0.668
N3885 X-82.975 I0.4 J0.
N3890 X-83.025 I-0.025 J0. F#100
N3895 X-82.725 I0.15 J0.
N3900 X-83.275 I-0.275 J0.
N3905 X-82.475 I0.4 J0.
N3910 X-83.525 I-0.525 J0.
N3915 X-82.225 I0.65 J0.
N3920 X-83.775 I-0.775 J0.
N3925 X-82.225 I0.775 J0.
N3930 X-82.253 Y-72.819 Z-4.471 I-0.595 J0. F#104
N3935 X-82.325 Y-72.67 Z-4.386 I-0.567 J-0.181
N3940 X-82.409 Y-72.569 Z-4.255 I-0.495 J-0.33
N3945 X-82.474 Y-72.516 Z-4.089 I-0.411 J-0.431
N3950 X-82.499 Y-72.499 Z-3.905 I-0.346 J-0.484
N3955 G0 Z8.
N3960 X-82.839 Y-81.242
N3965 Z3.095
N3970 G3 X-82.866 Y-81.237 Z2.915 I-0.161 J-0.758 F#107
N3975 X-82.946 Y-81.227 Z2.752 I-0.134 J-0.763
N3980 X-83.073 Y-81.228 Z2.621 I-0.054 J-0.773
N3985 X-83.229 Y-81.26 Z2.534 I0.073 J-0.772
N3990 X-83.393 Y-81.332 Z2.5 I0.229 J-0.74
N3995 X-82.607 Y-82.668 Z2.415 I0.393 J-0.668
N4000 X-83.393 Y-81.332 Z2.33 I-0.393 J0.668
N4005 X-82.607 Y-82.668 Z2.245 I0.393 J-0.668
N4010 X-83.393 Y-81.332 Z2.16 I-0.393 J0.668
N4015 X-82.607 Y-82.668 Z2.075 I0.393 J-0.668
N4020 X-83.393 Y-81.332 Z1.99 I-0.393 J0.668
N4025 X-82.607 Y-82.668 Z1.905 I0.393 J-0.668
N4030 X-83.393 Y-81.332 Z1.82 I-0.393 J0.668
N4035 X-82.607 Y-82.668 Z1.735 I0.393 J-0.668
N4040 X-83.393 Y-81.332 Z1.65 I-0.393 J0.668
N4045 X-82.607 Y-82.668 Z1.565 I0.393 J-0.668
N4050 X-83.393 Y-81.332 Z1.48 I-0.393 J0.668
N4055 X-82.607 Y-82.668 Z1.395 I0.393 J-0.668
N4060 X-83.393 Y-81.332 Z1.31 I-0.393 J0.668
N4065 X-82.607 Y-82.668 Z1.225 I0.393 J-0.668
N4070 X-83.393 Y-81.332 Z1.14 I-0.393 J0.668
N4075 X-82.607 Y-82.668 Z1.055 I0.393 J-0.668
N4080 X-83.393 Y-81.332 Z0.97 I-0.393 J0.668
N4085 X-82.607 Y-82.668 Z0.885 I0.393 J-0.668
N4090 X-83.393 Y-81.332 Z0.8 I-0.393 J0.668
N4095 X-82.607 Y-82.668 Z0.715 I0.393 J-0.668
N4100 X-83.393 Y-81.332 Z0.629 I-0.393 J0.668
N4105 X-82.607 Y-82.668 Z0.544 I0.393 J-0.668
N4110 X-83.393 Y-81.332 Z0.459 I-0.393 J0.668
N4115 X-82.607 Y-82.668 Z0.374 I0.393 J-0.668
N4120 X-83.393 Y-81.332 Z0.289 I-0.393 J0.668
N4125 X-82.607 Y-82.668 Z0.204 I0.393 J-0.668
N4130 X-83.393 Y-81.332 Z0.119 I-0.393 J0.668
N4135 X-82.607 Y-82.668 Z0.034 I0.393 J-0.668
N4140 X-83.393 Y-81.332 Z-0.051 I-0.393 J0.668
N4145 X-82.607 Y-82.668 Z-0.136 I0.393 J-0.668
N4150 X-83.393 Y-81.332 Z-0.221 I-0.393 J0.668
N4155 X-82.607 Y-82.668 Z-0.306 I0.393 J-0.668
N4160 X-83.393 Y-81.332 Z-0.391 I-0.393 J0.668
N4165 X-82.607 Y-82.668 Z-0.476 I0.393 J-0.668
N4170 X-83.393 Y-81.332 Z-0.561 I-0.393 J0.668
N4175 X-82.607 Y-82.668 Z-0.646 I0.393 J-0.668
N4180 X-83.393 Y-81.332 Z-0.731 I-0.393 J0.668
N4185 X-82.607 Y-82.668 Z-0.816 I0.393 J-0.668
N4190 X-83.393 Y-81.332 Z-0.901 I-0.393 J0.668
N4195 X-82.607 Y-82.668 Z-0.986 I0.393 J-0.668
N4200 X-83.393 Y-81.332 Z-1.071 I-0.393 J0.668
N4205 X-82.607 Y-82.668 Z-1.156 I0.393 J-0.668
N4210 X-83.393 Y-81.332 Z-1.241 I-0.393 J0.668
N4215 X-82.607 Y-82.668 Z-1.326 I0.393 J-0.668
N4220 X-83.393 Y-81.332 Z-1.411 I-0.393 J0.668
N4225 X-82.607 Y-82.668 Z-1.496 I0.393 J-0.668
N4230 X-83.393 Y-81.332 Z-1.581 I-0.393 J0.668
N4235 X-82.607 Y-82.668 Z-1.666 I0.393 J-0.668
N4240 X-83.393 Y-81.332 Z-1.751 I-0.393 J0.668
N4245 X-82.607 Y-82.668 Z-1.836 I0.393 J-0.668
N4250 X-83.393 Y-81.332 Z-1.921 I-0.393 J0.668
N4255 X-82.607 Y-82.668 Z-2.006 I0.393 J-0.668
N4260 X-83.393 Y-81.332 Z-2.091 I-0.393 J0.668
N4265 X-82.607 Y-82.668 Z-2.176 I0.393 J-0.668
N4270 X-83.393 Y-81.332 Z-2.261 I-0.393 J0.668
N4275 X-82.607 Y-82.668 Z-2.346 I0.393 J-0.668
N4280 X-83.393 Y-81.332 Z-2.431 I-0.393 J0.668
N4285 X-82.607 Y-82.668 Z-2.516 I0.393 J-0.668
N4290 X-83.393 Y-81.332 Z-2.601 I-0.393 J0.668
N4295 X-82.607 Y-82.668 Z-2.686 I0.393 J-0.668
N4300 X-83.393 Y-81.332 Z-2.771 I-0.393 J0.668
N4305 X-82.607 Y-82.668 Z-2.856 I0.393 J-0.668
N4310 X-83.393 Y-81.332 Z-2.941 I-0.393 J0.668
N4315 X-82.607 Y-82.668 Z-3.026 I0.393 J-0.668
N4320 X-83.393 Y-81.332 Z-3.112 I-0.393 J0.668
N4325 X-82.607 Y-82.668 Z-3.197 I0.393 J-0.668
N4330 X-83.393 Y-81.332 Z-3.282 I-0.393 J0.668
N4335 X-82.607 Y-82.668 Z-3.367 I0.393 J-0.668
N4340 X-83.393 Y-81.332 Z-3.452 I-0.393 J0.668
N4345 X-82.607 Y-82.668 Z-3.537 I0.393 J-0.668
N4350 X-83.393 Y-81.332 Z-3.622 I-0.393 J0.668
N4355 X-82.607 Y-82.668 Z-3.707 I0.393 J-0.668
N4360 X-83.393 Y-81.332 Z-3.792 I-0.393 J0.668
N4365 X-82.607 Y-82.668 Z-3.877 I0.393 J-0.668
N4370 X-83.393 Y-81.332 Z-3.962 I-0.393 J0.668
N4375 X-82.607 Y-82.668 Z-4.047 I0.393 J-0.668
N4380 X-83.393 Y-81.332 Z-4.132 I-0.393 J0.668
N4385 X-82.607 Y-82.668 Z-4.217 I0.393 J-0.668
N4390 X-83.393 Y-81.332 Z-4.302 I-0.393 J0.668
N4395 X-82.607 Y-82.668 Z-4.387 I0.393 J-0.668
N4400 X-83.393 Y-81.332 Z-4.472 I-0.393 J0.668
N4405 X-83.775 Y-82. Z-4.5 I0.393 J-0.668
N4410 X-82.975 I0.4 J0.
N4415 X-83.025 I-0.025 J0. F#100
N4420 X-82.725 I0.15 J0.
N4425 X-83.275 I-0.275 J0.
N4430 X-82.475 I0.4 J0.
N4435 X-83.525 I-0.525 J0.
N4440 X-82.225 I0.65 J0.
N4445 X-83.775 I-0.775 J0.
N4450 X-82.225 I0.775 J0.
N4455 X-82.253 Y-81.819 Z-4.471 I-0.595 J0. F#104
N4460 X-82.325 Y-81.67 Z-4.386 I-0.567 J-0.181
N4465 X-82.409 Y-81.569 Z-4.255 I-0.495 J-0.33
N4470 X-82.474 Y-81.516 Z-4.089 I-0.411 J-0.431
N4475 X-82.499 Y-81.499 Z-3.905 I-0.346 J-0.484
N4480 G0 Z8.
N4485 X-66.839 Y-81.242
N4490 Z3.095
N4495 G3 X-66.866 Y-81.237 Z2.915 I-0.161 J-0.758 F#107
N4500 X-66.946 Y-81.227 Z2.752 I-0.134 J-0.763
N4505 X-67.073 Y-81.228 Z2.621 I-0.054 J-0.773
N4510 X-67.229 Y-81.26 Z2.534 I0.073 J-0.772
N4515 X-67.393 Y-81.332 Z2.5 I0.229 J-0.74
N4520 X-66.607 Y-82.668 Z2.415 I0.393 J-0.668
N4525 X-67.393 Y-81.332 Z2.33 I-0.393 J0.668
N4530 X-66.607 Y-82.668 Z2.245 I0.393 J-0.668
N4535 X-67.393 Y-81.332 Z2.16 I-0.393 J0.668
N4540 X-66.607 Y-82.668 Z2.075 I0.393 J-0.668
N4545 X-67.393 Y-81.332 Z1.99 I-0.393 J0.668
N4550 X-66.607 Y-82.668 Z1.905 I0.393 J-0.668
N4555 X-67.393 Y-81.332 Z1.82 I-0.393 J0.668
N4560 X-66.607 Y-82.668 Z1.735 I0.393 J-0.668
N4565 X-67.393 Y-81.332 Z1.65 I-0.393 J0.668
N4570 X-66.607 Y-82.668 Z1.565 I0.393 J-0.668
N4575 X-67.393 Y-81.332 Z1.48 I-0.393 J0.668
N4580 X-66.607 Y-82.668 Z1.395 I0.393 J-0.668
N4585 X-67.393 Y-81.332 Z1.31 I-0.393 J0.668
N4590 X-66.607 Y-82.668 Z1.225 I0.393 J-0.668
N4595 X-67.393 Y-81.332 Z1.14 I-0.393 J0.668
N4600 X-66.607 Y-82.668 Z1.055 I0.393 J-0.668
N4605 X-67.393 Y-81.332 Z0.97 I-0.393 J0.668
N4610 X-66.607 Y-82.668 Z0.885 I0.393 J-0.668
N4615 X-67.393 Y-81.332 Z0.8 I-0.393 J0.668
N4620 X-66.607 Y-82.668 Z0.715 I0.393 J-0.668
N4625 X-67.393 Y-81.332 Z0.629 I-0.393 J0.668
N4630 X-66.607 Y-82.668 Z0.544 I0.393 J-0.668
N4635 X-67.393 Y-81.332 Z0.459 I-0.393 J0.668
N4640 X-66.607 Y-82.668 Z0.374 I0.393 J-0.668
N4645 X-67.393 Y-81.332 Z0.289 I-0.393 J0.668
N4650 X-66.607 Y-82.668 Z0.204 I0.393 J-0.668
N4655 X-67.393 Y-81.332 Z0.119 I-0.393 J0.668
N4660 X-66.607 Y-82.668 Z0.034 I0.393 J-0.668
N4665 X-67.393 Y-81.332 Z-0.051 I-0.393 J0.668
N4670 X-66.607 Y-82.668 Z-0.136 I0.393 J-0.668
N4675 X-67.393 Y-81.332 Z-0.221 I-0.393 J0.668
N4680 X-66.607 Y-82.668 Z-0.306 I0.393 J-0.668
N4685 X-67.393 Y-81.332 Z-0.391 I-0.393 J0.668
N4690 X-66.607 Y-82.668 Z-0.476 I0.393 J-0.668
N4695 X-67.393 Y-81.332 Z-0.561 I-0.393 J0.668
N4700 X-66.607 Y-82.668 Z-0.646 I0.393 J-0.668
N4705 X-67.393 Y-81.332 Z-0.731 I-0.393 J0.668
N4710 X-66.607 Y-82.668 Z-0.816 I0.393 J-0.668
N4715 X-67.393 Y-81.332 Z-0.901 I-0.393 J0.668
N4720 X-66.607 Y-82.668 Z-0.986 I0.393 J-0.668
N4725 X-67.393 Y-81.332 Z-1.071 I-0.393 J0.668
N4730 X-66.607 Y-82.668 Z-1.156 I0.393 J-0.668
N4735 X-67.393 Y-81.332 Z-1.241 I-0.393 J0.668
N4740 X-66.607 Y-82.668 Z-1.326 I0.393 J-0.668
N4745 X-67.393 Y-81.332 Z-1.411 I-0.393 J0.668
N4750 X-66.607 Y-82.668 Z-1.496 I0.393 J-0.668
N4755 X-67.393 Y-81.332 Z-1.581 I-0.393 J0.668
N4760 X-66.607 Y-82.668 Z-1.666 I0.393 J-0.668
N4765 X-67.393 Y-81.332 Z-1.751 I-0.393 J0.668
N4770 X-66.607 Y-82.668 Z-1.836 I0.393 J-0.668
N4775 X-67.393 Y-81.332 Z-1.921 I-0.393 J0.668
N4780 X-66.607 Y-82.668 Z-2.006 I0.393 J-0.668
N4785 X-67.393 Y-81.332 Z-2.091 I-0.393 J0.668
N4790 X-66.607 Y-82.668 Z-2.176 I0.393 J-0.668
N4795 X-67.393 Y-81.332 Z-2.261 I-0.393 J0.668
N4800 X-66.607 Y-82.668 Z-2.346 I0.393 J-0.668
N4805 X-67.393 Y-81.332 Z-2.431 I-0.393 J0.668
N4810 X-66.607 Y-82.668 Z-2.516 I0.393 J-0.668
N4815 X-67.393 Y-81.332 Z-2.601 I-0.393 J0.668
N4820 X-66.607 Y-82.668 Z-2.686 I0.393 J-0.668
N4825 X-67.393 Y-81.332 Z-2.771 I-0.393 J0.668
N4830 X-66.607 Y-82.668 Z-2.856 I0.393 J-0.668
N4835 X-67.393 Y-81.332 Z-2.941 I-0.393 J0.668
N4840 X-66.607 Y-82.668 Z-3.026 I0.393 J-0.668
N4845 X-67.393 Y-81.332 Z-3.112 I-0.393 J0.668
N4850 X-66.607 Y-82.668 Z-3.197 I0.393 J-0.668
N4855 X-67.393 Y-81.332 Z-3.282 I-0.393 J0.668
N4860 X-66.607 Y-82.668 Z-3.367 I0.393 J-0.668
N4865 X-67.393 Y-81.332 Z-3.452 I-0.393 J0.668
N4870 X-66.607 Y-82.668 Z-3.537 I0.393 J-0.668
N4875 X-67.393 Y-81.332 Z-3.622 I-0.393 J0.668
N4880 X-66.607 Y-82.668 Z-3.707 I0.393 J-0.668
N4885 X-67.393 Y-81.332 Z-3.792 I-0.393 J0.668
N4890 X-66.607 Y-82.668 Z-3.877 I0.393 J-0.668
N4895 X-67.393 Y-81.332 Z-3.962 I-0.393 J0.668
N4900 X-66.607 Y-82.668 Z-4.047 I0.393 J-0.668
N4905 X-67.393 Y-81.332 Z-4.132 I-0.393 J0.668
N4910 X-66.607 Y-82.668 Z-4.217 I0.393 J-0.668
N4915 X-67.393 Y-81.332 Z-4.302 I-0.393 J0.668
N4920 X-66.607 Y-82.668 Z-4.387 I0.393 J-0.668
N4925 X-67.393 Y-81.332 Z-4.472 I-0.393 J0.668
N4930 X-67.775 Y-82. Z-4.5 I0.393 J-0.668
N4935 X-66.975 I0.4 J0.
N4940 X-67.025 I-0.025 J0. F#100
N4945 X-66.725 I0.15 J0.
N4950 X-67.275 I-0.275 J0.
N4955 X-66.475 I0.4 J0.
N4960 X-67.525 I-0.525 J0.
N4965 X-66.225 I0.65 J0.
N4970 X-67.775 I-0.775 J0.
N4975 X-66.225 I0.775 J0.
N4980 X-66.253 Y-81.819 Z-4.471 I-0.595 J0. F#104
N4985 X-66.325 Y-81.67 Z-4.386 I-0.567 J-0.181
N4990 X-66.409 Y-81.569 Z-4.255 I-0.495 J-0.33
N4995 X-66.474 Y-81.516 Z-4.089 I-0.411 J-0.431
N5000 X-66.499 Y-81.499 Z-3.905 I-0.346 J-0.484
N5005 G0 Z8.
N5010 X-58.839 Y-81.242
N5015 Z3.095
N5020 G3 X-58.866 Y-81.237 Z2.915 I-0.161 J-0.758 F#107
N5025 X-58.946 Y-81.227 Z2.752 I-0.134 J-0.763
N5030 X-59.073 Y-81.228 Z2.621 I-0.054 J-0.773
N5035 X-59.229 Y-81.26 Z2.534 I0.073 J-0.772
N5040 X-59.393 Y-81.332 Z2.5 I0.229 J-0.74
N5045 X-58.607 Y-82.668 Z2.415 I0.393 J-0.668
N5050 X-59.393 Y-81.332 Z2.33 I-0.393 J0.668
N5055 X-58.607 Y-82.668 Z2.245 I0.393 J-0.668
N5060 X-59.393 Y-81.332 Z2.16 I-0.393 J0.668
N5065 X-58.607 Y-82.668 Z2.075 I0.393 J-0.668
N5070 X-59.393 Y-81.332 Z1.99 I-0.393 J0.668
N5075 X-58.607 Y-82.668 Z1.905 I0.393 J-0.668
N5080 X-59.393 Y-81.332 Z1.82 I-0.393 J0.668
N5085 X-58.607 Y-82.668 Z1.735 I0.393 J-0.668
N5090 X-59.393 Y-81.332 Z1.65 I-0.393 J0.668
N5095 X-58.607 Y-82.668 Z1.565 I0.393 J-0.668
N5100 X-59.393 Y-81.332 Z1.48 I-0.393 J0.668
N5105 X-58.607 Y-82.668 Z1.395 I0.393 J-0.668
N5110 X-59.393 Y-81.332 Z1.31 I-0.393 J0.668
N5115 X-58.607 Y-82.668 Z1.225 I0.393 J-0.668
N5120 X-59.393 Y-81.332 Z1.14 I-0.393 J0.668
N5125 X-58.607 Y-82.668 Z1.055 I0.393 J-0.668
N5130 X-59.393 Y-81.332 Z0.97 I-0.393 J0.668
N5135 X-58.607 Y-82.668 Z0.885 I0.393 J-0.668
N5140 X-59.393 Y-81.332 Z0.8 I-0.393 J0.668
N5145 X-58.607 Y-82.668 Z0.715 I0.393 J-0.668
N5150 X-59.393 Y-81.332 Z0.629 I-0.393 J0.668
N5155 X-58.607 Y-82.668 Z0.544 I0.393 J-0.668
N5160 X-59.393 Y-81.332 Z0.459 I-0.393 J0.668
N5165 X-58.607 Y-82.668 Z0.374 I0.393 J-0.668
N5170 X-59.393 Y-81.332 Z0.289 I-0.393 J0.668
N5175 X-58.607 Y-82.668 Z0.204 I0.393 J-0.668
N5180 X-59.393 Y-81.332 Z0.119 I-0.393 J0.668
N5185 X-58.607 Y-82.668 Z0.034 I0.393 J-0.668
N5190 X-59.393 Y-81.332 Z-0.051 I-0.393 J0.668
N5195 X-58.607 Y-82.668 Z-0.136 I0.393 J-0.668
N5200 X-59.393 Y-81.332 Z-0.221 I-0.393 J0.668
N5205 X-58.607 Y-82.668 Z-0.306 I0.393 J-0.668
N5210 X-59.393 Y-81.332 Z-0.391 I-0.393 J0.668
N5215 X-58.607 Y-82.668 Z-0.476 I0.393 J-0.668
N5220 X-59.393 Y-81.332 Z-0.561 I-0.393 J0.668
N5225 X-58.607 Y-82.668 Z-0.646 I0.393 J-0.668
N5230 X-59.393 Y-81.332 Z-0.731 I-0.393 J0.668
N5235 X-58.607 Y-82.668 Z-0.816 I0.393 J-0.668
N5240 X-59.393 Y-81.332 Z-0.901 I-0.393 J0.668
N5245 X-58.607 Y-82.668 Z-0.986 I0.393 J-0.668
N5250 X-59.393 Y-81.332 Z-1.071 I-0.393 J0.668
N5255 X-58.607 Y-82.668 Z-1.156 I0.393 J-0.668
N5260 X-59.393 Y-81.332 Z-1.241 I-0.393 J0.668
N5265 X-58.607 Y-82.668 Z-1.326 I0.393 J-0.668
N5270 X-59.393 Y-81.332 Z-1.411 I-0.393 J0.668
N5275 X-58.607 Y-82.668 Z-1.496 I0.393 J-0.668
N5280 X-59.393 Y-81.332 Z-1.581 I-0.393 J0.668
N5285 X-58.607 Y-82.668 Z-1.666 I0.393 J-0.668
N5290 X-59.393 Y-81.332 Z-1.751 I-0.393 J0.668
N5295 X-58.607 Y-82.668 Z-1.836 I0.393 J-0.668
N5300 X-59.393 Y-81.332 Z-1.921 I-0.393 J0.668
N5305 X-58.607 Y-82.668 Z-2.006 I0.393 J-0.668
N5310 X-59.393 Y-81.332 Z-2.091 I-0.393 J0.668
N5315 X-58.607 Y-82.668 Z-2.176 I0.393 J-0.668
N5320 X-59.393 Y-81.332 Z-2.261 I-0.393 J0.668
N5325 X-58.607 Y-82.668 Z-2.346 I0.393 J-0.668
N5330 X-59.393 Y-81.332 Z-2.431 I-0.393 J0.668
N5335 X-58.607 Y-82.668 Z-2.516 I0.393 J-0.668
N5340 X-59.393 Y-81.332 Z-2.601 I-0.393 J0.668
N5345 X-58.607 Y-82.668 Z-2.686 I0.393 J-0.668
N5350 X-59.393 Y-81.332 Z-2.771 I-0.393 J0.668
N5355 X-58.607 Y-82.668 Z-2.856 I0.393 J-0.668
N5360 X-59.393 Y-81.332 Z-2.941 I-0.393 J0.668
N5365 X-58.607 Y-82.668 Z-3.026 I0.393 J-0.668
N5370 X-59.393 Y-81.332 Z-3.112 I-0.393 J0.668
N5375 X-58.607 Y-82.668 Z-3.197 I0.393 J-0.668
N5380 X-59.393 Y-81.332 Z-3.282 I-0.393 J0.668
N5385 X-58.607 Y-82.668 Z-3.367 I0.393 J-0.668
N5390 X-59.393 Y-81.332 Z-3.452 I-0.393 J0.668
N5395 X-58.607 Y-82.668 Z-3.537 I0.393 J-0.668
N5400 X-59.393 Y-81.332 Z-3.622 I-0.393 J0.668
N5405 X-58.607 Y-82.668 Z-3.707 I0.393 J-0.668
N5410 X-59.393 Y-81.332 Z-3.792 I-0.393 J0.668
N5415 X-58.607 Y-82.668 Z-3.877 I0.393 J-0.668
N5420 X-59.393 Y-81.332 Z-3.962 I-0.393 J0.668
N5425 X-58.607 Y-82.668 Z-4.047 I0.393 J-0.668
N5430 X-59.393 Y-81.332 Z-4.132 I-0.393 J0.668
N5435 X-58.607 Y-82.668 Z-4.217 I0.393 J-0.668
N5440 X-59.393 Y-81.332 Z-4.302 I-0.393 J0.668
N5445 X-58.607 Y-82.668 Z-4.387 I0.393 J-0.668
N5450 X-59.393 Y-81.332 Z-4.472 I-0.393 J0.668
N5455 X-59.775 Y-82. Z-4.5 I0.393 J-0.668
N5460 X-58.975 I0.4 J0.
N5465 X-59.025 I-0.025 J0. F#100
N5470 X-58.725 I0.15 J0.
N5475 X-59.275 I-0.275 J0.
N5480 X-58.475 I0.4 J0.
N5485 X-59.525 I-0.525 J0.
N5490 X-58.225 I0.65 J0.
N5495 X-59.775 I-0.775 J0.
N5500 X-58.225 I0.775 J0.
N5505 X-58.253 Y-81.819 Z-4.471 I-0.595 J0. F#104
N5510 X-58.325 Y-81.67 Z-4.386 I-0.567 J-0.181
N5515 X-58.409 Y-81.569 Z-4.255 I-0.495 J-0.33
N5520 X-58.474 Y-81.516 Z-4.089 I-0.411 J-0.431
N5525 X-58.499 Y-81.499 Z-3.905 I-0.346 J-0.484
N5530 G0 Z8.
N5535 X-58.839 Y-72.242
N5540 Z3.095
N5545 G3 X-58.866 Y-72.237 Z2.915 I-0.161 J-0.758 F#107
N5550 X-58.946 Y-72.227 Z2.752 I-0.134 J-0.763
N5555 X-59.073 Y-72.228 Z2.621 I-0.054 J-0.773
N5560 X-59.229 Y-72.26 Z2.534 I0.073 J-0.772
N5565 X-59.393 Y-72.332 Z2.5 I0.229 J-0.74
N5570 X-58.607 Y-73.668 Z2.415 I0.393 J-0.668
N5575 X-59.393 Y-72.332 Z2.33 I-0.393 J0.668
N5580 X-58.607 Y-73.668 Z2.245 I0.393 J-0.668
N5585 X-59.393 Y-72.332 Z2.16 I-0.393 J0.668
N5590 X-58.607 Y-73.668 Z2.075 I0.393 J-0.668
N5595 X-59.393 Y-72.332 Z1.99 I-0.393 J0.668
N5600 X-58.607 Y-73.668 Z1.905 I0.393 J-0.668
N5605 X-59.393 Y-72.332 Z1.82 I-0.393 J0.668
N5610 X-58.607 Y-73.668 Z1.735 I0.393 J-0.668
N5615 X-59.393 Y-72.332 Z1.65 I-0.393 J0.668
N5620 X-58.607 Y-73.668 Z1.565 I0.393 J-0.668
N5625 X-59.393 Y-72.332 Z1.48 I-0.393 J0.668
N5630 X-58.607 Y-73.668 Z1.395 I0.393 J-0.668
N5635 X-59.393 Y-72.332 Z1.31 I-0.393 J0.668
N5640 X-58.607 Y-73.668 Z1.225 I0.393 J-0.668
N5645 X-59.393 Y-72.332 Z1.14 I-0.393 J0.668
N5650 X-58.607 Y-73.668 Z1.055 I0.393 J-0.668
N5655 X-59.393 Y-72.332 Z0.97 I-0.393 J0.668
N5660 X-58.607 Y-73.668 Z0.885 I0.393 J-0.668
N5665 X-59.393 Y-72.332 Z0.8 I-0.393 J0.668
N5670 X-58.607 Y-73.668 Z0.715 I0.393 J-0.668
N5675 X-59.393 Y-72.332 Z0.629 I-0.393 J0.668
N5680 X-58.607 Y-73.668 Z0.544 I0.393 J-0.668
N5685 X-59.393 Y-72.332 Z0.459 I-0.393 J0.668
N5690 X-58.607 Y-73.668 Z0.374 I0.393 J-0.668
N5695 X-59.393 Y-72.332 Z0.289 I-0.393 J0.668
N5700 X-58.607 Y-73.668 Z0.204 I0.393 J-0.668
N5705 X-59.393 Y-72.332 Z0.119 I-0.393 J0.668
N5710 X-58.607 Y-73.668 Z0.034 I0.393 J-0.668
N5715 X-59.393 Y-72.332 Z-0.051 I-0.393 J0.668
N5720 X-58.607 Y-73.668 Z-0.136 I0.393 J-0.668
N5725 X-59.393 Y-72.332 Z-0.221 I-0.393 J0.668
N5730 X-58.607 Y-73.668 Z-0.306 I0.393 J-0.668
N5735 X-59.393 Y-72.332 Z-0.391 I-0.393 J0.668
N5740 X-58.607 Y-73.668 Z-0.476 I0.393 J-0.668
N5745 X-59.393 Y-72.332 Z-0.561 I-0.393 J0.668
N5750 X-58.607 Y-73.668 Z-0.646 I0.393 J-0.668
N5755 X-59.393 Y-72.332 Z-0.731 I-0.393 J0.668
N5760 X-58.607 Y-73.668 Z-0.816 I0.393 J-0.668
N5765 X-59.393 Y-72.332 Z-0.901 I-0.393 J0.668
N5770 X-58.607 Y-73.668 Z-0.986 I0.393 J-0.668
N5775 X-59.393 Y-72.332 Z-1.071 I-0.393 J0.668
N5780 X-58.607 Y-73.668 Z-1.156 I0.393 J-0.668
N5785 X-59.393 Y-72.332 Z-1.241 I-0.393 J0.668
N5790 X-58.607 Y-73.668 Z-1.326 I0.393 J-0.668
N5795 X-59.393 Y-72.332 Z-1.411 I-0.393 J0.668
N5800 X-58.607 Y-73.668 Z-1.496 I0.393 J-0.668
N5805 X-59.393 Y-72.332 Z-1.581 I-0.393 J0.668
N5810 X-58.607 Y-73.668 Z-1.666 I0.393 J-0.668
N5815 X-59.393 Y-72.332 Z-1.751 I-0.393 J0.668
N5820 X-58.607 Y-73.668 Z-1.836 I0.393 J-0.668
N5825 X-59.393 Y-72.332 Z-1.921 I-0.393 J0.668
N5830 X-58.607 Y-73.668 Z-2.006 I0.393 J-0.668
N5835 X-59.393 Y-72.332 Z-2.091 I-0.393 J0.668
N5840 X-58.607 Y-73.668 Z-2.176 I0.393 J-0.668
N5845 X-59.393 Y-72.332 Z-2.261 I-0.393 J0.668
N5850 X-58.607 Y-73.668 Z-2.346 I0.393 J-0.668
N5855 X-59.393 Y-72.332 Z-2.431 I-0.393 J0.668
N5860 X-58.607 Y-73.668 Z-2.516 I0.393 J-0.668
N5865 X-59.393 Y-72.332 Z-2.601 I-0.393 J0.668
N5870 X-58.607 Y-73.668 Z-2.686 I0.393 J-0.668
N5875 X-59.393 Y-72.332 Z-2.771 I-0.393 J0.668
N5880 X-58.607 Y-73.668 Z-2.856 I0.393 J-0.668
N5885 X-59.393 Y-72.332 Z-2.941 I-0.393 J0.668
N5890 X-58.607 Y-73.668 Z-3.026 I0.393 J-0.668
N5895 X-59.393 Y-72.332 Z-3.112 I-0.393 J0.668
N5900 X-58.607 Y-73.668 Z-3.197 I0.393 J-0.668
N5905 X-59.393 Y-72.332 Z-3.282 I-0.393 J0.668
N5910 X-58.607 Y-73.668 Z-3.367 I0.393 J-0.668
N5915 X-59.393 Y-72.332 Z-3.452 I-0.393 J0.668
N5920 X-58.607 Y-73.668 Z-3.537 I0.393 J-0.668
N5925 X-59.393 Y-72.332 Z-3.622 I-0.393 J0.668
N5930 X-58.607 Y-73.668 Z-3.707 I0.393 J-0.668
N5935 X-59.393 Y-72.332 Z-3.792 I-0.393 J0.668
N5940 X-58.607 Y-73.668 Z-3.877 I0.393 J-0.668
N5945 X-59.393 Y-72.332 Z-3.962 I-0.393 J0.668
N5950 X-58.607 Y-73.668 Z-4.047 I0.393 J-0.668
N5955 X-59.393 Y-72.332 Z-4.132 I-0.393 J0.668
N5960 X-58.607 Y-73.668 Z-4.217 I0.393 J-0.668
N5965 X-59.393 Y-72.332 Z-4.302 I-0.393 J0.668
N5970 X-58.607 Y-73.668 Z-4.387 I0.393 J-0.668
N5975 X-59.393 Y-72.332 Z-4.472 I-0.393 J0.668
N5980 X-59.775 Y-73. Z-4.5 I0.393 J-0.668
N5985 X-58.975 I0.4 J0.
N5990 X-59.025 I-0.025 J0. F#100
N5995 X-58.725 I0.15 J0.
N6000 X-59.275 I-0.275 J0.
N6005 X-58.475 I0.4 J0.
N6010 X-59.525 I-0.525 J0.
N6015 X-58.225 I0.65 J0.
N6020 X-59.775 I-0.775 J0.
N6025 X-58.225 I0.775 J0.
N6030 X-58.253 Y-72.819 Z-4.471 I-0.595 J0. F#104
N6035 X-58.325 Y-72.67 Z-4.386 I-0.567 J-0.181
N6040 X-58.409 Y-72.569 Z-4.255 I-0.495 J-0.33
N6045 X-58.474 Y-72.516 Z-4.089 I-0.411 J-0.431
N6050 X-58.499 Y-72.499 Z-3.905 I-0.346 J-0.484
N6055 G0 Z8.
N6060 X-66.839 Y-72.242
N6065 Z3.095
N6070 G3 X-66.866 Y-72.237 Z2.915 I-0.161 J-0.758 F#107
N6075 X-66.946 Y-72.227 Z2.752 I-0.134 J-0.763
N6080 X-67.073 Y-72.228 Z2.621 I-0.054 J-0.773
N6085 X-67.229 Y-72.26 Z2.534 I0.073 J-0.772
N6090 X-67.393 Y-72.332 Z2.5 I0.229 J-0.74
N6095 X-66.607 Y-73.668 Z2.415 I0.393 J-0.668
N6100 X-67.393 Y-72.332 Z2.33 I-0.393 J0.668
N6105 X-66.607 Y-73.668 Z2.245 I0.393 J-0.668
N6110 X-67.393 Y-72.332 Z2.16 I-0.393 J0.668
N6115 X-66.607 Y-73.668 Z2.075 I0.393 J-0.668
N6120 X-67.393 Y-72.332 Z1.99 I-0.393 J0.668
N6125 X-66.607 Y-73.668 Z1.905 I0.393 J-0.668
N6130 X-67.393 Y-72.332 Z1.82 I-0.393 J0.668
N6135 X-66.607 Y-73.668 Z1.735 I0.393 J-0.668
N6140 X-67.393 Y-72.332 Z1.65 I-0.393 J0.668
N6145 X-66.607 Y-73.668 Z1.565 I0.393 J-0.668
N6150 X-67.393 Y-72.332 Z1.48 I-0.393 J0.668
N6155 X-66.607 Y-73.668 Z1.395 I0.393 J-0.668
N6160 X-67.393 Y-72.332 Z1.31 I-0.393 J0.668
N6165 X-66.607 Y-73.668 Z1.225 I0.393 J-0.668
N6170 X-67.393 Y-72.332 Z1.14 I-0.393 J0.668
N6175 X-66.607 Y-73.668 Z1.055 I0.393 J-0.668
N6180 X-67.393 Y-72.332 Z0.97 I-0.393 J0.668
N6185 X-66.607 Y-73.668 Z0.885 I0.393 J-0.668
N6190 X-67.393 Y-72.332 Z0.8 I-0.393 J0.668
N6195 X-66.607 Y-73.668 Z0.715 I0.393 J-0.668
N6200 X-67.393 Y-72.332 Z0.629 I-0.393 J0.668
N6205 X-66.607 Y-73.668 Z0.544 I0.393 J-0.668
N6210 X-67.393 Y-72.332 Z0.459 I-0.393 J0.668
N6215 X-66.607 Y-73.668 Z0.374 I0.393 J-0.668
N6220 X-67.393 Y-72.332 Z0.289 I-0.393 J0.668
N6225 X-66.607 Y-73.668 Z0.204 I0.393 J-0.668
N6230 X-67.393 Y-72.332 Z0.119 I-0.393 J0.668
N6235 X-66.607 Y-73.668 Z0.034 I0.393 J-0.668
N6240 X-67.393 Y-72.332 Z-0.051 I-0.393 J0.668
N6245 X-66.607 Y-73.668 Z-0.136 I0.393 J-0.668
N6250 X-67.393 Y-72.332 Z-0.221 I-0.393 J0.668
N6255 X-66.607 Y-73.668 Z-0.306 I0.393 J-0.668
N6260 X-67.393 Y-72.332 Z-0.391 I-0.393 J0.668
N6265 X-66.607 Y-73.668 Z-0.476 I0.393 J-0.668
N6270 X-67.393 Y-72.332 Z-0.561 I-0.393 J0.668
N6275 X-66.607 Y-73.668 Z-0.646 I0.393 J-0.668
N6280 X-67.393 Y-72.332 Z-0.731 I-0.393 J0.668
N6285 X-66.607 Y-73.668 Z-0.816 I0.393 J-0.668
N6290 X-67.393 Y-72.332 Z-0.901 I-0.393 J0.668
N6295 X-66.607 Y-73.668 Z-0.986 I0.393 J-0.668
N6300 X-67.393 Y-72.332 Z-1.071 I-0.393 J0.668
N6305 X-66.607 Y-73.668 Z-1.156 I0.393 J-0.668
N6310 X-67.393 Y-72.332 Z-1.241 I-0.393 J0.668
N6315 X-66.607 Y-73.668 Z-1.326 I0.393 J-0.668
N6320 X-67.393 Y-72.332 Z-1.411 I-0.393 J0.668
N6325 X-66.607 Y-73.668 Z-1.496 I0.393 J-0.668
N6330 X-67.393 Y-72.332 Z-1.581 I-0.393 J0.668
N6335 X-66.607 Y-73.668 Z-1.666 I0.393 J-0.668
N6340 X-67.393 Y-72.332 Z-1.751 I-0.393 J0.668
N6345 X-66.607 Y-73.668 Z-1.836 I0.393 J-0.668
N6350 X-67.393 Y-72.332 Z-1.921 I-0.393 J0.668
N6355 X-66.607 Y-73.668 Z-2.006 I0.393 J-0.668
N6360 X-67.393 Y-72.332 Z-2.091 I-0.393 J0.668
N6365 X-66.607 Y-73.668 Z-2.176 I0.393 J-0.668
N6370 X-67.393 Y-72.332 Z-2.261 I-0.393 J0.668
N6375 X-66.607 Y-73.668 Z-2.346 I0.393 J-0.668
N6380 X-67.393 Y-72.332 Z-2.431 I-0.393 J0.668
N6385 X-66.607 Y-73.668 Z-2.516 I0.393 J-0.668
N6390 X-67.393 Y-72.332 Z-2.601 I-0.393 J0.668
N6395 X-66.607 Y-73.668 Z-2.686 I0.393 J-0.668
N6400 X-67.393 Y-72.332 Z-2.771 I-0.393 J0.668
N6405 X-66.607 Y-73.668 Z-2.856 I0.393 J-0.668
N6410 X-67.393 Y-72.332 Z-2.941 I-0.393 J0.668
N6415 X-66.607 Y-73.668 Z-3.026 I0.393 J-0.668
N6420 X-67.393 Y-72.332 Z-3.112 I-0.393 J0.668
N6425 X-66.607 Y-73.668 Z-3.197 I0.393 J-0.668
N6430 X-67.393 Y-72.332 Z-3.282 I-0.393 J0.668
N6435 X-66.607 Y-73.668 Z-3.367 I0.393 J-0.668
N6440 X-67.393 Y-72.332 Z-3.452 I-0.393 J0.668
N6445 X-66.607 Y-73.668 Z-3.537 I0.393 J-0.668
N6450 X-67.393 Y-72.332 Z-3.622 I-0.393 J0.668
N6455 X-66.607 Y-73.668 Z-3.707 I0.393 J-0.668
N6460 X-67.393 Y-72.332 Z-3.792 I-0.393 J0.668
N6465 X-66.607 Y-73.668 Z-3.877 I0.393 J-0.668
N6470 X-67.393 Y-72.332 Z-3.962 I-0.393 J0.668
N6475 X-66.607 Y-73.668 Z-4.047 I0.393 J-0.668
N6480 X-67.393 Y-72.332 Z-4.132 I-0.393 J0.668
N6485 X-66.607 Y-73.668 Z-4.217 I0.393 J-0.668
N6490 X-67.393 Y-72.332 Z-4.302 I-0.393 J0.668
N6495 X-66.607 Y-73.668 Z-4.387 I0.393 J-0.668
N6500 X-67.393 Y-72.332 Z-4.472 I-0.393 J0.668
N6505 X-67.775 Y-73. Z-4.5 I0.393 J-0.668
N6510 X-66.975 I0.4 J0.
N6515 X-67.025 I-0.025 J0. F#100
N6520 X-66.725 I0.15 J0.
N6525 X-67.275 I-0.275 J0.
N6530 X-66.475 I0.4 J0.
N6535 X-67.525 I-0.525 J0.
N6540 X-66.225 I0.65 J0.
N6545 X-67.775 I-0.775 J0.
N6550 X-66.225 I0.775 J0.
N6555 X-66.253 Y-72.819 Z-4.471 I-0.595 J0. F#104
N6560 X-66.325 Y-72.67 Z-4.386 I-0.567 J-0.181
N6565 X-66.409 Y-72.569 Z-4.255 I-0.495 J-0.33
N6570 X-66.474 Y-72.516 Z-4.089 I-0.411 J-0.431
N6575 X-66.499 Y-72.499 Z-3.905 I-0.346 J-0.484
N6580 G0 Z8.
N6585 X-66.839 Y-63.242
N6590 Z3.095
N6595 G3 X-66.866 Y-63.237 Z2.915 I-0.161 J-0.758 F#107
N6600 X-66.946 Y-63.227 Z2.752 I-0.134 J-0.763
N6605 X-67.073 Y-63.228 Z2.621 I-0.054 J-0.773
N6610 X-67.229 Y-63.26 Z2.534 I0.073 J-0.772
N6615 X-67.393 Y-63.332 Z2.5 I0.229 J-0.74
N6620 X-66.607 Y-64.668 Z2.415 I0.393 J-0.668
N6625 X-67.393 Y-63.332 Z2.33 I-0.393 J0.668
N6630 X-66.607 Y-64.668 Z2.245 I0.393 J-0.668
N6635 X-67.393 Y-63.332 Z2.16 I-0.393 J0.668
N6640 X-66.607 Y-64.668 Z2.075 I0.393 J-0.668
N6645 X-67.393 Y-63.332 Z1.99 I-0.393 J0.668
N6650 X-66.607 Y-64.668 Z1.905 I0.393 J-0.668
N6655 X-67.393 Y-63.332 Z1.82 I-0.393 J0.668
N6660 X-66.607 Y-64.668 Z1.735 I0.393 J-0.668
N6665 X-67.393 Y-63.332 Z1.65 I-0.393 J0.668
N6670 X-66.607 Y-64.668 Z1.565 I0.393 J-0.668
N6675 X-67.393 Y-63.332 Z1.48 I-0.393 J0.668
N6680 X-66.607 Y-64.668 Z1.395 I0.393 J-0.668
N6685 X-67.393 Y-63.332 Z1.31 I-0.393 J0.668
N6690 X-66.607 Y-64.668 Z1.225 I0.393 J-0.668
N6695 X-67.393 Y-63.332 Z1.14 I-0.393 J0.668
N6700 X-66.607 Y-64.668 Z1.055 I0.393 J-0.668
N6705 X-67.393 Y-63.332 Z0.97 I-0.393 J0.668
N6710 X-66.607 Y-64.668 Z0.885 I0.393 J-0.668
N6715 X-67.393 Y-63.332 Z0.8 I-0.393 J0.668
N6720 X-66.607 Y-64.668 Z0.715 I0.393 J-0.668
N6725 X-67.393 Y-63.332 Z0.629 I-0.393 J0.668
N6730 X-66.607 Y-64.668 Z0.544 I0.393 J-0.668
N6735 X-67.393 Y-63.332 Z0.459 I-0.393 J0.668
N6740 X-66.607 Y-64.668 Z0.374 I0.393 J-0.668
N6745 X-67.393 Y-63.332 Z0.289 I-0.393 J0.668
N6750 X-66.607 Y-64.668 Z0.204 I0.393 J-0.668
N6755 X-67.393 Y-63.332 Z0.119 I-0.393 J0.668
N6760 X-66.607 Y-64.668 Z0.034 I0.393 J-0.668
N6765 X-67.393 Y-63.332 Z-0.051 I-0.393 J0.668
N6770 X-66.607 Y-64.668 Z-0.136 I0.393 J-0.668
N6775 X-67.393 Y-63.332 Z-0.221 I-0.393 J0.668
N6780 X-66.607 Y-64.668 Z-0.306 I0.393 J-0.668
N6785 X-67.393 Y-63.332 Z-0.391 I-0.393 J0.668
N6790 X-66.607 Y-64.668 Z-0.476 I0.393 J-0.668
N6795 X-67.393 Y-63.332 Z-0.561 I-0.393 J0.668
N6800 X-66.607 Y-64.668 Z-0.646 I0.393 J-0.668
N6805 X-67.393 Y-63.332 Z-0.731 I-0.393 J0.668
N6810 X-66.607 Y-64.668 Z-0.816 I0.393 J-0.668
N6815 X-67.393 Y-63.332 Z-0.901 I-0.393 J0.668
N6820 X-66.607 Y-64.668 Z-0.986 I0.393 J-0.668
N6825 X-67.393 Y-63.332 Z-1.071 I-0.393 J0.668
N6830 X-66.607 Y-64.668 Z-1.156 I0.393 J-0.668
N6835 X-67.393 Y-63.332 Z-1.241 I-0.393 J0.668
N6840 X-66.607 Y-64.668 Z-1.326 I0.393 J-0.668
N6845 X-67.393 Y-63.332 Z-1.411 I-0.393 J0.668
N6850 X-66.607 Y-64.668 Z-1.496 I0.393 J-0.668
N6855 X-67.393 Y-63.332 Z-1.581 I-0.393 J0.668
N6860 X-66.607 Y-64.668 Z-1.666 I0.393 J-0.668
N6865 X-67.393 Y-63.332 Z-1.751 I-0.393 J0.668
N6870 X-66.607 Y-64.668 Z-1.836 I0.393 J-0.668
N6875 X-67.393 Y-63.332 Z-1.921 I-0.393 J0.668
N6880 X-66.607 Y-64.668 Z-2.006 I0.393 J-0.668
N6885 X-67.393 Y-63.332 Z-2.091 I-0.393 J0.668
N6890 X-66.607 Y-64.668 Z-2.176 I0.393 J-0.668
N6895 X-67.393 Y-63.332 Z-2.261 I-0.393 J0.668
N6900 X-66.607 Y-64.668 Z-2.346 I0.393 J-0.668
N6905 X-67.393 Y-63.332 Z-2.431 I-0.393 J0.668
N6910 X-66.607 Y-64.668 Z-2.516 I0.393 J-0.668
N6915 X-67.393 Y-63.332 Z-2.601 I-0.393 J0.668
N6920 X-66.607 Y-64.668 Z-2.686 I0.393 J-0.668
N6925 X-67.393 Y-63.332 Z-2.771 I-0.393 J0.668
N6930 X-66.607 Y-64.668 Z-2.856 I0.393 J-0.668
N6935 X-67.393 Y-63.332 Z-2.941 I-0.393 J0.668
N6940 X-66.607 Y-64.668 Z-3.026 I0.393 J-0.668
N6945 X-67.393 Y-63.332 Z-3.112 I-0.393 J0.668
N6950 X-66.607 Y-64.668 Z-3.197 I0.393 J-0.668
N6955 X-67.393 Y-63.332 Z-3.282 I-0.393 J0.668
N6960 X-66.607 Y-64.668 Z-3.367 I0.393 J-0.668
N6965 X-67.393 Y-63.332 Z-3.452 I-0.393 J0.668
N6970 X-66.607 Y-64.668 Z-3.537 I0.393 J-0.668
N6975 X-67.393 Y-63.332 Z-3.622 I-0.393 J0.668
N6980 X-66.607 Y-64.668 Z-3.707 I0.393 J-0.668
N6985 X-67.393 Y-63.332 Z-3.792 I-0.393 J0.668
N6990 X-66.607 Y-64.668 Z-3.877 I0.393 J-0.668
N6995 X-67.393 Y-63.332 Z-3.962 I-0.393 J0.668
N7000 X-66.607 Y-64.668 Z-4.047 I0.393 J-0.668
N7005 X-67.393 Y-63.332 Z-4.132 I-0.393 J0.668
N7010 X-66.607 Y-64.668 Z-4.217 I0.393 J-0.668
N7015 X-67.393 Y-63.332 Z-4.302 I-0.393 J0.668
N7020 X-66.607 Y-64.668 Z-4.387 I0.393 J-0.668
N7025 X-67.393 Y-63.332 Z-4.472 I-0.393 J0.668
N7030 X-67.775 Y-64. Z-4.5 I0.393 J-0.668
N7035 X-66.975 I0.4 J0.
N7040 X-67.025 I-0.025 J0. F#100
N7045 X-66.725 I0.15 J0.
N7050 X-67.275 I-0.275 J0.
N7055 X-66.475 I0.4 J0.
N7060 X-67.525 I-0.525 J0.
N7065 X-66.225 I0.65 J0.
N7070 X-67.775 I-0.775 J0.
N7075 X-66.225 I0.775 J0.
N7080 X-66.253 Y-63.819 Z-4.471 I-0.595 J0. F#104
N7085 X-66.325 Y-63.67 Z-4.386 I-0.567 J-0.181
N7090 X-66.409 Y-63.569 Z-4.255 I-0.495 J-0.33
N7095 X-66.474 Y-63.516 Z-4.089 I-0.411 J-0.431
N7100 X-66.499 Y-63.499 Z-3.905 I-0.346 J-0.484
N7105 G0 Z8.
N7110 X-58.839 Y-63.242
N7115 Z3.095
N7120 G3 X-58.866 Y-63.237 Z2.915 I-0.161 J-0.758 F#107
N7125 X-58.946 Y-63.227 Z2.752 I-0.134 J-0.763
N7130 X-59.073 Y-63.228 Z2.621 I-0.054 J-0.773
N7135 X-59.229 Y-63.26 Z2.534 I0.073 J-0.772
N7140 X-59.393 Y-63.332 Z2.5 I0.229 J-0.74
N7145 X-58.607 Y-64.668 Z2.415 I0.393 J-0.668
N7150 X-59.393 Y-63.332 Z2.33 I-0.393 J0.668
N7155 X-58.607 Y-64.668 Z2.245 I0.393 J-0.668
N7160 X-59.393 Y-63.332 Z2.16 I-0.393 J0.668
N7165 X-58.607 Y-64.668 Z2.075 I0.393 J-0.668
N7170 X-59.393 Y-63.332 Z1.99 I-0.393 J0.668
N7175 X-58.607 Y-64.668 Z1.905 I0.393 J-0.668
N7180 X-59.393 Y-63.332 Z1.82 I-0.393 J0.668
N7185 X-58.607 Y-64.668 Z1.735 I0.393 J-0.668
N7190 X-59.393 Y-63.332 Z1.65 I-0.393 J0.668
N7195 X-58.607 Y-64.668 Z1.565 I0.393 J-0.668
N7200 X-59.393 Y-63.332 Z1.48 I-0.393 J0.668
N7205 X-58.607 Y-64.668 Z1.395 I0.393 J-0.668
N7210 X-59.393 Y-63.332 Z1.31 I-0.393 J0.668
N7215 X-58.607 Y-64.668 Z1.225 I0.393 J-0.668
N7220 X-59.393 Y-63.332 Z1.14 I-0.393 J0.668
N7225 X-58.607 Y-64.668 Z1.055 I0.393 J-0.668
N7230 X-59.393 Y-63.332 Z0.97 I-0.393 J0.668
N7235 X-58.607 Y-64.668 Z0.885 I0.393 J-0.668
N7240 X-59.393 Y-63.332 Z0.8 I-0.393 J0.668
N7245 X-58.607 Y-64.668 Z0.715 I0.393 J-0.668
N7250 X-59.393 Y-63.332 Z0.629 I-0.393 J0.668
N7255 X-58.607 Y-64.668 Z0.544 I0.393 J-0.668
N7260 X-59.393 Y-63.332 Z0.459 I-0.393 J0.668
N7265 X-58.607 Y-64.668 Z0.374 I0.393 J-0.668
N7270 X-59.393 Y-63.332 Z0.289 I-0.393 J0.668
N7275 X-58.607 Y-64.668 Z0.204 I0.393 J-0.668
N7280 X-59.393 Y-63.332 Z0.119 I-0.393 J0.668
N7285 X-58.607 Y-64.668 Z0.034 I0.393 J-0.668
N7290 X-59.393 Y-63.332 Z-0.051 I-0.393 J0.668
N7295 X-58.607 Y-64.668 Z-0.136 I0.393 J-0.668
N7300 X-59.393 Y-63.332 Z-0.221 I-0.393 J0.668
N7305 X-58.607 Y-64.668 Z-0.306 I0.393 J-0.668
N7310 X-59.393 Y-63.332 Z-0.391 I-0.393 J0.668
N7315 X-58.607 Y-64.668 Z-0.476 I0.393 J-0.668
N7320 X-59.393 Y-63.332 Z-0.561 I-0.393 J0.668
N7325 X-58.607 Y-64.668 Z-0.646 I0.393 J-0.668
N7330 X-59.393 Y-63.332 Z-0.731 I-0.393 J0.668
N7335 X-58.607 Y-64.668 Z-0.816 I0.393 J-0.668
N7340 X-59.393 Y-63.332 Z-0.901 I-0.393 J0.668
N7345 X-58.607 Y-64.668 Z-0.986 I0.393 J-0.668
N7350 X-59.393 Y-63.332 Z-1.071 I-0.393 J0.668
N7355 X-58.607 Y-64.668 Z-1.156 I0.393 J-0.668
N7360 X-59.393 Y-63.332 Z-1.241 I-0.393 J0.668
N7365 X-58.607 Y-64.668 Z-1.326 I0.393 J-0.668
N7370 X-59.393 Y-63.332 Z-1.411 I-0.393 J0.668
N7375 X-58.607 Y-64.668 Z-1.496 I0.393 J-0.668
N7380 X-59.393 Y-63.332 Z-1.581 I-0.393 J0.668
N7385 X-58.607 Y-64.668 Z-1.666 I0.393 J-0.668
N7390 X-59.393 Y-63.332 Z-1.751 I-0.393 J0.668
N7395 X-58.607 Y-64.668 Z-1.836 I0.393 J-0.668
N7400 X-59.393 Y-63.332 Z-1.921 I-0.393 J0.668
N7405 X-58.607 Y-64.668 Z-2.006 I0.393 J-0.668
N7410 X-59.393 Y-63.332 Z-2.091 I-0.393 J0.668
N7415 X-58.607 Y-64.668 Z-2.176 I0.393 J-0.668
N7420 X-59.393 Y-63.332 Z-2.261 I-0.393 J0.668
N7425 X-58.607 Y-64.668 Z-2.346 I0.393 J-0.668
N7430 X-59.393 Y-63.332 Z-2.431 I-0.393 J0.668
N7435 X-58.607 Y-64.668 Z-2.516 I0.393 J-0.668
N7440 X-59.393 Y-63.332 Z-2.601 I-0.393 J0.668
N7445 X-58.607 Y-64.668 Z-2.686 I0.393 J-0.668
N7450 X-59.393 Y-63.332 Z-2.771 I-0.393 J0.668
N7455 X-58.607 Y-64.668 Z-2.856 I0.393 J-0.668
N7460 X-59.393 Y-63.332 Z-2.941 I-0.393 J0.668
N7465 X-58.607 Y-64.668 Z-3.026 I0.393 J-0.668
N7470 X-59.393 Y-63.332 Z-3.112 I-0.393 J0.668
N7475 X-58.607 Y-64.668 Z-3.197 I0.393 J-0.668
N7480 X-59.393 Y-63.332 Z-3.282 I-0.393 J0.668
N7485 X-58.607 Y-64.668 Z-3.367 I0.393 J-0.668
N7490 X-59.393 Y-63.332 Z-3.452 I-0.393 J0.668
N7495 X-58.607 Y-64.668 Z-3.537 I0.393 J-0.668
N7500 X-59.393 Y-63.332 Z-3.622 I-0.393 J0.668
N7505 X-58.607 Y-64.668 Z-3.707 I0.393 J-0.668
N7510 X-59.393 Y-63.332 Z-3.792 I-0.393 J0.668
N7515 X-58.607 Y-64.668 Z-3.877 I0.393 J-0.668
N7520 X-59.393 Y-63.332 Z-3.962 I-0.393 J0.668
N7525 X-58.607 Y-64.668 Z-4.047 I0.393 J-0.668
N7530 X-59.393 Y-63.332 Z-4.132 I-0.393 J0.668
N7535 X-58.607 Y-64.668 Z-4.217 I0.393 J-0.668
N7540 X-59.393 Y-63.332 Z-4.302 I-0.393 J0.668
N7545 X-58.607 Y-64.668 Z-4.387 I0.393 J-0.668
N7550 X-59.393 Y-63.332 Z-4.472 I-0.393 J0.668
N7555 X-59.775 Y-64. Z-4.5 I0.393 J-0.668
N7560 X-58.975 I0.4 J0.
N7565 X-59.025 I-0.025 J0. F#100
N7570 X-58.725 I0.15 J0.
N7575 X-59.275 I-0.275 J0.
N7580 X-58.475 I0.4 J0.
N7585 X-59.525 I-0.525 J0.
N7590 X-58.225 I0.65 J0.
N7595 X-59.775 I-0.775 J0.
N7600 X-58.225 I0.775 J0.
N7605 X-58.253 Y-63.819 Z-4.471 I-0.595 J0. F#104
N7610 X-58.325 Y-63.67 Z-4.386 I-0.567 J-0.181
N7615 X-58.409 Y-63.569 Z-4.255 I-0.495 J-0.33
N7620 X-58.474 Y-63.516 Z-4.089 I-0.411 J-0.431
N7625 X-58.499 Y-63.499 Z-3.905 I-0.346 J-0.484
N7630 G0 Z8.
N7635 X-58.839 Y-54.242
N7640 Z3.095
N7645 G3 X-58.866 Y-54.237 Z2.915 I-0.161 J-0.758 F#107
N7650 X-58.946 Y-54.227 Z2.752 I-0.134 J-0.763
N7655 X-59.073 Y-54.228 Z2.621 I-0.054 J-0.773
N7660 X-59.229 Y-54.26 Z2.534 I0.073 J-0.772
N7665 X-59.393 Y-54.332 Z2.5 I0.229 J-0.74
N7670 X-58.607 Y-55.668 Z2.415 I0.393 J-0.668
N7675 X-59.393 Y-54.332 Z2.33 I-0.393 J0.668
N7680 X-58.607 Y-55.668 Z2.245 I0.393 J-0.668
N7685 X-59.393 Y-54.332 Z2.16 I-0.393 J0.668
N7690 X-58.607 Y-55.668 Z2.075 I0.393 J-0.668
N7695 X-59.393 Y-54.332 Z1.99 I-0.393 J0.668
N7700 X-58.607 Y-55.668 Z1.905 I0.393 J-0.668
N7705 X-59.393 Y-54.332 Z1.82 I-0.393 J0.668
N7710 X-58.607 Y-55.668 Z1.735 I0.393 J-0.668
N7715 X-59.393 Y-54.332 Z1.65 I-0.393 J0.668
N7720 X-58.607 Y-55.668 Z1.565 I0.393 J-0.668
N7725 X-59.393 Y-54.332 Z1.48 I-0.393 J0.668
N7730 X-58.607 Y-55.668 Z1.395 I0.393 J-0.668
N7735 X-59.393 Y-54.332 Z1.31 I-0.393 J0.668
N7740 X-58.607 Y-55.668 Z1.225 I0.393 J-0.668
N7745 X-59.393 Y-54.332 Z1.14 I-0.393 J0.668
N7750 X-58.607 Y-55.668 Z1.055 I0.393 J-0.668
N7755 X-59.393 Y-54.332 Z0.97 I-0.393 J0.668
N7760 X-58.607 Y-55.668 Z0.885 I0.393 J-0.668
N7765 X-59.393 Y-54.332 Z0.8 I-0.393 J0.668
N7770 X-58.607 Y-55.668 Z0.715 I0.393 J-0.668
N7775 X-59.393 Y-54.332 Z0.629 I-0.393 J0.668
N7780 X-58.607 Y-55.668 Z0.544 I0.393 J-0.668
N7785 X-59.393 Y-54.332 Z0.459 I-0.393 J0.668
N7790 X-58.607 Y-55.668 Z0.374 I0.393 J-0.668
N7795 X-59.393 Y-54.332 Z0.289 I-0.393 J0.668
N7800 X-58.607 Y-55.668 Z0.204 I0.393 J-0.668
N7805 X-59.393 Y-54.332 Z0.119 I-0.393 J0.668
N7810 X-58.607 Y-55.668 Z0.034 I0.393 J-0.668
N7815 X-59.393 Y-54.332 Z-0.051 I-0.393 J0.668
N7820 X-58.607 Y-55.668 Z-0.136 I0.393 J-0.668
N7825 X-59.393 Y-54.332 Z-0.221 I-0.393 J0.668
N7830 X-58.607 Y-55.668 Z-0.306 I0.393 J-0.668
N7835 X-59.393 Y-54.332 Z-0.391 I-0.393 J0.668
N7840 X-58.607 Y-55.668 Z-0.476 I0.393 J-0.668
N7845 X-59.393 Y-54.332 Z-0.561 I-0.393 J0.668
N7850 X-58.607 Y-55.668 Z-0.646 I0.393 J-0.668
N7855 X-59.393 Y-54.332 Z-0.731 I-0.393 J0.668
N7860 X-58.607 Y-55.668 Z-0.816 I0.393 J-0.668
N7865 X-59.393 Y-54.332 Z-0.901 I-0.393 J0.668
N7870 X-58.607 Y-55.668 Z-0.986 I0.393 J-0.668
N7875 X-59.393 Y-54.332 Z-1.071 I-0.393 J0.668
N7880 X-58.607 Y-55.668 Z-1.156 I0.393 J-0.668
N7885 X-59.393 Y-54.332 Z-1.241 I-0.393 J0.668
N7890 X-58.607 Y-55.668 Z-1.326 I0.393 J-0.668
N7895 X-59.393 Y-54.332 Z-1.411 I-0.393 J0.668
N7900 X-58.607 Y-55.668 Z-1.496 I0.393 J-0.668
N7905 X-59.393 Y-54.332 Z-1.581 I-0.393 J0.668
N7910 X-58.607 Y-55.668 Z-1.666 I0.393 J-0.668
N7915 X-59.393 Y-54.332 Z-1.751 I-0.393 J0.668
N7920 X-58.607 Y-55.668 Z-1.836 I0.393 J-0.668
N7925 X-59.393 Y-54.332 Z-1.921 I-0.393 J0.668
N7930 X-58.607 Y-55.668 Z-2.006 I0.393 J-0.668
N7935 X-59.393 Y-54.332 Z-2.091 I-0.393 J0.668
N7940 X-58.607 Y-55.668 Z-2.176 I0.393 J-0.668
N7945 X-59.393 Y-54.332 Z-2.261 I-0.393 J0.668
N7950 X-58.607 Y-55.668 Z-2.346 I0.393 J-0.668
N7955 X-59.393 Y-54.332 Z-2.431 I-0.393 J0.668
N7960 X-58.607 Y-55.668 Z-2.516 I0.393 J-0.668
N7965 X-59.393 Y-54.332 Z-2.601 I-0.393 J0.668
N7970 X-58.607 Y-55.668 Z-2.686 I0.393 J-0.668
N7975 X-59.393 Y-54.332 Z-2.771 I-0.393 J0.668
N7980 X-58.607 Y-55.668 Z-2.856 I0.393 J-0.668
N7985 X-59.393 Y-54.332 Z-2.941 I-0.393 J0.668
N7990 X-58.607 Y-55.668 Z-3.026 I0.393 J-0.668
N7995 X-59.393 Y-54.332 Z-3.112 I-0.393 J0.668
N8000 X-58.607 Y-55.668 Z-3.197 I0.393 J-0.668
N8005 X-59.393 Y-54.332 Z-3.282 I-0.393 J0.668
N8010 X-58.607 Y-55.668 Z-3.367 I0.393 J-0.668
N8015 X-59.393 Y-54.332 Z-3.452 I-0.393 J0.668
N8020 X-58.607 Y-55.668 Z-3.537 I0.393 J-0.668
N8025 X-59.393 Y-54.332 Z-3.622 I-0.393 J0.668
N8030 X-58.607 Y-55.668 Z-3.707 I0.393 J-0.668
N8035 X-59.393 Y-54.332 Z-3.792 I-0.393 J0.668
N8040 X-58.607 Y-55.668 Z-3.877 I0.393 J-0.668
N8045 X-59.393 Y-54.332 Z-3.962 I-0.393 J0.668
N8050 X-58.607 Y-55.668 Z-4.047 I0.393 J-0.668
N8055 X-59.393 Y-54.332 Z-4.132 I-0.393 J0.668
N8060 X-58.607 Y-55.668 Z-4.217 I0.393 J-0.668
N8065 X-59.393 Y-54.332 Z-4.302 I-0.393 J0.668
N8070 X-58.607 Y-55.668 Z-4.387 I0.393 J-0.668
N8075 X-59.393 Y-54.332 Z-4.472 I-0.393 J0.668
N8080 X-59.775 Y-55. Z-4.5 I0.393 J-0.668
N8085 X-58.975 I0.4 J0.
N8090 X-59.025 I-0.025 J0. F#100
N8095 X-58.725 I0.15 J0.
N8100 X-59.275 I-0.275 J0.
N8105 X-58.475 I0.4 J0.
N8110 X-59.525 I-0.525 J0.
N8115 X-58.225 I0.65 J0.
N8120 X-59.775 I-0.775 J0.
N8125 X-58.225 I0.775 J0.
N8130 X-58.253 Y-54.819 Z-4.471 I-0.595 J0. F#104
N8135 X-58.325 Y-54.67 Z-4.386 I-0.567 J-0.181
N8140 X-58.409 Y-54.569 Z-4.255 I-0.495 J-0.33
N8145 X-58.474 Y-54.516 Z-4.089 I-0.411 J-0.431
N8150 X-58.499 Y-54.499 Z-3.905 I-0.346 J-0.484
N8155 G0 Z8.
N8160 X-66.839 Y-54.242
N8165 Z3.095
N8170 G3 X-66.866 Y-54.237 Z2.915 I-0.161 J-0.758 F#107
N8175 X-66.946 Y-54.227 Z2.752 I-0.134 J-0.763
N8180 X-67.073 Y-54.228 Z2.621 I-0.054 J-0.773
N8185 X-67.229 Y-54.26 Z2.534 I0.073 J-0.772
N8190 X-67.393 Y-54.332 Z2.5 I0.229 J-0.74
N8195 X-66.607 Y-55.668 Z2.415 I0.393 J-0.668
N8200 X-67.393 Y-54.332 Z2.33 I-0.393 J0.668
N8205 X-66.607 Y-55.668 Z2.245 I0.393 J-0.668
N8210 X-67.393 Y-54.332 Z2.16 I-0.393 J0.668
N8215 X-66.607 Y-55.668 Z2.075 I0.393 J-0.668
N8220 X-67.393 Y-54.332 Z1.99 I-0.393 J0.668
N8225 X-66.607 Y-55.668 Z1.905 I0.393 J-0.668
N8230 X-67.393 Y-54.332 Z1.82 I-0.393 J0.668
N8235 X-66.607 Y-55.668 Z1.735 I0.393 J-0.668
N8240 X-67.393 Y-54.332 Z1.65 I-0.393 J0.668
N8245 X-66.607 Y-55.668 Z1.565 I0.393 J-0.668
N8250 X-67.393 Y-54.332 Z1.48 I-0.393 J0.668
N8255 X-66.607 Y-55.668 Z1.395 I0.393 J-0.668
N8260 X-67.393 Y-54.332 Z1.31 I-0.393 J0.668
N8265 X-66.607 Y-55.668 Z1.225 I0.393 J-0.668
N8270 X-67.393 Y-54.332 Z1.14 I-0.393 J0.668
N8275 X-66.607 Y-55.668 Z1.055 I0.393 J-0.668
N8280 X-67.393 Y-54.332 Z0.97 I-0.393 J0.668
N8285 X-66.607 Y-55.668 Z0.885 I0.393 J-0.668
N8290 X-67.393 Y-54.332 Z0.8 I-0.393 J0.668
N8295 X-66.607 Y-55.668 Z0.715 I0.393 J-0.668
N8300 X-67.393 Y-54.332 Z0.629 I-0.393 J0.668
N8305 X-66.607 Y-55.668 Z0.544 I0.393 J-0.668
N8310 X-67.393 Y-54.332 Z0.459 I-0.393 J0.668
N8315 X-66.607 Y-55.668 Z0.374 I0.393 J-0.668
N8320 X-67.393 Y-54.332 Z0.289 I-0.393 J0.668
N8325 X-66.607 Y-55.668 Z0.204 I0.393 J-0.668
N8330 X-67.393 Y-54.332 Z0.119 I-0.393 J0.668
N8335 X-66.607 Y-55.668 Z0.034 I0.393 J-0.668
N8340 X-67.393 Y-54.332 Z-0.051 I-0.393 J0.668
N8345 X-66.607 Y-55.668 Z-0.136 I0.393 J-0.668
N8350 X-67.393 Y-54.332 Z-0.221 I-0.393 J0.668
N8355 X-66.607 Y-55.668 Z-0.306 I0.393 J-0.668
N8360 X-67.393 Y-54.332 Z-0.391 I-0.393 J0.668
N8365 X-66.607 Y-55.668 Z-0.476 I0.393 J-0.668
N8370 X-67.393 Y-54.332 Z-0.561 I-0.393 J0.668
N8375 X-66.607 Y-55.668 Z-0.646 I0.393 J-0.668
N8380 X-67.393 Y-54.332 Z-0.731 I-0.393 J0.668
N8385 X-66.607 Y-55.668 Z-0.816 I0.393 J-0.668
N8390 X-67.393 Y-54.332 Z-0.901 I-0.393 J0.668
N8395 X-66.607 Y-55.668 Z-0.986 I0.393 J-0.668
N8400 X-67.393 Y-54.332 Z-1.071 I-0.393 J0.668
N8405 X-66.607 Y-55.668 Z-1.156 I0.393 J-0.668
N8410 X-67.393 Y-54.332 Z-1.241 I-0.393 J0.668
N8415 X-66.607 Y-55.668 Z-1.326 I0.393 J-0.668
N8420 X-67.393 Y-54.332 Z-1.411 I-0.393 J0.668
N8425 X-66.607 Y-55.668 Z-1.496 I0.393 J-0.668
N8430 X-67.393 Y-54.332 Z-1.581 I-0.393 J0.668
N8435 X-66.607 Y-55.668 Z-1.666 I0.393 J-0.668
N8440 X-67.393 Y-54.332 Z-1.751 I-0.393 J0.668
N8445 X-66.607 Y-55.668 Z-1.836 I0.393 J-0.668
N8450 X-67.393 Y-54.332 Z-1.921 I-0.393 J0.668
N8455 X-66.607 Y-55.668 Z-2.006 I0.393 J-0.668
N8460 X-67.393 Y-54.332 Z-2.091 I-0.393 J0.668
N8465 X-66.607 Y-55.668 Z-2.176 I0.393 J-0.668
N8470 X-67.393 Y-54.332 Z-2.261 I-0.393 J0.668
N8475 X-66.607 Y-55.668 Z-2.346 I0.393 J-0.668
N8480 X-67.393 Y-54.332 Z-2.431 I-0.393 J0.668
N8485 X-66.607 Y-55.668 Z-2.516 I0.393 J-0.668
N8490 X-67.393 Y-54.332 Z-2.601 I-0.393 J0.668
N8495 X-66.607 Y-55.668 Z-2.686 I0.393 J-0.668
N8500 X-67.393 Y-54.332 Z-2.771 I-0.393 J0.668
N8505 X-66.607 Y-55.668 Z-2.856 I0.393 J-0.668
N8510 X-67.393 Y-54.332 Z-2.941 I-0.393 J0.668
N8515 X-66.607 Y-55.668 Z-3.026 I0.393 J-0.668
N8520 X-67.393 Y-54.332 Z-3.112 I-0.393 J0.668
N8525 X-66.607 Y-55.668 Z-3.197 I0.393 J-0.668
N8530 X-67.393 Y-54.332 Z-3.282 I-0.393 J0.668
N8535 X-66.607 Y-55.668 Z-3.367 I0.393 J-0.668
N8540 X-67.393 Y-54.332 Z-3.452 I-0.393 J0.668
N8545 X-66.607 Y-55.668 Z-3.537 I0.393 J-0.668
N8550 X-67.393 Y-54.332 Z-3.622 I-0.393 J0.668
N8555 X-66.607 Y-55.668 Z-3.707 I0.393 J-0.668
N8560 X-67.393 Y-54.332 Z-3.792 I-0.393 J0.668
N8565 X-66.607 Y-55.668 Z-3.877 I0.393 J-0.668
N8570 X-67.393 Y-54.332 Z-3.962 I-0.393 J0.668
N8575 X-66.607 Y-55.668 Z-4.047 I0.393 J-0.668
N8580 X-67.393 Y-54.332 Z-4.132 I-0.393 J0.668
N8585 X-66.607 Y-55.668 Z-4.217 I0.393 J-0.668
N8590 X-67.393 Y-54.332 Z-4.302 I-0.393 J0.668
N8595 X-66.607 Y-55.668 Z-4.387 I0.393 J-0.668
N8600 X-67.393 Y-54.332 Z-4.472 I-0.393 J0.668
N8605 X-67.775 Y-55. Z-4.5 I0.393 J-0.668
N8610 X-66.975 I0.4 J0.
N8615 X-67.025 I-0.025 J0. F#100
N8620 X-66.725 I0.15 J0.
N8625 X-67.275 I-0.275 J0.
N8630 X-66.475 I0.4 J0.
N8635 X-67.525 I-0.525 J0.
N8640 X-66.225 I0.65 J0.
N8645 X-67.775 I-0.775 J0.
N8650 X-66.225 I0.775 J0.
N8655 X-66.253 Y-54.819 Z-4.471 I-0.595 J0. F#104
N8660 X-66.325 Y-54.67 Z-4.386 I-0.567 J-0.181
N8665 X-66.409 Y-54.569 Z-4.255 I-0.495 J-0.33
N8670 X-66.474 Y-54.516 Z-4.089 I-0.411 J-0.431
N8675 X-66.499 Y-54.499 Z-3.905 I-0.346 J-0.484
N8680 G0 Z8.
N8685 X-66.839 Y-45.242
N8690 Z3.095
N8695 G3 X-66.866 Y-45.237 Z2.915 I-0.161 J-0.758 F#107
N8700 X-66.946 Y-45.227 Z2.752 I-0.134 J-0.763
N8705 X-67.073 Y-45.228 Z2.621 I-0.054 J-0.773
N8710 X-67.229 Y-45.26 Z2.534 I0.073 J-0.772
N8715 X-67.393 Y-45.332 Z2.5 I0.229 J-0.74
N8720 X-66.607 Y-46.668 Z2.415 I0.393 J-0.668
N8725 X-67.393 Y-45.332 Z2.33 I-0.393 J0.668
N8730 X-66.607 Y-46.668 Z2.245 I0.393 J-0.668
N8735 X-67.393 Y-45.332 Z2.16 I-0.393 J0.668
N8740 X-66.607 Y-46.668 Z2.075 I0.393 J-0.668
N8745 X-67.393 Y-45.332 Z1.99 I-0.393 J0.668
N8750 X-66.607 Y-46.668 Z1.905 I0.393 J-0.668
N8755 X-67.393 Y-45.332 Z1.82 I-0.393 J0.668
N8760 X-66.607 Y-46.668 Z1.735 I0.393 J-0.668
N8765 X-67.393 Y-45.332 Z1.65 I-0.393 J0.668
N8770 X-66.607 Y-46.668 Z1.565 I0.393 J-0.668
N8775 X-67.393 Y-45.332 Z1.48 I-0.393 J0.668
N8780 X-66.607 Y-46.668 Z1.395 I0.393 J-0.668
N8785 X-67.393 Y-45.332 Z1.31 I-0.393 J0.668
N8790 X-66.607 Y-46.668 Z1.225 I0.393 J-0.668
N8795 X-67.393 Y-45.332 Z1.14 I-0.393 J0.668
N8800 X-66.607 Y-46.668 Z1.055 I0.393 J-0.668
N8805 X-67.393 Y-45.332 Z0.97 I-0.393 J0.668
N8810 X-66.607 Y-46.668 Z0.885 I0.393 J-0.668
N8815 X-67.393 Y-45.332 Z0.8 I-0.393 J0.668
N8820 X-66.607 Y-46.668 Z0.715 I0.393 J-0.668
N8825 X-67.393 Y-45.332 Z0.629 I-0.393 J0.668
N8830 X-66.607 Y-46.668 Z0.544 I0.393 J-0.668
N8835 X-67.393 Y-45.332 Z0.459 I-0.393 J0.668
N8840 X-66.607 Y-46.668 Z0.374 I0.393 J-0.668
N8845 X-67.393 Y-45.332 Z0.289 I-0.393 J0.668
N8850 X-66.607 Y-46.668 Z0.204 I0.393 J-0.668
N8855 X-67.393 Y-45.332 Z0.119 I-0.393 J0.668
N8860 X-66.607 Y-46.668 Z0.034 I0.393 J-0.668
N8865 X-67.393 Y-45.332 Z-0.051 I-0.393 J0.668
N8870 X-66.607 Y-46.668 Z-0.136 I0.393 J-0.668
N8875 X-67.393 Y-45.332 Z-0.221 I-0.393 J0.668
N8880 X-66.607 Y-46.668 Z-0.306 I0.393 J-0.668
N8885 X-67.393 Y-45.332 Z-0.391 I-0.393 J0.668
N8890 X-66.607 Y-46.668 Z-0.476 I0.393 J-0.668
N8895 X-67.393 Y-45.332 Z-0.561 I-0.393 J0.668
N8900 X-66.607 Y-46.668 Z-0.646 I0.393 J-0.668
N8905 X-67.393 Y-45.332 Z-0.731 I-0.393 J0.668
N8910 X-66.607 Y-46.668 Z-0.816 I0.393 J-0.668
N8915 X-67.393 Y-45.332 Z-0.901 I-0.393 J0.668
N8920 X-66.607 Y-46.668 Z-0.986 I0.393 J-0.668
N8925 X-67.393 Y-45.332 Z-1.071 I-0.393 J0.668
N8930 X-66.607 Y-46.668 Z-1.156 I0.393 J-0.668
N8935 X-67.393 Y-45.332 Z-1.241 I-0.393 J0.668
N8940 X-66.607 Y-46.668 Z-1.326 I0.393 J-0.668
N8945 X-67.393 Y-45.332 Z-1.411 I-0.393 J0.668
N8950 X-66.607 Y-46.668 Z-1.496 I0.393 J-0.668
N8955 X-67.393 Y-45.332 Z-1.581 I-0.393 J0.668
N8960 X-66.607 Y-46.668 Z-1.666 I0.393 J-0.668
N8965 X-67.393 Y-45.332 Z-1.751 I-0.393 J0.668
N8970 X-66.607 Y-46.668 Z-1.836 I0.393 J-0.668
N8975 X-67.393 Y-45.332 Z-1.921 I-0.393 J0.668
N8980 X-66.607 Y-46.668 Z-2.006 I0.393 J-0.668
N8985 X-67.393 Y-45.332 Z-2.091 I-0.393 J0.668
N8990 X-66.607 Y-46.668 Z-2.176 I0.393 J-0.668
N8995 X-67.393 Y-45.332 Z-2.261 I-0.393 J0.668
N9000 X-66.607 Y-46.668 Z-2.346 I0.393 J-0.668
N9005 X-67.393 Y-45.332 Z-2.431 I-0.393 J0.668
N9010 X-66.607 Y-46.668 Z-2.516 I0.393 J-0.668
N9015 X-67.393 Y-45.332 Z-2.601 I-0.393 J0.668
N9020 X-66.607 Y-46.668 Z-2.686 I0.393 J-0.668
N9025 X-67.393 Y-45.332 Z-2.771 I-0.393 J0.668
N9030 X-66.607 Y-46.668 Z-2.856 I0.393 J-0.668
N9035 X-67.393 Y-45.332 Z-2.941 I-0.393 J0.668
N9040 X-66.607 Y-46.668 Z-3.026 I0.393 J-0.668
N9045 X-67.393 Y-45.332 Z-3.112 I-0.393 J0.668
N9050 X-66.607 Y-46.668 Z-3.197 I0.393 J-0.668
N9055 X-67.393 Y-45.332 Z-3.282 I-0.393 J0.668
N9060 X-66.607 Y-46.668 Z-3.367 I0.393 J-0.668
N9065 X-67.393 Y-45.332 Z-3.452 I-0.393 J0.668
N9070 X-66.607 Y-46.668 Z-3.537 I0.393 J-0.668
N9075 X-67.393 Y-45.332 Z-3.622 I-0.393 J0.668
N9080 X-66.607 Y-46.668 Z-3.707 I0.393 J-0.668
N9085 X-67.393 Y-45.332 Z-3.792 I-0.393 J0.668
N9090 X-66.607 Y-46.668 Z-3.877 I0.393 J-0.668
N9095 X-67.393 Y-45.332 Z-3.962 I-0.393 J0.668
N9100 X-66.607 Y-46.668 Z-4.047 I0.393 J-0.668
N9105 X-67.393 Y-45.332 Z-4.132 I-0.393 J0.668
N9110 X-66.607 Y-46.668 Z-4.217 I0.393 J-0.668
N9115 X-67.393 Y-45.332 Z-4.302 I-0.393 J0.668
N9120 X-66.607 Y-46.668 Z-4.387 I0.393 J-0.668
N9125 X-67.393 Y-45.332 Z-4.472 I-0.393 J0.668
N9130 X-67.775 Y-46. Z-4.5 I0.393 J-0.668
N9135 X-66.975 I0.4 J0.
N9140 X-67.025 I-0.025 J0. F#100
N9145 X-66.725 I0.15 J0.
N9150 X-67.275 I-0.275 J0.
N9155 X-66.475 I0.4 J0.
N9160 X-67.525 I-0.525 J0.
N9165 X-66.225 I0.65 J0.
N9170 X-67.775 I-0.775 J0.
N9175 X-66.225 I0.775 J0.
N9180 X-66.253 Y-45.819 Z-4.471 I-0.595 J0. F#104
N9185 X-66.325 Y-45.67 Z-4.386 I-0.567 J-0.181
N9190 X-66.409 Y-45.569 Z-4.255 I-0.495 J-0.33
N9195 X-66.474 Y-45.516 Z-4.089 I-0.411 J-0.431
N9200 X-66.499 Y-45.499 Z-3.905 I-0.346 J-0.484
N9205 G0 Z8.
N9210 X-58.839 Y-45.242
N9215 Z3.095
N9220 G3 X-58.866 Y-45.237 Z2.915 I-0.161 J-0.758 F#107
N9225 X-58.946 Y-45.227 Z2.752 I-0.134 J-0.763
N9230 X-59.073 Y-45.228 Z2.621 I-0.054 J-0.773
N9235 X-59.229 Y-45.26 Z2.534 I0.073 J-0.772
N9240 X-59.393 Y-45.332 Z2.5 I0.229 J-0.74
N9245 X-58.607 Y-46.668 Z2.415 I0.393 J-0.668
N9250 X-59.393 Y-45.332 Z2.33 I-0.393 J0.668
N9255 X-58.607 Y-46.668 Z2.245 I0.393 J-0.668
N9260 X-59.393 Y-45.332 Z2.16 I-0.393 J0.668
N9265 X-58.607 Y-46.668 Z2.075 I0.393 J-0.668
N9270 X-59.393 Y-45.332 Z1.99 I-0.393 J0.668
N9275 X-58.607 Y-46.668 Z1.905 I0.393 J-0.668
N9280 X-59.393 Y-45.332 Z1.82 I-0.393 J0.668
N9285 X-58.607 Y-46.668 Z1.735 I0.393 J-0.668
N9290 X-59.393 Y-45.332 Z1.65 I-0.393 J0.668
N9295 X-58.607 Y-46.668 Z1.565 I0.393 J-0.668
N9300 X-59.393 Y-45.332 Z1.48 I-0.393 J0.668
N9305 X-58.607 Y-46.668 Z1.395 I0.393 J-0.668
N9310 X-59.393 Y-45.332 Z1.31 I-0.393 J0.668
N9315 X-58.607 Y-46.668 Z1.225 I0.393 J-0.668
N9320 X-59.393 Y-45.332 Z1.14 I-0.393 J0.668
N9325 X-58.607 Y-46.668 Z1.055 I0.393 J-0.668
N9330 X-59.393 Y-45.332 Z0.97 I-0.393 J0.668
N9335 X-58.607 Y-46.668 Z0.885 I0.393 J-0.668
N9340 X-59.393 Y-45.332 Z0.8 I-0.393 J0.668
N9345 X-58.607 Y-46.668 Z0.715 I0.393 J-0.668
N9350 X-59.393 Y-45.332 Z0.629 I-0.393 J0.668
N9355 X-58.607 Y-46.668 Z0.544 I0.393 J-0.668
N9360 X-59.393 Y-45.332 Z0.459 I-0.393 J0.668
N9365 X-58.607 Y-46.668 Z0.374 I0.393 J-0.668
N9370 X-59.393 Y-45.332 Z0.289 I-0.393 J0.668
N9375 X-58.607 Y-46.668 Z0.204 I0.393 J-0.668
N9380 X-59.393 Y-45.332 Z0.119 I-0.393 J0.668
N9385 X-58.607 Y-46.668 Z0.034 I0.393 J-0.668
N9390 X-59.393 Y-45.332 Z-0.051 I-0.393 J0.668
N9395 X-58.607 Y-46.668 Z-0.136 I0.393 J-0.668
N9400 X-59.393 Y-45.332 Z-0.221 I-0.393 J0.668
N9405 X-58.607 Y-46.668 Z-0.306 I0.393 J-0.668
N9410 X-59.393 Y-45.332 Z-0.391 I-0.393 J0.668
N9415 X-58.607 Y-46.668 Z-0.476 I0.393 J-0.668
N9420 X-59.393 Y-45.332 Z-0.561 I-0.393 J0.668
N9425 X-58.607 Y-46.668 Z-0.646 I0.393 J-0.668
N9430 X-59.393 Y-45.332 Z-0.731 I-0.393 J0.668
N9435 X-58.607 Y-46.668 Z-0.816 I0.393 J-0.668
N9440 X-59.393 Y-45.332 Z-0.901 I-0.393 J0.668
N9445 X-58.607 Y-46.668 Z-0.986 I0.393 J-0.668
N9450 X-59.393 Y-45.332 Z-1.071 I-0.393 J0.668
N9455 X-58.607 Y-46.668 Z-1.156 I0.393 J-0.668
N9460 X-59.393 Y-45.332 Z-1.241 I-0.393 J0.668
N9465 X-58.607 Y-46.668 Z-1.326 I0.393 J-0.668
N9470 X-59.393 Y-45.332 Z-1.411 I-0.393 J0.668
N9475 X-58.607 Y-46.668 Z-1.496 I0.393 J-0.668
N9480 X-59.393 Y-45.332 Z-1.581 I-0.393 J0.668
N9485 X-58.607 Y-46.668 Z-1.666 I0.393 J-0.668
N9490 X-59.393 Y-45.332 Z-1.751 I-0.393 J0.668
N9495 X-58.607 Y-46.668 Z-1.836 I0.393 J-0.668
N9500 X-59.393 Y-45.332 Z-1.921 I-0.393 J0.668
N9505 X-58.607 Y-46.668 Z-2.006 I0.393 J-0.668
N9510 X-59.393 Y-45.332 Z-2.091 I-0.393 J0.668
N9515 X-58.607 Y-46.668 Z-2.176 I0.393 J-0.668
N9520 X-59.393 Y-45.332 Z-2.261 I-0.393 J0.668
N9525 X-58.607 Y-46.668 Z-2.346 I0.393 J-0.668
N9530 X-59.393 Y-45.332 Z-2.431 I-0.393 J0.668
N9535 X-58.607 Y-46.668 Z-2.516 I0.393 J-0.668
N9540 X-59.393 Y-45.332 Z-2.601 I-0.393 J0.668
N9545 X-58.607 Y-46.668 Z-2.686 I0.393 J-0.668
N9550 X-59.393 Y-45.332 Z-2.771 I-0.393 J0.668
N9555 X-58.607 Y-46.668 Z-2.856 I0.393 J-0.668
N9560 X-59.393 Y-45.332 Z-2.941 I-0.393 J0.668
N9565 X-58.607 Y-46.668 Z-3.026 I0.393 J-0.668
N9570 X-59.393 Y-45.332 Z-3.112 I-0.393 J0.668
N9575 X-58.607 Y-46.668 Z-3.197 I0.393 J-0.668
N9580 X-59.393 Y-45.332 Z-3.282 I-0.393 J0.668
N9585 X-58.607 Y-46.668 Z-3.367 I0.393 J-0.668
N9590 X-59.393 Y-45.332 Z-3.452 I-0.393 J0.668
N9595 X-58.607 Y-46.668 Z-3.537 I0.393 J-0.668
N9600 X-59.393 Y-45.332 Z-3.622 I-0.393 J0.668
N9605 X-58.607 Y-46.668 Z-3.707 I0.393 J-0.668
N9610 X-59.393 Y-45.332 Z-3.792 I-0.393 J0.668
N9615 X-58.607 Y-46.668 Z-3.877 I0.393 J-0.668
N9620 X-59.393 Y-45.332 Z-3.962 I-0.393 J0.668
N9625 X-58.607 Y-46.668 Z-4.047 I0.393 J-0.668
N9630 X-59.393 Y-45.332 Z-4.132 I-0.393 J0.668
N9635 X-58.607 Y-46.668 Z-4.217 I0.393 J-0.668
N9640 X-59.393 Y-45.332 Z-4.302 I-0.393 J0.668
N9645 X-58.607 Y-46.668 Z-4.387 I0.393 J-0.668
N9650 X-59.393 Y-45.332 Z-4.472 I-0.393 J0.668
N9655 X-59.775 Y-46. Z-4.5 I0.393 J-0.668
N9660 X-58.975 I0.4 J0.
N9665 X-59.025 I-0.025 J0. F#100
N9670 X-58.725 I0.15 J0.
N9675 X-59.275 I-0.275 J0.
N9680 X-58.475 I0.4 J0.
N9685 X-59.525 I-0.525 J0.
N9690 X-58.225 I0.65 J0.
N9695 X-59.775 I-0.775 J0.
N9700 X-58.225 I0.775 J0.
N9705 X-58.253 Y-45.819 Z-4.471 I-0.595 J0. F#104
N9710 X-58.325 Y-45.67 Z-4.386 I-0.567 J-0.181
N9715 X-58.409 Y-45.569 Z-4.255 I-0.495 J-0.33
N9720 X-58.474 Y-45.516 Z-4.089 I-0.411 J-0.431
N9725 X-58.499 Y-45.499 Z-3.905 I-0.346 J-0.484
N9730 G0 Z8.
N9735 X-58.839 Y-36.242
N9740 Z3.095
N9745 G3 X-58.866 Y-36.237 Z2.915 I-0.161 J-0.758 F#107
N9750 X-58.946 Y-36.227 Z2.752 I-0.134 J-0.763
N9755 X-59.073 Y-36.228 Z2.621 I-0.054 J-0.773
N9760 X-59.229 Y-36.26 Z2.534 I0.073 J-0.772
N9765 X-59.393 Y-36.332 Z2.5 I0.229 J-0.74
N9770 X-58.607 Y-37.668 Z2.415 I0.393 J-0.668
N9775 X-59.393 Y-36.332 Z2.33 I-0.393 J0.668
N9780 X-58.607 Y-37.668 Z2.245 I0.393 J-0.668
N9785 X-59.393 Y-36.332 Z2.16 I-0.393 J0.668
N9790 X-58.607 Y-37.668 Z2.075 I0.393 J-0.668
N9795 X-59.393 Y-36.332 Z1.99 I-0.393 J0.668
N9800 X-58.607 Y-37.668 Z1.905 I0.393 J-0.668
N9805 X-59.393 Y-36.332 Z1.82 I-0.393 J0.668
N9810 X-58.607 Y-37.668 Z1.735 I0.393 J-0.668
N9815 X-59.393 Y-36.332 Z1.65 I-0.393 J0.668
N9820 X-58.607 Y-37.668 Z1.565 I0.393 J-0.668
N9825 X-59.393 Y-36.332 Z1.48 I-0.393 J0.668
N9830 X-58.607 Y-37.668 Z1.395 I0.393 J-0.668
N9835 X-59.393 Y-36.332 Z1.31 I-0.393 J0.668
N9840 X-58.607 Y-37.668 Z1.225 I0.393 J-0.668
N9845 X-59.393 Y-36.332 Z1.14 I-0.393 J0.668
N9850 X-58.607 Y-37.668 Z1.055 I0.393 J-0.668
N9855 X-59.393 Y-36.332 Z0.97 I-0.393 J0.668
N9860 X-58.607 Y-37.668 Z0.885 I0.393 J-0.668
N9865 X-59.393 Y-36.332 Z0.8 I-0.393 J0.668
N9870 X-58.607 Y-37.668 Z0.715 I0.393 J-0.668
N9875 X-59.393 Y-36.332 Z0.629 I-0.393 J0.668
N9880 X-58.607 Y-37.668 Z0.544 I0.393 J-0.668
N9885 X-59.393 Y-36.332 Z0.459 I-0.393 J0.668
N9890 X-58.607 Y-37.668 Z0.374 I0.393 J-0.668
N9895 X-59.393 Y-36.332 Z0.289 I-0.393 J0.668
N9900 X-58.607 Y-37.668 Z0.204 I0.393 J-0.668
N9905 X-59.393 Y-36.332 Z0.119 I-0.393 J0.668
N9910 X-58.607 Y-37.668 Z0.034 I0.393 J-0.668
N9915 X-59.393 Y-36.332 Z-0.051 I-0.393 J0.668
N9920 X-58.607 Y-37.668 Z-0.136 I0.393 J-0.668
N9925 X-59.393 Y-36.332 Z-0.221 I-0.393 J0.668
N9930 X-58.607 Y-37.668 Z-0.306 I0.393 J-0.668
N9935 X-59.393 Y-36.332 Z-0.391 I-0.393 J0.668
N9940 X-58.607 Y-37.668 Z-0.476 I0.393 J-0.668
N9945 X-59.393 Y-36.332 Z-0.561 I-0.393 J0.668
N9950 X-58.607 Y-37.668 Z-0.646 I0.393 J-0.668
N9955 X-59.393 Y-36.332 Z-0.731 I-0.393 J0.668
N9960 X-58.607 Y-37.668 Z-0.816 I0.393 J-0.668
N9965 X-59.393 Y-36.332 Z-0.901 I-0.393 J0.668
N9970 X-58.607 Y-37.668 Z-0.986 I0.393 J-0.668
N9975 X-59.393 Y-36.332 Z-1.071 I-0.393 J0.668
N9980 X-58.607 Y-37.668 Z-1.156 I0.393 J-0.668
N9985 X-59.393 Y-36.332 Z-1.241 I-0.393 J0.668
N9990 X-58.607 Y-37.668 Z-1.326 I0.393 J-0.668
N9995 X-59.393 Y-36.332 Z-1.411 I-0.393 J0.668
N10000 X-58.607 Y-37.668 Z-1.496 I0.393 J-0.668
N10005 X-59.393 Y-36.332 Z-1.581 I-0.393 J0.668
N10010 X-58.607 Y-37.668 Z-1.666 I0.393 J-0.668
N10015 X-59.393 Y-36.332 Z-1.751 I-0.393 J0.668
N10020 X-58.607 Y-37.668 Z-1.836 I0.393 J-0.668
N10025 X-59.393 Y-36.332 Z-1.921 I-0.393 J0.668
N10030 X-58.607 Y-37.668 Z-2.006 I0.393 J-0.668
N10035 X-59.393 Y-36.332 Z-2.091 I-0.393 J0.668
N10040 X-58.607 Y-37.668 Z-2.176 I0.393 J-0.668
N10045 X-59.393 Y-36.332 Z-2.261 I-0.393 J0.668
N10050 X-58.607 Y-37.668 Z-2.346 I0.393 J-0.668
N10055 X-59.393 Y-36.332 Z-2.431 I-0.393 J0.668
N10060 X-58.607 Y-37.668 Z-2.516 I0.393 J-0.668
N10065 X-59.393 Y-36.332 Z-2.601 I-0.393 J0.668
N10070 X-58.607 Y-37.668 Z-2.686 I0.393 J-0.668
N10075 X-59.393 Y-36.332 Z-2.771 I-0.393 J0.668
N10080 X-58.607 Y-37.668 Z-2.856 I0.393 J-0.668
N10085 X-59.393 Y-36.332 Z-2.941 I-0.393 J0.668
N10090 X-58.607 Y-37.668 Z-3.026 I0.393 J-0.668
N10095 X-59.393 Y-36.332 Z-3.112 I-0.393 J0.668
N10100 X-58.607 Y-37.668 Z-3.197 I0.393 J-0.668
N10105 X-59.393 Y-36.332 Z-3.282 I-0.393 J0.668
N10110 X-58.607 Y-37.668 Z-3.367 I0.393 J-0.668
N10115 X-59.393 Y-36.332 Z-3.452 I-0.393 J0.668
N10120 X-58.607 Y-37.668 Z-3.537 I0.393 J-0.668
N10125 X-59.393 Y-36.332 Z-3.622 I-0.393 J0.668
N10130 X-58.607 Y-37.668 Z-3.707 I0.393 J-0.668
N10135 X-59.393 Y-36.332 Z-3.792 I-0.393 J0.668
N10140 X-58.607 Y-37.668 Z-3.877 I0.393 J-0.668
N10145 X-59.393 Y-36.332 Z-3.962 I-0.393 J0.668
N10150 X-58.607 Y-37.668 Z-4.047 I0.393 J-0.668
N10155 X-59.393 Y-36.332 Z-4.132 I-0.393 J0.668
N10160 X-58.607 Y-37.668 Z-4.217 I0.393 J-0.668
N10165 X-59.393 Y-36.332 Z-4.302 I-0.393 J0.668
N10170 X-58.607 Y-37.668 Z-4.387 I0.393 J-0.668
N10175 X-59.393 Y-36.332 Z-4.472 I-0.393 J0.668
N10180 X-59.775 Y-37. Z-4.5 I0.393 J-0.668
N10185 X-58.975 I0.4 J0.
N10190 X-59.025 I-0.025 J0. F#100
N10195 X-58.725 I0.15 J0.
N10200 X-59.275 I-0.275 J0.
N10205 X-58.475 I0.4 J0.
N10210 X-59.525 I-0.525 J0.
N10215 X-58.225 I0.65 J0.
N10220 X-59.775 I-0.775 J0.
N10225 X-58.225 I0.775 J0.
N10230 X-58.253 Y-36.819 Z-4.471 I-0.595 J0. F#104
N10235 X-58.325 Y-36.67 Z-4.386 I-0.567 J-0.181
N10240 X-58.409 Y-36.569 Z-4.255 I-0.495 J-0.33
N10245 X-58.474 Y-36.516 Z-4.089 I-0.411 J-0.431
N10250 X-58.499 Y-36.499 Z-3.905 I-0.346 J-0.484
N10255 G0 Z8.
N10260 X-66.839 Y-36.242
N10265 Z3.095
N10270 G3 X-66.866 Y-36.237 Z2.915 I-0.161 J-0.758 F#107
N10275 X-66.946 Y-36.227 Z2.752 I-0.134 J-0.763
N10280 X-67.073 Y-36.228 Z2.621 I-0.054 J-0.773
N10285 X-67.229 Y-36.26 Z2.534 I0.073 J-0.772
N10290 X-67.393 Y-36.332 Z2.5 I0.229 J-0.74
N10295 X-66.607 Y-37.668 Z2.415 I0.393 J-0.668
N10300 X-67.393 Y-36.332 Z2.33 I-0.393 J0.668
N10305 X-66.607 Y-37.668 Z2.245 I0.393 J-0.668
N10310 X-67.393 Y-36.332 Z2.16 I-0.393 J0.668
N10315 X-66.607 Y-37.668 Z2.075 I0.393 J-0.668
N10320 X-67.393 Y-36.332 Z1.99 I-0.393 J0.668
N10325 X-66.607 Y-37.668 Z1.905 I0.393 J-0.668
N10330 X-67.393 Y-36.332 Z1.82 I-0.393 J0.668
N10335 X-66.607 Y-37.668 Z1.735 I0.393 J-0.668
N10340 X-67.393 Y-36.332 Z1.65 I-0.393 J0.668
N10345 X-66.607 Y-37.668 Z1.565 I0.393 J-0.668
N10350 X-67.393 Y-36.332 Z1.48 I-0.393 J0.668
N10355 X-66.607 Y-37.668 Z1.395 I0.393 J-0.668
N10360 X-67.393 Y-36.332 Z1.31 I-0.393 J0.668
N10365 X-66.607 Y-37.668 Z1.225 I0.393 J-0.668
N10370 X-67.393 Y-36.332 Z1.14 I-0.393 J0.668
N10375 X-66.607 Y-37.668 Z1.055 I0.393 J-0.668
N10380 X-67.393 Y-36.332 Z0.97 I-0.393 J0.668
N10385 X-66.607 Y-37.668 Z0.885 I0.393 J-0.668
N10390 X-67.393 Y-36.332 Z0.8 I-0.393 J0.668
N10395 X-66.607 Y-37.668 Z0.715 I0.393 J-0.668
N10400 X-67.393 Y-36.332 Z0.629 I-0.393 J0.668
N10405 X-66.607 Y-37.668 Z0.544 I0.393 J-0.668
N10410 X-67.393 Y-36.332 Z0.459 I-0.393 J0.668
N10415 X-66.607 Y-37.668 Z0.374 I0.393 J-0.668
N10420 X-67.393 Y-36.332 Z0.289 I-0.393 J0.668
N10425 X-66.607 Y-37.668 Z0.204 I0.393 J-0.668
N10430 X-67.393 Y-36.332 Z0.119 I-0.393 J0.668
N10435 X-66.607 Y-37.668 Z0.034 I0.393 J-0.668
N10440 X-67.393 Y-36.332 Z-0.051 I-0.393 J0.668
N10445 X-66.607 Y-37.668 Z-0.136 I0.393 J-0.668
N10450 X-67.393 Y-36.332 Z-0.221 I-0.393 J0.668
N10455 X-66.607 Y-37.668 Z-0.306 I0.393 J-0.668
N10460 X-67.393 Y-36.332 Z-0.391 I-0.393 J0.668
N10465 X-66.607 Y-37.668 Z-0.476 I0.393 J-0.668
N10470 X-67.393 Y-36.332 Z-0.561 I-0.393 J0.668
N10475 X-66.607 Y-37.668 Z-0.646 I0.393 J-0.668
N10480 X-67.393 Y-36.332 Z-0.731 I-0.393 J0.668
N10485 X-66.607 Y-37.668 Z-0.816 I0.393 J-0.668
N10490 X-67.393 Y-36.332 Z-0.901 I-0.393 J0.668
N10495 X-66.607 Y-37.668 Z-0.986 I0.393 J-0.668
N10500 X-67.393 Y-36.332 Z-1.071 I-0.393 J0.668
N10505 X-66.607 Y-37.668 Z-1.156 I0.393 J-0.668
N10510 X-67.393 Y-36.332 Z-1.241 I-0.393 J0.668
N10515 X-66.607 Y-37.668 Z-1.326 I0.393 J-0.668
N10520 X-67.393 Y-36.332 Z-1.411 I-0.393 J0.668
N10525 X-66.607 Y-37.668 Z-1.496 I0.393 J-0.668
N10530 X-67.393 Y-36.332 Z-1.581 I-0.393 J0.668
N10535 X-66.607 Y-37.668 Z-1.666 I0.393 J-0.668
N10540 X-67.393 Y-36.332 Z-1.751 I-0.393 J0.668
N10545 X-66.607 Y-37.668 Z-1.836 I0.393 J-0.668
N10550 X-67.393 Y-36.332 Z-1.921 I-0.393 J0.668
N10555 X-66.607 Y-37.668 Z-2.006 I0.393 J-0.668
N10560 X-67.393 Y-36.332 Z-2.091 I-0.393 J0.668
N10565 X-66.607 Y-37.668 Z-2.176 I0.393 J-0.668
N10570 X-67.393 Y-36.332 Z-2.261 I-0.393 J0.668
N10575 X-66.607 Y-37.668 Z-2.346 I0.393 J-0.668
N10580 X-67.393 Y-36.332 Z-2.431 I-0.393 J0.668
N10585 X-66.607 Y-37.668 Z-2.516 I0.393 J-0.668
N10590 X-67.393 Y-36.332 Z-2.601 I-0.393 J0.668
N10595 X-66.607 Y-37.668 Z-2.686 I0.393 J-0.668
N10600 X-67.393 Y-36.332 Z-2.771 I-0.393 J0.668
N10605 X-66.607 Y-37.668 Z-2.856 I0.393 J-0.668
N10610 X-67.393 Y-36.332 Z-2.941 I-0.393 J0.668
N10615 X-66.607 Y-37.668 Z-3.026 I0.393 J-0.668
N10620 X-67.393 Y-36.332 Z-3.112 I-0.393 J0.668
N10625 X-66.607 Y-37.668 Z-3.197 I0.393 J-0.668
N10630 X-67.393 Y-36.332 Z-3.282 I-0.393 J0.668
N10635 X-66.607 Y-37.668 Z-3.367 I0.393 J-0.668
N10640 X-67.393 Y-36.332 Z-3.452 I-0.393 J0.668
N10645 X-66.607 Y-37.668 Z-3.537 I0.393 J-0.668
N10650 X-67.393 Y-36.332 Z-3.622 I-0.393 J0.668
N10655 X-66.607 Y-37.668 Z-3.707 I0.393 J-0.668
N10660 X-67.393 Y-36.332 Z-3.792 I-0.393 J0.668
N10665 X-66.607 Y-37.668 Z-3.877 I0.393 J-0.668
N10670 X-67.393 Y-36.332 Z-3.962 I-0.393 J0.668
N10675 X-66.607 Y-37.668 Z-4.047 I0.393 J-0.668
N10680 X-67.393 Y-36.332 Z-4.132 I-0.393 J0.668
N10685 X-66.607 Y-37.668 Z-4.217 I0.393 J-0.668
N10690 X-67.393 Y-36.332 Z-4.302 I-0.393 J0.668
N10695 X-66.607 Y-37.668 Z-4.387 I0.393 J-0.668
N10700 X-67.393 Y-36.332 Z-4.472 I-0.393 J0.668
N10705 X-67.775 Y-37. Z-4.5 I0.393 J-0.668
N10710 X-66.975 I0.4 J0.
N10715 X-67.025 I-0.025 J0. F#100
N10720 X-66.725 I0.15 J0.
N10725 X-67.275 I-0.275 J0.
N10730 X-66.475 I0.4 J0.
N10735 X-67.525 I-0.525 J0.
N10740 X-66.225 I0.65 J0.
N10745 X-67.775 I-0.775 J0.
N10750 X-66.225 I0.775 J0.
N10755 X-66.253 Y-36.819 Z-4.471 I-0.595 J0. F#104
N10760 X-66.325 Y-36.67 Z-4.386 I-0.567 J-0.181
N10765 X-66.409 Y-36.569 Z-4.255 I-0.495 J-0.33
N10770 X-66.474 Y-36.516 Z-4.089 I-0.411 J-0.431
N10775 X-66.499 Y-36.499 Z-3.905 I-0.346 J-0.484
N10780 G0 Z8.
N10785 X-82.839 Y-36.242
N10790 Z3.095
N10795 G3 X-82.866 Y-36.237 Z2.915 I-0.161 J-0.758 F#107
N10800 X-82.946 Y-36.227 Z2.752 I-0.134 J-0.763
N10805 X-83.073 Y-36.228 Z2.621 I-0.054 J-0.773
N10810 X-83.229 Y-36.26 Z2.534 I0.073 J-0.772
N10815 X-83.393 Y-36.332 Z2.5 I0.229 J-0.74
N10820 X-82.607 Y-37.668 Z2.415 I0.393 J-0.668
N10825 X-83.393 Y-36.332 Z2.33 I-0.393 J0.668
N10830 X-82.607 Y-37.668 Z2.245 I0.393 J-0.668
N10835 X-83.393 Y-36.332 Z2.16 I-0.393 J0.668
N10840 X-82.607 Y-37.668 Z2.075 I0.393 J-0.668
N10845 X-83.393 Y-36.332 Z1.99 I-0.393 J0.668
N10850 X-82.607 Y-37.668 Z1.905 I0.393 J-0.668
N10855 X-83.393 Y-36.332 Z1.82 I-0.393 J0.668
N10860 X-82.607 Y-37.668 Z1.735 I0.393 J-0.668
N10865 X-83.393 Y-36.332 Z1.65 I-0.393 J0.668
N10870 X-82.607 Y-37.668 Z1.565 I0.393 J-0.668
N10875 X-83.393 Y-36.332 Z1.48 I-0.393 J0.668
N10880 X-82.607 Y-37.668 Z1.395 I0.393 J-0.668
N10885 X-83.393 Y-36.332 Z1.31 I-0.393 J0.668
N10890 X-82.607 Y-37.668 Z1.225 I0.393 J-0.668
N10895 X-83.393 Y-36.332 Z1.14 I-0.393 J0.668
N10900 X-82.607 Y-37.668 Z1.055 I0.393 J-0.668
N10905 X-83.393 Y-36.332 Z0.97 I-0.393 J0.668
N10910 X-82.607 Y-37.668 Z0.885 I0.393 J-0.668
N10915 X-83.393 Y-36.332 Z0.8 I-0.393 J0.668
N10920 X-82.607 Y-37.668 Z0.715 I0.393 J-0.668
N10925 X-83.393 Y-36.332 Z0.629 I-0.393 J0.668
N10930 X-82.607 Y-37.668 Z0.544 I0.393 J-0.668
N10935 X-83.393 Y-36.332 Z0.459 I-0.393 J0.668
N10940 X-82.607 Y-37.668 Z0.374 I0.393 J-0.668
N10945 X-83.393 Y-36.332 Z0.289 I-0.393 J0.668
N10950 X-82.607 Y-37.668 Z0.204 I0.393 J-0.668
N10955 X-83.393 Y-36.332 Z0.119 I-0.393 J0.668
N10960 X-82.607 Y-37.668 Z0.034 I0.393 J-0.668
N10965 X-83.393 Y-36.332 Z-0.051 I-0.393 J0.668
N10970 X-82.607 Y-37.668 Z-0.136 I0.393 J-0.668
N10975 X-83.393 Y-36.332 Z-0.221 I-0.393 J0.668
N10980 X-82.607 Y-37.668 Z-0.306 I0.393 J-0.668
N10985 X-83.393 Y-36.332 Z-0.391 I-0.393 J0.668
N10990 X-82.607 Y-37.668 Z-0.476 I0.393 J-0.668
N10995 X-83.393 Y-36.332 Z-0.561 I-0.393 J0.668
N11000 X-82.607 Y-37.668 Z-0.646 I0.393 J-0.668
N11005 X-83.393 Y-36.332 Z-0.731 I-0.393 J0.668
N11010 X-82.607 Y-37.668 Z-0.816 I0.393 J-0.668
N11015 X-83.393 Y-36.332 Z-0.901 I-0.393 J0.668
N11020 X-82.607 Y-37.668 Z-0.986 I0.393 J-0.668
N11025 X-83.393 Y-36.332 Z-1.071 I-0.393 J0.668
N11030 X-82.607 Y-37.668 Z-1.156 I0.393 J-0.668
N11035 X-83.393 Y-36.332 Z-1.241 I-0.393 J0.668
N11040 X-82.607 Y-37.668 Z-1.326 I0.393 J-0.668
N11045 X-83.393 Y-36.332 Z-1.411 I-0.393 J0.668
N11050 X-82.607 Y-37.668 Z-1.496 I0.393 J-0.668
N11055 X-83.393 Y-36.332 Z-1.581 I-0.393 J0.668
N11060 X-82.607 Y-37.668 Z-1.666 I0.393 J-0.668
N11065 X-83.393 Y-36.332 Z-1.751 I-0.393 J0.668
N11070 X-82.607 Y-37.668 Z-1.836 I0.393 J-0.668
N11075 X-83.393 Y-36.332 Z-1.921 I-0.393 J0.668
N11080 X-82.607 Y-37.668 Z-2.006 I0.393 J-0.668
N11085 X-83.393 Y-36.332 Z-2.091 I-0.393 J0.668
N11090 X-82.607 Y-37.668 Z-2.176 I0.393 J-0.668
N11095 X-83.393 Y-36.332 Z-2.261 I-0.393 J0.668
N11100 X-82.607 Y-37.668 Z-2.346 I0.393 J-0.668
N11105 X-83.393 Y-36.332 Z-2.431 I-0.393 J0.668
N11110 X-82.607 Y-37.668 Z-2.516 I0.393 J-0.668
N11115 X-83.393 Y-36.332 Z-2.601 I-0.393 J0.668
N11120 X-82.607 Y-37.668 Z-2.686 I0.393 J-0.668
N11125 X-83.393 Y-36.332 Z-2.771 I-0.393 J0.668
N11130 X-82.607 Y-37.668 Z-2.856 I0.393 J-0.668
N11135 X-83.393 Y-36.332 Z-2.941 I-0.393 J0.668
N11140 X-82.607 Y-37.668 Z-3.026 I0.393 J-0.668
N11145 X-83.393 Y-36.332 Z-3.112 I-0.393 J0.668
N11150 X-82.607 Y-37.668 Z-3.197 I0.393 J-0.668
N11155 X-83.393 Y-36.332 Z-3.282 I-0.393 J0.668
N11160 X-82.607 Y-37.668 Z-3.367 I0.393 J-0.668
N11165 X-83.393 Y-36.332 Z-3.452 I-0.393 J0.668
N11170 X-82.607 Y-37.668 Z-3.537 I0.393 J-0.668
N11175 X-83.393 Y-36.332 Z-3.622 I-0.393 J0.668
N11180 X-82.607 Y-37.668 Z-3.707 I0.393 J-0.668
N11185 X-83.393 Y-36.332 Z-3.792 I-0.393 J0.668
N11190 X-82.607 Y-37.668 Z-3.877 I0.393 J-0.668
N11195 X-83.393 Y-36.332 Z-3.962 I-0.393 J0.668
N11200 X-82.607 Y-37.668 Z-4.047 I0.393 J-0.668
N11205 X-83.393 Y-36.332 Z-4.132 I-0.393 J0.668
N11210 X-82.607 Y-37.668 Z-4.217 I0.393 J-0.668
N11215 X-83.393 Y-36.332 Z-4.302 I-0.393 J0.668
N11220 X-82.607 Y-37.668 Z-4.387 I0.393 J-0.668
N11225 X-83.393 Y-36.332 Z-4.472 I-0.393 J0.668
N11230 X-83.775 Y-37. Z-4.5 I0.393 J-0.668
N11235 X-82.975 I0.4 J0.
N11240 X-83.025 I-0.025 J0. F#100
N11245 X-82.725 I0.15 J0.
N11250 X-83.275 I-0.275 J0.
N11255 X-82.475 I0.4 J0.
N11260 X-83.525 I-0.525 J0.
N11265 X-82.225 I0.65 J0.
N11270 X-83.775 I-0.775 J0.
N11275 X-82.225 I0.775 J0.
N11280 X-82.253 Y-36.819 Z-4.471 I-0.595 J0. F#104
N11285 X-82.325 Y-36.67 Z-4.386 I-0.567 J-0.181
N11290 X-82.409 Y-36.569 Z-4.255 I-0.495 J-0.33
N11295 X-82.474 Y-36.516 Z-4.089 I-0.411 J-0.431
N11300 X-82.499 Y-36.499 Z-3.905 I-0.346 J-0.484
N11305 G0 Z8.
N11310 X-90.839 Y-36.242
N11315 Z3.095
N11320 G3 X-90.866 Y-36.237 Z2.915 I-0.161 J-0.758 F#107
N11325 X-90.946 Y-36.227 Z2.752 I-0.134 J-0.763
N11330 X-91.073 Y-36.228 Z2.621 I-0.054 J-0.773
N11335 X-91.229 Y-36.26 Z2.534 I0.073 J-0.772
N11340 X-91.393 Y-36.332 Z2.5 I0.229 J-0.74
N11345 X-90.607 Y-37.668 Z2.415 I0.393 J-0.668
N11350 X-91.393 Y-36.332 Z2.33 I-0.393 J0.668
N11355 X-90.607 Y-37.668 Z2.245 I0.393 J-0.668
N11360 X-91.393 Y-36.332 Z2.16 I-0.393 J0.668
