%
(1)
(T13  D=5.95 CR=0. - ZMIN=-4.5 - FLAT END MILL)
N10 G90 G94 G17 G91.1
N15 G21
N20 G53 G0 Z0.
(2D POCKET7)
N25 M9
N30 T13 M6
N35 S4000 M3
N40 G54
N45 M8
N55 G0 X90.14 Y-39.252
N60 G43 Z6. H13
N65 #100=1000. (CUTTING)
N70 #103=1000. (ENTRY)
N75 #104=1000. (EXIT)
N80 #107=800. (RAMPING)
N85 G0 Z3.095
N90 G3 X90.142 Y-39.224 Z2.915 I-2.815 J0.252 F#107
N95 X90.148 Y-39.144 Z2.752 I-2.817 J0.224
N100 X90.151 Y-39.017 Z2.621 I-2.823 J0.144
N105 X90.148 Y-38.857 Z2.534 I-2.826 J0.017
N110 X90.133 Y-38.679 Z2.5 I-2.823 J-0.143
N115 X84.517 Y-39.321 Z2.19 I-2.808 J-0.321
N120 X90.133 Y-38.679 Z1.88 I2.808 J0.321
N125 X84.517 Y-39.321 Z1.57 I-2.808 J-0.321
N130 X90.133 Y-38.679 Z1.26 I2.808 J0.321
N135 X84.517 Y-39.321 Z0.95 I-2.808 J-0.321
N140 X90.133 Y-38.679 Z0.64 I2.808 J0.321
N145 X84.517 Y-39.321 Z0.33 I-2.808 J-0.321
N150 X90.133 Y-38.679 Z0.02 I2.808 J0.321
N155 X84.517 Y-39.321 Z-0.291 I-2.808 J-0.321
N160 X90.133 Y-38.679 Z-0.601 I2.808 J0.321
N165 X84.517 Y-39.321 Z-0.911 I-2.808 J-0.321
N170 X90.133 Y-38.679 Z-1.221 I2.808 J0.321
N175 X84.517 Y-39.321 Z-1.531 I-2.808 J-0.321
N180 X90.133 Y-38.679 Z-1.841 I2.808 J0.321
N185 X84.517 Y-39.321 Z-2.151 I-2.808 J-0.321
N190 X90.133 Y-38.679 Z-2.461 I2.808 J0.321
N195 X84.517 Y-39.321 Z-2.771 I-2.808 J-0.321
N200 X90.133 Y-38.679 Z-3.081 I2.808 J0.321
N205 X84.517 Y-39.321 Z-3.391 I-2.808 J-0.321
N210 X90.133 Y-38.679 Z-3.701 I2.808 J0.321
N215 X84.499 Y-39. Z-4. I-2.808 J-0.321
N220 X87.525 I1.513 J0.
N225 X87.475 I-0.025 J0. F#100
N230 X87.775 I0.15 J0.
N235 X87.225 I-0.275 J0.
N240 X88.025 I0.4 J0.
N245 X86.975 I-0.525 J0.
N250 X88.275 I0.65 J0.
N255 X86.725 I-0.775 J0.
N260 X88.525 I0.9 J0.
N265 X86.475 I-1.025 J0.
N270 X88.775 I1.15 J0.
N275 X86.225 I-1.275 J0.
N280 X89.025 I1.4 J0.
N285 X85.975 I-1.525 J0.
N290 X89.275 I1.65 J0.
N295 X85.725 I-1.775 J0.
N300 X89.525 I1.9 J0.
N305 X85.475 I-2.025 J0.
N310 X89.775 I2.15 J0.
N315 X85.225 I-2.275 J0.
N320 X90.025 I2.4 J0.
N325 X84.975 I-2.525 J0.
N330 X90.275 I2.65 J0.
N335 X84.725 I-2.775 J0.
N340 X90.525 I2.9 J0.
N345 X84.475 I-3.025 J0.
N350 X90.525 I3.025 J0.
N355 X90.497 Y-38.819 Z-3.971 I-0.595 J0. F#104
N360 X90.425 Y-38.67 Z-3.886 I-0.567 J-0.181
N365 X90.341 Y-38.569 Z-3.755 I-0.495 J-0.33
N370 X90.276 Y-38.516 Z-3.589 I-0.411 J-0.431
N375 X90.251 Y-38.499 Z-3.405 I-0.346 J-0.484
N380 G0 Z3.095
N385 X90.14 Y-111.252
N390 G3 X90.142 Y-111.224 Z2.915 I-2.815 J0.252 F#107
N395 X90.148 Y-111.144 Z2.752 I-2.817 J0.224
N400 X90.151 Y-111.017 Z2.621 I-2.823 J0.144
N405 X90.148 Y-110.857 Z2.534 I-2.826 J0.017
N410 X90.133 Y-110.679 Z2.5 I-2.823 J-0.143
N415 X84.517 Y-111.321 Z2.19 I-2.808 J-0.321
N420 X90.133 Y-110.679 Z1.88 I2.808 J0.321
N425 X84.517 Y-111.321 Z1.57 I-2.808 J-0.321
N430 X90.133 Y-110.679 Z1.26 I2.808 J0.321
N435 X84.517 Y-111.321 Z0.95 I-2.808 J-0.321
N440 X90.133 Y-110.679 Z0.64 I2.808 J0.321
N445 X84.517 Y-111.321 Z0.33 I-2.808 J-0.321
N450 X90.133 Y-110.679 Z0.02 I2.808 J0.321
N455 X84.517 Y-111.321 Z-0.291 I-2.808 J-0.321
N460 X90.133 Y-110.679 Z-0.601 I2.808 J0.321
N465 X84.517 Y-111.321 Z-0.911 I-2.808 J-0.321
N470 X90.133 Y-110.679 Z-1.221 I2.808 J0.321
N475 X84.517 Y-111.321 Z-1.531 I-2.808 J-0.321
N480 X90.133 Y-110.679 Z-1.841 I2.808 J0.321
N485 X84.517 Y-111.321 Z-2.151 I-2.808 J-0.321
N490 X90.133 Y-110.679 Z-2.461 I2.808 J0.321
N495 X84.517 Y-111.321 Z-2.771 I-2.808 J-0.321
N500 X90.133 Y-110.679 Z-3.081 I2.808 J0.321
N505 X84.517 Y-111.321 Z-3.391 I-2.808 J-0.321
N510 X90.133 Y-110.679 Z-3.701 I2.808 J0.321
N515 X84.499 Y-111. Z-4. I-2.808 J-0.321
N520 X87.525 I1.513 J0.
N525 X87.475 I-0.025 J0. F#100
N530 X87.775 I0.15 J0.
N535 X87.225 I-0.275 J0.
N540 X88.025 I0.4 J0.
N545 X86.975 I-0.525 J0.
N550 X88.275 I0.65 J0.
N555 X86.725 I-0.775 J0.
N560 X88.525 I0.9 J0.
N565 X86.475 I-1.025 J0.
N570 X88.775 I1.15 J0.
N575 X86.225 I-1.275 J0.
N580 X89.025 I1.4 J0.
N585 X85.975 I-1.525 J0.
N590 X89.275 I1.65 J0.
N595 X85.725 I-1.775 J0.
N600 X89.525 I1.9 J0.
N605 X85.475 I-2.025 J0.
N610 X89.775 I2.15 J0.
N615 X85.225 I-2.275 J0.
N620 X90.025 I2.4 J0.
N625 X84.975 I-2.525 J0.
N630 X90.275 I2.65 J0.
N635 X84.725 I-2.775 J0.
N640 X90.525 I2.9 J0.
N645 X84.475 I-3.025 J0.
N650 X90.525 I3.025 J0.
N655 X90.497 Y-110.819 Z-3.971 I-0.595 J0. F#104
N660 X90.425 Y-110.67 Z-3.886 I-0.567 J-0.181
N665 X90.341 Y-110.569 Z-3.755 I-0.495 J-0.33
N670 X90.276 Y-110.516 Z-3.589 I-0.411 J-0.431
N675 X90.251 Y-110.499 Z-3.405 I-0.346 J-0.484
N680 G0 Z3.095
N685 X165.14 Y-111.252
N690 G3 X165.142 Y-111.224 Z2.915 I-2.815 J0.252 F#107
N695 X165.148 Y-111.144 Z2.752 I-2.817 J0.224
N700 X165.151 Y-111.017 Z2.621 I-2.823 J0.144
N705 X165.148 Y-110.857 Z2.534 I-2.826 J0.017
N710 X165.133 Y-110.679 Z2.5 I-2.823 J-0.143
N715 X159.517 Y-111.321 Z2.19 I-2.808 J-0.321
N720 X165.133 Y-110.679 Z1.88 I2.808 J0.321
N725 X159.517 Y-111.321 Z1.57 I-2.808 J-0.321
N730 X165.133 Y-110.679 Z1.26 I2.808 J0.321
N735 X159.517 Y-111.321 Z0.95 I-2.808 J-0.321
N740 X165.133 Y-110.679 Z0.64 I2.808 J0.321
N745 X159.517 Y-111.321 Z0.33 I-2.808 J-0.321
N750 X165.133 Y-110.679 Z0.02 I2.808 J0.321
N755 X159.517 Y-111.321 Z-0.291 I-2.808 J-0.321
N760 X165.133 Y-110.679 Z-0.601 I2.808 J0.321
N765 X159.517 Y-111.321 Z-0.911 I-2.808 J-0.321
N770 X165.133 Y-110.679 Z-1.221 I2.808 J0.321
N775 X159.517 Y-111.321 Z-1.531 I-2.808 J-0.321
N780 X165.133 Y-110.679 Z-1.841 I2.808 J0.321
N785 X159.517 Y-111.321 Z-2.151 I-2.808 J-0.321
N790 X165.133 Y-110.679 Z-2.461 I2.808 J0.321
N795 X159.517 Y-111.321 Z-2.771 I-2.808 J-0.321
N800 X165.133 Y-110.679 Z-3.081 I2.808 J0.321
N805 X159.517 Y-111.321 Z-3.391 I-2.808 J-0.321
N810 X165.133 Y-110.679 Z-3.701 I2.808 J0.321
N815 X159.499 Y-111. Z-4. I-2.808 J-0.321
N820 X162.525 I1.513 J0.
N825 X162.475 I-0.025 J0. F#100
N830 X162.775 I0.15 J0.
N835 X162.225 I-0.275 J0.
N840 X163.025 I0.4 J0.
N845 X161.975 I-0.525 J0.
N850 X163.275 I0.65 J0.
N855 X161.725 I-0.775 J0.
N860 X163.525 I0.9 J0.
N865 X161.475 I-1.025 J0.
N870 X163.775 I1.15 J0.
N875 X161.225 I-1.275 J0.
N880 X164.025 I1.4 J0.
N885 X160.975 I-1.525 J0.
N890 X164.275 I1.65 J0.
N895 X160.725 I-1.775 J0.
N900 X164.525 I1.9 J0.
N905 X160.475 I-2.025 J0.
N910 X164.775 I2.15 J0.
N915 X160.225 I-2.275 J0.
N920 X165.025 I2.4 J0.
N925 X159.975 I-2.525 J0.
N930 X165.275 I2.65 J0.
N935 X159.725 I-2.775 J0.
N940 X165.525 I2.9 J0.
N945 X159.475 I-3.025 J0.
N950 X165.525 I3.025 J0.
N955 X165.497 Y-110.819 Z-3.971 I-0.595 J0. F#104
N960 X165.425 Y-110.67 Z-3.886 I-0.567 J-0.181
N965 X165.341 Y-110.569 Z-3.755 I-0.495 J-0.33
N970 X165.276 Y-110.516 Z-3.589 I-0.411 J-0.431
N975 X165.251 Y-110.499 Z-3.405 I-0.346 J-0.484
N980 G0 Z3.095
N985 X165.14 Y-39.252
N990 G3 X165.142 Y-39.224 Z2.915 I-2.815 J0.252 F#107
N995 X165.148 Y-39.144 Z2.752 I-2.817 J0.224
N1000 X165.151 Y-39.017 Z2.621 I-2.823 J0.144
N1005 X165.148 Y-38.857 Z2.534 I-2.826 J0.017
N1010 X165.133 Y-38.679 Z2.5 I-2.823 J-0.143
N1015 X159.517 Y-39.321 Z2.19 I-2.808 J-0.321
N1020 X165.133 Y-38.679 Z1.88 I2.808 J0.321
N1025 X159.517 Y-39.321 Z1.57 I-2.808 J-0.321
N1030 X165.133 Y-38.679 Z1.26 I2.808 J0.321
N1035 X159.517 Y-39.321 Z0.95 I-2.808 J-0.321
N1040 X165.133 Y-38.679 Z0.64 I2.808 J0.321
N1045 X159.517 Y-39.321 Z0.33 I-2.808 J-0.321
N1050 X165.133 Y-38.679 Z0.02 I2.808 J0.321
N1055 X159.517 Y-39.321 Z-0.291 I-2.808 J-0.321
N1060 X165.133 Y-38.679 Z-0.601 I2.808 J0.321
N1065 X159.517 Y-39.321 Z-0.911 I-2.808 J-0.321
N1070 X165.133 Y-38.679 Z-1.221 I2.808 J0.321
N1075 X159.517 Y-39.321 Z-1.531 I-2.808 J-0.321
N1080 X165.133 Y-38.679 Z-1.841 I2.808 J0.321
N1085 X159.517 Y-39.321 Z-2.151 I-2.808 J-0.321
N1090 X165.133 Y-38.679 Z-2.461 I2.808 J0.321
N1095 X159.517 Y-39.321 Z-2.771 I-2.808 J-0.321
N1100 X165.133 Y-38.679 Z-3.081 I2.808 J0.321
N1105 X159.517 Y-39.321 Z-3.391 I-2.808 J-0.321
N1110 X165.133 Y-38.679 Z-3.701 I2.808 J0.321
N1115 X159.499 Y-39. Z-4. I-2.808 J-0.321
N1120 X162.525 I1.513 J0.
N1125 X162.475 I-0.025 J0. F#100
N1130 X162.775 I0.15 J0.
N1135 X162.225 I-0.275 J0.
N1140 X163.025 I0.4 J0.
N1145 X161.975 I-0.525 J0.
N1150 X163.275 I0.65 J0.
N1155 X161.725 I-0.775 J0.
N1160 X163.525 I0.9 J0.
N1165 X161.475 I-1.025 J0.
N1170 X163.775 I1.15 J0.
N1175 X161.225 I-1.275 J0.
N1180 X164.025 I1.4 J0.
N1185 X160.975 I-1.525 J0.
N1190 X164.275 I1.65 J0.
N1195 X160.725 I-1.775 J0.
N1200 X164.525 I1.9 J0.
N1205 X160.475 I-2.025 J0.
N1210 X164.775 I2.15 J0.
N1215 X160.225 I-2.275 J0.
N1220 X165.025 I2.4 J0.
N1225 X159.975 I-2.525 J0.
N1230 X165.275 I2.65 J0.
N1235 X159.725 I-2.775 J0.
N1240 X165.525 I2.9 J0.
N1245 X159.475 I-3.025 J0.
N1250 X165.525 I3.025 J0.
N1255 X165.497 Y-38.819 Z-3.971 I-0.595 J0. F#104
N1260 X165.425 Y-38.67 Z-3.886 I-0.567 J-0.181
N1265 X165.341 Y-38.569 Z-3.755 I-0.495 J-0.33
N1270 X165.276 Y-38.516 Z-3.589 I-0.411 J-0.431
N1275 X165.251 Y-38.499 Z-3.405 I-0.346 J-0.484
N1280 G0 Z3.095
N1285 X15.14 Y-39.252
N1290 G3 X15.142 Y-39.224 Z2.915 I-2.815 J0.252 F#107
N1295 X15.148 Y-39.144 Z2.752 I-2.817 J0.224
N1300 X15.151 Y-39.017 Z2.621 I-2.823 J0.144
N1305 X15.148 Y-38.857 Z2.534 I-2.826 J0.017
N1310 X15.133 Y-38.679 Z2.5 I-2.823 J-0.143
N1315 X9.517 Y-39.321 Z2.19 I-2.808 J-0.321
N1320 X15.133 Y-38.679 Z1.88 I2.808 J0.321
N1325 X9.517 Y-39.321 Z1.57 I-2.808 J-0.321
N1330 X15.133 Y-38.679 Z1.26 I2.808 J0.321
N1335 X9.517 Y-39.321 Z0.95 I-2.808 J-0.321
N1340 X15.133 Y-38.679 Z0.64 I2.808 J0.321
N1345 X9.517 Y-39.321 Z0.33 I-2.808 J-0.321
N1350 X15.133 Y-38.679 Z0.02 I2.808 J0.321
N1355 X9.517 Y-39.321 Z-0.291 I-2.808 J-0.321
N1360 X15.133 Y-38.679 Z-0.601 I2.808 J0.321
N1365 X9.517 Y-39.321 Z-0.911 I-2.808 J-0.321
N1370 X15.133 Y-38.679 Z-1.221 I2.808 J0.321
N1375 X9.517 Y-39.321 Z-1.531 I-2.808 J-0.321
N1380 X15.133 Y-38.679 Z-1.841 I2.808 J0.321
N1385 X9.517 Y-39.321 Z-2.151 I-2.808 J-0.321
N1390 X15.133 Y-38.679 Z-2.461 I2.808 J0.321
N1395 X9.517 Y-39.321 Z-2.771 I-2.808 J-0.321
N1400 X15.133 Y-38.679 Z-3.081 I2.808 J0.321
N1405 X9.517 Y-39.321 Z-3.391 I-2.808 J-0.321
N1410 X15.133 Y-38.679 Z-3.701 I2.808 J0.321
N1415 X9.499 Y-39. Z-4. I-2.808 J-0.321
N1420 X12.525 I1.513 J0.
N1425 X12.475 I-0.025 J0. F#100
N1430 X12.775 I0.15 J0.
N1435 X12.225 I-0.275 J0.
N1440 X13.025 I0.4 J0.
N1445 X11.975 I-0.525 J0.
N1450 X13.275 I0.65 J0.
N1455 X11.725 I-0.775 J0.
N1460 X13.525 I0.9 J0.
N1465 X11.475 I-1.025 J0.
N1470 X13.775 I1.15 J0.
N1475 X11.225 I-1.275 J0.
N1480 X14.025 I1.4 J0.
N1485 X10.975 I-1.525 J0.
N1490 X14.275 I1.65 J0.
N1495 X10.725 I-1.775 J0.
N1500 X14.525 I1.9 J0.
N1505 X10.475 I-2.025 J0.
N1510 X14.775 I2.15 J0.
N1515 X10.225 I-2.275 J0.
N1520 X15.025 I2.4 J0.
N1525 X9.975 I-2.525 J0.
N1530 X15.275 I2.65 J0.
N1535 X9.725 I-2.775 J0.
N1540 X15.525 I2.9 J0.
N1545 X9.475 I-3.025 J0.
N1550 X15.525 I3.025 J0.
N1555 X15.497 Y-38.819 Z-3.971 I-0.595 J0. F#104
N1560 X15.425 Y-38.67 Z-3.886 I-0.567 J-0.181
N1565 X15.341 Y-38.569 Z-3.755 I-0.495 J-0.33
N1570 X15.276 Y-38.516 Z-3.589 I-0.411 J-0.431
N1575 X15.251 Y-38.499 Z-3.405 I-0.346 J-0.484
N1580 G0 Z3.095
N1585 X15.14 Y-111.252
N1590 G3 X15.142 Y-111.224 Z2.915 I-2.815 J0.252 F#107
N1595 X15.148 Y-111.144 Z2.752 I-2.817 J0.224
N1600 X15.151 Y-111.017 Z2.621 I-2.823 J0.144
N1605 X15.148 Y-110.857 Z2.534 I-2.826 J0.017
N1610 X15.133 Y-110.679 Z2.5 I-2.823 J-0.143
N1615 X9.517 Y-111.321 Z2.19 I-2.808 J-0.321
N1620 X15.133 Y-110.679 Z1.88 I2.808 J0.321
N1625 X9.517 Y-111.321 Z1.57 I-2.808 J-0.321
N1630 X15.133 Y-110.679 Z1.26 I2.808 J0.321
N1635 X9.517 Y-111.321 Z0.95 I-2.808 J-0.321
N1640 X15.133 Y-110.679 Z0.64 I2.808 J0.321
N1645 X9.517 Y-111.321 Z0.33 I-2.808 J-0.321
N1650 X15.133 Y-110.679 Z0.02 I2.808 J0.321
N1655 X9.517 Y-111.321 Z-0.291 I-2.808 J-0.321
N1660 X15.133 Y-110.679 Z-0.601 I2.808 J0.321
N1665 X9.517 Y-111.321 Z-0.911 I-2.808 J-0.321
N1670 X15.133 Y-110.679 Z-1.221 I2.808 J0.321
N1675 X9.517 Y-111.321 Z-1.531 I-2.808 J-0.321
N1680 X15.133 Y-110.679 Z-1.841 I2.808 J0.321
N1685 X9.517 Y-111.321 Z-2.151 I-2.808 J-0.321
N1690 X15.133 Y-110.679 Z-2.461 I2.808 J0.321
N1695 X9.517 Y-111.321 Z-2.771 I-2.808 J-0.321
N1700 X15.133 Y-110.679 Z-3.081 I2.808 J0.321
N1705 X9.517 Y-111.321 Z-3.391 I-2.808 J-0.321
N1710 X15.133 Y-110.679 Z-3.701 I2.808 J0.321
N1715 X9.499 Y-111. Z-4. I-2.808 J-0.321
N1720 X12.525 I1.513 J0.
N1725 X12.475 I-0.025 J0. F#100
N1730 X12.775 I0.15 J0.
N1735 X12.225 I-0.275 J0.
N1740 X13.025 I0.4 J0.
N1745 X11.975 I-0.525 J0.
N1750 X13.275 I0.65 J0.
N1755 X11.725 I-0.775 J0.
N1760 X13.525 I0.9 J0.
N1765 X11.475 I-1.025 J0.
N1770 X13.775 I1.15 J0.
N1775 X11.225 I-1.275 J0.
N1780 X14.025 I1.4 J0.
N1785 X10.975 I-1.525 J0.
N1790 X14.275 I1.65 J0.
N1795 X10.725 I-1.775 J0.
N1800 X14.525 I1.9 J0.
N1805 X10.475 I-2.025 J0.
N1810 X14.775 I2.15 J0.
N1815 X10.225 I-2.275 J0.
N1820 X15.025 I2.4 J0.
N1825 X9.975 I-2.525 J0.
N1830 X15.275 I2.65 J0.
N1835 X9.725 I-2.775 J0.
N1840 X15.525 I2.9 J0.
N1845 X9.475 I-3.025 J0.
N1850 X15.525 I3.025 J0.
N1855 X15.497 Y-110.819 Z-3.971 I-0.595 J0. F#104
N1860 X15.425 Y-110.67 Z-3.886 I-0.567 J-0.181
N1865 X15.341 Y-110.569 Z-3.755 I-0.495 J-0.33
N1870 X15.276 Y-110.516 Z-3.589 I-0.411 J-0.431
N1875 X15.251 Y-110.499 Z-3.405 I-0.346 J-0.484
N1880 G0 Z6.
(2D POCKET7 2)
N1890 M8
N1895 G0 X25.161 Y-66.242
N1900 #100=1000. (CUTTING)
N1905 #103=1000. (ENTRY)
N1910 #104=1000. (EXIT)
N1915 #107=800. (RAMPING)
N1920 Z6.
N1925 Z3.095
N1930 G3 X25.134 Y-66.237 Z2.915 I-0.161 J-0.758 F#107
N1935 X25.054 Y-66.227 Z2.752 I-0.134 J-0.763
N1940 X24.927 Y-66.228 Z2.621 I-0.054 J-0.773
N1945 X24.771 Y-66.26 Z2.534 I0.073 J-0.772
N1950 X24.607 Y-66.332 Z2.5 I0.229 J-0.74
N1955 X25.393 Y-67.668 Z2.415 I0.393 J-0.668
N1960 X24.607 Y-66.332 Z2.33 I-0.393 J0.668
N1965 X25.393 Y-67.668 Z2.245 I0.393 J-0.668
N1970 X24.607 Y-66.332 Z2.16 I-0.393 J0.668
N1975 X25.393 Y-67.668 Z2.075 I0.393 J-0.668
N1980 X24.607 Y-66.332 Z1.99 I-0.393 J0.668
N1985 X25.393 Y-67.668 Z1.905 I0.393 J-0.668
N1990 X24.607 Y-66.332 Z1.82 I-0.393 J0.668
N1995 X25.393 Y-67.668 Z1.735 I0.393 J-0.668
N2000 X24.607 Y-66.332 Z1.65 I-0.393 J0.668
N2005 X25.393 Y-67.668 Z1.565 I0.393 J-0.668
N2010 X24.607 Y-66.332 Z1.48 I-0.393 J0.668
N2015 X25.393 Y-67.668 Z1.395 I0.393 J-0.668
N2020 X24.607 Y-66.332 Z1.31 I-0.393 J0.668
N2025 X25.393 Y-67.668 Z1.225 I0.393 J-0.668
N2030 X24.607 Y-66.332 Z1.14 I-0.393 J0.668
N2035 X25.393 Y-67.668 Z1.055 I0.393 J-0.668
N2040 X24.607 Y-66.332 Z0.97 I-0.393 J0.668
N2045 X25.393 Y-67.668 Z0.885 I0.393 J-0.668
N2050 X24.607 Y-66.332 Z0.8 I-0.393 J0.668
N2055 X25.393 Y-67.668 Z0.715 I0.393 J-0.668
N2060 X24.607 Y-66.332 Z0.629 I-0.393 J0.668
N2065 X25.393 Y-67.668 Z0.544 I0.393 J-0.668
N2070 X24.607 Y-66.332 Z0.459 I-0.393 J0.668
N2075 X25.393 Y-67.668 Z0.374 I0.393 J-0.668
N2080 X24.607 Y-66.332 Z0.289 I-0.393 J0.668
N2085 X25.393 Y-67.668 Z0.204 I0.393 J-0.668
N2090 X24.607 Y-66.332 Z0.119 I-0.393 J0.668
N2095 X25.393 Y-67.668 Z0.034 I0.393 J-0.668
N2100 X24.607 Y-66.332 Z-0.051 I-0.393 J0.668
N2105 X25.393 Y-67.668 Z-0.136 I0.393 J-0.668
N2110 X24.607 Y-66.332 Z-0.221 I-0.393 J0.668
N2115 X25.393 Y-67.668 Z-0.306 I0.393 J-0.668
N2120 X24.607 Y-66.332 Z-0.391 I-0.393 J0.668
N2125 X25.393 Y-67.668 Z-0.476 I0.393 J-0.668
N2130 X24.607 Y-66.332 Z-0.561 I-0.393 J0.668
N2135 X25.393 Y-67.668 Z-0.646 I0.393 J-0.668
N2140 X24.607 Y-66.332 Z-0.731 I-0.393 J0.668
N2145 X25.393 Y-67.668 Z-0.816 I0.393 J-0.668
N2150 X24.607 Y-66.332 Z-0.901 I-0.393 J0.668
N2155 X25.393 Y-67.668 Z-0.986 I0.393 J-0.668
N2160 X24.607 Y-66.332 Z-1.071 I-0.393 J0.668
N2165 X25.393 Y-67.668 Z-1.156 I0.393 J-0.668
N2170 X24.607 Y-66.332 Z-1.241 I-0.393 J0.668
N2175 X25.393 Y-67.668 Z-1.326 I0.393 J-0.668
N2180 X24.607 Y-66.332 Z-1.411 I-0.393 J0.668
N2185 X25.393 Y-67.668 Z-1.496 I0.393 J-0.668
N2190 X24.607 Y-66.332 Z-1.581 I-0.393 J0.668
N2195 X25.393 Y-67.668 Z-1.666 I0.393 J-0.668
N2200 X24.607 Y-66.332 Z-1.751 I-0.393 J0.668
N2205 X25.393 Y-67.668 Z-1.836 I0.393 J-0.668
N2210 X24.607 Y-66.332 Z-1.921 I-0.393 J0.668
N2215 X25.393 Y-67.668 Z-2.006 I0.393 J-0.668
N2220 X24.607 Y-66.332 Z-2.091 I-0.393 J0.668
N2225 X25.393 Y-67.668 Z-2.176 I0.393 J-0.668
N2230 X24.607 Y-66.332 Z-2.261 I-0.393 J0.668
N2235 X25.393 Y-67.668 Z-2.346 I0.393 J-0.668
N2240 X24.607 Y-66.332 Z-2.431 I-0.393 J0.668
N2245 X25.393 Y-67.668 Z-2.516 I0.393 J-0.668
N2250 X24.607 Y-66.332 Z-2.601 I-0.393 J0.668
N2255 X25.393 Y-67.668 Z-2.686 I0.393 J-0.668
N2260 X24.607 Y-66.332 Z-2.771 I-0.393 J0.668
N2265 X25.393 Y-67.668 Z-2.856 I0.393 J-0.668
N2270 X24.607 Y-66.332 Z-2.941 I-0.393 J0.668
N2275 X25.393 Y-67.668 Z-3.026 I0.393 J-0.668
N2280 X24.607 Y-66.332 Z-3.112 I-0.393 J0.668
N2285 X25.393 Y-67.668 Z-3.197 I0.393 J-0.668
N2290 X24.607 Y-66.332 Z-3.282 I-0.393 J0.668
N2295 X25.393 Y-67.668 Z-3.367 I0.393 J-0.668
N2300 X24.607 Y-66.332 Z-3.452 I-0.393 J0.668
N2305 X25.393 Y-67.668 Z-3.537 I0.393 J-0.668
N2310 X24.607 Y-66.332 Z-3.622 I-0.393 J0.668
N2315 X25.393 Y-67.668 Z-3.707 I0.393 J-0.668
N2320 X24.607 Y-66.332 Z-3.792 I-0.393 J0.668
N2325 X25.393 Y-67.668 Z-3.877 I0.393 J-0.668
N2330 X24.607 Y-66.332 Z-3.962 I-0.393 J0.668
N2335 X25.393 Y-67.668 Z-4.047 I0.393 J-0.668
N2340 X24.607 Y-66.332 Z-4.132 I-0.393 J0.668
N2345 X25.393 Y-67.668 Z-4.217 I0.393 J-0.668
N2350 X24.607 Y-66.332 Z-4.302 I-0.393 J0.668
N2355 X25.393 Y-67.668 Z-4.387 I0.393 J-0.668
N2360 X24.607 Y-66.332 Z-4.472 I-0.393 J0.668
N2365 X24.225 Y-67. Z-4.5 I0.393 J-0.668
N2370 X25.025 I0.4 J0.
N2375 X24.975 I-0.025 J0. F#100
N2380 X25.275 I0.15 J0.
N2385 X24.725 I-0.275 J0.
N2390 X25.525 I0.4 J0.
N2395 X24.475 I-0.525 J0.
N2400 X25.775 I0.65 J0.
N2405 X24.225 I-0.775 J0.
N2410 X25.775 I0.775 J0.
N2415 X25.747 Y-66.819 Z-4.471 I-0.595 J0. F#104
N2420 X25.675 Y-66.67 Z-4.386 I-0.567 J-0.181
N2425 X25.591 Y-66.569 Z-4.255 I-0.495 J-0.33
N2430 X25.526 Y-66.516 Z-4.089 I-0.411 J-0.431
N2435 X25.501 Y-66.499 Z-3.905 I-0.346 J-0.484
N2440 G0 Z3.095
N2445 X25.161 Y-58.242
N2450 G3 X25.134 Y-58.237 Z2.915 I-0.161 J-0.758 F#107
N2455 X25.054 Y-58.227 Z2.752 I-0.134 J-0.763
N2460 X24.927 Y-58.228 Z2.621 I-0.054 J-0.773
N2465 X24.771 Y-58.26 Z2.534 I0.073 J-0.772
N2470 X24.607 Y-58.332 Z2.5 I0.229 J-0.74
N2475 X25.393 Y-59.668 Z2.415 I0.393 J-0.668
N2480 X24.607 Y-58.332 Z2.33 I-0.393 J0.668
N2485 X25.393 Y-59.668 Z2.245 I0.393 J-0.668
N2490 X24.607 Y-58.332 Z2.16 I-0.393 J0.668
N2495 X25.393 Y-59.668 Z2.075 I0.393 J-0.668
N2500 X24.607 Y-58.332 Z1.99 I-0.393 J0.668
N2505 X25.393 Y-59.668 Z1.905 I0.393 J-0.668
N2510 X24.607 Y-58.332 Z1.82 I-0.393 J0.668
N2515 X25.393 Y-59.668 Z1.735 I0.393 J-0.668
N2520 X24.607 Y-58.332 Z1.65 I-0.393 J0.668
N2525 X25.393 Y-59.668 Z1.565 I0.393 J-0.668
N2530 X24.607 Y-58.332 Z1.48 I-0.393 J0.668
N2535 X25.393 Y-59.668 Z1.395 I0.393 J-0.668
N2540 X24.607 Y-58.332 Z1.31 I-0.393 J0.668
N2545 X25.393 Y-59.668 Z1.225 I0.393 J-0.668
N2550 X24.607 Y-58.332 Z1.14 I-0.393 J0.668
N2555 X25.393 Y-59.668 Z1.055 I0.393 J-0.668
N2560 X24.607 Y-58.332 Z0.97 I-0.393 J0.668
N2565 X25.393 Y-59.668 Z0.885 I0.393 J-0.668
N2570 X24.607 Y-58.332 Z0.8 I-0.393 J0.668
N2575 X25.393 Y-59.668 Z0.715 I0.393 J-0.668
N2580 X24.607 Y-58.332 Z0.629 I-0.393 J0.668
N2585 X25.393 Y-59.668 Z0.544 I0.393 J-0.668
N2590 X24.607 Y-58.332 Z0.459 I-0.393 J0.668
N2595 X25.393 Y-59.668 Z0.374 I0.393 J-0.668
N2600 X24.607 Y-58.332 Z0.289 I-0.393 J0.668
N2605 X25.393 Y-59.668 Z0.204 I0.393 J-0.668
N2610 X24.607 Y-58.332 Z0.119 I-0.393 J0.668
N2615 X25.393 Y-59.668 Z0.034 I0.393 J-0.668
N2620 X24.607 Y-58.332 Z-0.051 I-0.393 J0.668
N2625 X25.393 Y-59.668 Z-0.136 I0.393 J-0.668
N2630 X24.607 Y-58.332 Z-0.221 I-0.393 J0.668
N2635 X25.393 Y-59.668 Z-0.306 I0.393 J-0.668
N2640 X24.607 Y-58.332 Z-0.391 I-0.393 J0.668
N2645 X25.393 Y-59.668 Z-0.476 I0.393 J-0.668
N2650 X24.607 Y-58.332 Z-0.561 I-0.393 J0.668
N2655 X25.393 Y-59.668 Z-0.646 I0.393 J-0.668
N2660 X24.607 Y-58.332 Z-0.731 I-0.393 J0.668
N2665 X25.393 Y-59.668 Z-0.816 I0.393 J-0.668
N2670 X24.607 Y-58.332 Z-0.901 I-0.393 J0.668
N2675 X25.393 Y-59.668 Z-0.986 I0.393 J-0.668
N2680 X24.607 Y-58.332 Z-1.071 I-0.393 J0.668
N2685 X25.393 Y-59.668 Z-1.156 I0.393 J-0.668
N2690 X24.607 Y-58.332 Z-1.241 I-0.393 J0.668
N2695 X25.393 Y-59.668 Z-1.326 I0.393 J-0.668
N2700 X24.607 Y-58.332 Z-1.411 I-0.393 J0.668
N2705 X25.393 Y-59.668 Z-1.496 I0.393 J-0.668
N2710 X24.607 Y-58.332 Z-1.581 I-0.393 J0.668
N2715 X25.393 Y-59.668 Z-1.666 I0.393 J-0.668
N2720 X24.607 Y-58.332 Z-1.751 I-0.393 J0.668
N2725 X25.393 Y-59.668 Z-1.836 I0.393 J-0.668
N2730 X24.607 Y-58.332 Z-1.921 I-0.393 J0.668
N2735 X25.393 Y-59.668 Z-2.006 I0.393 J-0.668
N2740 X24.607 Y-58.332 Z-2.091 I-0.393 J0.668
N2745 X25.393 Y-59.668 Z-2.176 I0.393 J-0.668
N2750 X24.607 Y-58.332 Z-2.261 I-0.393 J0.668
N2755 X25.393 Y-59.668 Z-2.346 I0.393 J-0.668
N2760 X24.607 Y-58.332 Z-2.431 I-0.393 J0.668
N2765 X25.393 Y-59.668 Z-2.516 I0.393 J-0.668
N2770 X24.607 Y-58.332 Z-2.601 I-0.393 J0.668
N2775 X25.393 Y-59.668 Z-2.686 I0.393 J-0.668
N2780 X24.607 Y-58.332 Z-2.771 I-0.393 J0.668
N2785 X25.393 Y-59.668 Z-2.856 I0.393 J-0.668
N2790 X24.607 Y-58.332 Z-2.941 I-0.393 J0.668
N2795 X25.393 Y-59.668 Z-3.026 I0.393 J-0.668
N2800 X24.607 Y-58.332 Z-3.112 I-0.393 J0.668
N2805 X25.393 Y-59.668 Z-3.197 I0.393 J-0.668
N2810 X24.607 Y-58.332 Z-3.282 I-0.393 J0.668
N2815 X25.393 Y-59.668 Z-3.367 I0.393 J-0.668
N2820 X24.607 Y-58.332 Z-3.452 I-0.393 J0.668
N2825 X25.393 Y-59.668 Z-3.537 I0.393 J-0.668
N2830 X24.607 Y-58.332 Z-3.622 I-0.393 J0.668
N2835 X25.393 Y-59.668 Z-3.707 I0.393 J-0.668
N2840 X24.607 Y-58.332 Z-3.792 I-0.393 J0.668
N2845 X25.393 Y-59.668 Z-3.877 I0.393 J-0.668
N2850 X24.607 Y-58.332 Z-3.962 I-0.393 J0.668
N2855 X25.393 Y-59.668 Z-4.047 I0.393 J-0.668
N2860 X24.607 Y-58.332 Z-4.132 I-0.393 J0.668
N2865 X25.393 Y-59.668 Z-4.217 I0.393 J-0.668
N2870 X24.607 Y-58.332 Z-4.302 I-0.393 J0.668
N2875 X25.393 Y-59.668 Z-4.387 I0.393 J-0.668
N2880 X24.607 Y-58.332 Z-4.472 I-0.393 J0.668
N2885 X24.225 Y-59. Z-4.5 I0.393 J-0.668
N2890 X25.025 I0.4 J0.
N2895 X24.975 I-0.025 J0. F#100
N2900 X25.275 I0.15 J0.
N2905 X24.725 I-0.275 J0.
N2910 X25.525 I0.4 J0.
N2915 X24.475 I-0.525 J0.
N2920 X25.775 I0.65 J0.
N2925 X24.225 I-0.775 J0.
N2930 X25.775 I0.775 J0.
N2935 X25.747 Y-58.819 Z-4.471 I-0.595 J0. F#104
N2940 X25.675 Y-58.67 Z-4.386 I-0.567 J-0.181
N2945 X25.591 Y-58.569 Z-4.255 I-0.495 J-0.33
N2950 X25.526 Y-58.516 Z-4.089 I-0.411 J-0.431
N2955 X25.501 Y-58.499 Z-3.905 I-0.346 J-0.484
N2960 G0 Z3.095
N2965 X34.161 Y-58.242
N2970 G3 X34.134 Y-58.237 Z2.915 I-0.161 J-0.758 F#107
N2975 X34.054 Y-58.227 Z2.752 I-0.134 J-0.763
N2980 X33.927 Y-58.228 Z2.621 I-0.054 J-0.773
N2985 X33.771 Y-58.26 Z2.534 I0.073 J-0.772
N2990 X33.607 Y-58.332 Z2.5 I0.229 J-0.74
N2995 X34.393 Y-59.668 Z2.415 I0.393 J-0.668
N3000 X33.607 Y-58.332 Z2.33 I-0.393 J0.668
N3005 X34.393 Y-59.668 Z2.245 I0.393 J-0.668
N3010 X33.607 Y-58.332 Z2.16 I-0.393 J0.668
N3015 X34.393 Y-59.668 Z2.075 I0.393 J-0.668
N3020 X33.607 Y-58.332 Z1.99 I-0.393 J0.668
N3025 X34.393 Y-59.668 Z1.905 I0.393 J-0.668
N3030 X33.607 Y-58.332 Z1.82 I-0.393 J0.668
N3035 X34.393 Y-59.668 Z1.735 I0.393 J-0.668
N3040 X33.607 Y-58.332 Z1.65 I-0.393 J0.668
N3045 X34.393 Y-59.668 Z1.565 I0.393 J-0.668
N3050 X33.607 Y-58.332 Z1.48 I-0.393 J0.668
N3055 X34.393 Y-59.668 Z1.395 I0.393 J-0.668
N3060 X33.607 Y-58.332 Z1.31 I-0.393 J0.668
N3065 X34.393 Y-59.668 Z1.225 I0.393 J-0.668
N3070 X33.607 Y-58.332 Z1.14 I-0.393 J0.668
N3075 X34.393 Y-59.668 Z1.055 I0.393 J-0.668
N3080 X33.607 Y-58.332 Z0.97 I-0.393 J0.668
N3085 X34.393 Y-59.668 Z0.885 I0.393 J-0.668
N3090 X33.607 Y-58.332 Z0.8 I-0.393 J0.668
N3095 X34.393 Y-59.668 Z0.715 I0.393 J-0.668
N3100 X33.607 Y-58.332 Z0.629 I-0.393 J0.668
N3105 X34.393 Y-59.668 Z0.544 I0.393 J-0.668
N3110 X33.607 Y-58.332 Z0.459 I-0.393 J0.668
N3115 X34.393 Y-59.668 Z0.374 I0.393 J-0.668
N3120 X33.607 Y-58.332 Z0.289 I-0.393 J0.668
N3125 X34.393 Y-59.668 Z0.204 I0.393 J-0.668
N3130 X33.607 Y-58.332 Z0.119 I-0.393 J0.668
N3135 X34.393 Y-59.668 Z0.034 I0.393 J-0.668
N3140 X33.607 Y-58.332 Z-0.051 I-0.393 J0.668
N3145 X34.393 Y-59.668 Z-0.136 I0.393 J-0.668
N3150 X33.607 Y-58.332 Z-0.221 I-0.393 J0.668
N3155 X34.393 Y-59.668 Z-0.306 I0.393 J-0.668
N3160 X33.607 Y-58.332 Z-0.391 I-0.393 J0.668
N3165 X34.393 Y-59.668 Z-0.476 I0.393 J-0.668
N3170 X33.607 Y-58.332 Z-0.561 I-0.393 J0.668
N3175 X34.393 Y-59.668 Z-0.646 I0.393 J-0.668
N3180 X33.607 Y-58.332 Z-0.731 I-0.393 J0.668
N3185 X34.393 Y-59.668 Z-0.816 I0.393 J-0.668
N3190 X33.607 Y-58.332 Z-0.901 I-0.393 J0.668
N3195 X34.393 Y-59.668 Z-0.986 I0.393 J-0.668
N3200 X33.607 Y-58.332 Z-1.071 I-0.393 J0.668
N3205 X34.393 Y-59.668 Z-1.156 I0.393 J-0.668
N3210 X33.607 Y-58.332 Z-1.241 I-0.393 J0.668
N3215 X34.393 Y-59.668 Z-1.326 I0.393 J-0.668
N3220 X33.607 Y-58.332 Z-1.411 I-0.393 J0.668
N3225 X34.393 Y-59.668 Z-1.496 I0.393 J-0.668
N3230 X33.607 Y-58.332 Z-1.581 I-0.393 J0.668
N3235 X34.393 Y-59.668 Z-1.666 I0.393 J-0.668
N3240 X33.607 Y-58.332 Z-1.751 I-0.393 J0.668
N3245 X34.393 Y-59.668 Z-1.836 I0.393 J-0.668
N3250 X33.607 Y-58.332 Z-1.921 I-0.393 J0.668
N3255 X34.393 Y-59.668 Z-2.006 I0.393 J-0.668
N3260 X33.607 Y-58.332 Z-2.091 I-0.393 J0.668
N3265 X34.393 Y-59.668 Z-2.176 I0.393 J-0.668
N3270 X33.607 Y-58.332 Z-2.261 I-0.393 J0.668
N3275 X34.393 Y-59.668 Z-2.346 I0.393 J-0.668
N3280 X33.607 Y-58.332 Z-2.431 I-0.393 J0.668
N3285 X34.393 Y-59.668 Z-2.516 I0.393 J-0.668
N3290 X33.607 Y-58.332 Z-2.601 I-0.393 J0.668
N3295 X34.393 Y-59.668 Z-2.686 I0.393 J-0.668
N3300 X33.607 Y-58.332 Z-2.771 I-0.393 J0.668
N3305 X34.393 Y-59.668 Z-2.856 I0.393 J-0.668
N3310 X33.607 Y-58.332 Z-2.941 I-0.393 J0.668
N3315 X34.393 Y-59.668 Z-3.026 I0.393 J-0.668
N3320 X33.607 Y-58.332 Z-3.112 I-0.393 J0.668
N3325 X34.393 Y-59.668 Z-3.197 I0.393 J-0.668
N3330 X33.607 Y-58.332 Z-3.282 I-0.393 J0.668
N3335 X34.393 Y-59.668 Z-3.367 I0.393 J-0.668
N3340 X33.607 Y-58.332 Z-3.452 I-0.393 J0.668
N3345 X34.393 Y-59.668 Z-3.537 I0.393 J-0.668
N3350 X33.607 Y-58.332 Z-3.622 I-0.393 J0.668
N3355 X34.393 Y-59.668 Z-3.707 I0.393 J-0.668
N3360 X33.607 Y-58.332 Z-3.792 I-0.393 J0.668
N3365 X34.393 Y-59.668 Z-3.877 I0.393 J-0.668
N3370 X33.607 Y-58.332 Z-3.962 I-0.393 J0.668
N3375 X34.393 Y-59.668 Z-4.047 I0.393 J-0.668
N3380 X33.607 Y-58.332 Z-4.132 I-0.393 J0.668
N3385 X34.393 Y-59.668 Z-4.217 I0.393 J-0.668
N3390 X33.607 Y-58.332 Z-4.302 I-0.393 J0.668
N3395 X34.393 Y-59.668 Z-4.387 I0.393 J-0.668
N3400 X33.607 Y-58.332 Z-4.472 I-0.393 J0.668
N3405 X33.225 Y-59. Z-4.5 I0.393 J-0.668
N3410 X34.025 I0.4 J0.
N3415 X33.975 I-0.025 J0. F#100
N3420 X34.275 I0.15 J0.
N3425 X33.725 I-0.275 J0.
N3430 X34.525 I0.4 J0.
N3435 X33.475 I-0.525 J0.
N3440 X34.775 I0.65 J0.
N3445 X33.225 I-0.775 J0.
N3450 X34.775 I0.775 J0.
N3455 X34.747 Y-58.819 Z-4.471 I-0.595 J0. F#104
N3460 X34.675 Y-58.67 Z-4.386 I-0.567 J-0.181
N3465 X34.591 Y-58.569 Z-4.255 I-0.495 J-0.33
N3470 X34.526 Y-58.516 Z-4.089 I-0.411 J-0.431
N3475 X34.501 Y-58.499 Z-3.905 I-0.346 J-0.484
N3480 G0 Z3.095
N3485 X34.161 Y-66.242
N3490 G3 X34.134 Y-66.237 Z2.915 I-0.161 J-0.758 F#107
N3495 X34.054 Y-66.227 Z2.752 I-0.134 J-0.763
N3500 X33.927 Y-66.228 Z2.621 I-0.054 J-0.773
N3505 X33.771 Y-66.26 Z2.534 I0.073 J-0.772
N3510 X33.607 Y-66.332 Z2.5 I0.229 J-0.74
N3515 X34.393 Y-67.668 Z2.415 I0.393 J-0.668
N3520 X33.607 Y-66.332 Z2.33 I-0.393 J0.668
N3525 X34.393 Y-67.668 Z2.245 I0.393 J-0.668
N3530 X33.607 Y-66.332 Z2.16 I-0.393 J0.668
N3535 X34.393 Y-67.668 Z2.075 I0.393 J-0.668
N3540 X33.607 Y-66.332 Z1.99 I-0.393 J0.668
N3545 X34.393 Y-67.668 Z1.905 I0.393 J-0.668
N3550 X33.607 Y-66.332 Z1.82 I-0.393 J0.668
N3555 X34.393 Y-67.668 Z1.735 I0.393 J-0.668
N3560 X33.607 Y-66.332 Z1.65 I-0.393 J0.668
N3565 X34.393 Y-67.668 Z1.565 I0.393 J-0.668
N3570 X33.607 Y-66.332 Z1.48 I-0.393 J0.668
N3575 X34.393 Y-67.668 Z1.395 I0.393 J-0.668
N3580 X33.607 Y-66.332 Z1.31 I-0.393 J0.668
N3585 X34.393 Y-67.668 Z1.225 I0.393 J-0.668
N3590 X33.607 Y-66.332 Z1.14 I-0.393 J0.668
N3595 X34.393 Y-67.668 Z1.055 I0.393 J-0.668
N3600 X33.607 Y-66.332 Z0.97 I-0.393 J0.668
N3605 X34.393 Y-67.668 Z0.885 I0.393 J-0.668
N3610 X33.607 Y-66.332 Z0.8 I-0.393 J0.668
N3615 X34.393 Y-67.668 Z0.715 I0.393 J-0.668
N3620 X33.607 Y-66.332 Z0.629 I-0.393 J0.668
N3625 X34.393 Y-67.668 Z0.544 I0.393 J-0.668
N3630 X33.607 Y-66.332 Z0.459 I-0.393 J0.668
N3635 X34.393 Y-67.668 Z0.374 I0.393 J-0.668
N3640 X33.607 Y-66.332 Z0.289 I-0.393 J0.668
N3645 X34.393 Y-67.668 Z0.204 I0.393 J-0.668
N3650 X33.607 Y-66.332 Z0.119 I-0.393 J0.668
N3655 X34.393 Y-67.668 Z0.034 I0.393 J-0.668
N3660 X33.607 Y-66.332 Z-0.051 I-0.393 J0.668
N3665 X34.393 Y-67.668 Z-0.136 I0.393 J-0.668
N3670 X33.607 Y-66.332 Z-0.221 I-0.393 J0.668
N3675 X34.393 Y-67.668 Z-0.306 I0.393 J-0.668
N3680 X33.607 Y-66.332 Z-0.391 I-0.393 J0.668
N3685 X34.393 Y-67.668 Z-0.476 I0.393 J-0.668
N3690 X33.607 Y-66.332 Z-0.561 I-0.393 J0.668
N3695 X34.393 Y-67.668 Z-0.646 I0.393 J-0.668
N3700 X33.607 Y-66.332 Z-0.731 I-0.393 J0.668
N3705 X34.393 Y-67.668 Z-0.816 I0.393 J-0.668
N3710 X33.607 Y-66.332 Z-0.901 I-0.393 J0.668
N3715 X34.393 Y-67.668 Z-0.986 I0.393 J-0.668
N3720 X33.607 Y-66.332 Z-1.071 I-0.393 J0.668
N3725 X34.393 Y-67.668 Z-1.156 I0.393 J-0.668
N3730 X33.607 Y-66.332 Z-1.241 I-0.393 J0.668
N3735 X34.393 Y-67.668 Z-1.326 I0.393 J-0.668
N3740 X33.607 Y-66.332 Z-1.411 I-0.393 J0.668
N3745 X34.393 Y-67.668 Z-1.496 I0.393 J-0.668
N3750 X33.607 Y-66.332 Z-1.581 I-0.393 J0.668
N3755 X34.393 Y-67.668 Z-1.666 I0.393 J-0.668
N3760 X33.607 Y-66.332 Z-1.751 I-0.393 J0.668
N3765 X34.393 Y-67.668 Z-1.836 I0.393 J-0.668
N3770 X33.607 Y-66.332 Z-1.921 I-0.393 J0.668
N3775 X34.393 Y-67.668 Z-2.006 I0.393 J-0.668
N3780 X33.607 Y-66.332 Z-2.091 I-0.393 J0.668
N3785 X34.393 Y-67.668 Z-2.176 I0.393 J-0.668
N3790 X33.607 Y-66.332 Z-2.261 I-0.393 J0.668
N3795 X34.393 Y-67.668 Z-2.346 I0.393 J-0.668
N3800 X33.607 Y-66.332 Z-2.431 I-0.393 J0.668
N3805 X34.393 Y-67.668 Z-2.516 I0.393 J-0.668
N3810 X33.607 Y-66.332 Z-2.601 I-0.393 J0.668
N3815 X34.393 Y-67.668 Z-2.686 I0.393 J-0.668
N3820 X33.607 Y-66.332 Z-2.771 I-0.393 J0.668
N3825 X34.393 Y-67.668 Z-2.856 I0.393 J-0.668
N3830 X33.607 Y-66.332 Z-2.941 I-0.393 J0.668
N3835 X34.393 Y-67.668 Z-3.026 I0.393 J-0.668
N3840 X33.607 Y-66.332 Z-3.112 I-0.393 J0.668
N3845 X34.393 Y-67.668 Z-3.197 I0.393 J-0.668
N3850 X33.607 Y-66.332 Z-3.282 I-0.393 J0.668
N3855 X34.393 Y-67.668 Z-3.367 I0.393 J-0.668
N3860 X33.607 Y-66.332 Z-3.452 I-0.393 J0.668
N3865 X34.393 Y-67.668 Z-3.537 I0.393 J-0.668
N3870 X33.607 Y-66.332 Z-3.622 I-0.393 J0.668
N3875 X34.393 Y-67.668 Z-3.707 I0.393 J-0.668
N3880 X33.607 Y-66.332 Z-3.792 I-0.393 J0.668
N3885 X34.393 Y-67.668 Z-3.877 I0.393 J-0.668
N3890 X33.607 Y-66.332 Z-3.962 I-0.393 J0.668
N3895 X34.393 Y-67.668 Z-4.047 I0.393 J-0.668
N3900 X33.607 Y-66.332 Z-4.132 I-0.393 J0.668
N3905 X34.393 Y-67.668 Z-4.217 I0.393 J-0.668
N3910 X33.607 Y-66.332 Z-4.302 I-0.393 J0.668
N3915 X34.393 Y-67.668 Z-4.387 I0.393 J-0.668
N3920 X33.607 Y-66.332 Z-4.472 I-0.393 J0.668
N3925 X33.225 Y-67. Z-4.5 I0.393 J-0.668
N3930 X34.025 I0.4 J0.
N3935 X33.975 I-0.025 J0. F#100
N3940 X34.275 I0.15 J0.
N3945 X33.725 I-0.275 J0.
N3950 X34.525 I0.4 J0.
N3955 X33.475 I-0.525 J0.
N3960 X34.775 I0.65 J0.
N3965 X33.225 I-0.775 J0.
N3970 X34.775 I0.775 J0.
N3975 X34.747 Y-66.819 Z-4.471 I-0.595 J0. F#104
N3980 X34.675 Y-66.67 Z-4.386 I-0.567 J-0.181
N3985 X34.591 Y-66.569 Z-4.255 I-0.495 J-0.33
N3990 X34.526 Y-66.516 Z-4.089 I-0.411 J-0.431
N3995 X34.501 Y-66.499 Z-3.905 I-0.346 J-0.484
N4000 G0 Z3.095
N4005 X43.161 Y-66.242
N4010 G3 X43.134 Y-66.237 Z2.915 I-0.161 J-0.758 F#107
N4015 X43.054 Y-66.227 Z2.752 I-0.134 J-0.763
N4020 X42.927 Y-66.228 Z2.621 I-0.054 J-0.773
N4025 X42.771 Y-66.26 Z2.534 I0.073 J-0.772
N4030 X42.607 Y-66.332 Z2.5 I0.229 J-0.74
N4035 X43.393 Y-67.668 Z2.415 I0.393 J-0.668
N4040 X42.607 Y-66.332 Z2.33 I-0.393 J0.668
N4045 X43.393 Y-67.668 Z2.245 I0.393 J-0.668
N4050 X42.607 Y-66.332 Z2.16 I-0.393 J0.668
N4055 X43.393 Y-67.668 Z2.075 I0.393 J-0.668
N4060 X42.607 Y-66.332 Z1.99 I-0.393 J0.668
N4065 X43.393 Y-67.668 Z1.905 I0.393 J-0.668
N4070 X42.607 Y-66.332 Z1.82 I-0.393 J0.668
N4075 X43.393 Y-67.668 Z1.735 I0.393 J-0.668
N4080 X42.607 Y-66.332 Z1.65 I-0.393 J0.668
N4085 X43.393 Y-67.668 Z1.565 I0.393 J-0.668
N4090 X42.607 Y-66.332 Z1.48 I-0.393 J0.668
N4095 X43.393 Y-67.668 Z1.395 I0.393 J-0.668
N4100 X42.607 Y-66.332 Z1.31 I-0.393 J0.668
N4105 X43.393 Y-67.668 Z1.225 I0.393 J-0.668
N4110 X42.607 Y-66.332 Z1.14 I-0.393 J0.668
N4115 X43.393 Y-67.668 Z1.055 I0.393 J-0.668
N4120 X42.607 Y-66.332 Z0.97 I-0.393 J0.668
N4125 X43.393 Y-67.668 Z0.885 I0.393 J-0.668
N4130 X42.607 Y-66.332 Z0.8 I-0.393 J0.668
N4135 X43.393 Y-67.668 Z0.715 I0.393 J-0.668
N4140 X42.607 Y-66.332 Z0.629 I-0.393 J0.668
N4145 X43.393 Y-67.668 Z0.544 I0.393 J-0.668
N4150 X42.607 Y-66.332 Z0.459 I-0.393 J0.668
N4155 X43.393 Y-67.668 Z0.374 I0.393 J-0.668
N4160 X42.607 Y-66.332 Z0.289 I-0.393 J0.668
N4165 X43.393 Y-67.668 Z0.204 I0.393 J-0.668
N4170 X42.607 Y-66.332 Z0.119 I-0.393 J0.668
N4175 X43.393 Y-67.668 Z0.034 I0.393 J-0.668
N4180 X42.607 Y-66.332 Z-0.051 I-0.393 J0.668
N4185 X43.393 Y-67.668 Z-0.136 I0.393 J-0.668
N4190 X42.607 Y-66.332 Z-0.221 I-0.393 J0.668
N4195 X43.393 Y-67.668 Z-0.306 I0.393 J-0.668
N4200 X42.607 Y-66.332 Z-0.391 I-0.393 J0.668
N4205 X43.393 Y-67.668 Z-0.476 I0.393 J-0.668
N4210 X42.607 Y-66.332 Z-0.561 I-0.393 J0.668
N4215 X43.393 Y-67.668 Z-0.646 I0.393 J-0.668
N4220 X42.607 Y-66.332 Z-0.731 I-0.393 J0.668
N4225 X43.393 Y-67.668 Z-0.816 I0.393 J-0.668
N4230 X42.607 Y-66.332 Z-0.901 I-0.393 J0.668
N4235 X43.393 Y-67.668 Z-0.986 I0.393 J-0.668
N4240 X42.607 Y-66.332 Z-1.071 I-0.393 J0.668
N4245 X43.393 Y-67.668 Z-1.156 I0.393 J-0.668
N4250 X42.607 Y-66.332 Z-1.241 I-0.393 J0.668
N4255 X43.393 Y-67.668 Z-1.326 I0.393 J-0.668
N4260 X42.607 Y-66.332 Z-1.411 I-0.393 J0.668
N4265 X43.393 Y-67.668 Z-1.496 I0.393 J-0.668
N4270 X42.607 Y-66.332 Z-1.581 I-0.393 J0.668
N4275 X43.393 Y-67.668 Z-1.666 I0.393 J-0.668
N4280 X42.607 Y-66.332 Z-1.751 I-0.393 J0.668
N4285 X43.393 Y-67.668 Z-1.836 I0.393 J-0.668
N4290 X42.607 Y-66.332 Z-1.921 I-0.393 J0.668
N4295 X43.393 Y-67.668 Z-2.006 I0.393 J-0.668
N4300 X42.607 Y-66.332 Z-2.091 I-0.393 J0.668
N4305 X43.393 Y-67.668 Z-2.176 I0.393 J-0.668
N4310 X42.607 Y-66.332 Z-2.261 I-0.393 J0.668
N4315 X43.393 Y-67.668 Z-2.346 I0.393 J-0.668
N4320 X42.607 Y-66.332 Z-2.431 I-0.393 J0.668
N4325 X43.393 Y-67.668 Z-2.516 I0.393 J-0.668
N4330 X42.607 Y-66.332 Z-2.601 I-0.393 J0.668
N4335 X43.393 Y-67.668 Z-2.686 I0.393 J-0.668
N4340 X42.607 Y-66.332 Z-2.771 I-0.393 J0.668
N4345 X43.393 Y-67.668 Z-2.856 I0.393 J-0.668
N4350 X42.607 Y-66.332 Z-2.941 I-0.393 J0.668
N4355 X43.393 Y-67.668 Z-3.026 I0.393 J-0.668
N4360 X42.607 Y-66.332 Z-3.112 I-0.393 J0.668
N4365 X43.393 Y-67.668 Z-3.197 I0.393 J-0.668
N4370 X42.607 Y-66.332 Z-3.282 I-0.393 J0.668
N4375 X43.393 Y-67.668 Z-3.367 I0.393 J-0.668
N4380 X42.607 Y-66.332 Z-3.452 I-0.393 J0.668
N4385 X43.393 Y-67.668 Z-3.537 I0.393 J-0.668
N4390 X42.607 Y-66.332 Z-3.622 I-0.393 J0.668
N4395 X43.393 Y-67.668 Z-3.707 I0.393 J-0.668
N4400 X42.607 Y-66.332 Z-3.792 I-0.393 J0.668
N4405 X43.393 Y-67.668 Z-3.877 I0.393 J-0.668
N4410 X42.607 Y-66.332 Z-3.962 I-0.393 J0.668
N4415 X43.393 Y-67.668 Z-4.047 I0.393 J-0.668
N4420 X42.607 Y-66.332 Z-4.132 I-0.393 J0.668
N4425 X43.393 Y-67.668 Z-4.217 I0.393 J-0.668
N4430 X42.607 Y-66.332 Z-4.302 I-0.393 J0.668
N4435 X43.393 Y-67.668 Z-4.387 I0.393 J-0.668
N4440 X42.607 Y-66.332 Z-4.472 I-0.393 J0.668
N4445 X42.225 Y-67. Z-4.5 I0.393 J-0.668
N4450 X43.025 I0.4 J0.
N4455 X42.975 I-0.025 J0. F#100
N4460 X43.275 I0.15 J0.
N4465 X42.725 I-0.275 J0.
N4470 X43.525 I0.4 J0.
N4475 X42.475 I-0.525 J0.
N4480 X43.775 I0.65 J0.
N4485 X42.225 I-0.775 J0.
N4490 X43.775 I0.775 J0.
N4495 X43.747 Y-66.819 Z-4.471 I-0.595 J0. F#104
N4500 X43.675 Y-66.67 Z-4.386 I-0.567 J-0.181
N4505 X43.591 Y-66.569 Z-4.255 I-0.495 J-0.33
N4510 X43.526 Y-66.516 Z-4.089 I-0.411 J-0.431
N4515 X43.501 Y-66.499 Z-3.905 I-0.346 J-0.484
N4520 G0 Z3.095
N4525 X43.161 Y-58.242
N4530 G3 X43.134 Y-58.237 Z2.915 I-0.161 J-0.758 F#107
N4535 X43.054 Y-58.227 Z2.752 I-0.134 J-0.763
N4540 X42.927 Y-58.228 Z2.621 I-0.054 J-0.773
N4545 X42.771 Y-58.26 Z2.534 I0.073 J-0.772
N4550 X42.607 Y-58.332 Z2.5 I0.229 J-0.74
N4555 X43.393 Y-59.668 Z2.415 I0.393 J-0.668
N4560 X42.607 Y-58.332 Z2.33 I-0.393 J0.668
N4565 X43.393 Y-59.668 Z2.245 I0.393 J-0.668
N4570 X42.607 Y-58.332 Z2.16 I-0.393 J0.668
N4575 X43.393 Y-59.668 Z2.075 I0.393 J-0.668
N4580 X42.607 Y-58.332 Z1.99 I-0.393 J0.668
N4585 X43.393 Y-59.668 Z1.905 I0.393 J-0.668
N4590 X42.607 Y-58.332 Z1.82 I-0.393 J0.668
N4595 X43.393 Y-59.668 Z1.735 I0.393 J-0.668
N4600 X42.607 Y-58.332 Z1.65 I-0.393 J0.668
N4605 X43.393 Y-59.668 Z1.565 I0.393 J-0.668
N4610 X42.607 Y-58.332 Z1.48 I-0.393 J0.668
N4615 X43.393 Y-59.668 Z1.395 I0.393 J-0.668
N4620 X42.607 Y-58.332 Z1.31 I-0.393 J0.668
N4625 X43.393 Y-59.668 Z1.225 I0.393 J-0.668
N4630 X42.607 Y-58.332 Z1.14 I-0.393 J0.668
N4635 X43.393 Y-59.668 Z1.055 I0.393 J-0.668
N4640 X42.607 Y-58.332 Z0.97 I-0.393 J0.668
N4645 X43.393 Y-59.668 Z0.885 I0.393 J-0.668
N4650 X42.607 Y-58.332 Z0.8 I-0.393 J0.668
N4655 X43.393 Y-59.668 Z0.715 I0.393 J-0.668
N4660 X42.607 Y-58.332 Z0.629 I-0.393 J0.668
N4665 X43.393 Y-59.668 Z0.544 I0.393 J-0.668
N4670 X42.607 Y-58.332 Z0.459 I-0.393 J0.668
N4675 X43.393 Y-59.668 Z0.374 I0.393 J-0.668
N4680 X42.607 Y-58.332 Z0.289 I-0.393 J0.668
N4685 X43.393 Y-59.668 Z0.204 I0.393 J-0.668
N4690 X42.607 Y-58.332 Z0.119 I-0.393 J0.668
N4695 X43.393 Y-59.668 Z0.034 I0.393 J-0.668
N4700 X42.607 Y-58.332 Z-0.051 I-0.393 J0.668
N4705 X43.393 Y-59.668 Z-0.136 I0.393 J-0.668
N4710 X42.607 Y-58.332 Z-0.221 I-0.393 J0.668
N4715 X43.393 Y-59.668 Z-0.306 I0.393 J-0.668
N4720 X42.607 Y-58.332 Z-0.391 I-0.393 J0.668
N4725 X43.393 Y-59.668 Z-0.476 I0.393 J-0.668
N4730 X42.607 Y-58.332 Z-0.561 I-0.393 J0.668
N4735 X43.393 Y-59.668 Z-0.646 I0.393 J-0.668
N4740 X42.607 Y-58.332 Z-0.731 I-0.393 J0.668
N4745 X43.393 Y-59.668 Z-0.816 I0.393 J-0.668
N4750 X42.607 Y-58.332 Z-0.901 I-0.393 J0.668
N4755 X43.393 Y-59.668 Z-0.986 I0.393 J-0.668
N4760 X42.607 Y-58.332 Z-1.071 I-0.393 J0.668
N4765 X43.393 Y-59.668 Z-1.156 I0.393 J-0.668
N4770 X42.607 Y-58.332 Z-1.241 I-0.393 J0.668
N4775 X43.393 Y-59.668 Z-1.326 I0.393 J-0.668
N4780 X42.607 Y-58.332 Z-1.411 I-0.393 J0.668
N4785 X43.393 Y-59.668 Z-1.496 I0.393 J-0.668
N4790 X42.607 Y-58.332 Z-1.581 I-0.393 J0.668
N4795 X43.393 Y-59.668 Z-1.666 I0.393 J-0.668
N4800 X42.607 Y-58.332 Z-1.751 I-0.393 J0.668
N4805 X43.393 Y-59.668 Z-1.836 I0.393 J-0.668
N4810 X42.607 Y-58.332 Z-1.921 I-0.393 J0.668
N4815 X43.393 Y-59.668 Z-2.006 I0.393 J-0.668
N4820 X42.607 Y-58.332 Z-2.091 I-0.393 J0.668
N4825 X43.393 Y-59.668 Z-2.176 I0.393 J-0.668
N4830 X42.607 Y-58.332 Z-2.261 I-0.393 J0.668
N4835 X43.393 Y-59.668 Z-2.346 I0.393 J-0.668
N4840 X42.607 Y-58.332 Z-2.431 I-0.393 J0.668
N4845 X43.393 Y-59.668 Z-2.516 I0.393 J-0.668
N4850 X42.607 Y-58.332 Z-2.601 I-0.393 J0.668
N4855 X43.393 Y-59.668 Z-2.686 I0.393 J-0.668
N4860 X42.607 Y-58.332 Z-2.771 I-0.393 J0.668
N4865 X43.393 Y-59.668 Z-2.856 I0.393 J-0.668
N4870 X42.607 Y-58.332 Z-2.941 I-0.393 J0.668
N4875 X43.393 Y-59.668 Z-3.026 I0.393 J-0.668
N4880 X42.607 Y-58.332 Z-3.112 I-0.393 J0.668
N4885 X43.393 Y-59.668 Z-3.197 I0.393 J-0.668
N4890 X42.607 Y-58.332 Z-3.282 I-0.393 J0.668
N4895 X43.393 Y-59.668 Z-3.367 I0.393 J-0.668
N4900 X42.607 Y-58.332 Z-3.452 I-0.393 J0.668
N4905 X43.393 Y-59.668 Z-3.537 I0.393 J-0.668
N4910 X42.607 Y-58.332 Z-3.622 I-0.393 J0.668
N4915 X43.393 Y-59.668 Z-3.707 I0.393 J-0.668
N4920 X42.607 Y-58.332 Z-3.792 I-0.393 J0.668
N4925 X43.393 Y-59.668 Z-3.877 I0.393 J-0.668
N4930 X42.607 Y-58.332 Z-3.962 I-0.393 J0.668
N4935 X43.393 Y-59.668 Z-4.047 I0.393 J-0.668
N4940 X42.607 Y-58.332 Z-4.132 I-0.393 J0.668
N4945 X43.393 Y-59.668 Z-4.217 I0.393 J-0.668
N4950 X42.607 Y-58.332 Z-4.302 I-0.393 J0.668
N4955 X43.393 Y-59.668 Z-4.387 I0.393 J-0.668
N4960 X42.607 Y-58.332 Z-4.472 I-0.393 J0.668
N4965 X42.225 Y-59. Z-4.5 I0.393 J-0.668
N4970 X43.025 I0.4 J0.
N4975 X42.975 I-0.025 J0. F#100
N4980 X43.275 I0.15 J0.
N4985 X42.725 I-0.275 J0.
N4990 X43.525 I0.4 J0.
N4995 X42.475 I-0.525 J0.
N5000 X43.775 I0.65 J0.
N5005 X42.225 I-0.775 J0.
N5010 X43.775 I0.775 J0.
N5015 X43.747 Y-58.819 Z-4.471 I-0.595 J0. F#104
N5020 X43.675 Y-58.67 Z-4.386 I-0.567 J-0.181
N5025 X43.591 Y-58.569 Z-4.255 I-0.495 J-0.33
N5030 X43.526 Y-58.516 Z-4.089 I-0.411 J-0.431
N5035 X43.501 Y-58.499 Z-3.905 I-0.346 J-0.484
N5040 G0 Z3.095
N5045 X52.161 Y-58.242
N5050 G3 X52.134 Y-58.237 Z2.915 I-0.161 J-0.758 F#107
N5055 X52.054 Y-58.227 Z2.752 I-0.134 J-0.763
N5060 X51.927 Y-58.228 Z2.621 I-0.054 J-0.773
N5065 X51.771 Y-58.26 Z2.534 I0.073 J-0.772
N5070 X51.607 Y-58.332 Z2.5 I0.229 J-0.74
N5075 X52.393 Y-59.668 Z2.415 I0.393 J-0.668
N5080 X51.607 Y-58.332 Z2.33 I-0.393 J0.668
N5085 X52.393 Y-59.668 Z2.245 I0.393 J-0.668
N5090 X51.607 Y-58.332 Z2.16 I-0.393 J0.668
N5095 X52.393 Y-59.668 Z2.075 I0.393 J-0.668
N5100 X51.607 Y-58.332 Z1.99 I-0.393 J0.668
N5105 X52.393 Y-59.668 Z1.905 I0.393 J-0.668
N5110 X51.607 Y-58.332 Z1.82 I-0.393 J0.668
N5115 X52.393 Y-59.668 Z1.735 I0.393 J-0.668
N5120 X51.607 Y-58.332 Z1.65 I-0.393 J0.668
N5125 X52.393 Y-59.668 Z1.565 I0.393 J-0.668
N5130 X51.607 Y-58.332 Z1.48 I-0.393 J0.668
N5135 X52.393 Y-59.668 Z1.395 I0.393 J-0.668
N5140 X51.607 Y-58.332 Z1.31 I-0.393 J0.668
N5145 X52.393 Y-59.668 Z1.225 I0.393 J-0.668
N5150 X51.607 Y-58.332 Z1.14 I-0.393 J0.668
N5155 X52.393 Y-59.668 Z1.055 I0.393 J-0.668
N5160 X51.607 Y-58.332 Z0.97 I-0.393 J0.668
N5165 X52.393 Y-59.668 Z0.885 I0.393 J-0.668
N5170 X51.607 Y-58.332 Z0.8 I-0.393 J0.668
N5175 X52.393 Y-59.668 Z0.715 I0.393 J-0.668
N5180 X51.607 Y-58.332 Z0.629 I-0.393 J0.668
N5185 X52.393 Y-59.668 Z0.544 I0.393 J-0.668
N5190 X51.607 Y-58.332 Z0.459 I-0.393 J0.668
N5195 X52.393 Y-59.668 Z0.374 I0.393 J-0.668
N5200 X51.607 Y-58.332 Z0.289 I-0.393 J0.668
N5205 X52.393 Y-59.668 Z0.204 I0.393 J-0.668
N5210 X51.607 Y-58.332 Z0.119 I-0.393 J0.668
N5215 X52.393 Y-59.668 Z0.034 I0.393 J-0.668
N5220 X51.607 Y-58.332 Z-0.051 I-0.393 J0.668
N5225 X52.393 Y-59.668 Z-0.136 I0.393 J-0.668
N5230 X51.607 Y-58.332 Z-0.221 I-0.393 J0.668
N5235 X52.393 Y-59.668 Z-0.306 I0.393 J-0.668
N5240 X51.607 Y-58.332 Z-0.391 I-0.393 J0.668
N5245 X52.393 Y-59.668 Z-0.476 I0.393 J-0.668
N5250 X51.607 Y-58.332 Z-0.561 I-0.393 J0.668
N5255 X52.393 Y-59.668 Z-0.646 I0.393 J-0.668
N5260 X51.607 Y-58.332 Z-0.731 I-0.393 J0.668
N5265 X52.393 Y-59.668 Z-0.816 I0.393 J-0.668
N5270 X51.607 Y-58.332 Z-0.901 I-0.393 J0.668
N5275 X52.393 Y-59.668 Z-0.986 I0.393 J-0.668
N5280 X51.607 Y-58.332 Z-1.071 I-0.393 J0.668
N5285 X52.393 Y-59.668 Z-1.156 I0.393 J-0.668
N5290 X51.607 Y-58.332 Z-1.241 I-0.393 J0.668
N5295 X52.393 Y-59.668 Z-1.326 I0.393 J-0.668
N5300 X51.607 Y-58.332 Z-1.411 I-0.393 J0.668
N5305 X52.393 Y-59.668 Z-1.496 I0.393 J-0.668
N5310 X51.607 Y-58.332 Z-1.581 I-0.393 J0.668
N5315 X52.393 Y-59.668 Z-1.666 I0.393 J-0.668
N5320 X51.607 Y-58.332 Z-1.751 I-0.393 J0.668
N5325 X52.393 Y-59.668 Z-1.836 I0.393 J-0.668
N5330 X51.607 Y-58.332 Z-1.921 I-0.393 J0.668
N5335 X52.393 Y-59.668 Z-2.006 I0.393 J-0.668
N5340 X51.607 Y-58.332 Z-2.091 I-0.393 J0.668
N5345 X52.393 Y-59.668 Z-2.176 I0.393 J-0.668
N5350 X51.607 Y-58.332 Z-2.261 I-0.393 J0.668
N5355 X52.393 Y-59.668 Z-2.346 I0.393 J-0.668
N5360 X51.607 Y-58.332 Z-2.431 I-0.393 J0.668
N5365 X52.393 Y-59.668 Z-2.516 I0.393 J-0.668
N5370 X51.607 Y-58.332 Z-2.601 I-0.393 J0.668
N5375 X52.393 Y-59.668 Z-2.686 I0.393 J-0.668
N5380 X51.607 Y-58.332 Z-2.771 I-0.393 J0.668
N5385 X52.393 Y-59.668 Z-2.856 I0.393 J-0.668
N5390 X51.607 Y-58.332 Z-2.941 I-0.393 J0.668
N5395 X52.393 Y-59.668 Z-3.026 I0.393 J-0.668
N5400 X51.607 Y-58.332 Z-3.112 I-0.393 J0.668
N5405 X52.393 Y-59.668 Z-3.197 I0.393 J-0.668
N5410 X51.607 Y-58.332 Z-3.282 I-0.393 J0.668
N5415 X52.393 Y-59.668 Z-3.367 I0.393 J-0.668
N5420 X51.607 Y-58.332 Z-3.452 I-0.393 J0.668
N5425 X52.393 Y-59.668 Z-3.537 I0.393 J-0.668
N5430 X51.607 Y-58.332 Z-3.622 I-0.393 J0.668
N5435 X52.393 Y-59.668 Z-3.707 I0.393 J-0.668
N5440 X51.607 Y-58.332 Z-3.792 I-0.393 J0.668
N5445 X52.393 Y-59.668 Z-3.877 I0.393 J-0.668
N5450 X51.607 Y-58.332 Z-3.962 I-0.393 J0.668
N5455 X52.393 Y-59.668 Z-4.047 I0.393 J-0.668
N5460 X51.607 Y-58.332 Z-4.132 I-0.393 J0.668
N5465 X52.393 Y-59.668 Z-4.217 I0.393 J-0.668
N5470 X51.607 Y-58.332 Z-4.302 I-0.393 J0.668
N5475 X52.393 Y-59.668 Z-4.387 I0.393 J-0.668
N5480 X51.607 Y-58.332 Z-4.472 I-0.393 J0.668
N5485 X51.225 Y-59. Z-4.5 I0.393 J-0.668
N5490 X52.025 I0.4 J0.
N5495 X51.975 I-0.025 J0. F#100
N5500 X52.275 I0.15 J0.
N5505 X51.725 I-0.275 J0.
N5510 X52.525 I0.4 J0.
N5515 X51.475 I-0.525 J0.
N5520 X52.775 I0.65 J0.
N5525 X51.225 I-0.775 J0.
N5530 X52.775 I0.775 J0.
N5535 X52.747 Y-58.819 Z-4.471 I-0.595 J0. F#104
N5540 X52.675 Y-58.67 Z-4.386 I-0.567 J-0.181
N5545 X52.591 Y-58.569 Z-4.255 I-0.495 J-0.33
N5550 X52.526 Y-58.516 Z-4.089 I-0.411 J-0.431
N5555 X52.501 Y-58.499 Z-3.905 I-0.346 J-0.484
N5560 G0 Z3.095
N5565 X52.161 Y-66.242
N5570 G3 X52.134 Y-66.237 Z2.915 I-0.161 J-0.758 F#107
N5575 X52.054 Y-66.227 Z2.752 I-0.134 J-0.763
N5580 X51.927 Y-66.228 Z2.621 I-0.054 J-0.773
N5585 X51.771 Y-66.26 Z2.534 I0.073 J-0.772
N5590 X51.607 Y-66.332 Z2.5 I0.229 J-0.74
N5595 X52.393 Y-67.668 Z2.415 I0.393 J-0.668
N5600 X51.607 Y-66.332 Z2.33 I-0.393 J0.668
N5605 X52.393 Y-67.668 Z2.245 I0.393 J-0.668
N5610 X51.607 Y-66.332 Z2.16 I-0.393 J0.668
N5615 X52.393 Y-67.668 Z2.075 I0.393 J-0.668
N5620 X51.607 Y-66.332 Z1.99 I-0.393 J0.668
N5625 X52.393 Y-67.668 Z1.905 I0.393 J-0.668
N5630 X51.607 Y-66.332 Z1.82 I-0.393 J0.668
N5635 X52.393 Y-67.668 Z1.735 I0.393 J-0.668
N5640 X51.607 Y-66.332 Z1.65 I-0.393 J0.668
N5645 X52.393 Y-67.668 Z1.565 I0.393 J-0.668
N5650 X51.607 Y-66.332 Z1.48 I-0.393 J0.668
N5655 X52.393 Y-67.668 Z1.395 I0.393 J-0.668
N5660 X51.607 Y-66.332 Z1.31 I-0.393 J0.668
N5665 X52.393 Y-67.668 Z1.225 I0.393 J-0.668
N5670 X51.607 Y-66.332 Z1.14 I-0.393 J0.668
N5675 X52.393 Y-67.668 Z1.055 I0.393 J-0.668
N5680 X51.607 Y-66.332 Z0.97 I-0.393 J0.668
N5685 X52.393 Y-67.668 Z0.885 I0.393 J-0.668
N5690 X51.607 Y-66.332 Z0.8 I-0.393 J0.668
N5695 X52.393 Y-67.668 Z0.715 I0.393 J-0.668
N5700 X51.607 Y-66.332 Z0.629 I-0.393 J0.668
N5705 X52.393 Y-67.668 Z0.544 I0.393 J-0.668
N5710 X51.607 Y-66.332 Z0.459 I-0.393 J0.668
N5715 X52.393 Y-67.668 Z0.374 I0.393 J-0.668
N5720 X51.607 Y-66.332 Z0.289 I-0.393 J0.668
N5725 X52.393 Y-67.668 Z0.204 I0.393 J-0.668
N5730 X51.607 Y-66.332 Z0.119 I-0.393 J0.668
N5735 X52.393 Y-67.668 Z0.034 I0.393 J-0.668
N5740 X51.607 Y-66.332 Z-0.051 I-0.393 J0.668
N5745 X52.393 Y-67.668 Z-0.136 I0.393 J-0.668
N5750 X51.607 Y-66.332 Z-0.221 I-0.393 J0.668
N5755 X52.393 Y-67.668 Z-0.306 I0.393 J-0.668
N5760 X51.607 Y-66.332 Z-0.391 I-0.393 J0.668
N5765 X52.393 Y-67.668 Z-0.476 I0.393 J-0.668
N5770 X51.607 Y-66.332 Z-0.561 I-0.393 J0.668
N5775 X52.393 Y-67.668 Z-0.646 I0.393 J-0.668
N5780 X51.607 Y-66.332 Z-0.731 I-0.393 J0.668
N5785 X52.393 Y-67.668 Z-0.816 I0.393 J-0.668
N5790 X51.607 Y-66.332 Z-0.901 I-0.393 J0.668
N5795 X52.393 Y-67.668 Z-0.986 I0.393 J-0.668
N5800 X51.607 Y-66.332 Z-1.071 I-0.393 J0.668
N5805 X52.393 Y-67.668 Z-1.156 I0.393 J-0.668
N5810 X51.607 Y-66.332 Z-1.241 I-0.393 J0.668
N5815 X52.393 Y-67.668 Z-1.326 I0.393 J-0.668
N5820 X51.607 Y-66.332 Z-1.411 I-0.393 J0.668
N5825 X52.393 Y-67.668 Z-1.496 I0.393 J-0.668
N5830 X51.607 Y-66.332 Z-1.581 I-0.393 J0.668
N5835 X52.393 Y-67.668 Z-1.666 I0.393 J-0.668
N5840 X51.607 Y-66.332 Z-1.751 I-0.393 J0.668
N5845 X52.393 Y-67.668 Z-1.836 I0.393 J-0.668
N5850 X51.607 Y-66.332 Z-1.921 I-0.393 J0.668
N5855 X52.393 Y-67.668 Z-2.006 I0.393 J-0.668
N5860 X51.607 Y-66.332 Z-2.091 I-0.393 J0.668
N5865 X52.393 Y-67.668 Z-2.176 I0.393 J-0.668
N5870 X51.607 Y-66.332 Z-2.261 I-0.393 J0.668
N5875 X52.393 Y-67.668 Z-2.346 I0.393 J-0.668
N5880 X51.607 Y-66.332 Z-2.431 I-0.393 J0.668
N5885 X52.393 Y-67.668 Z-2.516 I0.393 J-0.668
N5890 X51.607 Y-66.332 Z-2.601 I-0.393 J0.668
N5895 X52.393 Y-67.668 Z-2.686 I0.393 J-0.668
N5900 X51.607 Y-66.332 Z-2.771 I-0.393 J0.668
N5905 X52.393 Y-67.668 Z-2.856 I0.393 J-0.668
N5910 X51.607 Y-66.332 Z-2.941 I-0.393 J0.668
N5915 X52.393 Y-67.668 Z-3.026 I0.393 J-0.668
N5920 X51.607 Y-66.332 Z-3.112 I-0.393 J0.668
N5925 X52.393 Y-67.668 Z-3.197 I0.393 J-0.668
N5930 X51.607 Y-66.332 Z-3.282 I-0.393 J0.668
N5935 X52.393 Y-67.668 Z-3.367 I0.393 J-0.668
N5940 X51.607 Y-66.332 Z-3.452 I-0.393 J0.668
N5945 X52.393 Y-67.668 Z-3.537 I0.393 J-0.668
N5950 X51.607 Y-66.332 Z-3.622 I-0.393 J0.668
N5955 X52.393 Y-67.668 Z-3.707 I0.393 J-0.668
N5960 X51.607 Y-66.332 Z-3.792 I-0.393 J0.668
N5965 X52.393 Y-67.668 Z-3.877 I0.393 J-0.668
N5970 X51.607 Y-66.332 Z-3.962 I-0.393 J0.668
N5975 X52.393 Y-67.668 Z-4.047 I0.393 J-0.668
N5980 X51.607 Y-66.332 Z-4.132 I-0.393 J0.668
N5985 X52.393 Y-67.668 Z-4.217 I0.393 J-0.668
N5990 X51.607 Y-66.332 Z-4.302 I-0.393 J0.668
N5995 X52.393 Y-67.668 Z-4.387 I0.393 J-0.668
N6000 X51.607 Y-66.332 Z-4.472 I-0.393 J0.668
N6005 X51.225 Y-67. Z-4.5 I0.393 J-0.668
N6010 X52.025 I0.4 J0.
N6015 X51.975 I-0.025 J0. F#100
N6020 X52.275 I0.15 J0.
N6025 X51.725 I-0.275 J0.
N6030 X52.525 I0.4 J0.
N6035 X51.475 I-0.525 J0.
N6040 X52.775 I0.65 J0.
N6045 X51.225 I-0.775 J0.
N6050 X52.775 I0.775 J0.
N6055 X52.747 Y-66.819 Z-4.471 I-0.595 J0. F#104
N6060 X52.675 Y-66.67 Z-4.386 I-0.567 J-0.181
N6065 X52.591 Y-66.569 Z-4.255 I-0.495 J-0.33
N6070 X52.526 Y-66.516 Z-4.089 I-0.411 J-0.431
N6075 X52.501 Y-66.499 Z-3.905 I-0.346 J-0.484
N6080 G0 Z3.095
N6085 X52.161 Y-82.242
N6090 G3 X52.134 Y-82.237 Z2.915 I-0.161 J-0.758 F#107
N6095 X52.054 Y-82.227 Z2.752 I-0.134 J-0.763
N6100 X51.927 Y-82.228 Z2.621 I-0.054 J-0.773
N6105 X51.771 Y-82.26 Z2.534 I0.073 J-0.772
N6110 X51.607 Y-82.332 Z2.5 I0.229 J-0.74
N6115 X52.393 Y-83.668 Z2.415 I0.393 J-0.668
N6120 X51.607 Y-82.332 Z2.33 I-0.393 J0.668
N6125 X52.393 Y-83.668 Z2.245 I0.393 J-0.668
N6130 X51.607 Y-82.332 Z2.16 I-0.393 J0.668
N6135 X52.393 Y-83.668 Z2.075 I0.393 J-0.668
N6140 X51.607 Y-82.332 Z1.99 I-0.393 J0.668
N6145 X52.393 Y-83.668 Z1.905 I0.393 J-0.668
N6150 X51.607 Y-82.332 Z1.82 I-0.393 J0.668
N6155 X52.393 Y-83.668 Z1.735 I0.393 J-0.668
N6160 X51.607 Y-82.332 Z1.65 I-0.393 J0.668
N6165 X52.393 Y-83.668 Z1.565 I0.393 J-0.668
N6170 X51.607 Y-82.332 Z1.48 I-0.393 J0.668
N6175 X52.393 Y-83.668 Z1.395 I0.393 J-0.668
N6180 X51.607 Y-82.332 Z1.31 I-0.393 J0.668
N6185 X52.393 Y-83.668 Z1.225 I0.393 J-0.668
N6190 X51.607 Y-82.332 Z1.14 I-0.393 J0.668
N6195 X52.393 Y-83.668 Z1.055 I0.393 J-0.668
N6200 X51.607 Y-82.332 Z0.97 I-0.393 J0.668
N6205 X52.393 Y-83.668 Z0.885 I0.393 J-0.668
N6210 X51.607 Y-82.332 Z0.8 I-0.393 J0.668
N6215 X52.393 Y-83.668 Z0.715 I0.393 J-0.668
N6220 X51.607 Y-82.332 Z0.629 I-0.393 J0.668
N6225 X52.393 Y-83.668 Z0.544 I0.393 J-0.668
N6230 X51.607 Y-82.332 Z0.459 I-0.393 J0.668
N6235 X52.393 Y-83.668 Z0.374 I0.393 J-0.668
N6240 X51.607 Y-82.332 Z0.289 I-0.393 J0.668
N6245 X52.393 Y-83.668 Z0.204 I0.393 J-0.668
N6250 X51.607 Y-82.332 Z0.119 I-0.393 J0.668
N6255 X52.393 Y-83.668 Z0.034 I0.393 J-0.668
N6260 X51.607 Y-82.332 Z-0.051 I-0.393 J0.668
N6265 X52.393 Y-83.668 Z-0.136 I0.393 J-0.668
N6270 X51.607 Y-82.332 Z-0.221 I-0.393 J0.668
N6275 X52.393 Y-83.668 Z-0.306 I0.393 J-0.668
N6280 X51.607 Y-82.332 Z-0.391 I-0.393 J0.668
N6285 X52.393 Y-83.668 Z-0.476 I0.393 J-0.668
N6290 X51.607 Y-82.332 Z-0.561 I-0.393 J0.668
N6295 X52.393 Y-83.668 Z-0.646 I0.393 J-0.668
N6300 X51.607 Y-82.332 Z-0.731 I-0.393 J0.668
N6305 X52.393 Y-83.668 Z-0.816 I0.393 J-0.668
N6310 X51.607 Y-82.332 Z-0.901 I-0.393 J0.668
N6315 X52.393 Y-83.668 Z-0.986 I0.393 J-0.668
N6320 X51.607 Y-82.332 Z-1.071 I-0.393 J0.668
N6325 X52.393 Y-83.668 Z-1.156 I0.393 J-0.668
N6330 X51.607 Y-82.332 Z-1.241 I-0.393 J0.668
N6335 X52.393 Y-83.668 Z-1.326 I0.393 J-0.668
N6340 X51.607 Y-82.332 Z-1.411 I-0.393 J0.668
N6345 X52.393 Y-83.668 Z-1.496 I0.393 J-0.668
N6350 X51.607 Y-82.332 Z-1.581 I-0.393 J0.668
N6355 X52.393 Y-83.668 Z-1.666 I0.393 J-0.668
N6360 X51.607 Y-82.332 Z-1.751 I-0.393 J0.668
N6365 X52.393 Y-83.668 Z-1.836 I0.393 J-0.668
N6370 X51.607 Y-82.332 Z-1.921 I-0.393 J0.668
N6375 X52.393 Y-83.668 Z-2.006 I0.393 J-0.668
N6380 X51.607 Y-82.332 Z-2.091 I-0.393 J0.668
N6385 X52.393 Y-83.668 Z-2.176 I0.393 J-0.668
N6390 X51.607 Y-82.332 Z-2.261 I-0.393 J0.668
N6395 X52.393 Y-83.668 Z-2.346 I0.393 J-0.668
N6400 X51.607 Y-82.332 Z-2.431 I-0.393 J0.668
N6405 X52.393 Y-83.668 Z-2.516 I0.393 J-0.668
N6410 X51.607 Y-82.332 Z-2.601 I-0.393 J0.668
N6415 X52.393 Y-83.668 Z-2.686 I0.393 J-0.668
N6420 X51.607 Y-82.332 Z-2.771 I-0.393 J0.668
N6425 X52.393 Y-83.668 Z-2.856 I0.393 J-0.668
N6430 X51.607 Y-82.332 Z-2.941 I-0.393 J0.668
N6435 X52.393 Y-83.668 Z-3.026 I0.393 J-0.668
N6440 X51.607 Y-82.332 Z-3.112 I-0.393 J0.668
N6445 X52.393 Y-83.668 Z-3.197 I0.393 J-0.668
N6450 X51.607 Y-82.332 Z-3.282 I-0.393 J0.668
N6455 X52.393 Y-83.668 Z-3.367 I0.393 J-0.668
N6460 X51.607 Y-82.332 Z-3.452 I-0.393 J0.668
N6465 X52.393 Y-83.668 Z-3.537 I0.393 J-0.668
N6470 X51.607 Y-82.332 Z-3.622 I-0.393 J0.668
N6475 X52.393 Y-83.668 Z-3.707 I0.393 J-0.668
N6480 X51.607 Y-82.332 Z-3.792 I-0.393 J0.668
N6485 X52.393 Y-83.668 Z-3.877 I0.393 J-0.668
N6490 X51.607 Y-82.332 Z-3.962 I-0.393 J0.668
N6495 X52.393 Y-83.668 Z-4.047 I0.393 J-0.668
N6500 X51.607 Y-82.332 Z-4.132 I-0.393 J0.668
N6505 X52.393 Y-83.668 Z-4.217 I0.393 J-0.668
N6510 X51.607 Y-82.332 Z-4.302 I-0.393 J0.668
N6515 X52.393 Y-83.668 Z-4.387 I0.393 J-0.668
N6520 X51.607 Y-82.332 Z-4.472 I-0.393 J0.668
N6525 X51.225 Y-83. Z-4.5 I0.393 J-0.668
N6530 X52.025 I0.4 J0.
N6535 X51.975 I-0.025 J0. F#100
N6540 X52.275 I0.15 J0.
N6545 X51.725 I-0.275 J0.
N6550 X52.525 I0.4 J0.
N6555 X51.475 I-0.525 J0.
N6560 X52.775 I0.65 J0.
N6565 X51.225 I-0.775 J0.
N6570 X52.775 I0.775 J0.
N6575 X52.747 Y-82.819 Z-4.471 I-0.595 J0. F#104
N6580 X52.675 Y-82.67 Z-4.386 I-0.567 J-0.181
N6585 X52.591 Y-82.569 Z-4.255 I-0.495 J-0.33
N6590 X52.526 Y-82.516 Z-4.089 I-0.411 J-0.431
N6595 X52.501 Y-82.499 Z-3.905 I-0.346 J-0.484
N6600 G0 Z3.095
N6605 X52.161 Y-90.242
N6610 G3 X52.134 Y-90.237 Z2.915 I-0.161 J-0.758 F#107
N6615 X52.054 Y-90.227 Z2.752 I-0.134 J-0.763
N6620 X51.927 Y-90.228 Z2.621 I-0.054 J-0.773
N6625 X51.771 Y-90.26 Z2.534 I0.073 J-0.772
N6630 X51.607 Y-90.332 Z2.5 I0.229 J-0.74
N6635 X52.393 Y-91.668 Z2.415 I0.393 J-0.668
N6640 X51.607 Y-90.332 Z2.33 I-0.393 J0.668
N6645 X52.393 Y-91.668 Z2.245 I0.393 J-0.668
N6650 X51.607 Y-90.332 Z2.16 I-0.393 J0.668
N6655 X52.393 Y-91.668 Z2.075 I0.393 J-0.668
N6660 X51.607 Y-90.332 Z1.99 I-0.393 J0.668
N6665 X52.393 Y-91.668 Z1.905 I0.393 J-0.668
N6670 X51.607 Y-90.332 Z1.82 I-0.393 J0.668
N6675 X52.393 Y-91.668 Z1.735 I0.393 J-0.668
N6680 X51.607 Y-90.332 Z1.65 I-0.393 J0.668
N6685 X52.393 Y-91.668 Z1.565 I0.393 J-0.668
N6690 X51.607 Y-90.332 Z1.48 I-0.393 J0.668
N6695 X52.393 Y-91.668 Z1.395 I0.393 J-0.668
N6700 X51.607 Y-90.332 Z1.31 I-0.393 J0.668
N6705 X52.393 Y-91.668 Z1.225 I0.393 J-0.668
N6710 X51.607 Y-90.332 Z1.14 I-0.393 J0.668
N6715 X52.393 Y-91.668 Z1.055 I0.393 J-0.668
N6720 X51.607 Y-90.332 Z0.97 I-0.393 J0.668
N6725 X52.393 Y-91.668 Z0.885 I0.393 J-0.668
N6730 X51.607 Y-90.332 Z0.8 I-0.393 J0.668
N6735 X52.393 Y-91.668 Z0.715 I0.393 J-0.668
N6740 X51.607 Y-90.332 Z0.629 I-0.393 J0.668
N6745 X52.393 Y-91.668 Z0.544 I0.393 J-0.668
N6750 X51.607 Y-90.332 Z0.459 I-0.393 J0.668
N6755 X52.393 Y-91.668 Z0.374 I0.393 J-0.668
N6760 X51.607 Y-90.332 Z0.289 I-0.393 J0.668
N6765 X52.393 Y-91.668 Z0.204 I0.393 J-0.668
N6770 X51.607 Y-90.332 Z0.119 I-0.393 J0.668
N6775 X52.393 Y-91.668 Z0.034 I0.393 J-0.668
N6780 X51.607 Y-90.332 Z-0.051 I-0.393 J0.668
N6785 X52.393 Y-91.668 Z-0.136 I0.393 J-0.668
N6790 X51.607 Y-90.332 Z-0.221 I-0.393 J0.668
N6795 X52.393 Y-91.668 Z-0.306 I0.393 J-0.668
N6800 X51.607 Y-90.332 Z-0.391 I-0.393 J0.668
N6805 X52.393 Y-91.668 Z-0.476 I0.393 J-0.668
N6810 X51.607 Y-90.332 Z-0.561 I-0.393 J0.668
N6815 X52.393 Y-91.668 Z-0.646 I0.393 J-0.668
N6820 X51.607 Y-90.332 Z-0.731 I-0.393 J0.668
N6825 X52.393 Y-91.668 Z-0.816 I0.393 J-0.668
N6830 X51.607 Y-90.332 Z-0.901 I-0.393 J0.668
N6835 X52.393 Y-91.668 Z-0.986 I0.393 J-0.668
N6840 X51.607 Y-90.332 Z-1.071 I-0.393 J0.668
N6845 X52.393 Y-91.668 Z-1.156 I0.393 J-0.668
N6850 X51.607 Y-90.332 Z-1.241 I-0.393 J0.668
N6855 X52.393 Y-91.668 Z-1.326 I0.393 J-0.668
N6860 X51.607 Y-90.332 Z-1.411 I-0.393 J0.668
N6865 X52.393 Y-91.668 Z-1.496 I0.393 J-0.668
N6870 X51.607 Y-90.332 Z-1.581 I-0.393 J0.668
N6875 X52.393 Y-91.668 Z-1.666 I0.393 J-0.668
N6880 X51.607 Y-90.332 Z-1.751 I-0.393 J0.668
N6885 X52.393 Y-91.668 Z-1.836 I0.393 J-0.668
N6890 X51.607 Y-90.332 Z-1.921 I-0.393 J0.668
N6895 X52.393 Y-91.668 Z-2.006 I0.393 J-0.668
N6900 X51.607 Y-90.332 Z-2.091 I-0.393 J0.668
N6905 X52.393 Y-91.668 Z-2.176 I0.393 J-0.668
N6910 X51.607 Y-90.332 Z-2.261 I-0.393 J0.668
N6915 X52.393 Y-91.668 Z-2.346 I0.393 J-0.668
N6920 X51.607 Y-90.332 Z-2.431 I-0.393 J0.668
N6925 X52.393 Y-91.668 Z-2.516 I0.393 J-0.668
N6930 X51.607 Y-90.332 Z-2.601 I-0.393 J0.668
N6935 X52.393 Y-91.668 Z-2.686 I0.393 J-0.668
N6940 X51.607 Y-90.332 Z-2.771 I-0.393 J0.668
N6945 X52.393 Y-91.668 Z-2.856 I0.393 J-0.668
N6950 X51.607 Y-90.332 Z-2.941 I-0.393 J0.668
N6955 X52.393 Y-91.668 Z-3.026 I0.393 J-0.668
N6960 X51.607 Y-90.332 Z-3.112 I-0.393 J0.668
N6965 X52.393 Y-91.668 Z-3.197 I0.393 J-0.668
N6970 X51.607 Y-90.332 Z-3.282 I-0.393 J0.668
N6975 X52.393 Y-91.668 Z-3.367 I0.393 J-0.668
N6980 X51.607 Y-90.332 Z-3.452 I-0.393 J0.668
N6985 X52.393 Y-91.668 Z-3.537 I0.393 J-0.668
N6990 X51.607 Y-90.332 Z-3.622 I-0.393 J0.668
N6995 X52.393 Y-91.668 Z-3.707 I0.393 J-0.668
N7000 X51.607 Y-90.332 Z-3.792 I-0.393 J0.668
N7005 X52.393 Y-91.668 Z-3.877 I0.393 J-0.668
N7010 X51.607 Y-90.332 Z-3.962 I-0.393 J0.668
N7015 X52.393 Y-91.668 Z-4.047 I0.393 J-0.668
N7020 X51.607 Y-90.332 Z-4.132 I-0.393 J0.668
N7025 X52.393 Y-91.668 Z-4.217 I0.393 J-0.668
N7030 X51.607 Y-90.332 Z-4.302 I-0.393 J0.668
N7035 X52.393 Y-91.668 Z-4.387 I0.393 J-0.668
N7040 X51.607 Y-90.332 Z-4.472 I-0.393 J0.668
N7045 X51.225 Y-91. Z-4.5 I0.393 J-0.668
N7050 X52.025 I0.4 J0.
N7055 X51.975 I-0.025 J0. F#100
N7060 X52.275 I0.15 J0.
N7065 X51.725 I-0.275 J0.
N7070 X52.525 I0.4 J0.
N7075 X51.475 I-0.525 J0.
N7080 X52.775 I0.65 J0.
N7085 X51.225 I-0.775 J0.
N7090 X52.775 I0.775 J0.
N7095 X52.747 Y-90.819 Z-4.471 I-0.595 J0. F#104
N7100 X52.675 Y-90.67 Z-4.386 I-0.567 J-0.181
N7105 X52.591 Y-90.569 Z-4.255 I-0.495 J-0.33
N7110 X52.526 Y-90.516 Z-4.089 I-0.411 J-0.431
N7115 X52.501 Y-90.499 Z-3.905 I-0.346 J-0.484
N7120 G0 Z3.095
N7125 X43.161 Y-90.242
N7130 G3 X43.134 Y-90.237 Z2.915 I-0.161 J-0.758 F#107
N7135 X43.054 Y-90.227 Z2.752 I-0.134 J-0.763
N7140 X42.927 Y-90.228 Z2.621 I-0.054 J-0.773
N7145 X42.771 Y-90.26 Z2.534 I0.073 J-0.772
N7150 X42.607 Y-90.332 Z2.5 I0.229 J-0.74
N7155 X43.393 Y-91.668 Z2.415 I0.393 J-0.668
N7160 X42.607 Y-90.332 Z2.33 I-0.393 J0.668
N7165 X43.393 Y-91.668 Z2.245 I0.393 J-0.668
N7170 X42.607 Y-90.332 Z2.16 I-0.393 J0.668
N7175 X43.393 Y-91.668 Z2.075 I0.393 J-0.668
N7180 X42.607 Y-90.332 Z1.99 I-0.393 J0.668
N7185 X43.393 Y-91.668 Z1.905 I0.393 J-0.668
N7190 X42.607 Y-90.332 Z1.82 I-0.393 J0.668
N7195 X43.393 Y-91.668 Z1.735 I0.393 J-0.668
N7200 X42.607 Y-90.332 Z1.65 I-0.393 J0.668
N7205 X43.393 Y-91.668 Z1.565 I0.393 J-0.668
N7210 X42.607 Y-90.332 Z1.48 I-0.393 J0.668
N7215 X43.393 Y-91.668 Z1.395 I0.393 J-0.668
N7220 X42.607 Y-90.332 Z1.31 I-0.393 J0.668
N7225 X43.393 Y-91.668 Z1.225 I0.393 J-0.668
N7230 X42.607 Y-90.332 Z1.14 I-0.393 J0.668
N7235 X43.393 Y-91.668 Z1.055 I0.393 J-0.668
N7240 X42.607 Y-90.332 Z0.97 I-0.393 J0.668
N7245 X43.393 Y-91.668 Z0.885 I0.393 J-0.668
N7250 X42.607 Y-90.332 Z0.8 I-0.393 J0.668
N7255 X43.393 Y-91.668 Z0.715 I0.393 J-0.668
N7260 X42.607 Y-90.332 Z0.629 I-0.393 J0.668
N7265 X43.393 Y-91.668 Z0.544 I0.393 J-0.668
N7270 X42.607 Y-90.332 Z0.459 I-0.393 J0.668
N7275 X43.393 Y-91.668 Z0.374 I0.393 J-0.668
N7280 X42.607 Y-90.332 Z0.289 I-0.393 J0.668
N7285 X43.393 Y-91.668 Z0.204 I0.393 J-0.668
N7290 X42.607 Y-90.332 Z0.119 I-0.393 J0.668
N7295 X43.393 Y-91.668 Z0.034 I0.393 J-0.668
N7300 X42.607 Y-90.332 Z-0.051 I-0.393 J0.668
N7305 X43.393 Y-91.668 Z-0.136 I0.393 J-0.668
N7310 X42.607 Y-90.332 Z-0.221 I-0.393 J0.668
N7315 X43.393 Y-91.668 Z-0.306 I0.393 J-0.668
N7320 X42.607 Y-90.332 Z-0.391 I-0.393 J0.668
N7325 X43.393 Y-91.668 Z-0.476 I0.393 J-0.668
N7330 X42.607 Y-90.332 Z-0.561 I-0.393 J0.668
N7335 X43.393 Y-91.668 Z-0.646 I0.393 J-0.668
N7340 X42.607 Y-90.332 Z-0.731 I-0.393 J0.668
N7345 X43.393 Y-91.668 Z-0.816 I0.393 J-0.668
N7350 X42.607 Y-90.332 Z-0.901 I-0.393 J0.668
N7355 X43.393 Y-91.668 Z-0.986 I0.393 J-0.668
N7360 X42.607 Y-90.332 Z-1.071 I-0.393 J0.668
N7365 X43.393 Y-91.668 Z-1.156 I0.393 J-0.668
N7370 X42.607 Y-90.332 Z-1.241 I-0.393 J0.668
N7375 X43.393 Y-91.668 Z-1.326 I0.393 J-0.668
N7380 X42.607 Y-90.332 Z-1.411 I-0.393 J0.668
N7385 X43.393 Y-91.668 Z-1.496 I0.393 J-0.668
N7390 X42.607 Y-90.332 Z-1.581 I-0.393 J0.668
N7395 X43.393 Y-91.668 Z-1.666 I0.393 J-0.668
N7400 X42.607 Y-90.332 Z-1.751 I-0.393 J0.668
N7405 X43.393 Y-91.668 Z-1.836 I0.393 J-0.668
N7410 X42.607 Y-90.332 Z-1.921 I-0.393 J0.668
N7415 X43.393 Y-91.668 Z-2.006 I0.393 J-0.668
N7420 X42.607 Y-90.332 Z-2.091 I-0.393 J0.668
N7425 X43.393 Y-91.668 Z-2.176 I0.393 J-0.668
N7430 X42.607 Y-90.332 Z-2.261 I-0.393 J0.668
N7435 X43.393 Y-91.668 Z-2.346 I0.393 J-0.668
N7440 X42.607 Y-90.332 Z-2.431 I-0.393 J0.668
N7445 X43.393 Y-91.668 Z-2.516 I0.393 J-0.668
N7450 X42.607 Y-90.332 Z-2.601 I-0.393 J0.668
N7455 X43.393 Y-91.668 Z-2.686 I0.393 J-0.668
N7460 X42.607 Y-90.332 Z-2.771 I-0.393 J0.668
N7465 X43.393 Y-91.668 Z-2.856 I0.393 J-0.668
N7470 X42.607 Y-90.332 Z-2.941 I-0.393 J0.668
N7475 X43.393 Y-91.668 Z-3.026 I0.393 J-0.668
N7480 X42.607 Y-90.332 Z-3.112 I-0.393 J0.668
N7485 X43.393 Y-91.668 Z-3.197 I0.393 J-0.668
N7490 X42.607 Y-90.332 Z-3.282 I-0.393 J0.668
N7495 X43.393 Y-91.668 Z-3.367 I0.393 J-0.668
N7500 X42.607 Y-90.332 Z-3.452 I-0.393 J0.668
N7505 X43.393 Y-91.668 Z-3.537 I0.393 J-0.668
N7510 X42.607 Y-90.332 Z-3.622 I-0.393 J0.668
N7515 X43.393 Y-91.668 Z-3.707 I0.393 J-0.668
N7520 X42.607 Y-90.332 Z-3.792 I-0.393 J0.668
N7525 X43.393 Y-91.668 Z-3.877 I0.393 J-0.668
N7530 X42.607 Y-90.332 Z-3.962 I-0.393 J0.668
N7535 X43.393 Y-91.668 Z-4.047 I0.393 J-0.668
N7540 X42.607 Y-90.332 Z-4.132 I-0.393 J0.668
N7545 X43.393 Y-91.668 Z-4.217 I0.393 J-0.668
N7550 X42.607 Y-90.332 Z-4.302 I-0.393 J0.668
N7555 X43.393 Y-91.668 Z-4.387 I0.393 J-0.668
N7560 X42.607 Y-90.332 Z-4.472 I-0.393 J0.668
N7565 X42.225 Y-91. Z-4.5 I0.393 J-0.668
N7570 X43.025 I0.4 J0.
N7575 X42.975 I-0.025 J0. F#100
N7580 X43.275 I0.15 J0.
N7585 X42.725 I-0.275 J0.
N7590 X43.525 I0.4 J0.
N7595 X42.475 I-0.525 J0.
N7600 X43.775 I0.65 J0.
N7605 X42.225 I-0.775 J0.
N7610 X43.775 I0.775 J0.
N7615 X43.747 Y-90.819 Z-4.471 I-0.595 J0. F#104
N7620 X43.675 Y-90.67 Z-4.386 I-0.567 J-0.181
N7625 X43.591 Y-90.569 Z-4.255 I-0.495 J-0.33
N7630 X43.526 Y-90.516 Z-4.089 I-0.411 J-0.431
N7635 X43.501 Y-90.499 Z-3.905 I-0.346 J-0.484
N7640 G0 Z3.095
N7645 X43.161 Y-82.242
N7650 G3 X43.134 Y-82.237 Z2.915 I-0.161 J-0.758 F#107
N7655 X43.054 Y-82.227 Z2.752 I-0.134 J-0.763
N7660 X42.927 Y-82.228 Z2.621 I-0.054 J-0.773
N7665 X42.771 Y-82.26 Z2.534 I0.073 J-0.772
N7670 X42.607 Y-82.332 Z2.5 I0.229 J-0.74
N7675 X43.393 Y-83.668 Z2.415 I0.393 J-0.668
N7680 X42.607 Y-82.332 Z2.33 I-0.393 J0.668
N7685 X43.393 Y-83.668 Z2.245 I0.393 J-0.668
N7690 X42.607 Y-82.332 Z2.16 I-0.393 J0.668
N7695 X43.393 Y-83.668 Z2.075 I0.393 J-0.668
N7700 X42.607 Y-82.332 Z1.99 I-0.393 J0.668
N7705 X43.393 Y-83.668 Z1.905 I0.393 J-0.668
N7710 X42.607 Y-82.332 Z1.82 I-0.393 J0.668
N7715 X43.393 Y-83.668 Z1.735 I0.393 J-0.668
N7720 X42.607 Y-82.332 Z1.65 I-0.393 J0.668
N7725 X43.393 Y-83.668 Z1.565 I0.393 J-0.668
N7730 X42.607 Y-82.332 Z1.48 I-0.393 J0.668
N7735 X43.393 Y-83.668 Z1.395 I0.393 J-0.668
N7740 X42.607 Y-82.332 Z1.31 I-0.393 J0.668
N7745 X43.393 Y-83.668 Z1.225 I0.393 J-0.668
N7750 X42.607 Y-82.332 Z1.14 I-0.393 J0.668
N7755 X43.393 Y-83.668 Z1.055 I0.393 J-0.668
N7760 X42.607 Y-82.332 Z0.97 I-0.393 J0.668
N7765 X43.393 Y-83.668 Z0.885 I0.393 J-0.668
N7770 X42.607 Y-82.332 Z0.8 I-0.393 J0.668
N7775 X43.393 Y-83.668 Z0.715 I0.393 J-0.668
N7780 X42.607 Y-82.332 Z0.629 I-0.393 J0.668
N7785 X43.393 Y-83.668 Z0.544 I0.393 J-0.668
N7790 X42.607 Y-82.332 Z0.459 I-0.393 J0.668
N7795 X43.393 Y-83.668 Z0.374 I0.393 J-0.668
N7800 X42.607 Y-82.332 Z0.289 I-0.393 J0.668
N7805 X43.393 Y-83.668 Z0.204 I0.393 J-0.668
N7810 X42.607 Y-82.332 Z0.119 I-0.393 J0.668
N7815 X43.393 Y-83.668 Z0.034 I0.393 J-0.668
N7820 X42.607 Y-82.332 Z-0.051 I-0.393 J0.668
N7825 X43.393 Y-83.668 Z-0.136 I0.393 J-0.668
N7830 X42.607 Y-82.332 Z-0.221 I-0.393 J0.668
N7835 X43.393 Y-83.668 Z-0.306 I0.393 J-0.668
N7840 X42.607 Y-82.332 Z-0.391 I-0.393 J0.668
N7845 X43.393 Y-83.668 Z-0.476 I0.393 J-0.668
N7850 X42.607 Y-82.332 Z-0.561 I-0.393 J0.668
N7855 X43.393 Y-83.668 Z-0.646 I0.393 J-0.668
N7860 X42.607 Y-82.332 Z-0.731 I-0.393 J0.668
N7865 X43.393 Y-83.668 Z-0.816 I0.393 J-0.668
N7870 X42.607 Y-82.332 Z-0.901 I-0.393 J0.668
N7875 X43.393 Y-83.668 Z-0.986 I0.393 J-0.668
N7880 X42.607 Y-82.332 Z-1.071 I-0.393 J0.668
N7885 X43.393 Y-83.668 Z-1.156 I0.393 J-0.668
N7890 X42.607 Y-82.332 Z-1.241 I-0.393 J0.668
N7895 X43.393 Y-83.668 Z-1.326 I0.393 J-0.668
N7900 X42.607 Y-82.332 Z-1.411 I-0.393 J0.668
N7905 X43.393 Y-83.668 Z-1.496 I0.393 J-0.668
N7910 X42.607 Y-82.332 Z-1.581 I-0.393 J0.668
N7915 X43.393 Y-83.668 Z-1.666 I0.393 J-0.668
N7920 X42.607 Y-82.332 Z-1.751 I-0.393 J0.668
N7925 X43.393 Y-83.668 Z-1.836 I0.393 J-0.668
N7930 X42.607 Y-82.332 Z-1.921 I-0.393 J0.668
N7935 X43.393 Y-83.668 Z-2.006 I0.393 J-0.668
N7940 X42.607 Y-82.332 Z-2.091 I-0.393 J0.668
N7945 X43.393 Y-83.668 Z-2.176 I0.393 J-0.668
N7950 X42.607 Y-82.332 Z-2.261 I-0.393 J0.668
N7955 X43.393 Y-83.668 Z-2.346 I0.393 J-0.668
N7960 X42.607 Y-82.332 Z-2.431 I-0.393 J0.668
N7965 X43.393 Y-83.668 Z-2.516 I0.393 J-0.668
N7970 X42.607 Y-82.332 Z-2.601 I-0.393 J0.668
N7975 X43.393 Y-83.668 Z-2.686 I0.393 J-0.668
N7980 X42.607 Y-82.332 Z-2.771 I-0.393 J0.668
N7985 X43.393 Y-83.668 Z-2.856 I0.393 J-0.668
N7990 X42.607 Y-82.332 Z-2.941 I-0.393 J0.668
N7995 X43.393 Y-83.668 Z-3.026 I0.393 J-0.668
N8000 X42.607 Y-82.332 Z-3.112 I-0.393 J0.668
N8005 X43.393 Y-83.668 Z-3.197 I0.393 J-0.668
N8010 X42.607 Y-82.332 Z-3.282 I-0.393 J0.668
N8015 X43.393 Y-83.668 Z-3.367 I0.393 J-0.668
N8020 X42.607 Y-82.332 Z-3.452 I-0.393 J0.668
N8025 X43.393 Y-83.668 Z-3.537 I0.393 J-0.668
N8030 X42.607 Y-82.332 Z-3.622 I-0.393 J0.668
N8035 X43.393 Y-83.668 Z-3.707 I0.393 J-0.668
N8040 X42.607 Y-82.332 Z-3.792 I-0.393 J0.668
N8045 X43.393 Y-83.668 Z-3.877 I0.393 J-0.668
N8050 X42.607 Y-82.332 Z-3.962 I-0.393 J0.668
N8055 X43.393 Y-83.668 Z-4.047 I0.393 J-0.668
N8060 X42.607 Y-82.332 Z-4.132 I-0.393 J0.668
N8065 X43.393 Y-83.668 Z-4.217 I0.393 J-0.668
N8070 X42.607 Y-82.332 Z-4.302 I-0.393 J0.668
N8075 X43.393 Y-83.668 Z-4.387 I0.393 J-0.668
N8080 X42.607 Y-82.332 Z-4.472 I-0.393 J0.668
N8085 X42.225 Y-83. Z-4.5 I0.393 J-0.668
N8090 X43.025 I0.4 J0.
N8095 X42.975 I-0.025 J0. F#100
N8100 X43.275 I0.15 J0.
N8105 X42.725 I-0.275 J0.
N8110 X43.525 I0.4 J0.
N8115 X42.475 I-0.525 J0.
N8120 X43.775 I0.65 J0.
N8125 X42.225 I-0.775 J0.
N8130 X43.775 I0.775 J0.
N8135 X43.747 Y-82.819 Z-4.471 I-0.595 J0. F#104
N8140 X43.675 Y-82.67 Z-4.386 I-0.567 J-0.181
N8145 X43.591 Y-82.569 Z-4.255 I-0.495 J-0.33
N8150 X43.526 Y-82.516 Z-4.089 I-0.411 J-0.431
N8155 X43.501 Y-82.499 Z-3.905 I-0.346 J-0.484
N8160 G0 Z3.095
N8165 X34.161 Y-82.242
N8170 G3 X34.134 Y-82.237 Z2.915 I-0.161 J-0.758 F#107
N8175 X34.054 Y-82.227 Z2.752 I-0.134 J-0.763
N8180 X33.927 Y-82.228 Z2.621 I-0.054 J-0.773
N8185 X33.771 Y-82.26 Z2.534 I0.073 J-0.772
N8190 X33.607 Y-82.332 Z2.5 I0.229 J-0.74
N8195 X34.393 Y-83.668 Z2.415 I0.393 J-0.668
N8200 X33.607 Y-82.332 Z2.33 I-0.393 J0.668
N8205 X34.393 Y-83.668 Z2.245 I0.393 J-0.668
N8210 X33.607 Y-82.332 Z2.16 I-0.393 J0.668
N8215 X34.393 Y-83.668 Z2.075 I0.393 J-0.668
N8220 X33.607 Y-82.332 Z1.99 I-0.393 J0.668
N8225 X34.393 Y-83.668 Z1.905 I0.393 J-0.668
N8230 X33.607 Y-82.332 Z1.82 I-0.393 J0.668
N8235 X34.393 Y-83.668 Z1.735 I0.393 J-0.668
N8240 X33.607 Y-82.332 Z1.65 I-0.393 J0.668
N8245 X34.393 Y-83.668 Z1.565 I0.393 J-0.668
N8250 X33.607 Y-82.332 Z1.48 I-0.393 J0.668
N8255 X34.393 Y-83.668 Z1.395 I0.393 J-0.668
N8260 X33.607 Y-82.332 Z1.31 I-0.393 J0.668
N8265 X34.393 Y-83.668 Z1.225 I0.393 J-0.668
N8270 X33.607 Y-82.332 Z1.14 I-0.393 J0.668
N8275 X34.393 Y-83.668 Z1.055 I0.393 J-0.668
N8280 X33.607 Y-82.332 Z0.97 I-0.393 J0.668
N8285 X34.393 Y-83.668 Z0.885 I0.393 J-0.668
N8290 X33.607 Y-82.332 Z0.8 I-0.393 J0.668
N8295 X34.393 Y-83.668 Z0.715 I0.393 J-0.668
N8300 X33.607 Y-82.332 Z0.629 I-0.393 J0.668
N8305 X34.393 Y-83.668 Z0.544 I0.393 J-0.668
N8310 X33.607 Y-82.332 Z0.459 I-0.393 J0.668
N8315 X34.393 Y-83.668 Z0.374 I0.393 J-0.668
N8320 X33.607 Y-82.332 Z0.289 I-0.393 J0.668
N8325 X34.393 Y-83.668 Z0.204 I0.393 J-0.668
N8330 X33.607 Y-82.332 Z0.119 I-0.393 J0.668
N8335 X34.393 Y-83.668 Z0.034 I0.393 J-0.668
N8340 X33.607 Y-82.332 Z-0.051 I-0.393 J0.668
N8345 X34.393 Y-83.668 Z-0.136 I0.393 J-0.668
N8350 X33.607 Y-82.332 Z-0.221 I-0.393 J0.668
N8355 X34.393 Y-83.668 Z-0.306 I0.393 J-0.668
N8360 X33.607 Y-82.332 Z-0.391 I-0.393 J0.668
N8365 X34.393 Y-83.668 Z-0.476 I0.393 J-0.668
N8370 X33.607 Y-82.332 Z-0.561 I-0.393 J0.668
N8375 X34.393 Y-83.668 Z-0.646 I0.393 J-0.668
N8380 X33.607 Y-82.332 Z-0.731 I-0.393 J0.668
N8385 X34.393 Y-83.668 Z-0.816 I0.393 J-0.668
N8390 X33.607 Y-82.332 Z-0.901 I-0.393 J0.668
N8395 X34.393 Y-83.668 Z-0.986 I0.393 J-0.668
N8400 X33.607 Y-82.332 Z-1.071 I-0.393 J0.668
N8405 X34.393 Y-83.668 Z-1.156 I0.393 J-0.668
N8410 X33.607 Y-82.332 Z-1.241 I-0.393 J0.668
N8415 X34.393 Y-83.668 Z-1.326 I0.393 J-0.668
N8420 X33.607 Y-82.332 Z-1.411 I-0.393 J0.668
N8425 X34.393 Y-83.668 Z-1.496 I0.393 J-0.668
N8430 X33.607 Y-82.332 Z-1.581 I-0.393 J0.668
N8435 X34.393 Y-83.668 Z-1.666 I0.393 J-0.668
N8440 X33.607 Y-82.332 Z-1.751 I-0.393 J0.668
N8445 X34.393 Y-83.668 Z-1.836 I0.393 J-0.668
N8450 X33.607 Y-82.332 Z-1.921 I-0.393 J0.668
N8455 X34.393 Y-83.668 Z-2.006 I0.393 J-0.668
N8460 X33.607 Y-82.332 Z-2.091 I-0.393 J0.668
N8465 X34.393 Y-83.668 Z-2.176 I0.393 J-0.668
N8470 X33.607 Y-82.332 Z-2.261 I-0.393 J0.668
N8475 X34.393 Y-83.668 Z-2.346 I0.393 J-0.668
N8480 X33.607 Y-82.332 Z-2.431 I-0.393 J0.668
N8485 X34.393 Y-83.668 Z-2.516 I0.393 J-0.668
N8490 X33.607 Y-82.332 Z-2.601 I-0.393 J0.668
N8495 X34.393 Y-83.668 Z-2.686 I0.393 J-0.668
N8500 X33.607 Y-82.332 Z-2.771 I-0.393 J0.668
N8505 X34.393 Y-83.668 Z-2.856 I0.393 J-0.668
N8510 X33.607 Y-82.332 Z-2.941 I-0.393 J0.668
N8515 X34.393 Y-83.668 Z-3.026 I0.393 J-0.668
N8520 X33.607 Y-82.332 Z-3.112 I-0.393 J0.668
N8525 X34.393 Y-83.668 Z-3.197 I0.393 J-0.668
N8530 X33.607 Y-82.332 Z-3.282 I-0.393 J0.668
N8535 X34.393 Y-83.668 Z-3.367 I0.393 J-0.668
N8540 X33.607 Y-82.332 Z-3.452 I-0.393 J0.668
N8545 X34.393 Y-83.668 Z-3.537 I0.393 J-0.668
N8550 X33.607 Y-82.332 Z-3.622 I-0.393 J0.668
N8555 X34.393 Y-83.668 Z-3.707 I0.393 J-0.668
N8560 X33.607 Y-82.332 Z-3.792 I-0.393 J0.668
N8565 X34.393 Y-83.668 Z-3.877 I0.393 J-0.668
N8570 X33.607 Y-82.332 Z-3.962 I-0.393 J0.668
N8575 X34.393 Y-83.668 Z-4.047 I0.393 J-0.668
N8580 X33.607 Y-82.332 Z-4.132 I-0.393 J0.668
N8585 X34.393 Y-83.668 Z-4.217 I0.393 J-0.668
N8590 X33.607 Y-82.332 Z-4.302 I-0.393 J0.668
N8595 X34.393 Y-83.668 Z-4.387 I0.393 J-0.668
N8600 X33.607 Y-82.332 Z-4.472 I-0.393 J0.668
N8605 X33.225 Y-83. Z-4.5 I0.393 J-0.668
N8610 X34.025 I0.4 J0.
N8615 X33.975 I-0.025 J0. F#100
N8620 X34.275 I0.15 J0.
N8625 X33.725 I-0.275 J0.
N8630 X34.525 I0.4 J0.
N8635 X33.475 I-0.525 J0.
N8640 X34.775 I0.65 J0.
N8645 X33.225 I-0.775 J0.
N8650 X34.775 I0.775 J0.
N8655 X34.747 Y-82.819 Z-4.471 I-0.595 J0. F#104
N8660 X34.675 Y-82.67 Z-4.386 I-0.567 J-0.181
N8665 X34.591 Y-82.569 Z-4.255 I-0.495 J-0.33
N8670 X34.526 Y-82.516 Z-4.089 I-0.411 J-0.431
N8675 X34.501 Y-82.499 Z-3.905 I-0.346 J-0.484
N8680 G0 Z3.095
N8685 X34.161 Y-90.242
N8690 G3 X34.134 Y-90.237 Z2.915 I-0.161 J-0.758 F#107
N8695 X34.054 Y-90.227 Z2.752 I-0.134 J-0.763
N8700 X33.927 Y-90.228 Z2.621 I-0.054 J-0.773
N8705 X33.771 Y-90.26 Z2.534 I0.073 J-0.772
N8710 X33.607 Y-90.332 Z2.5 I0.229 J-0.74
N8715 X34.393 Y-91.668 Z2.415 I0.393 J-0.668
N8720 X33.607 Y-90.332 Z2.33 I-0.393 J0.668
N8725 X34.393 Y-91.668 Z2.245 I0.393 J-0.668
N8730 X33.607 Y-90.332 Z2.16 I-0.393 J0.668
N8735 X34.393 Y-91.668 Z2.075 I0.393 J-0.668
N8740 X33.607 Y-90.332 Z1.99 I-0.393 J0.668
N8745 X34.393 Y-91.668 Z1.905 I0.393 J-0.668
N8750 X33.607 Y-90.332 Z1.82 I-0.393 J0.668
N8755 X34.393 Y-91.668 Z1.735 I0.393 J-0.668
N8760 X33.607 Y-90.332 Z1.65 I-0.393 J0.668
N8765 X34.393 Y-91.668 Z1.565 I0.393 J-0.668
N8770 X33.607 Y-90.332 Z1.48 I-0.393 J0.668
N8775 X34.393 Y-91.668 Z1.395 I0.393 J-0.668
N8780 X33.607 Y-90.332 Z1.31 I-0.393 J0.668
N8785 X34.393 Y-91.668 Z1.225 I0.393 J-0.668
N8790 X33.607 Y-90.332 Z1.14 I-0.393 J0.668
N8795 X34.393 Y-91.668 Z1.055 I0.393 J-0.668
N8800 X33.607 Y-90.332 Z0.97 I-0.393 J0.668
N8805 X34.393 Y-91.668 Z0.885 I0.393 J-0.668
N8810 X33.607 Y-90.332 Z0.8 I-0.393 J0.668
N8815 X34.393 Y-91.668 Z0.715 I0.393 J-0.668
N8820 X33.607 Y-90.332 Z0.629 I-0.393 J0.668
N8825 X34.393 Y-91.668 Z0.544 I0.393 J-0.668
N8830 X33.607 Y-90.332 Z0.459 I-0.393 J0.668
N8835 X34.393 Y-91.668 Z0.374 I0.393 J-0.668
N8840 X33.607 Y-90.332 Z0.289 I-0.393 J0.668
N8845 X34.393 Y-91.668 Z0.204 I0.393 J-0.668
N8850 X33.607 Y-90.332 Z0.119 I-0.393 J0.668
N8855 X34.393 Y-91.668 Z0.034 I0.393 J-0.668
N8860 X33.607 Y-90.332 Z-0.051 I-0.393 J0.668
N8865 X34.393 Y-91.668 Z-0.136 I0.393 J-0.668
N8870 X33.607 Y-90.332 Z-0.221 I-0.393 J0.668
N8875 X34.393 Y-91.668 Z-0.306 I0.393 J-0.668
N8880 X33.607 Y-90.332 Z-0.391 I-0.393 J0.668
N8885 X34.393 Y-91.668 Z-0.476 I0.393 J-0.668
N8890 X33.607 Y-90.332 Z-0.561 I-0.393 J0.668
N8895 X34.393 Y-91.668 Z-0.646 I0.393 J-0.668
N8900 X33.607 Y-90.332 Z-0.731 I-0.393 J0.668
N8905 X34.393 Y-91.668 Z-0.816 I0.393 J-0.668
N8910 X33.607 Y-90.332 Z-0.901 I-0.393 J0.668
N8915 X34.393 Y-91.668 Z-0.986 I0.393 J-0.668
N8920 X33.607 Y-90.332 Z-1.071 I-0.393 J0.668
N8925 X34.393 Y-91.668 Z-1.156 I0.393 J-0.668
N8930 X33.607 Y-90.332 Z-1.241 I-0.393 J0.668
N8935 X34.393 Y-91.668 Z-1.326 I0.393 J-0.668
N8940 X33.607 Y-90.332 Z-1.411 I-0.393 J0.668
N8945 X34.393 Y-91.668 Z-1.496 I0.393 J-0.668
N8950 X33.607 Y-90.332 Z-1.581 I-0.393 J0.668
N8955 X34.393 Y-91.668 Z-1.666 I0.393 J-0.668
N8960 X33.607 Y-90.332 Z-1.751 I-0.393 J0.668
N8965 X34.393 Y-91.668 Z-1.836 I0.393 J-0.668
N8970 X33.607 Y-90.332 Z-1.921 I-0.393 J0.668
N8975 X34.393 Y-91.668 Z-2.006 I0.393 J-0.668
N8980 X33.607 Y-90.332 Z-2.091 I-0.393 J0.668
N8985 X34.393 Y-91.668 Z-2.176 I0.393 J-0.668
N8990 X33.607 Y-90.332 Z-2.261 I-0.393 J0.668
N8995 X34.393 Y-91.668 Z-2.346 I0.393 J-0.668
N9000 X33.607 Y-90.332 Z-2.431 I-0.393 J0.668
N9005 X34.393 Y-91.668 Z-2.516 I0.393 J-0.668
N9010 X33.607 Y-90.332 Z-2.601 I-0.393 J0.668
N9015 X34.393 Y-91.668 Z-2.686 I0.393 J-0.668
N9020 X33.607 Y-90.332 Z-2.771 I-0.393 J0.668
N9025 X34.393 Y-91.668 Z-2.856 I0.393 J-0.668
N9030 X33.607 Y-90.332 Z-2.941 I-0.393 J0.668
N9035 X34.393 Y-91.668 Z-3.026 I0.393 J-0.668
N9040 X33.607 Y-90.332 Z-3.112 I-0.393 J0.668
N9045 X34.393 Y-91.668 Z-3.197 I0.393 J-0.668
N9050 X33.607 Y-90.332 Z-3.282 I-0.393 J0.668
N9055 X34.393 Y-91.668 Z-3.367 I0.393 J-0.668
N9060 X33.607 Y-90.332 Z-3.452 I-0.393 J0.668
N9065 X34.393 Y-91.668 Z-3.537 I0.393 J-0.668
N9070 X33.607 Y-90.332 Z-3.622 I-0.393 J0.668
N9075 X34.393 Y-91.668 Z-3.707 I0.393 J-0.668
N9080 X33.607 Y-90.332 Z-3.792 I-0.393 J0.668
N9085 X34.393 Y-91.668 Z-3.877 I0.393 J-0.668
N9090 X33.607 Y-90.332 Z-3.962 I-0.393 J0.668
N9095 X34.393 Y-91.668 Z-4.047 I0.393 J-0.668
N9100 X33.607 Y-90.332 Z-4.132 I-0.393 J0.668
N9105 X34.393 Y-91.668 Z-4.217 I0.393 J-0.668
N9110 X33.607 Y-90.332 Z-4.302 I-0.393 J0.668
N9115 X34.393 Y-91.668 Z-4.387 I0.393 J-0.668
N9120 X33.607 Y-90.332 Z-4.472 I-0.393 J0.668
N9125 X33.225 Y-91. Z-4.5 I0.393 J-0.668
N9130 X34.025 I0.4 J0.
N9135 X33.975 I-0.025 J0. F#100
N9140 X34.275 I0.15 J0.
N9145 X33.725 I-0.275 J0.
N9150 X34.525 I0.4 J0.
N9155 X33.475 I-0.525 J0.
N9160 X34.775 I0.65 J0.
N9165 X33.225 I-0.775 J0.
N9170 X34.775 I0.775 J0.
N9175 X34.747 Y-90.819 Z-4.471 I-0.595 J0. F#104
N9180 X34.675 Y-90.67 Z-4.386 I-0.567 J-0.181
N9185 X34.591 Y-90.569 Z-4.255 I-0.495 J-0.33
N9190 X34.526 Y-90.516 Z-4.089 I-0.411 J-0.431
N9195 X34.501 Y-90.499 Z-3.905 I-0.346 J-0.484
N9200 G0 Z3.095
N9205 X25.161 Y-90.242
N9210 G3 X25.134 Y-90.237 Z2.915 I-0.161 J-0.758 F#107
N9215 X25.054 Y-90.227 Z2.752 I-0.134 J-0.763
N9220 X24.927 Y-90.228 Z2.621 I-0.054 J-0.773
N9225 X24.771 Y-90.26 Z2.534 I0.073 J-0.772
N9230 X24.607 Y-90.332 Z2.5 I0.229 J-0.74
N9235 X25.393 Y-91.668 Z2.415 I0.393 J-0.668
N9240 X24.607 Y-90.332 Z2.33 I-0.393 J0.668
N9245 X25.393 Y-91.668 Z2.245 I0.393 J-0.668
N9250 X24.607 Y-90.332 Z2.16 I-0.393 J0.668
N9255 X25.393 Y-91.668 Z2.075 I0.393 J-0.668
N9260 X24.607 Y-90.332 Z1.99 I-0.393 J0.668
N9265 X25.393 Y-91.668 Z1.905 I0.393 J-0.668
N9270 X24.607 Y-90.332 Z1.82 I-0.393 J0.668
N9275 X25.393 Y-91.668 Z1.735 I0.393 J-0.668
N9280 X24.607 Y-90.332 Z1.65 I-0.393 J0.668
N9285 X25.393 Y-91.668 Z1.565 I0.393 J-0.668
N9290 X24.607 Y-90.332 Z1.48 I-0.393 J0.668
N9295 X25.393 Y-91.668 Z1.395 I0.393 J-0.668
N9300 X24.607 Y-90.332 Z1.31 I-0.393 J0.668
N9305 X25.393 Y-91.668 Z1.225 I0.393 J-0.668
N9310 X24.607 Y-90.332 Z1.14 I-0.393 J0.668
N9315 X25.393 Y-91.668 Z1.055 I0.393 J-0.668
N9320 X24.607 Y-90.332 Z0.97 I-0.393 J0.668
N9325 X25.393 Y-91.668 Z0.885 I0.393 J-0.668
N9330 X24.607 Y-90.332 Z0.8 I-0.393 J0.668
N9335 X25.393 Y-91.668 Z0.715 I0.393 J-0.668
N9340 X24.607 Y-90.332 Z0.629 I-0.393 J0.668
N9345 X25.393 Y-91.668 Z0.544 I0.393 J-0.668
N9350 X24.607 Y-90.332 Z0.459 I-0.393 J0.668
N9355 X25.393 Y-91.668 Z0.374 I0.393 J-0.668
N9360 X24.607 Y-90.332 Z0.289 I-0.393 J0.668
N9365 X25.393 Y-91.668 Z0.204 I0.393 J-0.668
N9370 X24.607 Y-90.332 Z0.119 I-0.393 J0.668
N9375 X25.393 Y-91.668 Z0.034 I0.393 J-0.668
N9380 X24.607 Y-90.332 Z-0.051 I-0.393 J0.668
N9385 X25.393 Y-91.668 Z-0.136 I0.393 J-0.668
N9390 X24.607 Y-90.332 Z-0.221 I-0.393 J0.668
N9395 X25.393 Y-91.668 Z-0.306 I0.393 J-0.668
N9400 X24.607 Y-90.332 Z-0.391 I-0.393 J0.668
N9405 X25.393 Y-91.668 Z-0.476 I0.393 J-0.668
N9410 X24.607 Y-90.332 Z-0.561 I-0.393 J0.668
N9415 X25.393 Y-91.668 Z-0.646 I0.393 J-0.668
N9420 X24.607 Y-90.332 Z-0.731 I-0.393 J0.668
N9425 X25.393 Y-91.668 Z-0.816 I0.393 J-0.668
N9430 X24.607 Y-90.332 Z-0.901 I-0.393 J0.668
N9435 X25.393 Y-91.668 Z-0.986 I0.393 J-0.668
N9440 X24.607 Y-90.332 Z-1.071 I-0.393 J0.668
N9445 X25.393 Y-91.668 Z-1.156 I0.393 J-0.668
N9450 X24.607 Y-90.332 Z-1.241 I-0.393 J0.668
N9455 X25.393 Y-91.668 Z-1.326 I0.393 J-0.668
N9460 X24.607 Y-90.332 Z-1.411 I-0.393 J0.668
N9465 X25.393 Y-91.668 Z-1.496 I0.393 J-0.668
N9470 X24.607 Y-90.332 Z-1.581 I-0.393 J0.668
N9475 X25.393 Y-91.668 Z-1.666 I0.393 J-0.668
N9480 X24.607 Y-90.332 Z-1.751 I-0.393 J0.668
N9485 X25.393 Y-91.668 Z-1.836 I0.393 J-0.668
N9490 X24.607 Y-90.332 Z-1.921 I-0.393 J0.668
N9495 X25.393 Y-91.668 Z-2.006 I0.393 J-0.668
N9500 X24.607 Y-90.332 Z-2.091 I-0.393 J0.668
N9505 X25.393 Y-91.668 Z-2.176 I0.393 J-0.668
N9510 X24.607 Y-90.332 Z-2.261 I-0.393 J0.668
N9515 X25.393 Y-91.668 Z-2.346 I0.393 J-0.668
N9520 X24.607 Y-90.332 Z-2.431 I-0.393 J0.668
N9525 X25.393 Y-91.668 Z-2.516 I0.393 J-0.668
N9530 X24.607 Y-90.332 Z-2.601 I-0.393 J0.668
N9535 X25.393 Y-91.668 Z-2.686 I0.393 J-0.668
N9540 X24.607 Y-90.332 Z-2.771 I-0.393 J0.668
N9545 X25.393 Y-91.668 Z-2.856 I0.393 J-0.668
N9550 X24.607 Y-90.332 Z-2.941 I-0.393 J0.668
N9555 X25.393 Y-91.668 Z-3.026 I0.393 J-0.668
N9560 X24.607 Y-90.332 Z-3.112 I-0.393 J0.668
N9565 X25.393 Y-91.668 Z-3.197 I0.393 J-0.668
N9570 X24.607 Y-90.332 Z-3.282 I-0.393 J0.668
N9575 X25.393 Y-91.668 Z-3.367 I0.393 J-0.668
N9580 X24.607 Y-90.332 Z-3.452 I-0.393 J0.668
N9585 X25.393 Y-91.668 Z-3.537 I0.393 J-0.668
N9590 X24.607 Y-90.332 Z-3.622 I-0.393 J0.668
N9595 X25.393 Y-91.668 Z-3.707 I0.393 J-0.668
N9600 X24.607 Y-90.332 Z-3.792 I-0.393 J0.668
N9605 X25.393 Y-91.668 Z-3.877 I0.393 J-0.668
N9610 X24.607 Y-90.332 Z-3.962 I-0.393 J0.668
N9615 X25.393 Y-91.668 Z-4.047 I0.393 J-0.668
N9620 X24.607 Y-90.332 Z-4.132 I-0.393 J0.668
N9625 X25.393 Y-91.668 Z-4.217 I0.393 J-0.668
N9630 X24.607 Y-90.332 Z-4.302 I-0.393 J0.668
N9635 X25.393 Y-91.668 Z-4.387 I0.393 J-0.668
N9640 X24.607 Y-90.332 Z-4.472 I-0.393 J0.668
N9645 X24.225 Y-91. Z-4.5 I0.393 J-0.668
N9650 X25.025 I0.4 J0.
N9655 X24.975 I-0.025 J0. F#100
N9660 X25.275 I0.15 J0.
N9665 X24.725 I-0.275 J0.
N9670 X25.525 I0.4 J0.
N9675 X24.475 I-0.525 J0.
N9680 X25.775 I0.65 J0.
N9685 X24.225 I-0.775 J0.
N9690 X25.775 I0.775 J0.
N9695 X25.747 Y-90.819 Z-4.471 I-0.595 J0. F#104
N9700 X25.675 Y-90.67 Z-4.386 I-0.567 J-0.181
N9705 X25.591 Y-90.569 Z-4.255 I-0.495 J-0.33
N9710 X25.526 Y-90.516 Z-4.089 I-0.411 J-0.431
N9715 X25.501 Y-90.499 Z-3.905 I-0.346 J-0.484
N9720 G0 Z3.095
N9725 X25.161 Y-82.242
N9730 G3 X25.134 Y-82.237 Z2.915 I-0.161 J-0.758 F#107
N9735 X25.054 Y-82.227 Z2.752 I-0.134 J-0.763
N9740 X24.927 Y-82.228 Z2.621 I-0.054 J-0.773
N9745 X24.771 Y-82.26 Z2.534 I0.073 J-0.772
N9750 X24.607 Y-82.332 Z2.5 I0.229 J-0.74
N9755 X25.393 Y-83.668 Z2.415 I0.393 J-0.668
N9760 X24.607 Y-82.332 Z2.33 I-0.393 J0.668
N9765 X25.393 Y-83.668 Z2.245 I0.393 J-0.668
N9770 X24.607 Y-82.332 Z2.16 I-0.393 J0.668
N9775 X25.393 Y-83.668 Z2.075 I0.393 J-0.668
N9780 X24.607 Y-82.332 Z1.99 I-0.393 J0.668
N9785 X25.393 Y-83.668 Z1.905 I0.393 J-0.668
N9790 X24.607 Y-82.332 Z1.82 I-0.393 J0.668
N9795 X25.393 Y-83.668 Z1.735 I0.393 J-0.668
N9800 X24.607 Y-82.332 Z1.65 I-0.393 J0.668
N9805 X25.393 Y-83.668 Z1.565 I0.393 J-0.668
N9810 X24.607 Y-82.332 Z1.48 I-0.393 J0.668
N9815 X25.393 Y-83.668 Z1.395 I0.393 J-0.668
N9820 X24.607 Y-82.332 Z1.31 I-0.393 J0.668
N9825 X25.393 Y-83.668 Z1.225 I0.393 J-0.668
N9830 X24.607 Y-82.332 Z1.14 I-0.393 J0.668
N9835 X25.393 Y-83.668 Z1.055 I0.393 J-0.668
N9840 X24.607 Y-82.332 Z0.97 I-0.393 J0.668
N9845 X25.393 Y-83.668 Z0.885 I0.393 J-0.668
N9850 X24.607 Y-82.332 Z0.8 I-0.393 J0.668
N9855 X25.393 Y-83.668 Z0.715 I0.393 J-0.668
N9860 X24.607 Y-82.332 Z0.629 I-0.393 J0.668
N9865 X25.393 Y-83.668 Z0.544 I0.393 J-0.668
N9870 X24.607 Y-82.332 Z0.459 I-0.393 J0.668
N9875 X25.393 Y-83.668 Z0.374 I0.393 J-0.668
N9880 X24.607 Y-82.332 Z0.289 I-0.393 J0.668
N9885 X25.393 Y-83.668 Z0.204 I0.393 J-0.668
N9890 X24.607 Y-82.332 Z0.119 I-0.393 J0.668
N9895 X25.393 Y-83.668 Z0.034 I0.393 J-0.668
N9900 X24.607 Y-82.332 Z-0.051 I-0.393 J0.668
N9905 X25.393 Y-83.668 Z-0.136 I0.393 J-0.668
N9910 X24.607 Y-82.332 Z-0.221 I-0.393 J0.668
N9915 X25.393 Y-83.668 Z-0.306 I0.393 J-0.668
N9920 X24.607 Y-82.332 Z-0.391 I-0.393 J0.668
N9925 X25.393 Y-83.668 Z-0.476 I0.393 J-0.668
N9930 X24.607 Y-82.332 Z-0.561 I-0.393 J0.668
N9935 X25.393 Y-83.668 Z-0.646 I0.393 J-0.668
N9940 X24.607 Y-82.332 Z-0.731 I-0.393 J0.668
N9945 X25.393 Y-83.668 Z-0.816 I0.393 J-0.668
N9950 X24.607 Y-82.332 Z-0.901 I-0.393 J0.668
N9955 X25.393 Y-83.668 Z-0.986 I0.393 J-0.668
N9960 X24.607 Y-82.332 Z-1.071 I-0.393 J0.668
N9965 X25.393 Y-83.668 Z-1.156 I0.393 J-0.668
N9970 X24.607 Y-82.332 Z-1.241 I-0.393 J0.668
N9975 X25.393 Y-83.668 Z-1.326 I0.393 J-0.668
N9980 X24.607 Y-82.332 Z-1.411 I-0.393 J0.668
N9985 X25.393 Y-83.668 Z-1.496 I0.393 J-0.668
N9990 X24.607 Y-82.332 Z-1.581 I-0.393 J0.668
N9995 X25.393 Y-83.668 Z-1.666 I0.393 J-0.668
N10000 X24.607 Y-82.332 Z-1.751 I-0.393 J0.668
N10005 X25.393 Y-83.668 Z-1.836 I0.393 J-0.668
N10010 X24.607 Y-82.332 Z-1.921 I-0.393 J0.668
N10015 X25.393 Y-83.668 Z-2.006 I0.393 J-0.668
N10020 X24.607 Y-82.332 Z-2.091 I-0.393 J0.668
N10025 X25.393 Y-83.668 Z-2.176 I0.393 J-0.668
N10030 X24.607 Y-82.332 Z-2.261 I-0.393 J0.668
N10035 X25.393 Y-83.668 Z-2.346 I0.393 J-0.668
N10040 X24.607 Y-82.332 Z-2.431 I-0.393 J0.668
N10045 X25.393 Y-83.668 Z-2.516 I0.393 J-0.668
N10050 X24.607 Y-82.332 Z-2.601 I-0.393 J0.668
N10055 X25.393 Y-83.668 Z-2.686 I0.393 J-0.668
N10060 X24.607 Y-82.332 Z-2.771 I-0.393 J0.668
N10065 X25.393 Y-83.668 Z-2.856 I0.393 J-0.668
N10070 X24.607 Y-82.332 Z-2.941 I-0.393 J0.668
N10075 X25.393 Y-83.668 Z-3.026 I0.393 J-0.668
N10080 X24.607 Y-82.332 Z-3.112 I-0.393 J0.668
N10085 X25.393 Y-83.668 Z-3.197 I0.393 J-0.668
N10090 X24.607 Y-82.332 Z-3.282 I-0.393 J0.668
N10095 X25.393 Y-83.668 Z-3.367 I0.393 J-0.668
N10100 X24.607 Y-82.332 Z-3.452 I-0.393 J0.668
N10105 X25.393 Y-83.668 Z-3.537 I0.393 J-0.668
N10110 X24.607 Y-82.332 Z-3.622 I-0.393 J0.668
N10115 X25.393 Y-83.668 Z-3.707 I0.393 J-0.668
N10120 X24.607 Y-82.332 Z-3.792 I-0.393 J0.668
N10125 X25.393 Y-83.668 Z-3.877 I0.393 J-0.668
N10130 X24.607 Y-82.332 Z-3.962 I-0.393 J0.668
N10135 X25.393 Y-83.668 Z-4.047 I0.393 J-0.668
N10140 X24.607 Y-82.332 Z-4.132 I-0.393 J0.668
N10145 X25.393 Y-83.668 Z-4.217 I0.393 J-0.668
N10150 X24.607 Y-82.332 Z-4.302 I-0.393 J0.668
N10155 X25.393 Y-83.668 Z-4.387 I0.393 J-0.668
N10160 X24.607 Y-82.332 Z-4.472 I-0.393 J0.668
N10165 X24.225 Y-83. Z-4.5 I0.393 J-0.668
N10170 X25.025 I0.4 J0.
N10175 X24.975 I-0.025 J0. F#100
N10180 X25.275 I0.15 J0.
N10185 X24.725 I-0.275 J0.
N10190 X25.525 I0.4 J0.
N10195 X24.475 I-0.525 J0.
N10200 X25.775 I0.65 J0.
N10205 X24.225 I-0.775 J0.
N10210 X25.775 I0.775 J0.
N10215 X25.747 Y-82.819 Z-4.471 I-0.595 J0. F#104
N10220 X25.675 Y-82.67 Z-4.386 I-0.567 J-0.181
N10225 X25.591 Y-82.569 Z-4.255 I-0.495 J-0.33
N10230 X25.526 Y-82.516 Z-4.089 I-0.411 J-0.431
N10235 X25.501 Y-82.499 Z-3.905 I-0.346 J-0.484
N10240 G0 Z3.095
N10245 X16.161 Y-82.242
N10250 G3 X16.134 Y-82.237 Z2.915 I-0.161 J-0.758 F#107
N10255 X16.054 Y-82.227 Z2.752 I-0.134 J-0.763
N10260 X15.927 Y-82.228 Z2.621 I-0.054 J-0.773
N10265 X15.771 Y-82.26 Z2.534 I0.073 J-0.772
N10270 X15.607 Y-82.332 Z2.5 I0.229 J-0.74
N10275 X16.393 Y-83.668 Z2.415 I0.393 J-0.668
N10280 X15.607 Y-82.332 Z2.33 I-0.393 J0.668
N10285 X16.393 Y-83.668 Z2.245 I0.393 J-0.668
N10290 X15.607 Y-82.332 Z2.16 I-0.393 J0.668
N10295 X16.393 Y-83.668 Z2.075 I0.393 J-0.668
N10300 X15.607 Y-82.332 Z1.99 I-0.393 J0.668
N10305 X16.393 Y-83.668 Z1.905 I0.393 J-0.668
N10310 X15.607 Y-82.332 Z1.82 I-0.393 J0.668
N10315 X16.393 Y-83.668 Z1.735 I0.393 J-0.668
N10320 X15.607 Y-82.332 Z1.65 I-0.393 J0.668
N10325 X16.393 Y-83.668 Z1.565 I0.393 J-0.668
N10330 X15.607 Y-82.332 Z1.48 I-0.393 J0.668
N10335 X16.393 Y-83.668 Z1.395 I0.393 J-0.668
N10340 X15.607 Y-82.332 Z1.31 I-0.393 J0.668
N10345 X16.393 Y-83.668 Z1.225 I0.393 J-0.668
N10350 X15.607 Y-82.332 Z1.14 I-0.393 J0.668
N10355 X16.393 Y-83.668 Z1.055 I0.393 J-0.668
N10360 X15.607 Y-82.332 Z0.97 I-0.393 J0.668
N10365 X16.393 Y-83.668 Z0.885 I0.393 J-0.668
N10370 X15.607 Y-82.332 Z0.8 I-0.393 J0.668
N10375 X16.393 Y-83.668 Z0.715 I0.393 J-0.668
N10380 X15.607 Y-82.332 Z0.629 I-0.393 J0.668
N10385 X16.393 Y-83.668 Z0.544 I0.393 J-0.668
N10390 X15.607 Y-82.332 Z0.459 I-0.393 J0.668
N10395 X16.393 Y-83.668 Z0.374 I0.393 J-0.668
N10400 X15.607 Y-82.332 Z0.289 I-0.393 J0.668
N10405 X16.393 Y-83.668 Z0.204 I0.393 J-0.668
N10410 X15.607 Y-82.332 Z0.119 I-0.393 J0.668
N10415 X16.393 Y-83.668 Z0.034 I0.393 J-0.668
N10420 X15.607 Y-82.332 Z-0.051 I-0.393 J0.668
N10425 X16.393 Y-83.668 Z-0.136 I0.393 J-0.668
N10430 X15.607 Y-82.332 Z-0.221 I-0.393 J0.668
N10435 X16.393 Y-83.668 Z-0.306 I0.393 J-0.668
N10440 X15.607 Y-82.332 Z-0.391 I-0.393 J0.668
N10445 X16.393 Y-83.668 Z-0.476 I0.393 J-0.668
N10450 X15.607 Y-82.332 Z-0.561 I-0.393 J0.668
N10455 X16.393 Y-83.668 Z-0.646 I0.393 J-0.668
N10460 X15.607 Y-82.332 Z-0.731 I-0.393 J0.668
N10465 X16.393 Y-83.668 Z-0.816 I0.393 J-0.668
N10470 X15.607 Y-82.332 Z-0.901 I-0.393 J0.668
N10475 X16.393 Y-83.668 Z-0.986 I0.393 J-0.668
N10480 X15.607 Y-82.332 Z-1.071 I-0.393 J0.668
N10485 X16.393 Y-83.668 Z-1.156 I0.393 J-0.668
N10490 X15.607 Y-82.332 Z-1.241 I-0.393 J0.668
N10495 X16.393 Y-83.668 Z-1.326 I0.393 J-0.668
N10500 X15.607 Y-82.332 Z-1.411 I-0.393 J0.668
N10505 X16.393 Y-83.668 Z-1.496 I0.393 J-0.668
N10510 X15.607 Y-82.332 Z-1.581 I-0.393 J0.668
N10515 X16.393 Y-83.668 Z-1.666 I0.393 J-0.668
N10520 X15.607 Y-82.332 Z-1.751 I-0.393 J0.668
N10525 X16.393 Y-83.668 Z-1.836 I0.393 J-0.668
N10530 X15.607 Y-82.332 Z-1.921 I-0.393 J0.668
N10535 X16.393 Y-83.668 Z-2.006 I0.393 J-0.668
N10540 X15.607 Y-82.332 Z-2.091 I-0.393 J0.668
N10545 X16.393 Y-83.668 Z-2.176 I0.393 J-0.668
N10550 X15.607 Y-82.332 Z-2.261 I-0.393 J0.668
N10555 X16.393 Y-83.668 Z-2.346 I0.393 J-0.668
N10560 X15.607 Y-82.332 Z-2.431 I-0.393 J0.668
N10565 X16.393 Y-83.668 Z-2.516 I0.393 J-0.668
N10570 X15.607 Y-82.332 Z-2.601 I-0.393 J0.668
N10575 X16.393 Y-83.668 Z-2.686 I0.393 J-0.668
N10580 X15.607 Y-82.332 Z-2.771 I-0.393 J0.668
N10585 X16.393 Y-83.668 Z-2.856 I0.393 J-0.668
N10590 X15.607 Y-82.332 Z-2.941 I-0.393 J0.668
N10595 X16.393 Y-83.668 Z-3.026 I0.393 J-0.668
N10600 X15.607 Y-82.332 Z-3.112 I-0.393 J0.668
N10605 X16.393 Y-83.668 Z-3.197 I0.393 J-0.668
N10610 X15.607 Y-82.332 Z-3.282 I-0.393 J0.668
N10615 X16.393 Y-83.668 Z-3.367 I0.393 J-0.668
N10620 X15.607 Y-82.332 Z-3.452 I-0.393 J0.668
N10625 X16.393 Y-83.668 Z-3.537 I0.393 J-0.668
N10630 X15.607 Y-82.332 Z-3.622 I-0.393 J0.668
N10635 X16.393 Y-83.668 Z-3.707 I0.393 J-0.668
N10640 X15.607 Y-82.332 Z-3.792 I-0.393 J0.668
N10645 X16.393 Y-83.668 Z-3.877 I0.393 J-0.668
N10650 X15.607 Y-82.332 Z-3.962 I-0.393 J0.668
N10655 X16.393 Y-83.668 Z-4.047 I0.393 J-0.668
N10660 X15.607 Y-82.332 Z-4.132 I-0.393 J0.668
N10665 X16.393 Y-83.668 Z-4.217 I0.393 J-0.668
N10670 X15.607 Y-82.332 Z-4.302 I-0.393 J0.668
N10675 X16.393 Y-83.668 Z-4.387 I0.393 J-0.668
N10680 X15.607 Y-82.332 Z-4.472 I-0.393 J0.668
N10685 X15.225 Y-83. Z-4.5 I0.393 J-0.668
N10690 X16.025 I0.4 J0.
N10695 X15.975 I-0.025 J0. F#100
N10700 X16.275 I0.15 J0.
N10705 X15.725 I-0.275 J0.
N10710 X16.525 I0.4 J0.
N10715 X15.475 I-0.525 J0.
N10720 X16.775 I0.65 J0.
N10725 X15.225 I-0.775 J0.
N10730 X16.775 I0.775 J0.
N10735 X16.747 Y-82.819 Z-4.471 I-0.595 J0. F#104
N10740 X16.675 Y-82.67 Z-4.386 I-0.567 J-0.181
N10745 X16.591 Y-82.569 Z-4.255 I-0.495 J-0.33
N10750 X16.526 Y-82.516 Z-4.089 I-0.411 J-0.431
N10755 X16.501 Y-82.499 Z-3.905 I-0.346 J-0.484
N10760 G0 Z3.095
N10765 X16.161 Y-90.242
N10770 G3 X16.134 Y-90.237 Z2.915 I-0.161 J-0.758 F#107
N10775 X16.054 Y-90.227 Z2.752 I-0.134 J-0.763
N10780 X15.927 Y-90.228 Z2.621 I-0.054 J-0.773
N10785 X15.771 Y-90.26 Z2.534 I0.073 J-0.772
N10790 X15.607 Y-90.332 Z2.5 I0.229 J-0.74
N10795 X16.393 Y-91.668 Z2.415 I0.393 J-0.668
N10800 X15.607 Y-90.332 Z2.33 I-0.393 J0.668
N10805 X16.393 Y-91.668 Z2.245 I0.393 J-0.668
N10810 X15.607 Y-90.332 Z2.16 I-0.393 J0.668
N10815 X16.393 Y-91.668 Z2.075 I0.393 J-0.668
N10820 X15.607 Y-90.332 Z1.99 I-0.393 J0.668
N10825 X16.393 Y-91.668 Z1.905 I0.393 J-0.668
N10830 X15.607 Y-90.332 Z1.82 I-0.393 J0.668
N10835 X16.393 Y-91.668 Z1.735 I0.393 J-0.668
N10840 X15.607 Y-90.332 Z1.65 I-0.393 J0.668
N10845 X16.393 Y-91.668 Z1.565 I0.393 J-0.668
N10850 X15.607 Y-90.332 Z1.48 I-0.393 J0.668
N10855 X16.393 Y-91.668 Z1.395 I0.393 J-0.668
N10860 X15.607 Y-90.332 Z1.31 I-0.393 J0.668
N10865 X16.393 Y-91.668 Z1.225 I0.393 J-0.668
N10870 X15.607 Y-90.332 Z1.14 I-0.393 J0.668
N10875 X16.393 Y-91.668 Z1.055 I0.393 J-0.668
N10880 X15.607 Y-90.332 Z0.97 I-0.393 J0.668
N10885 X16.393 Y-91.668 Z0.885 I0.393 J-0.668
N10890 X15.607 Y-90.332 Z0.8 I-0.393 J0.668
N10895 X16.393 Y-91.668 Z0.715 I0.393 J-0.668
N10900 X15.607 Y-90.332 Z0.629 I-0.393 J0.668
N10905 X16.393 Y-91.668 Z0.544 I0.393 J-0.668
N10910 X15.607 Y-90.332 Z0.459 I-0.393 J0.668
N10915 X16.393 Y-91.668 Z0.374 I0.393 J-0.668
N10920 X15.607 Y-90.332 Z0.289 I-0.393 J0.668
N10925 X16.393 Y-91.668 Z0.204 I0.393 J-0.668
N10930 X15.607 Y-90.332 Z0.119 I-0.393 J0.668
N10935 X16.393 Y-91.668 Z0.034 I0.393 J-0.668
N10940 X15.607 Y-90.332 Z-0.051 I-0.393 J0.668
N10945 X16.393 Y-91.668 Z-0.136 I0.393 J-0.668
N10950 X15.607 Y-90.332 Z-0.221 I-0.393 J0.668
N10955 X16.393 Y-91.668 Z-0.306 I0.393 J-0.668
N10960 X15.607 Y-90.332 Z-0.391 I-0.393 J0.668
N10965 X16.393 Y-91.668 Z-0.476 I0.393 J-0.668
N10970 X15.607 Y-90.332 Z-0.561 I-0.393 J0.668
N10975 X16.393 Y-91.668 Z-0.646 I0.393 J-0.668
N10980 X15.607 Y-90.332 Z-0.731 I-0.393 J0.668
N10985 X16.393 Y-91.668 Z-0.816 I0.393 J-0.668
N10990 X15.607 Y-90.332 Z-0.901 I-0.393 J0.668
N10995 X16.393 Y-91.668 Z-0.986 I0.393 J-0.668
N11000 X15.607 Y-90.332 Z-1.071 I-0.393 J0.668
N11005 X16.393 Y-91.668 Z-1.156 I0.393 J-0.668
N11010 X15.607 Y-90.332 Z-1.241 I-0.393 J0.668
N11015 X16.393 Y-91.668 Z-1.326 I0.393 J-0.668
N11020 X15.607 Y-90.332 Z-1.411 I-0.393 J0.668
N11025 X16.393 Y-91.668 Z-1.496 I0.393 J-0.668
N11030 X15.607 Y-90.332 Z-1.581 I-0.393 J0.668
N11035 X16.393 Y-91.668 Z-1.666 I0.393 J-0.668
N11040 X15.607 Y-90.332 Z-1.751 I-0.393 J0.668
N11045 X16.393 Y-91.668 Z-1.836 I0.393 J-0.668
N11050 X15.607 Y-90.332 Z-1.921 I-0.393 J0.668
N11055 X16.393 Y-91.668 Z-2.006 I0.393 J-0.668
N11060 X15.607 Y-90.332 Z-2.091 I-0.393 J0.668
N11065 X16.393 Y-91.668 Z-2.176 I0.393 J-0.668
N11070 X15.607 Y-90.332 Z-2.261 I-0.393 J0.668
N11075 X16.393 Y-91.668 Z-2.346 I0.393 J-0.668
N11080 X15.607 Y-90.332 Z-2.431 I-0.393 J0.668
N11085 X16.393 Y-91.668 Z-2.516 I0.393 J-0.668
N11090 X15.607 Y-90.332 Z-2.601 I-0.393 J0.668
N11095 X16.393 Y-91.668 Z-2.686 I0.393 J-0.668
N11100 X15.607 Y-90.332 Z-2.771 I-0.393 J0.668
N11105 X16.393 Y-91.668 Z-2.856 I0.393 J-0.668
N11110 X15.607 Y-90.332 Z-2.941 I-0.393 J0.668
N11115 X16.393 Y-91.668 Z-3.026 I0.393 J-0.668
N11120 X15.607 Y-90.332 Z-3.112 I-0.393 J0.668
N11125 X16.393 Y-91.668 Z-3.197 I0.393 J-0.668
N11130 X15.607 Y-90.332 Z-3.282 I-0.393 J0.668
N11135 X16.393 Y-91.668 Z-3.367 I0.393 J-0.668
N11140 X15.607 Y-90.332 Z-3.452 I-0.393 J0.668
N11145 X16.393 Y-91.668 Z-3.537 I0.393 J-0.668
N11150 X15.607 Y-90.332 Z-3.622 I-0.393 J0.668
N11155 X16.393 Y-91.668 Z-3.707 I0.393 J-0.668
N11160 X15.607 Y-90.332 Z-3.792 I-0.393 J0.668
N11165 X16.393 Y-91.668 Z-3.877 I0.393 J-0.668
N11170 X15.607 Y-90.332 Z-3.962 I-0.393 J0.668
N11175 X16.393 Y-91.668 Z-4.047 I0.393 J-0.668
N11180 X15.607 Y-90.332 Z-4.132 I-0.393 J0.668
N11185 X16.393 Y-91.668 Z-4.217 I0.393 J-0.668
N11190 X15.607 Y-90.332 Z-4.302 I-0.393 J0.668
N11195 X16.393 Y-91.668 Z-4.387 I0.393 J-0.668
N11200 X15.607 Y-90.332 Z-4.472 I-0.393 J0.668
N11205 X15.225 Y-91. Z-4.5 I0.393 J-0.668
N11210 X16.025 I0.4 J0.
N11215 X15.975 I-0.025 J0. F#100
N11220 X16.275 I0.15 J0.
N11225 X15.725 I-0.275 J0.
N11230 X16.525 I0.4 J0.
N11235 X15.475 I-0.525 J0.
N11240 X16.775 I0.65 J0.
N11245 X15.225 I-0.775 J0.
N11250 X16.775 I0.775 J0.
N11255 X16.747 Y-90.819 Z-4.471 I-0.595 J0. F#104
N11260 X16.675 Y-90.67 Z-4.386 I-0.567 J-0.181
N11265 X16.591 Y-90.569 Z-4.255 I-0.495 J-0.33
N11270 X16.526 Y-90.516 Z-4.089 I-0.411 J-0.431
N11275 X16.501 Y-90.499 Z-3.905 I-0.346 J-0.484
N11280 G0 Z3.095
N11285 X7.161 Y-90.242
N11290 G3 X7.134 Y-90.237 Z2.915 I-0.161 J-0.758 F#107
N11295 X7.054 Y-90.227 Z2.752 I-0.134 J-0.763
N11300 X6.927 Y-90.228 Z2.621 I-0.054 J-0.773
N11305 X6.771 Y-90.26 Z2.534 I0.073 J-0.772
N11310 X6.607 Y-90.332 Z2.5 I0.229 J-0.74
N11315 X7.393 Y-91.668 Z2.415 I0.393 J-0.668
N11320 X6.607 Y-90.332 Z2.33 I-0.393 J0.668
N11325 X7.393 Y-91.668 Z2.245 I0.393 J-0.668
N11330 X6.607 Y-90.332 Z2.16 I-0.393 J0.668
N11335 X7.393 Y-91.668 Z2.075 I0.393 J-0.668
N11340 X6.607 Y-90.332 Z1.99 I-0.393 J0.668
N11345 X7.393 Y-91.668 Z1.905 I0.393 J-0.668
N11350 X6.607 Y-90.332 Z1.82 I-0.393 J0.668
N11355 X7.393 Y-91.668 Z1.735 I0.393 J-0.668
N11360 X6.607 Y-90.332 Z1.65 I-0.393 J0.668
N11365 X7.393 Y-91.668 Z1.565 I0.393 J-0.668
N11370 X6.607 Y-90.332 Z1.48 I-0.393 J0.668
N11375 X7.393 Y-91.668 Z1.395 I0.393 J-0.668
N11380 X6.607 Y-90.332 Z1.31 I-0.393 J0.668
N11385 X7.393 Y-91.668 Z1.225 I0.393 J-0.668
N11390 X6.607 Y-90.332 Z1.14 I-0.393 J0.668
N11395 X7.393 Y-91.668 Z1.055 I0.393 J-0.668
N11400 X6.607 Y-90.332 Z0.97 I-0.393 J0.668
N11405 X7.393 Y-91.668 Z0.885 I0.393 J-0.668
N11410 X6.607 Y-90.332 Z0.8 I-0.393 J0.668
N11415 X7.393 Y-91.668 Z0.715 I0.393 J-0.668
N11420 X6.607 Y-90.332 Z0.629 I-0.393 J0.668
N11425 X7.393 Y-91.668 Z0.544 I0.393 J-0.668
N11430 X6.607 Y-90.332 Z0.459 I-0.393 J0.668
N11435 X7.393 Y-91.668 Z0.374 I0.393 J-0.668
N11440 X6.607 Y-90.332 Z0.289 I-0.393 J0.668
N11445 X7.393 Y-91.668 Z0.204 I0.393 J-0.668
N11450 X6.607 Y-90.332 Z0.119 I-0.393 J0.668
N11455 X7.393 Y-91.668 Z0.034 I0.393 J-0.668
N11460 X6.607 Y-90.332 Z-0.051 I-0.393 J0.668
N11465 X7.393 Y-91.668 Z-0.136 I0.393 J-0.668
N11470 X6.607 Y-90.332 Z-0.221 I-0.393 J0.668
N11475 X7.393 Y-91.668 Z-0.306 I0.393 J-0.668
N11480 X6.607 Y-90.332 Z-0.391 I-0.393 J0.668
N11485 X7.393 Y-91.668 Z-0.476 I0.393 J-0.668
N11490 X6.607 Y-90.332 Z-0.561 I-0.393 J0.668
N11495 X7.393 Y-91.668 Z-0.646 I0.393 J-0.668
N11500 X6.607 Y-90.332 Z-0.731 I-0.393 J0.668
N11505 X7.393 Y-91.668 Z-0.816 I0.393 J-0.668
N11510 X6.607 Y-90.332 Z-0.901 I-0.393 J0.668
N11515 X7.393 Y-91.668 Z-0.986 I0.393 J-0.668
N11520 X6.607 Y-90.332 Z-1.071 I-0.393 J0.668
N11525 X7.393 Y-91.668 Z-1.156 I0.393 J-0.668
N11530 X6.607 Y-90.332 Z-1.241 I-0.393 J0.668
N11535 X7.393 Y-91.668 Z-1.326 I0.393 J-0.668
N11540 X6.607 Y-90.332 Z-1.411 I-0.393 J0.668
N11545 X7.393 Y-91.668 Z-1.496 I0.393 J-0.668
N11550 X6.607 Y-90.332 Z-1.581 I-0.393 J0.668
N11555 X7.393 Y-91.668 Z-1.666 I0.393 J-0.668
N11560 X6.607 Y-90.332 Z-1.751 I-0.393 J0.668
N11565 X7.393 Y-91.668 Z-1.836 I0.393 J-0.668
N11570 X6.607 Y-90.332 Z-1.921 I-0.393 J0.668
N11575 X7.393 Y-91.668 Z-2.006 I0.393 J-0.668
N11580 X6.607 Y-90.332 Z-2.091 I-0.393 J0.668
N11585 X7.393 Y-91.668 Z-2.176 I0.393 J-0.668
N11590 X6.607 Y-90.332 Z-2.261 I-0.393 J0.668
N11595 X7.393 Y-91.668 Z-2.346 I0.393 J-0.668
N11600 X6.607 Y-90.332 Z-2.431 I-0.393 J0.668
N11605 X7.393 Y-91.668 Z-2.516 I0.393 J-0.668
N11610 X6.607 Y-90.332 Z-2.601 I-0.393 J0.668
N11615 X7.393 Y-91.668 Z-2.686 I0.393 J-0.668
