%
(1)
(T3  D=2.5 CR=0. TAPER=118DEG - ZMIN=-3. - DRILL)
N10 G90 G94 G17 G91.1
N15 G21
N20 G53 G0 Z0.
(DRILL3 6)
N25 M9
N30 T3 M6
N35 S1910 M3
N40 G54
N45 M8
N55 G0 X-111. Y-867.5
N60 G43 Z6. H3
N70 G0 Z3.
N75 Z2.
N80 G1 Z-1. F100.34
N85 G0 Z-0.5
N90 G1 Z-2. F100.34
N95 G0 Z-1.5
N100 G1 Z-3. F100.34
N105 G0 Z3.
N110 X-39.
N115 Z2.
N120 G1 Z-1. F100.34
N125 G0 Z-0.5
N130 G1 Z-2. F100.34
N135 G0 Z-1.5
N140 G1 Z-3. F100.34
N145 G0 Z3.
N150 Y-792.5
N155 Z2.
N160 G1 Z-1. F100.34
N165 G0 Z-0.5
N170 G1 Z-2. F100.34
N175 G0 Z-1.5
N180 G1 Z-3. F100.34
N185 G0 Z3.
N190 X-6. Y-817.5
N195 Z2.
N200 G1 Z-1. F100.34
N205 G0 Z-0.5
N210 G1 Z-2. F100.34
N215 G0 Z-1.5
N220 G1 Z-3. F100.34
N225 G0 Z3.
N230 Y-792.5
N235 Z2.
N240 G1 Z-1. F100.34
N245 G0 Z-0.5
N250 G1 Z-2. F100.34
N255 G0 Z-1.5
N260 G1 Z-3. F100.34
N265 G0 Z3.
N270 Y-767.5
N275 Z2.
N280 G1 Z-1. F100.34
N285 G0 Z-0.5
N290 G1 Z-2. F100.34
N295 G0 Z-1.5
N300 G1 Z-3. F100.34
N305 G0 Z3.
N310 Y-742.5
N315 Z2.
N320 G1 Z-1. F100.34
N325 G0 Z-0.5
N330 G1 Z-2. F100.34
N335 G0 Z-1.5
N340 G1 Z-3. F100.34
N345 G0 Z3.
N350 Y-717.5
N355 Z2.
N360 G1 Z-1. F100.34
N365 G0 Z-0.5
N370 G1 Z-2. F100.34
N375 G0 Z-1.5
N380 G1 Z-3. F100.34
N385 G0 Z3.
N390 Y-692.5
N395 Z2.
N400 G1 Z-1. F100.34
N405 G0 Z-0.5
N410 G1 Z-2. F100.34
N415 G0 Z-1.5
N420 G1 Z-3. F100.34
N425 G0 Z3.
N430 Y-667.5
N435 Z2.
N440 G1 Z-1. F100.34
N445 G0 Z-0.5
N450 G1 Z-2. F100.34
N455 G0 Z-1.5
N460 G1 Z-3. F100.34
N465 G0 Z3.
N470 Y-642.5
N475 Z2.
N480 G1 Z-1. F100.34
N485 G0 Z-0.5
N490 G1 Z-2. F100.34
N495 G0 Z-1.5
N500 G1 Z-3. F100.34
N505 G0 Z3.
N510 Y-617.5
N515 Z2.
N520 G1 Z-1. F100.34
N525 G0 Z-0.5
N530 G1 Z-2. F100.34
N535 G0 Z-1.5
N540 G1 Z-3. F100.34
N545 G0 Z3.
N550 Y-592.5
N555 Z2.
N560 G1 Z-1. F100.34
N565 G0 Z-0.5
N570 G1 Z-2. F100.34
N575 G0 Z-1.5
N580 G1 Z-3. F100.34
N585 G0 Z3.
N590 Y-567.5
N595 Z2.
N600 G1 Z-1. F100.34
N605 G0 Z-0.5
N610 G1 Z-2. F100.34
N615 G0 Z-1.5
N620 G1 Z-3. F100.34
N625 G0 Z3.
N630 Y-542.5
N635 Z2.
N640 G1 Z-1. F100.34
N645 G0 Z-0.5
N650 G1 Z-2. F100.34
N655 G0 Z-1.5
N660 G1 Z-3. F100.34
N665 G0 Z3.
N670 Y-517.5
N675 Z2.
N680 G1 Z-1. F100.34
N685 G0 Z-0.5
N690 G1 Z-2. F100.34
N695 G0 Z-1.5
N700 G1 Z-3. F100.34
N705 G0 Z3.
N710 Y-492.5
N715 Z2.
N720 G1 Z-1. F100.34
N725 G0 Z-0.5
N730 G1 Z-2. F100.34
N735 G0 Z-1.5
N740 G1 Z-3. F100.34
N745 G0 Z3.
N750 Y-467.5
N755 Z2.
N760 G1 Z-1. F100.34
N765 G0 Z-0.5
N770 G1 Z-2. F100.34
N775 G0 Z-1.5
N780 G1 Z-3. F100.34
N785 G0 Z3.
N790 Y-442.5
N795 Z2.
N800 G1 Z-1. F100.34
N805 G0 Z-0.5
N810 G1 Z-2. F100.34
N815 G0 Z-1.5
N820 G1 Z-3. F100.34
N825 G0 Z3.
N830 Y-417.5
N835 Z2.
N840 G1 Z-1. F100.34
N845 G0 Z-0.5
N850 G1 Z-2. F100.34
N855 G0 Z-1.5
N860 G1 Z-3. F100.34
N865 G0 Z3.
N870 Y-392.5
N875 Z2.
N880 G1 Z-1. F100.34
N885 G0 Z-0.5
N890 G1 Z-2. F100.34
N895 G0 Z-1.5
N900 G1 Z-3. F100.34
N905 G0 Z3.
N910 Y-367.5
N915 Z2.
N920 G1 Z-1. F100.34
N925 G0 Z-0.5
N930 G1 Z-2. F100.34
N935 G0 Z-1.5
N940 G1 Z-3. F100.34
N945 G0 Z3.
N950 Y-342.5
N955 Z2.
N960 G1 Z-1. F100.34
N965 G0 Z-0.5
N970 G1 Z-2. F100.34
N975 G0 Z-1.5
N980 G1 Z-3. F100.34
N985 G0 Z3.
N990 Y-317.5
N995 Z2.
N1000 G1 Z-1. F100.34
N1005 G0 Z-0.5
N1010 G1 Z-2. F100.34
N1015 G0 Z-1.5
N1020 G1 Z-3. F100.34
N1025 G0 Z3.
N1030 Y-292.5
N1035 Z2.
N1040 G1 Z-1. F100.34
N1045 G0 Z-0.5
N1050 G1 Z-2. F100.34
N1055 G0 Z-1.5
N1060 G1 Z-3. F100.34
N1065 G0 Z3.
N1070 Y-267.5
N1075 Z2.
N1080 G1 Z-1. F100.34
N1085 G0 Z-0.5
N1090 G1 Z-2. F100.34
N1095 G0 Z-1.5
N1100 G1 Z-3. F100.34
N1105 G0 Z3.
N1110 Y-242.5
N1115 Z2.
N1120 G1 Z-1. F100.34
N1125 G0 Z-0.5
N1130 G1 Z-2. F100.34
N1135 G0 Z-1.5
N1140 G1 Z-3. F100.34
N1145 G0 Z3.
N1150 Y-217.5
N1155 Z2.
N1160 G1 Z-1. F100.34
N1165 G0 Z-0.5
N1170 G1 Z-2. F100.34
N1175 G0 Z-1.5
N1180 G1 Z-3. F100.34
N1185 G0 Z3.
N1190 Y-192.5
N1195 Z2.
N1200 G1 Z-1. F100.34
N1205 G0 Z-0.5
N1210 G1 Z-2. F100.34
N1215 G0 Z-1.5
N1220 G1 Z-3. F100.34
N1225 G0 Z3.
N1230 Y-167.5
N1235 Z2.
N1240 G1 Z-1. F100.34
N1245 G0 Z-0.5
N1250 G1 Z-2. F100.34
N1255 G0 Z-1.5
N1260 G1 Z-3. F100.34
N1265 G0 Z3.
N1270 Y-142.5
N1275 Z2.
N1280 G1 Z-1. F100.34
N1285 G0 Z-0.5
N1290 G1 Z-2. F100.34
N1295 G0 Z-1.5
N1300 G1 Z-3. F100.34
N1305 G0 Z3.
N1310 Y-117.5
N1315 Z2.
N1320 G1 Z-1. F100.34
N1325 G0 Z-0.5
N1330 G1 Z-2. F100.34
N1335 G0 Z-1.5
N1340 G1 Z-3. F100.34
N1345 G0 Z3.
N1350 Y-92.5
N1355 Z2.
N1360 G1 Z-1. F100.34
N1365 G0 Z-0.5
N1370 G1 Z-2. F100.34
N1375 G0 Z-1.5
N1380 G1 Z-3. F100.34
N1385 G0 Z3.
N1390 Y-67.5
N1395 Z2.
N1400 G1 Z-1. F100.34
N1405 G0 Z-0.5
N1410 G1 Z-2. F100.34
N1415 G0 Z-1.5
N1420 G1 Z-3. F100.34
N1425 G0 Z3.
N1430 Y-42.5
N1435 Z2.
N1440 G1 Z-1. F100.34
N1445 G0 Z-0.5
N1450 G1 Z-2. F100.34
N1455 G0 Z-1.5
N1460 G1 Z-3. F100.34
N1465 G0 Z3.
N1470 X-39.
N1475 Z2.
N1480 G1 Z-1. F100.34
N1485 G0 Z-0.5
N1490 G1 Z-2. F100.34
N1495 G0 Z-1.5
N1500 G1 Z-3. F100.34
N1505 G0 Z3.
N1510 X-59. Y-55.
N1515 Z2.
N1520 G1 Z-1. F100.34
N1525 G0 Z-0.5
N1530 G1 Z-2. F100.34
N1535 G0 Z-1.5
N1540 G1 Z-3. F100.34
N1545 G0 Z3.
N1550 X-67.
N1555 Z2.
N1560 G1 Z-1. F100.34
N1565 G0 Z-0.5
N1570 G1 Z-2. F100.34
N1575 G0 Z-1.5
N1580 G1 Z-3. F100.34
N1585 G0 Z3.
N1590 Y-64.
N1595 Z2.
N1600 G1 Z-1. F100.34
N1605 G0 Z-0.5
N1610 G1 Z-2. F100.34
N1615 G0 Z-1.5
N1620 G1 Z-3. F100.34
N1625 G0 Z3.
N1630 X-59.
N1635 Z2.
N1640 G1 Z-1. F100.34
N1645 G0 Z-0.5
N1650 G1 Z-2. F100.34
N1655 G0 Z-1.5
N1660 G1 Z-3. F100.34
N1665 G0 Z3.
N1670 X-83.
N1675 Z2.
N1680 G1 Z-1. F100.34
N1685 G0 Z-0.5
N1690 G1 Z-2. F100.34
N1695 G0 Z-1.5
N1700 G1 Z-3. F100.34
N1705 G0 Z3.
N1710 X-91.
N1715 Z2.
N1720 G1 Z-1. F100.34
N1725 G0 Z-0.5
N1730 G1 Z-2. F100.34
N1735 G0 Z-1.5
N1740 G1 Z-3. F100.34
N1745 G0 Z3.
N1750 Y-55.
N1755 Z2.
N1760 G1 Z-1. F100.34
N1765 G0 Z-0.5
N1770 G1 Z-2. F100.34
N1775 G0 Z-1.5
N1780 G1 Z-3. F100.34
N1785 G0 Z3.
N1790 X-83.
N1795 Z2.
N1800 G1 Z-1. F100.34
N1805 G0 Z-0.5
N1810 G1 Z-2. F100.34
N1815 G0 Z-1.5
N1820 G1 Z-3. F100.34
N1825 G0 Z3.
N1830 X-111. Y-42.5
N1835 Z2.
N1840 G1 Z-1. F100.34
N1845 G0 Z-0.5
N1850 G1 Z-2. F100.34
N1855 G0 Z-1.5
N1860 G1 Z-3. F100.34
N1865 G0 Z3.
N1870 X-144.
N1875 Z2.
N1880 G1 Z-1. F100.34
N1885 G0 Z-0.5
N1890 G1 Z-2. F100.34
N1895 G0 Z-1.5
N1900 G1 Z-3. F100.34
N1905 G0 Z3.
N1910 Y-67.5
N1915 Z2.
N1920 G1 Z-1. F100.34
N1925 G0 Z-0.5
N1930 G1 Z-2. F100.34
N1935 G0 Z-1.5
N1940 G1 Z-3. F100.34
N1945 G0 Z3.
N1950 Y-92.5
N1955 Z2.
N1960 G1 Z-1. F100.34
N1965 G0 Z-0.5
N1970 G1 Z-2. F100.34
N1975 G0 Z-1.5
N1980 G1 Z-3. F100.34
N1985 G0 Z3.
N1990 Y-117.5
N1995 Z2.
N2000 G1 Z-1. F100.34
N2005 G0 Z-0.5
N2010 G1 Z-2. F100.34
N2015 G0 Z-1.5
N2020 G1 Z-3. F100.34
N2025 G0 Z3.
N2030 Y-142.5
N2035 Z2.
N2040 G1 Z-1. F100.34
N2045 G0 Z-0.5
N2050 G1 Z-2. F100.34
N2055 G0 Z-1.5
N2060 G1 Z-3. F100.34
N2065 G0 Z3.
N2070 Y-167.5
N2075 Z2.
N2080 G1 Z-1. F100.34
N2085 G0 Z-0.5
N2090 G1 Z-2. F100.34
N2095 G0 Z-1.5
N2100 G1 Z-3. F100.34
N2105 G0 Z3.
N2110 Y-192.5
N2115 Z2.
N2120 G1 Z-1. F100.34
N2125 G0 Z-0.5
N2130 G1 Z-2. F100.34
N2135 G0 Z-1.5
N2140 G1 Z-3. F100.34
N2145 G0 Z3.
N2150 Y-217.5
N2155 Z2.
N2160 G1 Z-1. F100.34
N2165 G0 Z-0.5
N2170 G1 Z-2. F100.34
N2175 G0 Z-1.5
N2180 G1 Z-3. F100.34
N2185 G0 Z3.
N2190 Y-242.5
N2195 Z2.
N2200 G1 Z-1. F100.34
N2205 G0 Z-0.5
N2210 G1 Z-2. F100.34
N2215 G0 Z-1.5
N2220 G1 Z-3. F100.34
N2225 G0 Z3.
N2230 Y-267.5
N2235 Z2.
N2240 G1 Z-1. F100.34
N2245 G0 Z-0.5
N2250 G1 Z-2. F100.34
N2255 G0 Z-1.5
N2260 G1 Z-3. F100.34
N2265 G0 Z3.
N2270 Y-292.5
N2275 Z2.
N2280 G1 Z-1. F100.34
N2285 G0 Z-0.5
N2290 G1 Z-2. F100.34
N2295 G0 Z-1.5
N2300 G1 Z-3. F100.34
N2305 G0 Z3.
N2310 Y-317.5
N2315 Z2.
N2320 G1 Z-1. F100.34
N2325 G0 Z-0.5
N2330 G1 Z-2. F100.34
N2335 G0 Z-1.5
N2340 G1 Z-3. F100.34
N2345 G0 Z3.
N2350 Y-342.5
N2355 Z2.
N2360 G1 Z-1. F100.34
N2365 G0 Z-0.5
N2370 G1 Z-2. F100.34
N2375 G0 Z-1.5
N2380 G1 Z-3. F100.34
N2385 G0 Z3.
N2390 Y-367.5
N2395 Z2.
N2400 G1 Z-1. F100.34
N2405 G0 Z-0.5
N2410 G1 Z-2. F100.34
N2415 G0 Z-1.5
N2420 G1 Z-3. F100.34
N2425 G0 Z3.
N2430 Y-392.5
N2435 Z2.
N2440 G1 Z-1. F100.34
N2445 G0 Z-0.5
N2450 G1 Z-2. F100.34
N2455 G0 Z-1.5
N2460 G1 Z-3. F100.34
N2465 G0 Z3.
N2470 Y-417.5
N2475 Z2.
N2480 G1 Z-1. F100.34
N2485 G0 Z-0.5
N2490 G1 Z-2. F100.34
N2495 G0 Z-1.5
N2500 G1 Z-3. F100.34
N2505 G0 Z3.
N2510 Y-442.5
N2515 Z2.
N2520 G1 Z-1. F100.34
N2525 G0 Z-0.5
N2530 G1 Z-2. F100.34
N2535 G0 Z-1.5
N2540 G1 Z-3. F100.34
N2545 G0 Z3.
N2550 Y-467.5
N2555 Z2.
N2560 G1 Z-1. F100.34
N2565 G0 Z-0.5
N2570 G1 Z-2. F100.34
N2575 G0 Z-1.5
N2580 G1 Z-3. F100.34
N2585 G0 Z3.
N2590 Y-492.5
N2595 Z2.
N2600 G1 Z-1. F100.34
N2605 G0 Z-0.5
N2610 G1 Z-2. F100.34
N2615 G0 Z-1.5
N2620 G1 Z-3. F100.34
N2625 G0 Z3.
N2630 Y-517.5
N2635 Z2.
N2640 G1 Z-1. F100.34
N2645 G0 Z-0.5
N2650 G1 Z-2. F100.34
N2655 G0 Z-1.5
N2660 G1 Z-3. F100.34
N2665 G0 Z3.
N2670 Y-542.5
N2675 Z2.
N2680 G1 Z-1. F100.34
N2685 G0 Z-0.5
N2690 G1 Z-2. F100.34
N2695 G0 Z-1.5
N2700 G1 Z-3. F100.34
N2705 G0 Z3.
N2710 Y-567.5
N2715 Z2.
N2720 G1 Z-1. F100.34
N2725 G0 Z-0.5
N2730 G1 Z-2. F100.34
N2735 G0 Z-1.5
N2740 G1 Z-3. F100.34
N2745 G0 Z3.
N2750 Y-592.5
N2755 Z2.
N2760 G1 Z-1. F100.34
N2765 G0 Z-0.5
N2770 G1 Z-2. F100.34
N2775 G0 Z-1.5
N2780 G1 Z-3. F100.34
N2785 G0 Z3.
N2790 Y-617.5
N2795 Z2.
N2800 G1 Z-1. F100.34
N2805 G0 Z-0.5
N2810 G1 Z-2. F100.34
N2815 G0 Z-1.5
N2820 G1 Z-3. F100.34
N2825 G0 Z3.
N2830 Y-642.5
N2835 Z2.
N2840 G1 Z-1. F100.34
N2845 G0 Z-0.5
N2850 G1 Z-2. F100.34
N2855 G0 Z-1.5
N2860 G1 Z-3. F100.34
N2865 G0 Z3.
N2870 Y-667.5
N2875 Z2.
N2880 G1 Z-1. F100.34
N2885 G0 Z-0.5
N2890 G1 Z-2. F100.34
N2895 G0 Z-1.5
N2900 G1 Z-3. F100.34
N2905 G0 Z3.
N2910 Y-692.5
N2915 Z2.
N2920 G1 Z-1. F100.34
N2925 G0 Z-0.5
N2930 G1 Z-2. F100.34
N2935 G0 Z-1.5
N2940 G1 Z-3. F100.34
N2945 G0 Z3.
N2950 Y-717.5
N2955 Z2.
N2960 G1 Z-1. F100.34
N2965 G0 Z-0.5
N2970 G1 Z-2. F100.34
N2975 G0 Z-1.5
N2980 G1 Z-3. F100.34
N2985 G0 Z3.
N2990 Y-742.5
N2995 Z2.
N3000 G1 Z-1. F100.34
N3005 G0 Z-0.5
N3010 G1 Z-2. F100.34
N3015 G0 Z-1.5
N3020 G1 Z-3. F100.34
N3025 G0 Z3.
N3030 Y-767.5
N3035 Z2.
N3040 G1 Z-1. F100.34
N3045 G0 Z-0.5
N3050 G1 Z-2. F100.34
N3055 G0 Z-1.5
N3060 G1 Z-3. F100.34
N3065 G0 Z3.
N3070 Y-792.5
N3075 Z2.
N3080 G1 Z-1. F100.34
N3085 G0 Z-0.5
N3090 G1 Z-2. F100.34
N3095 G0 Z-1.5
N3100 G1 Z-3. F100.34
N3105 G0 Z3.
N3110 Y-817.5
N3115 Z2.
N3120 G1 Z-1. F100.34
N3125 G0 Z-0.5
N3130 G1 Z-2. F100.34
N3135 G0 Z-1.5
N3140 G1 Z-3. F100.34
N3145 G0 Z3.
N3150 X-111. Y-792.5
N3155 Z2.
N3160 G1 Z-1. F100.34
N3165 G0 Z-0.5
N3170 G1 Z-2. F100.34
N3175 G0 Z-1.5
N3180 G1 Z-3. F100.34
N3185 G0 Z3.
N3190 Y-717.5
N3195 Z2.
N3200 G1 Z-1. F100.34
N3205 G0 Z-0.5
N3210 G1 Z-2. F100.34
N3215 G0 Z-1.5
N3220 G1 Z-3. F100.34
N3225 G0 Z3.
N3230 X-39.
N3235 Z2.
N3240 G1 Z-1. F100.34
N3245 G0 Z-0.5
N3250 G1 Z-2. F100.34
N3255 G0 Z-1.5
N3260 G1 Z-3. F100.34
N3265 G0 Z3.
N3270 Y-642.5
N3275 Z2.
N3280 G1 Z-1. F100.34
N3285 G0 Z-0.5
N3290 G1 Z-2. F100.34
N3295 G0 Z-1.5
N3300 G1 Z-3. F100.34
N3305 G0 Z3.
N3310 X-111.
N3315 Z2.
N3320 G1 Z-1. F100.34
N3325 G0 Z-0.5
N3330 G1 Z-2. F100.34
N3335 G0 Z-1.5
N3340 G1 Z-3. F100.34
N3345 G0 Z3.
N3350 Y-567.5
N3355 Z2.
N3360 G1 Z-1. F100.34
N3365 G0 Z-0.5
N3370 G1 Z-2. F100.34
N3375 G0 Z-1.5
N3380 G1 Z-3. F100.34
N3385 G0 Z3.
N3390 X-39.
N3395 Z2.
N3400 G1 Z-1. F100.34
N3405 G0 Z-0.5
N3410 G1 Z-2. F100.34
N3415 G0 Z-1.5
N3420 G1 Z-3. F100.34
N3425 G0 Z3.
N3430 X-111. Y-492.5
N3435 Z2.
N3440 G1 Z-1. F100.34
N3445 G0 Z-0.5
N3450 G1 Z-2. F100.34
N3455 G0 Z-1.5
N3460 G1 Z-3. F100.34
N3465 G0 Z3.
N3470 X-39.
N3475 Z2.
N3480 G1 Z-1. F100.34
N3485 G0 Z-0.5
N3490 G1 Z-2. F100.34
N3495 G0 Z-1.5
N3500 G1 Z-3. F100.34
N3505 G0 Z3.
N3510 Y-417.5
N3515 Z2.
N3520 G1 Z-1. F100.34
N3525 G0 Z-0.5
N3530 G1 Z-2. F100.34
N3535 G0 Z-1.5
N3540 G1 Z-3. F100.34
N3545 G0 Z3.
N3550 X-111.
N3555 Z2.
N3560 G1 Z-1. F100.34
N3565 G0 Z-0.5
N3570 G1 Z-2. F100.34
N3575 G0 Z-1.5
N3580 G1 Z-3. F100.34
N3585 G0 Z3.
N3590 X-39. Y-342.5
N3595 Z2.
N3600 G1 Z-1. F100.34
N3605 G0 Z-0.5
N3610 G1 Z-2. F100.34
N3615 G0 Z-1.5
N3620 G1 Z-3. F100.34
N3625 G0 Z3.
N3630 X-111.
N3635 Z2.
N3640 G1 Z-1. F100.34
N3645 G0 Z-0.5
N3650 G1 Z-2. F100.34
N3655 G0 Z-1.5
N3660 G1 Z-3. F100.34
N3665 G0 Z3.
N3670 Y-267.5
N3675 Z2.
N3680 G1 Z-1. F100.34
N3685 G0 Z-0.5
N3690 G1 Z-2. F100.34
N3695 G0 Z-1.5
N3700 G1 Z-3. F100.34
N3705 G0 Z3.
N3710 X-39.
N3715 Z2.
N3720 G1 Z-1. F100.34
N3725 G0 Z-0.5
N3730 G1 Z-2. F100.34
N3735 G0 Z-1.5
N3740 G1 Z-3. F100.34
N3745 G0 Z3.
N3750 Y-192.5
N3755 Z2.
N3760 G1 Z-1. F100.34
N3765 G0 Z-0.5
N3770 G1 Z-2. F100.34
N3775 G0 Z-1.5
N3780 G1 Z-3. F100.34
N3785 G0 Z3.
N3790 X-111.
N3795 Z2.
N3800 G1 Z-1. F100.34
N3805 G0 Z-0.5
N3810 G1 Z-2. F100.34
N3815 G0 Z-1.5
N3820 G1 Z-3. F100.34
N3825 G0 Z3.
N3830 Y-117.5
N3835 Z2.
N3840 G1 Z-1. F100.34
N3845 G0 Z-0.5
N3850 G1 Z-2. F100.34
N3855 G0 Z-1.5
N3860 G1 Z-3. F100.34
N3865 G0 Z3.
N3870 X-93.605 Y-125.
N3875 Z2.
N3880 G1 Z-1. F100.34
N3885 G0 Z-0.5
N3890 G1 Z-2. F100.34
N3895 G0 Z-1.5
N3900 G1 Z-3. F100.34
N3905 G0 Z3.
N3910 Y-140.
N3915 Z2.
N3920 G1 Z-1. F100.34
N3925 G0 Z-0.5
N3930 G1 Z-2. F100.34
N3935 G0 Z-1.5
N3940 G1 Z-3. F100.34
N3945 G0 Z3.
N3950 X-55.605
N3955 Z2.
N3960 G1 Z-1. F100.34
N3965 G0 Z-0.5
N3970 G1 Z-2. F100.34
N3975 G0 Z-1.5
N3980 G1 Z-3. F100.34
N3985 G0 Z3.
N3990 Y-125.
N3995 Z2.
N4000 G1 Z-1. F100.34
N4005 G0 Z-0.5
N4010 G1 Z-2. F100.34
N4015 G0 Z-1.5
N4020 G1 Z-3. F100.34
N4025 G0 Z3.
N4030 X-39. Y-117.5
N4035 Z2.
N4040 G1 Z-1. F100.34
N4045 G0 Z-0.5
N4050 G1 Z-2. F100.34
N4055 G0 Z-1.5
N4060 G1 Z-3. F100.34
N4065 G0 Z3.
N4070 Z6.
N4080 M9
N4085 G53 Z0.
N4090 M30
%
