%
(1)
(T3  D=2.5 CR=0. TAPER=118DEG - ZMIN=-8.751 - DRILL)
N10 G90 G94 G17 G91.1
N15 G21
N20 G53 G0 Z0.
(DRILL6)
N25 M9
N30 T3 M6
N35 S1910 M3
N40 G54
N45 M8
N55 G0 X-63.57 Y-7.752
N60 G43 Z6. H3
N70 G0 Z3.
N75 G98 G83 X-63.57 Y-7.752 Z-8.751 R3. Q1. F30.34
N80 X-75. Y-7.5
N85 Y-30.
N90 X-63.57 Y-54.892
N95 X-40. Y-31.322
N100 X-16.43 Y-7.752
N105 X-5. Y-7.5
N110 Y-30.
N115 X-16.43 Y-54.892
N120 G80
N125 G0 Z6.
N135 M9
N140 G53 Z0.
N145 M30
%
