%
(1)
(T13  D=5.95 CR=0. - ZMIN=-6.4 - FLAT END MILL)
N10 G90 G94 G17 G91.1
N15 G21
N20 G53 G0 Z0.
(2D CONTOUR8)
N25 M9
N30 T13 M6
N35 S4000 M3
N40 G54
N45 M8
N55 G0 X-54.748 Y-25.054
N60 G43 Z6. H13
N65 #102=1000. (FINISH)
N70 #103=1000. (ENTRY)
N75 #104=1000. (EXIT)
N80 #107=800. (RAMPING)
N85 G0 Z3.
N90 G1 Z2.5 F#103
N95 G3 X-25.252 Y-37.591 Z1.621 I14.748 J-6.268 F#107
N100 X-54.748 Y-25.054 Z0.742 I-14.748 J6.268
N105 X-25.252 Y-37.591 Z-0.136 I14.748 J-6.268
N110 X-54.748 Y-25.054 Z-1.015 I-14.748 J6.268
N115 X-25.252 Y-37.591 Z-1.894 I14.748 J-6.268
N120 X-54.748 Y-25.054 Z-2.773 I-14.748 J6.268
N125 X-25.252 Y-37.591 Z-3.651 I14.748 J-6.268
N130 X-54.748 Y-25.054 Z-4.53 I-14.748 J6.268
N135 X-25.252 Y-37.591 Z-5.409 I14.748 J-6.268
N140 X-54.748 Y-25.054 Z-6.288 I-14.748 J6.268
N145 X-56.025 Y-31.322 Z-6.4 I14.748 J-6.268
N150 X-23.975 I16.025 J0. F#102
N155 X-56.025 I-16.025 J0.
N160 X-23.875 I16.075 J0.
N165 X-56.125 I-16.125 J0.
N170 X-23.875 I16.125 J0.
N175 G1 X-24.173 Z-6.37 F#104
N180 G0 Z6.
N190 M9
N195 G53 Z0.
N200 M30
%
