%
(DRILL PILOT HOLES)
(T3  D=2.5 CR=0. TAPER=118DEG - ZMIN=-6. - DRILL)
N10 G90 G94 G17 G91.1
N15 G21
N20 G53 G0 Z0.
(DRILL1)
N25 M9
N30 T3 M6
N35 S1910 M3
N40 G54
N45 M8
N55 G0 X42.5 Y0.
N60 G43 Z10. H3
N70 G0 Z5.
N75 Z2.
N80 G1 Z-0.625 F3.34
N85 G0 Z-0.525
N90 G1 Z-1.25 F3.34
N95 G0 Z-1.15
N100 G1 Z-1.875 F3.34
N105 G0 Z-1.775
N110 G1 Z-2.5 F3.34
N115 G0 Z-2.4
N120 G1 Z-3.125 F3.34
N125 G0 Z-3.025
N130 G1 Z-3.75 F3.34
N135 G0 Z-3.65
N140 G1 Z-4.375 F3.34
N145 G0 Z-4.275
N150 G1 Z-5. F3.34
N155 G0 Z-4.9
N160 G1 Z-5.625 F3.34
N165 G0 Z-5.525
N170 G1 Z-6. F3.34
N175 G0 Z5.
N180 X-42.5
N185 Z2.
N190 G1 Z-0.625 F3.34
N195 G0 Z-0.525
N200 G1 Z-1.25 F3.34
N205 G0 Z-1.15
N210 G1 Z-1.875 F3.34
N215 G0 Z-1.775
N220 G1 Z-2.5 F3.34
N225 G0 Z-2.4
N230 G1 Z-3.125 F3.34
N235 G0 Z-3.025
N240 G1 Z-3.75 F3.34
N245 G0 Z-3.65
N250 G1 Z-4.375 F3.34
N255 G0 Z-4.275
N260 G1 Z-5. F3.34
N265 G0 Z-4.9
N270 G1 Z-5.625 F3.34
N275 G0 Z-5.525
N280 G1 Z-6. F3.34
N285 G0 Z5.
N290 Z10.
N300 M9
N305 G53 Z0.
N310 M30
%
