%
(EFRON CNC PLATFORM 1.0 ENGRAVE)
(T9  D=3.175 CR=0. TAPER=10DEG - ZMIN=-0.15 - CHAMFER MILL)
N10 G90 G94 G17 G91.1
N15 G21
N20 G53 G0 Z0.
(TRACE1)
N25 M9
N30 T9 M6
(V-BIT ENGRAVER)
N35 S3000 M3
N40 G54
N45 M8
N55 G0 X20.3 Y1.103
N60 G43 Z1. H9
N65 G0 Z0.
N70 G1 Z-0.15 F350.
N75 Y1.158 F100.
N80 X21.609
N85 Y-1.604
N90 X20.334
N95 X20.341 Y-1.549
N100 X21.551
N105 Y-0.33
N110 X20.51
N115 Y-0.276
N120 X21.551
N125 Y1.103
N130 X20.3
N135 Z0. F350.
N140 G0 Z0.5
N145 X19.605
N150 Z0.
N155 G1 Z-0.15 F350.
N160 Y-1.604 F100.
N165 X18.35
N170 X18.357 Y-1.549
N175 X19.547
N180 Y-0.271
N185 X18.518
N190 Y-0.217
N195 X19.547
N200 Y1.158
N205 X19.605
N210 Y1.103
N215 Z0. F350.
N220 G0 Z0.5
N225 X17.694 Y-0.216
N230 Z0.
N235 G1 Z-0.15 F350.
N240 Y-1.604 F100.
N245 X17.109
N250 X16.885 Y-1.591
N255 X16.696 Y-1.555
N260 X16.542 Y-1.495
N265 X16.419 Y-1.414
N270 X16.327 Y-1.311
N275 X16.263 Y-1.189
N280 X16.226 Y-1.048
N285 X16.215 Y-0.889
N290 X16.228 Y-0.727
N295 X16.267 Y-0.588
N300 X16.329 Y-0.472
N305 X16.411 Y-0.377
N310 X16.509 Y-0.301
N315 X16.62 Y-0.244
N320 X16.873 Y-0.179
N325 X16.098 Y1.158
N330 X16.173
N335 X16.938 Y-0.173
N340 X17.636
N345 Y1.158
N350 X17.694
N355 Y-0.216
N360 Z0. F350.
N365 G0 Z0.5
N370 X17.636 Y-0.228
N375 Z0.
N380 G1 Z-0.15 F350.
N385 X17.008 F100.
N390 X16.86 Y-0.237
N395 X16.722 Y-0.265
N400 X16.597 Y-0.313
N405 X16.489 Y-0.383
N410 X16.399 Y-0.474
N415 X16.332 Y-0.588
N420 X16.289 Y-0.726
N425 X16.275 Y-0.889
N430 X16.285 Y-1.035
N435 X16.318 Y-1.165
N440 X16.376 Y-1.278
N445 X16.461 Y-1.373
N450 X16.576 Y-1.448
N455 X16.721 Y-1.503
N460 X16.901 Y-1.537
N465 X17.116 Y-1.549
N470 X17.636
N475 Y-0.228
N480 Z0. F350.
N485 G0 Z0.5
N490 X15.613 Y-0.215
N495 Z0.
N500 G1 Z-0.15 F350.
N505 X15.593 Y-0.535 F100.
N510 X15.536 Y-0.818
N515 X15.443 Y-1.063
N520 X15.318 Y-1.267
N525 X15.163 Y-1.429
N530 X14.981 Y-1.548
N535 X14.774 Y-1.62
N540 X14.546 Y-1.644
N545 X14.312 Y-1.621
N550 X14.103 Y-1.551
N555 X13.92 Y-1.436
N560 X13.766 Y-1.277
N565 X13.642 Y-1.075
N570 X13.552 Y-0.831
N575 X13.495 Y-0.546
N580 X13.476 Y-0.221
N585 X13.494 Y0.097
N590 X13.548 Y0.378
N595 X13.637 Y0.621
N600 X13.758 Y0.823
N605 X13.91 Y0.984
N610 X14.094 Y1.1
N615 X14.306 Y1.172
N620 X14.546 Y1.196
N625 X14.777 Y1.172
N630 X14.985 Y1.102
N635 X15.168 Y0.987
N640 X15.322 Y0.828
N645 X15.446 Y0.626
N650 X15.537 Y0.385
N655 X15.594 Y0.104
N660 X15.613 Y-0.215
N665 Z0. F350.
N670 G0 Z0.5
N675 X13.536 Y-0.221
N680 Z0.
N685 G1 Z-0.15 F350.
N690 X13.554 Y-0.535 F100.
N695 X13.607 Y-0.81
N700 X13.693 Y-1.044
N705 X13.809 Y-1.238
N710 X13.954 Y-1.391
N715 X14.127 Y-1.5
N720 X14.325 Y-1.567
N725 X14.546 Y-1.589
N730 X14.762 Y-1.566
N735 X14.957 Y-1.498
N740 X15.129 Y-1.386
N745 X15.275 Y-1.231
N750 X15.393 Y-1.035
N755 X15.48 Y-0.8
N760 X15.534 Y-0.526
N765 X15.553 Y-0.215
N770 X15.535 Y0.092
N775 X15.481 Y0.363
N780 X15.395 Y0.596
N785 X15.278 Y0.789
N790 X15.132 Y0.941
N795 X14.96 Y1.051
N800 X14.764 Y1.118
N805 X14.546 Y1.141
N810 X14.318 Y1.118
N815 X14.117 Y1.051
N820 X13.944 Y0.94
N825 X13.8 Y0.787
N830 X13.686 Y0.593
N835 X13.604 Y0.359
N840 X13.554 Y0.088
N845 X13.536 Y-0.221
N850 Z0. F350.
N855 G0 Z0.5
N860 X12.639 Y-0.216
N865 Z0.
N870 G1 Z-0.15 F350.
N875 Y-1.604 F100.
N880 X12.565
N885 X11.039 Y1.092
N890 X11.046 Y0.439
N895 Y-1.604
N900 X10.989
N905 Y1.158
N910 X11.062
N915 X12.59 Y-1.538
N920 X12.586 Y-1.438
N925 X12.584 Y-1.31
N930 X12.583 Y-1.147
N935 Y-0.936
N940 Y1.158
N945 X12.639
N950 Y-0.216
N955 Z0. F350.
N960 G0 Z0.5
N965 X8.871 Y0.321
N970 Z0.
N975 G1 Z-0.15 F350.
N980 X8.911 Y0.104 F100.
N985 X8.93 Y-0.136
N990 X8.926 Y-0.395
N995 X8.899 Y-0.635
N1000 X8.851 Y-0.849
N1005 X8.782 Y-1.037
N1010 X8.695 Y-1.199
N1015 X8.591 Y-1.336
N1020 X8.471 Y-1.448
N1025 X8.337 Y-1.534
N1030 X8.191 Y-1.595
N1035 X8.033 Y-1.632
N1040 X7.866 Y-1.644
N1045 Y-1.645
N1050 X7.662 Y-1.627
N1055 X7.493 Y-1.578
N1060 X7.353 Y-1.503
N1065 X7.229 Y-1.41
N1070 X7.261 Y-1.367
N1075 X7.385 Y-1.458
N1080 X7.519 Y-1.529
N1085 X7.675 Y-1.574
N1090 X7.863 Y-1.589
N1095 X8.071 Y-1.569
N1100 X8.263 Y-1.508
N1105 X8.435 Y-1.405
N1110 X8.583 Y-1.258
N1115 X8.704 Y-1.068
N1120 X8.794 Y-0.832
N1125 X8.851 Y-0.55
N1130 X8.871 Y-0.221
N1135 X8.852 Y0.094
N1140 X8.796 Y0.368
N1145 X8.707 Y0.602
N1150 X8.588 Y0.794
N1155 X8.442 Y0.944
N1160 X8.272 Y1.052
N1165 X8.081 Y1.117
N1170 X7.872 Y1.139
N1175 X7.658 Y1.119
N1180 X7.486 Y1.066
N1185 X7.347 Y0.99
N1190 X7.23 Y0.902
N1195 X7.194 Y0.946
N1200 X7.39 Y1.082
N1205 X7.511 Y1.136
N1210 X7.651 Y1.175
N1215 X7.814 Y1.195
N1220 X7.859 Y1.196
N1225 X7.931 Y1.195
N1230 X8.097 Y1.173
N1235 X8.251 Y1.125
N1240 X8.393 Y1.053
N1245 X8.522 Y0.955
N1250 X8.635 Y0.832
N1255 X8.732 Y0.686
N1260 X8.811 Y0.515
N1265 X8.871 Y0.321
N1270 Z0. F350.
N1275 G0 Z0.5
N1280 X6.578 Y0.948
N1285 Z0.
N1290 G1 Z-0.15 F350.
N1295 Y-1.604 F100.
N1300 X6.504
N1305 X4.978 Y1.092
N1310 X4.985 Y0.439
N1315 Y-1.604
N1320 X4.928
N1325 Y1.158
N1330 X5.001
N1335 X6.529 Y-1.538
N1340 X6.525 Y-1.438
N1345 X6.523 Y-1.31
N1350 X6.522 Y-1.147
N1355 Y-0.936
N1360 Y1.158
N1365 X6.578
N1370 Y0.948
N1375 Z0. F350.
N1380 G0 Z0.5
N1385 X4.02 Y0.359
N1390 Z0.
N1395 G1 Z-0.15 F350.
N1400 X4.031 Y0.321 F100.
N1405 X4.072 Y0.104
N1410 X4.09 Y-0.136
N1415 X4.086 Y-0.395
N1420 X4.059 Y-0.635
N1425 X4.011 Y-0.849
N1430 X3.942 Y-1.037
N1435 X3.855 Y-1.199
N1440 X3.751 Y-1.336
N1445 X3.631 Y-1.448
N1450 X3.497 Y-1.534
N1455 X3.351 Y-1.595
N1460 X3.194 Y-1.632
N1465 X3.027 Y-1.644
N1470 Y-1.645
N1475 X2.822 Y-1.627
N1480 X2.654 Y-1.578
N1485 X2.513 Y-1.503
N1490 X2.389 Y-1.41
N1495 X2.421 Y-1.367
N1500 X2.545 Y-1.458
N1505 X2.679 Y-1.529
N1510 X2.835 Y-1.574
N1515 X3.023 Y-1.589
N1520 X3.231 Y-1.569
N1525 X3.423 Y-1.508
N1530 X3.595 Y-1.405
N1535 X3.743 Y-1.258
N1540 X3.864 Y-1.068
N1545 X3.955 Y-0.832
N1550 X4.012 Y-0.55
N1555 X4.031 Y-0.221
N1560 X4.012 Y0.094
N1565 X3.956 Y0.368
N1570 X3.868 Y0.602
N1575 X3.748 Y0.794
N1580 X3.602 Y0.944
N1585 X3.432 Y1.052
N1590 X3.241 Y1.117
N1595 X3.032 Y1.139
N1600 X2.818 Y1.119
N1605 X2.646 Y1.066
N1610 X2.507 Y0.99
N1615 X2.39 Y0.902
N1620 X2.354 Y0.946
N1625 X2.55 Y1.082
N1630 X2.671 Y1.136
N1635 X2.812 Y1.175
N1640 X2.974 Y1.195
N1645 X3.019 Y1.196
N1650 X3.092 Y1.195
N1655 X3.257 Y1.173
N1660 X3.412 Y1.125
N1665 X3.554 Y1.053
N1670 X3.682 Y0.955
N1675 X3.795 Y0.832
N1680 X3.892 Y0.686
N1685 X3.971 Y0.515
N1690 X4.02 Y0.359
N1695 Z0. F350.
N1700 G0 Z0.5
N1705 X0.517 Y0.948
N1710 Z0.
N1715 G1 Z-0.15 F350.
N1720 Y-1.604 F100.
N1725 X-0.016
N1730 X-0.24 Y-1.593
N1735 X-0.435 Y-1.558
N1740 X-0.601 Y-1.499
N1745 X-0.737 Y-1.415
N1750 X-0.843 Y-1.305
N1755 X-0.92 Y-1.167
N1760 X-0.966 Y-1.001
N1765 X-0.981 Y-0.806
N1770 X-0.963 Y-0.604
N1775 X-0.911 Y-0.434
N1780 X-0.827 Y-0.295
N1785 X-0.713 Y-0.184
N1790 X-0.571 Y-0.101
N1795 X-0.403 Y-0.044
N1800 X-0.212 Y-0.011
N1805 X0. Y0.
N1810 X0.459
N1815 Y1.158
N1820 X0.517
N1825 Y0.948
N1830 Z0. F350.
N1835 G0 Z0.5
N1840 X0.459 Y-0.055
N1845 Z0.
N1850 G1 Z-0.15 F350.
N1855 X-0.005 F100.
N1860 X-0.203 Y-0.064
N1865 X-0.38 Y-0.094
N1870 X-0.537 Y-0.146
N1875 X-0.669 Y-0.222
N1880 X-0.776 Y-0.324
N1885 X-0.855 Y-0.454
N1890 X-0.904 Y-0.613
N1895 X-0.921 Y-0.804
N1900 X-0.906 Y-0.99
N1905 X-0.864 Y-1.147
N1910 X-0.793 Y-1.275
N1915 X-0.693 Y-1.377
N1920 X-0.566 Y-1.454
N1925 X-0.411 Y-1.508
N1930 X-0.227 Y-1.539
N1935 X-0.016 Y-1.549
N1940 X0.459
N1945 Y-0.055
N1950 Z0. F350.
N1955 G0 Z0.5
N1960 X-1.738 Y-0.056
N1965 Z0.
N1970 G1 Z-0.15 F350.
N1975 Y-1.604 F100.
N1980 X-1.797
N1985 Y1.101
N1990 X-2.967
N1995 X-2.956 Y1.158
N2000 X-1.738
N2005 Y-0.056
N2010 Z0. F350.
N2015 G0 Z0.5
N2020 X-3.174 Y1.158
N2025 Z0.
N2030 G1 Z-0.15 F350.
N2035 X-4.141 Y-1.604 F100.
N2040 X-4.212
N2045 X-5.184 Y1.158
N2050 X-5.122
N2055 X-4.829 Y0.318
N2060 X-3.525
N2065 X-3.233 Y1.158
N2070 X-3.174
N2075 Z0. F350.
N2080 G0 Z0.5
N2085 X-6.039
N2090 Z0.
N2095 G1 Z-0.15 F350.
N2100 Y-1.547 F100.
N2105 X-5.179
N2110 Y-1.604
N2115 X-6.966
N2120 X-6.957 Y-1.547
N2125 X-6.097
N2130 Y1.158
N2135 X-6.039
N2140 Z0. F350.
N2145 G0 Z0.5
N2150 X-7.54
N2155 Z0.
N2160 G1 Z-0.15 F350.
N2165 Y-1.604 F100.
N2170 X-8.795
N2175 X-8.788 Y-1.549
N2180 X-7.598
N2185 Y-0.271
N2190 X-8.627
N2195 Y-0.217
N2200 X-7.598
N2205 Y1.158
N2210 X-7.54
N2215 Z0. F350.
N2220 G0 Z0.5
N2225 X-9.268 Y-0.215
N2230 Z0.
N2235 G1 Z-0.15 F350.
N2240 X-9.288 Y-0.535 F100.
N2245 X-9.345 Y-0.818
N2250 X-9.438 Y-1.063
N2255 X-9.563 Y-1.267
N2260 X-9.718 Y-1.429
N2265 X-9.9 Y-1.548
N2270 X-10.107 Y-1.62
N2275 X-10.335 Y-1.644
N2280 X-10.569 Y-1.621
N2285 X-10.778 Y-1.551
N2290 X-10.961 Y-1.436
N2295 X-11.115 Y-1.277
N2300 X-11.239 Y-1.075
N2305 X-11.33 Y-0.831
N2310 X-11.386 Y-0.546
N2315 X-11.405 Y-0.221
N2320 X-11.387 Y0.097
N2325 X-11.333 Y0.378
N2330 X-11.245 Y0.621
N2335 X-11.123 Y0.823
N2340 X-10.971 Y0.984
N2345 X-10.787 Y1.1
N2350 X-10.575 Y1.172
N2355 X-10.335 Y1.196
N2360 X-10.104 Y1.172
N2365 X-9.896 Y1.102
N2370 X-9.713 Y0.987
N2375 X-9.559 Y0.828
N2380 X-9.435 Y0.626
N2385 X-9.344 Y0.385
N2390 X-9.287 Y0.104
N2395 X-9.268 Y-0.215
N2400 Z0. F350.
N2405 G0 Z0.5
N2410 X-11.344 Y-0.221
N2415 Z0.
N2420 G1 Z-0.15 F350.
N2425 X-11.327 Y-0.535 F100.
N2430 X-11.274 Y-0.81
N2435 X-11.189 Y-1.044
N2440 X-11.072 Y-1.238
N2445 X-10.927 Y-1.391
N2450 X-10.754 Y-1.5
N2455 X-10.557 Y-1.567
N2460 X-10.335 Y-1.589
N2465 X-10.119 Y-1.566
N2470 X-9.924 Y-1.498
N2475 X-9.752 Y-1.386
N2480 X-9.606 Y-1.231
N2485 X-9.488 Y-1.035
N2490 X-9.401 Y-0.8
N2495 X-9.347 Y-0.526
N2500 X-9.328 Y-0.215
N2505 X-9.346 Y0.092
N2510 X-9.4 Y0.363
N2515 X-9.486 Y0.596
N2520 X-9.603 Y0.789
N2525 X-9.749 Y0.941
N2530 X-9.921 Y1.051
N2535 X-10.117 Y1.118
N2540 X-10.335 Y1.141
N2545 X-10.563 Y1.118
N2550 X-10.764 Y1.051
N2555 X-10.937 Y0.94
N2560 X-11.081 Y0.787
N2565 X-11.194 Y0.593
N2570 X-11.277 Y0.359
N2575 X-11.328 Y0.088
N2580 X-11.344 Y-0.221
N2585 Z0. F350.
N2590 G0 Z0.5
N2595 X-12.241 Y-0.216
N2600 Z0.
N2605 G1 Z-0.15 F350.
N2610 Y-1.604 F100.
N2615 X-12.827
N2620 X-13.051 Y-1.591
N2625 X-13.24 Y-1.555
N2630 X-13.394 Y-1.495
N2635 X-13.517 Y-1.414
N2640 X-13.609 Y-1.311
N2645 X-13.672 Y-1.189
N2650 X-13.709 Y-1.048
N2655 X-13.721 Y-0.889
N2660 X-13.708 Y-0.727
N2665 X-13.668 Y-0.588
N2670 X-13.606 Y-0.472
N2675 X-13.525 Y-0.377
N2680 X-13.427 Y-0.301
N2685 X-13.315 Y-0.244
N2690 X-13.063 Y-0.179
N2695 X-13.838 Y1.158
N2700 X-13.763
N2705 X-12.998 Y-0.173
N2710 X-12.3
N2715 Y1.158
N2720 X-12.241
N2725 Y-0.216
N2730 Z0. F350.
N2735 G0 Z0.5
N2740 X-12.825 Y-1.548
N2745 Z0.
N2750 G1 Z-0.15 F350.
N2755 X-12.82 Y-1.549 F100.
N2760 X-12.3
N2765 Y-0.228
N2770 X-12.927
N2775 X-13.076 Y-0.237
N2780 X-13.214 Y-0.265
N2785 X-13.339 Y-0.313
N2790 X-13.447 Y-0.383
N2795 X-13.537 Y-0.474
N2800 X-13.604 Y-0.588
N2805 X-13.646 Y-0.726
N2810 X-13.661 Y-0.889
N2815 X-13.651 Y-1.035
N2820 X-13.618 Y-1.165
N2825 X-13.559 Y-1.278
N2830 X-13.474 Y-1.373
N2835 X-13.36 Y-1.448
N2840 X-13.215 Y-1.503
N2845 X-13.035 Y-1.537
N2850 X-12.825 Y-1.548
N2855 Z0. F350.
N2860 G0 Z0.5
N2865 X-14.641 Y-1.346
N2870 Z0.
N2875 G1 Z-0.15 F350.
N2880 X-14.67 Y-1.604 F100.
N2885 X-14.757
N2890 X-15.576 Y0.743
N2895 X-16.39 Y-1.604
N2900 X-16.479
N2905 X-16.791 Y1.158
N2910 X-16.734
N2915 X-16.571 Y-0.257
N2920 X-16.491 Y-0.968
N2925 X-16.455 Y-1.291
N2930 X-16.44 Y-1.43
N2935 X-16.427 Y-1.548
N2940 X-15.605 Y0.816
N2945 X-15.548
N2950 X-14.718 Y-1.548
N2955 X-14.709 Y-1.451
N2960 X-14.695 Y-1.325
N2965 X-14.66 Y-1.008
N2970 X-14.578 Y-0.289
N2975 X-14.42 Y1.158
N2980 X-14.363
N2985 X-14.641 Y-1.346
N2990 Z0. F350.
N2995 G0 Z0.5
N3000 X-18.566 Y-1.043
N3005 Z0.
N3010 G1 Z-0.15 F350.
N3015 X-19.324 Y-1.523 F100.
N3020 X-19.371
N3025 Y1.158
N3030 X-19.314
N3035 Y-1.456
N3040 X-18.595 Y-0.997
N3045 X-18.566 Y-1.043
N3050 Z0. F350.
N3055 G0 Z0.5
N3060 X-20.15 Y1.118
N3065 Z0.
N3070 G1 Z-0.15 F350.
N3075 X-20.169 Y1.069 F100.
N3080 X-20.218 Y1.049
N3085 X-20.268 Y1.069
N3090 X-20.286 Y1.118
N3095 X-20.268 Y1.165
N3100 X-20.218 Y1.184
N3105 X-20.169 Y1.165
N3110 X-20.15 Y1.118
N3115 Z0. F350.
N3120 G0 Z0.5
N3125 X-21.006 Y0.803
N3130 Z0.
N3135 G1 Z-0.15 F350.
N3140 X-20.941 Y0.653 F100.
N3145 X-20.88 Y0.416
N3150 X-20.843 Y0.136
N3155 X-20.831 Y-0.187
N3160 X-20.843 Y-0.509
N3165 X-20.88 Y-0.789
N3170 X-20.941 Y-1.027
N3175 X-21.026 Y-1.221
N3180 X-21.136 Y-1.372
N3185 X-21.27 Y-1.48
N3190 X-21.427 Y-1.545
N3195 X-21.609 Y-1.567
N3200 X-21.79 Y-1.545
N3205 X-21.948 Y-1.48
N3210 X-22.081 Y-1.372
N3215 X-22.19 Y-1.22
N3220 X-22.275 Y-1.026
N3225 X-22.336 Y-0.788
N3230 X-22.373 Y-0.507
N3235 X-22.385 Y-0.183
N3240 X-22.373 Y0.139
N3245 X-22.336 Y0.419
N3250 X-22.275 Y0.656
N3255 X-22.19 Y0.85
N3260 X-22.08 Y1.001
N3265 X-21.947 Y1.109
N3270 X-21.79 Y1.174
N3275 X-21.609 Y1.196
N3280 X-21.427 Y1.174
N3285 X-21.27 Y1.109
N3290 X-21.136 Y1.
N3295 X-21.026 Y0.848
N3300 X-21.006 Y0.803
N3305 Z0. F350.
N3310 G0 Z0.5
N3315 X-22.327 Y-0.183
N3320 Z0.
N3325 G1 Z-0.15 F350.
N3330 X-22.316 Y-0.494 F100.
N3335 X-22.282 Y-0.764
N3340 X-22.226 Y-0.993
N3345 X-22.148 Y-1.18
N3350 X-22.047 Y-1.326
N3355 X-21.924 Y-1.43
N3360 X-21.778 Y-1.493
N3365 X-21.609 Y-1.513
N3370 X-21.441 Y-1.493
N3375 X-21.295 Y-1.431
N3380 X-21.171 Y-1.327
N3385 X-21.07 Y-1.182
N3390 X-20.991 Y-0.995
N3395 X-20.934 Y-0.767
N3400 X-20.9 Y-0.498
N3405 X-20.889 Y-0.187
N3410 X-20.9 Y0.124
N3415 X-20.934 Y0.394
N3420 X-20.991 Y0.622
N3425 X-21.07 Y0.809
N3430 X-21.171 Y0.955
N3435 X-21.295 Y1.059
N3440 X-21.441 Y1.122
N3445 X-21.609 Y1.143
N3450 X-21.777 Y1.122
N3455 X-21.923 Y1.06
N3460 X-22.046 Y0.956
N3465 X-22.147 Y0.811
N3470 X-22.226 Y0.625
N3475 X-22.282 Y0.397
N3480 X-22.316 Y0.128
N3485 X-22.327 Y-0.183
N3490 Z0. F350.
N3495 G0 Z0.5
N3500 X-4.81 Y0.263
N3505 Z0.
N3510 G1 Z-0.15 F350.
N3515 X-4.177 Y-1.556 F100.
N3520 X-3.544 Y0.263
N3525 X-4.81
N3530 Z0. F350.
N3535 G0 Z1.
N3545 M9
N3550 G53 Z0.
N3555 M30
%
