%
(T1 WALL SOCKET ACTIVE XLR BOTTOM ALL)
(T1  D=6. CR=0. - ZMIN=-5. - FLAT END MILL)
N5 G64P0.05
N10 G90 G94 G17 G91.1
N15 G21
N20 G53 G0 Z0.
(2D ADAPTIVE1 2)
N25 M9
N30 T1 M6
N35 S3300 M3
N40 G54
N45 M8
N55 G0 X12.199 Y-2.497
N60 G43 Z10. H1
N65 #100=1000. (CUTTING)
N70 #103=900. (ENTRY)
N75 #104=1000. (EXIT)
N80 #105=1000. (DIRECT)
N85 #107=700. (RAMPING)
N90 G0 Z3.15
N95 G1 Z2.55 F#103
N100 S2800
N105 G3 X9.047 Y2.252 Z2.237 I-1.576 J2.375 F#107
N110 X12.199 Y-2.497 Z1.925 I1.576 J-2.375
N115 X9.047 Y2.252 Z1.612 I-1.576 J2.375
N120 X12.199 Y-2.497 Z1.299 I1.576 J-2.375
N125 X9.047 Y2.252 Z0.987 I-1.576 J2.375
N130 X12.199 Y-2.497 Z0.674 I1.576 J-2.375
N135 X9.047 Y2.252 Z0.361 I-1.576 J2.375
N140 X12.199 Y-2.497 Z0.049 I1.576 J-2.375
N145 X9.047 Y2.252 Z-0.264 I-1.576 J2.375
N150 X12.199 Y-2.497 Z-0.577 I1.576 J-2.375
N155 X9.047 Y2.252 Z-0.889 I-1.576 J2.375
N160 X12.199 Y-2.497 Z-1.202 I1.576 J-2.375
N165 X13.473 Y-0.123 Z-1.3 I-1.576 J2.375
N170 X7.773 I-2.85 J0.
N175 X13.473 I2.85 J0.
N180 S3300
N185 G1 X13.476 Y0.103 F#100
N190 X13.634 Y0.99
N195 G3 X13.427 Y2.616 I-1.804 J0.598
N200 X11.378 Y4.145 I-2.766 J-1.57
N205 X7.148 Y2.765 I-1.033 J-4.007
N210 X11.224 Y-4.637 I3.449 J-2.924
N215 X14.5 Y-2.526 I-0.556 J4.46
N220 G1 X14.824 Y-1.958
N225 X15.146 Y-1.265
N230 G3 X15.614 Y1.46 I-5.302 J2.313
N235 X12.265 Y5.749 I-5.042 J-0.485
N240 X6.867 Y5.029 I-2.018 J-5.46
N245 X5.161 Y-3.575 I3.625 J-5.191
N250 X15.117 Y-4.783 I5.468 J3.429
N255 X17.597 Y0.245 I-5.473 J5.825
N260 X13.025 Y7.572 I-7.132 J0.64
N265 X6.357 Y7.087 I-2.824 J-7.235
N270 X2.136 Y-0.02 I4.035 J-7.204
N275 X15.342 Y-7.208 I8.487 J-0.134
N280 X17.607 Y-5.132 I-5.039 J7.771
N285 X19.696 Y1.368 I-7.569 J6.02
N290 X13.906 Y9.462 I-9.288 J-0.526
N295 X7.716 Y9.881 I-3.72 J-9.024
N300 X1.808 Y5.706 I2.549 J-9.875
N305 X0.715 Y-3.973 I8.689 J-5.883
N310 X14.838 Y-9.9 I9.911 J3.827
N315 X17.855 Y-7.99 I-4.337 J10.19
N320 X21.862 Y0.761 I-7.836 J8.882
N325 X20.212 Y6.768 I-11.481 J0.076
N330 X13.143 Y11.984 I-9.888 J-6.001
N335 X6.05 Y11.628 I-2.967 J-11.709
N340 X2.786 Y9.849 I4.01 J-11.24
N345 G2 X1.98 Y9.127 I-3.608 J3.217
N350 G3 X-1.476 Y3.934 I8.078 J-9.122
N355 X-1.806 Y-3.169 I11.872 J-4.111
N360 X2.395 Y-9.944 I12.344 J2.964
N365 X8.502 Y-12.754 I8.113 J9.591
N370 G1 X8.583 Y-12.75
N375 X11.156
N380 X12.056 Y-12.705
N385 X12.864 Y-12.632
N390 G3 X16.264 Y-11.615 I-1.544 J11.354
N395 X21.12 Y-7.684 I-5.685 J11.988
N400 X23.212 Y-3.868 I-10.382 J8.173
N405 G1 X23.239 Y-3.697
N410 X23.25 Y-3.526
N415 Y3.378
N420 G3 X22.767 Y6.154 I-8.575 J-0.063
N425 G1 X22.473 Y6.908
N430 G3 X20.548 Y9.921 I-10.758 J-4.756
N435 X17.399 Y12.547 I-9.657 J-8.379
N440 G1 X17.169 Y12.658
N445 X16.924 Y12.727
N450 X16.67 Y12.75
N455 X5.425
N460 X4.962 Y12.727
N465 X4.662 Y12.688
N470 G3 X3.451 Y11.444 I0.182 J-1.388
N475 X4.34 Y10.878 I0.599 J-0.041 F#104
N480 G1 X5.694 Y11.625 F#105
N485 G3 X5.652 Y12.696 I-0.29 J0.525
N490 X5.425 Y12.75 I-0.249 J-0.546 F#103
N495 G2 X4.096 Y12.911 I-0.136 J4.448 F#100
N500 G3 X3.446 Y12.282 I-0.01 J-0.639
N505 G1 X3.463 Y12.067
N510 X3.479 Y12.014 Z-1.293 F#104
N515 X3.494 Y11.965 Z-1.274
N520 X3.507 Y11.921 Z-1.243
N525 X3.517 Y11.885 Z-1.202
N530 X3.525 Y11.859 Z-1.153
N535 X3.531 Y11.847 Z-1.11
N540 X3.533 Y11.844 Z-1.064
N545 G0 Z5.
N550 X2.436 Y9.393
N555 Z-0.7
N560 G1 Z-1.3 F#103
N565 G3 X2.217 Y9.314 I0.048 J-0.478
N570 G2 X0.568 Y8.707 I-1.86 J2.513 F#100
N575 G3 X-1.053 Y7.907 I0.853 J-3.77
N580 X-2.56 Y6.228 I4.292 J-5.365
N585 G1 X-2.937 Y5.603
N590 G3 X-4.108 Y2.288 I9.982 J-5.391
N595 X-1.599 Y-8.831 I14.328 J-2.61
N600 X2.614 Y-12.818 I11.784 J8.236
N605 X3.889 Y-13.056 I1.782 J6.007
N610 G2 X5.014 Y-12.765 I2.223 J-6.289
N615 G1 X5.22 Y-12.756
N620 X5.834 Y-12.75
N625 X8.583
N630 G3 X9.122 Y-11.934 I-0.021 J0.6 F#104
N635 G1 X1.301 Y8.341 F#105
N640 G3 X0.948 Y8.688 I-0.56 J-0.216
N645 X0.716 Y8.724 I-0.207 J-0.563 F#103
N650 G1 X0.512 Y8.709 F#100
N655 X0.307 Y8.702
N660 X-1.126
N665 G3 X-2.889 Y8.098 I0.164 J-3.353
N670 X-4.314 Y6.788 I3.177 J-4.89
N675 G1 X-4.697 Y6.273
N680 X-5.062 Y5.686
N685 X-5.426 Y4.982
N690 G3 X-6.411 Y1.552 I10.827 J-4.967
N695 X-4.241 Y-8.839 I16.211 J-2.036
N700 X-1.364 Y-12.521 I14.317 J8.224
N705 X-0.406 Y-12.898 I0.962 J1.037
N710 G1 X2.354
N715 X2.968 Y-12.916
N720 X2.985 Y-12.919
N725 G3 X3.643 Y-12.202 I0.07 J0.596 F#104
N730 G1 X-0.559 Y8.223 F#105
N735 G3 X-0.898 Y8.648 I-0.588 J-0.121
N740 X-1.126 Y8.702 I-0.249 J-0.546 F#103
N745 G1 X-3.173 F#100
N750 G3 X-5.062 Y8.09 I0.065 J-3.42
N755 X-6.492 Y6.78 I3.179 J-4.905
N760 G1 X-6.884 Y6.251
N765 X-7.249 Y5.665
N770 X-7.607 Y4.971
N775 G3 X-8.596 Y1.543 I11.013 J-5.035
N780 X-8.278 Y-4.719 I16.764 J-2.287
N785 X-4.53 Y-12.374 I18.456 J4.292
N790 X-3.437 Y-12.898 I1.093 J0.879
N795 G1 X-0.406
N800 G3 X0.168 Y-12.218 I-0.021 J0.6 F#104
N805 G1 X-2.599 Y8.183 F#105
N810 G3 X-2.945 Y8.648 I-0.595 J-0.081
N815 X-3.173 Y8.702 I-0.249 J-0.546 F#103
N820 G1 X-5.425 F#100
N825 G3 X-7.238 Y8.09 I0.142 J-3.414
N830 X-8.67 Y6.778 I3.182 J-4.912
N835 G1 X-9.064 Y6.248
N840 X-9.43 Y5.66
N845 X-9.792 Y4.959
N850 G3 X-10.793 Y1.517 I11.275 J-5.146
N855 X-10.571 Y-4.753 I17.703 J-2.513
N860 X-7.371 Y-12.329 I20.348 J4.13
N865 X-6.241 Y-12.898 I1.136 J0.849
N870 G1 X-3.437
N875 G3 X-2.861 Y-12.24 I-0.021 J0.6 F#104
N880 G1 X-4.848 Y8.161 F#105
N885 G3 X-5.197 Y8.648 I-0.597 J-0.058
N890 X-5.425 Y8.702 I-0.249 J-0.546 F#103
N895 G1 X-7.676 F#100
N900 G3 X-9.452 Y8.069 I0.226 J-3.441
N905 X-10.897 Y6.72 I3.283 J-4.967
N910 G1 X-11.291 Y6.179
N915 X-11.666 Y5.563
N920 X-12.029 Y4.842
N925 G3 X-13.012 Y1.387 I11.72 J-5.201
N930 X-12.846 Y-4.888 I18.754 J-2.642
N935 X-10.059 Y-12.309 I21.946 J4.006
N940 X-8.911 Y-12.899 I1.16 J0.846
N945 G1 X-6.241 Y-12.898
N950 G3 X-5.663 Y-12.256 I-0.021 J0.6 F#104
N955 G1 X-7.099 Y8.144 F#105
N960 G3 X-7.448 Y8.648 I-0.599 J-0.042
N965 X-7.676 Y8.702 I-0.249 J-0.546 F#103
N970 G1 X-9.723 F#100
N975 G3 X-11.606 Y8.082 I0.088 J-3.435
N980 X-13.049 Y6.756 I3.213 J-4.947
N985 G1 X-13.441 Y6.228
N990 X-13.814 Y5.63
N995 X-14.189 Y4.903
N1000 G3 X-15.209 Y1.458 I11.821 J-5.373
N1005 X-15.154 Y-4.821 I19.411 J-2.97
N1010 X-12.996 Y-11.671 I23.939 J3.777
N1015 G1 X-12.689 Y-12.224
N1020 G3 X-11.491 Y-12.898 I1.201 J0.732
N1025 G1 X-8.911
N1030 G3 X-8.333 Y-12.274 I-0.021 J0.6 F#104
N1035 G1 X-9.145 Y8.126 F#105
N1040 G3 X-9.495 Y8.648 I-0.6 J-0.024
N1045 X-9.723 Y8.702 I-0.249 J-0.546 F#103
N1050 G1 X-11.975 F#100
N1055 G3 X-13.787 Y8.086 I0.159 J-3.437
N1060 X-15.241 Y6.751 I3.238 J-4.99
N1065 G1 X-15.643 Y6.211
N1070 X-16.021 Y5.603
N1075 X-16.4 Y4.869
N1080 G3 X-17.428 Y1.426 I12.085 J-5.483
N1085 X-17.446 Y-4.856 I20.228 J-3.199
N1090 X-15.489 Y-11.712 I25.234 J3.497
N1095 G1 X-15.21 Y-12.224
N1100 G3 X-14.012 Y-12.898 I1.199 J0.729
N1105 G1 X-11.491
N1110 G3 X-10.912 Y-12.284 I-0.021 J0.6 F#104
N1115 G1 X-11.396 Y8.117 F#105
N1120 G3 X-11.747 Y8.648 I-0.6 J-0.014
N1125 X-11.975 Y8.702 I-0.249 J-0.546 F#103
N1130 G1 X-14.227 F#100
N1135 G3 X-16.022 Y8.058 I0.233 J-3.476
N1140 X-17.495 Y6.679 I3.36 J-5.063
N1145 G1 X-17.899 Y6.122
N1150 X-18.289 Y5.481
N1155 X-18.669 Y4.723
N1160 G3 X-19.673 Y1.272 I12.591 J-5.534
N1165 X-19.591 Y-5.903 I21.76 J-3.34
N1170 X-17.924 Y-11.784 I24.817 J3.861
N1175 G1 X-17.719 Y-12.153
N1180 G3 X-16.482 Y-12.898 I1.237 J0.655
N1185 G1 X-14.012
N1190 G3 X-13.433 Y-12.292 I-0.021 J0.6 F#104
N1195 G1 X-13.648 Y8.109 F#105
N1200 G3 X-13.999 Y8.648 I-0.6 J-0.006
N1205 X-14.227 Y8.702 I-0.249 J-0.546 F#103
N1210 G1 X-16.274 F#100
N1215 G3 X-18.192 Y8.071 I0.083 J-3.482
N1220 X-19.662 Y6.719 I3.282 J-5.045
N1225 G1 X-20.059 Y6.184
N1230 X-20.449 Y5.558
N1235 X-20.841 Y4.797
N1240 G3 X-21.884 Y1.358 I12.622 J-5.706
N1245 X-22.03 Y-4.925 I21.644 J-3.646
N1250 X-20.652 Y-11.065 I27.23 J2.887
N1255 G1 X-20.379 Y-11.723
N1260 X-20.126 Y-12.219
N1265 G3 X-18.926 Y-12.898 I1.2 J0.722
N1270 G1 X-16.482
N1275 G3 X-15.903 Y-12.304 I-0.021 J0.6 F#104
N1280 G1 X-15.695 Y8.096 F#105
N1285 G3 X-16.046 Y8.648 I-0.6 J0.006
N1290 X-16.274 Y8.702 I-0.249 J-0.546 F#103
N1295 G1 X-18.525 F#100
N1300 G3 X-20.39 Y8.074 I0.133 J-3.479
N1305 X-21.873 Y6.713 I3.304 J-5.085
N1310 G1 X-22.283 Y6.16
N1315 X-22.676 Y5.529
N1320 G3 X-23.879 Y2.411 I10.231 J-5.741
N1325 G1 X-23.895 Y2.29
N1330 X-23.9 Y2.168
N1335 Y-5.629
N1340 X-23.855 Y-6.529
N1345 G3 X-22.818 Y-11.598 I16.584 J0.751
N1350 G1 X-22.595 Y-12.073
N1355 G3 X-21.606 Y-12.868 I1.305 J0.61
N1360 G1 X-21.311 Y-12.898
N1365 X-18.926
N1370 G3 X-18.445 Y-11.97 I-0.021 J0.6 F#104
N1375 G1 X-22.798 Y-5.321 F#105
N1380 G3 X-23.846 Y-5.401 I-0.502 J-0.329
N1385 X-23.9 Y-5.629 I0.546 J-0.249 F#103
N1390 G1 Y-11.156 F#100
N1395 G3 X-23.929 Y-11.811 I18.995 J-1.164
N1400 X-23.302 Y-12.809 I1.264 J0.098
N1405 G1 X-23.02 Y-12.927
N1410 X-22.719 Y-12.973
N1415 X-22.415 Y-12.945
N1420 G3 X-21.434 Y-11.699 I-0.19 J1.159 F#104
N1425 X-23.857 Y-11.339 I-1.252 J-0.094 F#105
N1430 X-23.921 Y-11.566 I1.171 J-0.453 F#103
N1435 G2 X-24.14 Y-12.436 I-5.03 J0.8 F#100
N1440 G3 X-23.133 Y-13.169 I0.739 J-0.043
N1445 G1 X-23.063 Y-13.133 F#104
N1450 X-22.998 Y-13.089
N1455 X-22.938 Y-13.039
N1460 G3 X-22.748 Y-12.727 I-0.469 J0.499 F#105
N1465 X-23.982 Y-12.088 I-0.682 J0.194
N1470 X-24.097 Y-12.292 I0.552 J-0.445 F#103
N1475 X-24.212 Y-12.691 I1.274 J-0.585 F#100
N1480 X-23.225 Y-13.2 I0.626 J0.002
N1485 G2 X-21.596 Y-12.901 I1.432 J-3.213
N1490 G1 X-21.347 Y-12.898
N1495 X-21.311
N1500 G3 X-20.738 Y-12.38 I-0.021 J0.6 F#104
N1505 G1 X-17.952 Y8.021 F#105
N1510 G3 X-18.297 Y8.648 I-0.594 J0.081
N1515 X-18.525 Y8.702 I-0.249 J-0.546 F#103
N1520 G1 X-20.777 F#100
N1525 G3 X-22.603 Y8.072 I0.185 J-3.499
N1530 X-23.659 Y7.162 I2.115 J-3.519
N1535 G1 X-23.79 Y6.915
N1540 X-23.872 Y6.649
N1545 X-23.9 Y6.372
N1550 Y2.168
N1555 G3 X-22.748 Y1.955 I0.6 J0.021 F#104
N1560 G1 X-20.245 Y7.869 F#105
N1565 G3 X-20.549 Y8.648 I-0.553 J0.234
N1570 X-20.777 Y8.702 I-0.249 J-0.546 F#103
N1575 G2 X-22.974 Y8.74 I-0.657 J25.612 F#100
N1580 G3 X-24.007 Y7.267 I0.097 J-1.167
N1585 X-23.913 Y7.052 I0.969 J0.297 F#104
N1590 X-23.027 Y6.551 I0.874 J0.513 F#105
N1595 X-22.6 Y8.661 I-0.012 J1.101
N1600 X-22.824 Y8.732 I-0.44 J-1.009 F#103
N1605 G2 X-23.582 Y8.919 I0.672 J4.341 F#100
N1610 G3 X-24.234 Y7.911 I-0.03 J-0.696
N1615 X-24.084 Y7.731 I0.531 J0.292 F#104
N1620 X-23.876 Y7.622 I0.38 J0.471 F#105
N1625 X-23.24 Y8.751 I0.189 J0.637
N1630 X-23.438 Y8.875 I-0.447 J-0.492 F#103
N1635 X-24.214 Y8.764 I-0.316 J-0.56 F#100
N1640 X-24.289 Y8.014 I0.458 J-0.425
N1645 G1 X-24.253 Y7.972 Z-1.293 F#104
N1650 X-24.219 Y7.933 Z-1.274
N1655 X-24.189 Y7.898 Z-1.243
N1660 X-24.165 Y7.87 Z-1.202
N1665 X-24.147 Y7.85 Z-1.153
N1670 X-24.137 Y7.842 Z-1.11
N1675 X-24.133 Y7.839 Z-1.064
N1680 G0 Z5.
N1685 X10.872 Y-12.005
N1690 Z-0.1
N1695 G1 Z-0.7 F#103
N1700 X10.874 Y-12.012 Z-0.794
N1705 X10.877 Y-12.034 Z-0.885
N1710 X10.884 Y-12.069 Z-0.972
N1715 X10.892 Y-12.118 Z-1.053
N1720 X10.903 Y-12.178 Z-1.124
N1725 X10.916 Y-12.249 Z-1.185
N1730 X10.93 Y-12.328 Z-1.235
N1735 X10.945 Y-12.413 Z-1.271
N1740 X10.962 Y-12.503 Z-1.293
N1745 X10.978 Y-12.596 Z-1.3
N1750 G3 X11.156 Y-12.75 I0.185 J0.033
N1755 G1 X16.478 F#100
N1760 G3 X18.798 Y-12.223 I-0.1 J5.807
N1765 G1 X19.404 Y-11.931
N1770 X20.066 Y-11.541
N1775 X20.749 Y-11.062
N1780 G3 X22.952 Y-8.856 I-7.316 J9.511
N1785 G1 X23.114 Y-8.591
N1790 X23.216 Y-8.298
N1795 X23.25 Y-7.99
N1800 Y-3.526
N1805 G3 X22.162 Y-3.198 I-0.6 J-0.021 F#104
N1810 G1 X16.011 Y-11.801 F#105
N1815 G3 X16.25 Y-12.696 I0.488 J-0.349
N1820 X16.478 Y-12.75 I0.249 J0.546 F#103
N1825 G1 X19.754 F#100
N1830 G3 X22.142 Y-12.095 I-0.06 J4.904
N1835 G1 X22.633 Y-11.811
N1840 G3 X23.249 Y-10.542 I-0.79 J1.167
N1845 G1 X23.25 Y-7.99
N1850 G3 X22.158 Y-7.669 I-0.6 J-0.021 F#104
N1855 G1 X19.282 Y-11.808 F#105
N1860 G3 X19.526 Y-12.696 I0.493 J-0.342
N1865 X19.754 Y-12.75 I0.249 J0.546 F#103
N1870 G2 X22.21 Y-12.77 I0.881 J-43.548 F#100
N1875 G1 X22.247 Y-12.78
N1880 G3 X23.314 Y-11.631 I0.134 J0.945
N1885 G1 X23.28 Y-11.518 F#104
N1890 X23.231 Y-11.411
N1895 G3 X22.478 Y-10.934 I-0.803 J-0.435 F#105
N1900 X22.024 Y-12.706 I-0.05 J-0.931
N1905 X22.247 Y-12.78 I0.403 J0.841 F#103
N1910 G1 X22.619 Y-12.84 F#100
N1915 G3 X23.234 Y-12.724 I0.201 J0.627
N1920 X23.402 Y-11.976 I-0.4 J0.483
N1925 G1 X23.375 Y-11.928 Z-1.293 F#104
N1930 X23.349 Y-11.883 Z-1.274
N1935 X23.327 Y-11.843 Z-1.243
N1940 X23.309 Y-11.81 Z-1.202
N1945 X23.296 Y-11.787 Z-1.153
N1950 X23.287 Y-11.777 Z-1.11
N1955 X23.284 Y-11.774 Z-1.064
N1960 G0 Z5.
N1965 X23.196 Y3.15
N1970 Z-0.7
N1975 G1 Z-1.3 F#103
N1980 G3 X23.25 Y3.378 I-0.546 J0.249
N1985 G1 Y7.676 F#100
N1990 G3 X22.764 Y9.827 I-5.294 J-0.066
N1995 G1 X22.514 Y10.347
N2000 G3 X21.074 Y12.329 I-8.207 J-4.448
N2005 X20.07 Y12.75 I-1.007 J-0.992
N2010 G1 X16.67
N2015 G3 X16.331 Y11.67 I0.021 J-0.6 F#104
N2020 G1 X22.291 Y7.217 F#105
N2025 G3 X23.196 Y7.448 I0.359 J0.481
N2030 X23.25 Y7.676 I-0.546 J0.249 F#103
N2035 G1 Y10.951 F#100
N2040 G3 X23.018 Y12.054 I-2.506 J0.048
N2045 X21.723 Y12.764 I-1.23 J-0.706
N2050 G1 X21.646 Y12.752 F#104
N2055 X21.57 Y12.73
N2060 X21.499 Y12.698
N2065 G3 X21.291 Y11.81 I0.276 J-0.533 F#105
N2070 G1 X22.167 Y10.617
N2075 G3 X23.196 Y10.724 I0.484 J0.355
N2080 X23.25 Y10.951 I-0.546 J0.249 F#103
N2085 G2 X23.388 Y12.247 I5.04 J0.117 F#100
N2090 G1 X23.38 Y12.266
N2095 X23.365 Y12.281
N2100 X23.351 Y12.297
N2105 G3 X23.028 Y12.107 I-0.162 J-0.095
N2110 X23.37 Y12.151 I0.162 J0.095
N2115 X22.619 Y12.904 I-0.596 J0.157
N2120 G2 X21.596 Y12.757 I-0.948 J2.965
N2125 G1 X21.391 Y12.75
N2130 X20.07
N2135 X20.016 Y12.737 Z-1.293 F#104
N2140 X19.964 Y12.724 Z-1.272
N2145 X19.919 Y12.713 Z-1.24
N2150 X19.882 Y12.704 Z-1.197
N2155 X19.866 Y12.696 Z-1.165
N2160 X19.855 Y12.69 Z-1.13
N2165 X19.848 Y12.687 Z-1.098
N2170 X19.846 Y12.686 Z-1.064
N2175 G0 Z10.
(2D ADAPTIVE1)
N2185 M8
N2190 G0 X12.238 Y-0.413
N2195 #100=1000. (CUTTING)
N2200 #103=900. (ENTRY)
N2205 #104=1000. (EXIT)
N2210 #105=1000. (DIRECT)
N2215 #107=700. (RAMPING)
N2220 Z10.
N2225 Z1.85
N2230 G1 Z1.25 F#103
N2235 S2800
N2240 G3 X14.762 Y-5.524 Z0.937 I1.262 J-2.556 F#107
N2245 X12.238 Y-0.413 Z0.625 I-1.262 J2.556
N2250 X14.762 Y-5.524 Z0.312 I1.262 J-2.556
N2255 X12.238 Y-0.413 Z-0.001 I-1.262 J2.556
N2260 X14.762 Y-5.524 Z-0.313 I1.262 J-2.556
N2265 X12.238 Y-0.413 Z-0.626 I-1.262 J2.556
N2270 X14.762 Y-5.524 Z-0.939 I1.262 J-2.556
N2275 X12.238 Y-0.413 Z-1.251 I-1.262 J2.556
N2280 X14.762 Y-5.524 Z-1.564 I1.262 J-2.556
N2285 X12.238 Y-0.413 Z-1.877 I-1.262 J2.556
N2290 X14.762 Y-5.524 Z-2.189 I1.262 J-2.556
N2295 X16.35 Y-2.968 Z-2.3 I-1.262 J2.556
N2300 X10.65 I-2.85 J0.
N2305 X16.35 I2.85 J0.
N2310 S3300
N2315 G1 X16.353 Y-2.743 F#100
N2320 X16.51 Y-1.856
N2325 G3 X16.304 Y-0.229 I-1.804 J0.598
N2330 X14.255 Y1.3 I-2.766 J-1.57
N2335 X10.025 Y-0.08 I-1.033 J-4.007
N2340 X14.101 Y-7.483 I3.449 J-2.924
N2345 X17.377 Y-5.371 I-0.556 J4.46
N2350 G1 X17.701 Y-4.803
N2355 X18.022 Y-4.11
N2360 G3 X18.49 Y-1.385 I-5.302 J2.313
N2365 X15.142 Y2.904 I-5.042 J-0.485
N2370 X9.744 Y2.184 I-2.018 J-5.46
N2375 X8.038 Y-6.421 I3.625 J-5.191
N2380 X17.994 Y-7.629 I5.468 J3.429
N2385 X20.474 Y-2.6 I-5.473 J5.825
N2390 X15.902 Y4.727 I-7.132 J0.64
N2395 X9.234 Y4.241 I-2.824 J-7.235
N2400 X5.013 Y-2.865 I4.035 J-7.204
N2405 X18.219 Y-10.054 I8.487 J-0.134
N2410 X20.484 Y-7.978 I-5.039 J7.771
N2415 X22.573 Y-1.477 I-7.569 J6.02
N2420 X16.783 Y6.617 I-9.288 J-0.526
N2425 X10.593 Y7.036 I-3.72 J-9.024
N2430 X4.685 Y2.86 I2.549 J-9.875
N2435 G1 X4.243 Y2.152
N2440 X3.858 Y1.404
N2445 X3.798 Y1.229
N2450 X3.762 Y1.049
N2455 X3.75 Y0.865
N2460 Y-5.22
N2465 G3 X4.63 Y-8.495 I6.945 J0.11
N2470 X7.007 Y-11.335 I8.078 J4.345
N2475 X9.119 Y-12.642 I6.279 J7.789
N2480 G1 X9.294 Y-12.702
N2485 X9.475 Y-12.738
N2490 X9.659 Y-12.75
N2495 X15.66
N2500 G3 X18.482 Y-12.131 I-0.052 J6.98
N2505 X21.018 Y-10.472 I-3.818 J8.605
N2510 G1 X21.638 Y-9.868
N2515 X22.22 Y-9.202
N2520 X22.755 Y-8.479
N2525 X23.039 Y-8.023
N2530 X23.155 Y-7.791
N2535 X23.226 Y-7.541
N2540 X23.25 Y-7.283
N2545 Y1.535
N2550 G3 X22.737 Y3.775 I-5.667 J-0.119
N2555 X21.282 Y5.993 I-7.494 J-3.329
N2560 X18.738 Y8.023 I-7.485 J-6.774
N2565 X14.495 Y9.416 I-5.601 J-9.904
N2570 X6.72 Y7.724 I-1.469 J-11.961
N2575 X4.145 Y5.633 I6.247 J-10.322
N2580 X3.75 Y4.656 I1.014 J-0.979
N2585 G1 Y0.865
N2590 X3.762 Y0.811 Z-2.293 F#104
N2595 X3.773 Y0.76 Z-2.274
N2600 X3.783 Y0.716 Z-2.243
N2605 X3.791 Y0.679 Z-2.202
N2610 X3.797 Y0.653 Z-2.153
N2615 X3.802 Y0.641 Z-2.11
N2620 X3.804 Y0.637 Z-2.064
N2625 G0 Z5.
N2630 X23.196 Y1.307
N2635 Z-1.7
N2640 G1 Z-2.3 F#103
N2645 G3 X23.25 Y1.535 I-0.546 J0.249
N2650 G1 Y4.81 F#100
N2655 G3 X22.683 Y6.803 I-4.322 J-0.153
N2660 X21.233 Y8.665 I-6.313 J-3.418
N2665 G1 X20.682 Y9.148
N2670 G3 X17.644 Y10.863 I-6.899 J-8.671
N2675 X12.336 Y11.676 I-4.641 J-12.572
N2680 X4.308 Y8.73 I0.67 J-14.239
N2685 X3.75 Y7.61 I0.853 J-1.124
N2690 G1 Y4.656
N2695 G3 X4.355 Y4.077 I0.6 J0.021 F#104
N2700 G1 X22.655 Y4.231 F#105
N2705 G3 X23.196 Y4.583 I-0.005 J0.6
N2710 X23.25 Y4.81 I-0.546 J0.249 F#103
N2715 G1 Y7.472 F#100
N2720 G3 X22.744 Y9.234 I-3.819 J-0.143
N2725 X21.438 Y10.902 I-5.686 J-3.106
N2730 G1 X20.925 Y11.352
N2735 G3 X18.722 Y12.682 I-6.041 J-7.512
N2740 G1 X18.505 Y12.732
N2745 X18.284 Y12.75
N2750 X9.109
N2755 G3 X6.333 Y12.256 I0.102 J-8.62
N2760 G1 X5.493 Y11.93
N2765 X4.769 Y11.578
N2770 X4.44 Y11.385
N2775 G3 X3.75 Y10.178 I0.71 J-1.207
N2780 G1 Y7.61
N2785 G3 X4.764 Y7.196 I0.6 J0.021 F#104
N2790 G1 X9.502 Y11.716 F#105
N2795 G3 X9.337 Y12.696 I-0.414 J0.434
N2800 X9.109 Y12.75 I-0.249 J-0.546 F#103
N2805 G1 X5.22 F#100
N2810 G3 X4.321 Y12.585 I-0.204 J-1.424
N2815 X3.731 Y11.361 I0.652 J-1.069
N2820 X3.779 Y11.131 I1.172 J0.125 F#104
N2825 X5.124 Y10.328 I1.123 J0.355 F#105
N2830 X5.246 Y12.711 I-0.231 J1.206
N2835 X5.015 Y12.756 I-0.353 J-1.176 F#103
N2840 G2 X4.198 Y12.885 I0.269 J4.372 F#100
N2845 G3 X3.612 Y11.976 I-0.023 J-0.628
N2850 G2 X3.746 Y11.156 I-3.324 J-0.96
N2855 G1 X3.75 Y10.542
N2860 Y10.178
N2865 X3.762 Y10.125 Z-2.293 F#104
N2870 X3.773 Y10.074 Z-2.274
N2875 X3.783 Y10.029 Z-2.243
N2880 X3.791 Y9.993 Z-2.202
N2885 X3.797 Y9.967 Z-2.153
N2890 X3.802 Y9.955 Z-2.11
N2895 X3.804 Y9.951 Z-2.064
N2900 G0 Z5.
N2905 Y-4.992
N2910 Z-1.7
N2915 G1 Z-2.3 F#103
N2920 G3 X3.75 Y-5.22 I0.546 J-0.249
N2925 G1 Y-8.904 F#100
N2930 G3 X4.343 Y-10.978 I4.509 J0.169
N2935 X5.441 Y-12.46 I5.048 J2.593
N2940 G1 X5.705 Y-12.617
N2945 X5.995 Y-12.716
N2950 X6.3 Y-12.75
N2955 G3 X6.794 Y-11.842 I-0.021 J0.6 F#104
N2960 G1 X4.864 Y-8.617 F#105
N2965 G3 X3.804 Y-8.677 I-0.515 J-0.308
N2970 X3.75 Y-8.904 I0.546 J-0.249 F#103
N2975 G1 Y-11.156 F#100
N2980 G3 X3.781 Y-11.896 I2.309 J-0.275
N2985 X5.055 Y-12.768 I1.187 J0.368
N2990 X5.285 Y-12.719 I-0.128 J1.173 F#104
N2995 X6.1 Y-11.462 I-0.358 J1.124 F#105
N3000 X3.783 Y-11.243 I-1.181 J-0.135
N3005 X3.735 Y-11.473 I1.135 J-0.353 F#103
N3010 G2 X3.582 Y-12.28 I-4.519 J0.441 F#100
N3015 G3 X4.402 Y-12.896 I0.627 J-0.018
N3020 G2 X5.22 Y-12.756 I0.926 J-2.948
N3025 G1 X5.834 Y-12.75
N3030 X9.659
N3035 X9.895 F#104
N3040 X15.424 F#105
N3045 X15.66 F#103
N3050 X19.344 F#100
N3055 G3 X21.671 Y-12.111 I-0.075 J4.827
N3060 G1 X22.136 Y-11.841
N3065 X22.662 Y-11.471
N3070 G3 X23.217 Y-10.631 I-0.853 J1.167
N3075 G1 X23.25 Y-10.326
N3080 G3 X22.362 Y-9.821 I-0.6 J-0.021 F#104
N3085 G1 X19.076 Y-11.624 F#105
N3090 G3 X19.116 Y-12.696 I0.289 J-0.526
N3095 X19.344 Y-12.75 I0.249 J0.546 F#103
N3100 G2 X22.067 Y-12.76 I1.05 J-87.271 F#100
N3105 G3 X23.285 Y-11.457 I0.093 J1.134
N3110 G1 X23.259 Y-11.342 F#104
N3115 X23.221 Y-11.231
N3120 G3 X22.141 Y-10.548 I-1.021 J-0.419 F#105
N3125 X21.838 Y-12.709 I0.059 J-1.11
N3130 X22.067 Y-12.762 I0.362 J1.051 F#103
N3135 G1 X22.21 Y-12.774 F#100
N3140 X22.619 Y-12.84
N3145 G3 X23.234 Y-12.724 I0.201 J0.627
N3150 X23.402 Y-11.976 I-0.4 J0.483
N3155 G2 X23.257 Y-11.156 I3.144 J0.98
N3160 G1 X23.25 Y-10.542
N3165 Y-7.283
N3170 X23.238 Y-7.229 Z-2.293 F#104
N3175 X23.227 Y-7.178 Z-2.274
N3180 X23.217 Y-7.134 Z-2.243
N3185 X23.209 Y-7.097 Z-2.202
N3190 X23.203 Y-7.071 Z-2.153
N3195 X23.198 Y-7.059 Z-2.11
N3200 X23.196 Y-7.055 Z-2.064
N3205 G0 Z5.
N3210 Y7.244
N3215 Z-1.7
N3220 G1 Z-2.3 F#103
N3225 G3 X23.25 Y7.472 I-0.546 J0.249
N3230 G1 Y9.928 F#100
N3235 G3 X22.566 Y11.925 I-3.806 J-0.188
N3240 X21.789 Y12.65 I-1.435 J-0.758
N3245 G1 X21.532 Y12.724
N3250 X21.265 Y12.75
N3255 G3 X20.776 Y11.834 I0.021 J-0.6 F#104
N3260 G1 X22.14 Y9.633 F#105
N3265 G3 X23.196 Y9.7 I0.51 J0.316
N3270 X23.25 Y9.928 I-0.546 J0.249 F#103
N3275 G1 Y11.156 F#100
N3280 G2 X23.316 Y11.953 I10.751 J-0.482
N3285 G3 X22.241 Y12.809 I-0.893 J-0.019
N3290 X22.023 Y12.723 I0.205 J-0.842 F#104
N3295 X21.582 Y12.033 I0.424 J-0.756 F#105
N3300 X23.225 Y11.582 I0.865 J-0.066
N3305 X23.3 Y11.804 I-0.777 J0.386 F#103
N3310 G1 X23.326 Y11.975 F#100
N3315 G3 X23.365 Y12.487 I-0.777 J0.317
N3320 X22.619 Y12.904 I-0.592 J-0.183
N3325 G2 X21.596 Y12.757 I-0.948 J2.967
N3330 G1 X21.391 Y12.75
N3335 X18.284
N3340 G3 X18.056 Y12.696 I0.021 J-0.6 F#104
N3345 G1 X17.97 Y12.657 Z-2.293
N3350 X17.887 Y12.619 Z-2.271
N3355 X17.808 Y12.583 Z-2.235
N3360 X17.735 Y12.55 Z-2.185
N3365 X17.67 Y12.52 Z-2.124
N3370 X17.614 Y12.495 Z-2.053
N3375 X17.569 Y12.475 Z-1.972
N3380 X17.537 Y12.46 Z-1.885
N3385 X17.517 Y12.451 Z-1.794
N3390 X17.51 Y12.448 Z-1.7
N3395 G0 Z10.
(2D ADAPTIVE1 3)
N3405 M8
N3410 G0 X-15.873 Y-1.114
N3415 #100=1000. (CUTTING)
N3420 #103=900. (ENTRY)
N3425 #104=1000. (EXIT)
N3430 #105=1000. (DIRECT)
N3435 #107=700. (RAMPING)
N3440 Z10.
N3445 Z1.85
N3450 G1 Z1.25 F#103
N3455 S2800
N3460 G3 X-10.627 Y1.114 Z0.937 I2.623 J1.114 F#107
N3465 X-15.873 Y-1.114 Z0.625 I-2.623 J-1.114
N3470 X-10.627 Y1.114 Z0.312 I2.623 J1.114
N3475 X-15.873 Y-1.114 Z-0.001 I-2.623 J-1.114
N3480 X-10.627 Y1.114 Z-0.313 I2.623 J1.114
N3485 X-15.873 Y-1.114 Z-0.626 I-2.623 J-1.114
N3490 X-10.627 Y1.114 Z-0.939 I2.623 J1.114
N3495 X-15.873 Y-1.114 Z-1.251 I-2.623 J-1.114
N3500 X-10.627 Y1.114 Z-1.564 I2.623 J1.114
N3505 X-15.873 Y-1.114 Z-1.877 I-2.623 J-1.114
N3510 X-10.627 Y1.114 Z-2.189 I2.623 J1.114
N3515 X-15.873 Y-1.114 Z-2.502 I-2.623 J-1.114
N3520 X-10.627 Y1.114 Z-2.815 I2.623 J1.114
N3525 X-15.873 Y-1.114 Z-3.127 I-2.623 J-1.114
N3530 X-10.4 Y0. Z-3.4 I2.623 J1.114
N3535 X-16.1 I-2.85 J0.
N3540 X-10.4 I2.85 J0.
N3545 S3300
N3550 G1 X-10.397 Y0.229 F#100
N3555 X-10.235 Y1.13
N3560 G3 X-10.459 Y2.761 I-1.831 J0.579
N3565 X-12.53 Y4.277 I-2.763 J-1.603
N3570 X-16.752 Y2.856 I-0.997 J-4.021
N3575 X-12.454 Y-4.476 I3.47 J-2.892
N3580 X-9.246 Y-2.185 I-0.766 J4.463
N3585 G1 X-8.873 Y-1.467
N3590 G3 X-8.278 Y0.539 I-5.896 J2.84
N3595 X-9.149 Y3.996 I-4.946 J0.592
N3600 X-10.266 Y4.55 I-1.119 J-0.853
N3605 G1 X-15.793
N3610 G3 X-17.991 Y3.637 I0.047 J-3.215
N3615 X-19.503 Y0.879 I3.287 J-3.597
N3620 X-18.304 Y-3.994 I5.894 J-1.135
N3625 X-17.19 Y-4.55 I1.111 J0.833
N3630 G1 X-13.499
N3635 X-13.299 F#103
N3640 X-10.598 F#100
N3645 G3 X-8.943 Y-4.008 I-0.071 J3.015
N3650 X-6.941 Y-1.62 I-3.109 J4.64
N3655 X-6.814 Y3.707 I-5.988 J2.807
N3660 G1 X-6.981 Y3.986
N3665 G3 X-8.104 Y4.55 I-1.123 J-0.836
N3670 G1 X-10.266
N3675 G3 X-10.844 Y3.976 I0.021 J-0.6 F#104
N3680 G1 X-11.176 Y-3.925 F#105
N3685 G3 X-10.826 Y-4.496 I0.599 J-0.025
N3690 X-10.598 Y-4.55 I0.249 J0.546 F#103
N3695 G1 X-8.52 F#100
N3700 G3 X-6.66 Y-3.814 I-0.189 J3.196
N3705 X-5.018 Y-1.708 I-3.334 J4.293
N3710 X-4.58 Y3.241 I-6.704 J3.087
N3715 G1 X-4.717 Y3.629
N3720 X-4.75 Y3.705
N3725 G3 X-6.035 Y4.55 I-1.285 J-0.555
N3730 G1 X-8.104
N3735 G3 X-8.682 Y3.982 I0.021 J-0.6 F#104
N3740 G1 X-9.098 Y-3.919 F#105
N3745 G3 X-8.748 Y-4.496 I0.599 J-0.032
N3750 X-8.52 Y-4.55 I0.249 J0.546 F#103
N3755 G1 X-6.65 F#100
N3760 G3 X-4.705 Y-3.823 I-0.06 J3.126
N3765 X-3.069 Y-1.695 I-3.207 J4.16
N3770 G1 X-3.018 Y-1.479
N3775 X-3. Y-1.258
N3780 G3 X-3.997 Y-0.829 I-0.6 J-0.021 F#104
N3785 G1 X-7.026 Y-3.5 F#100
N3790 G3 X-6.878 Y-4.496 I0.397 J-0.45
N3795 X-6.65 Y-4.55 I0.249 J0.546 F#103
N3800 G1 X-4.572 F#100
N3805 G3 X-3.274 Y-3.967 I0.07 J1.579
N3810 G1 X-3.126 Y-3.708
N3815 X-3.032 Y-3.425
N3820 X-3. Y-3.128
N3825 G3 X-3.989 Y-2.692 I-0.6 J-0.021 F#104
N3830 G1 X-4.929 Y-3.494 F#105
N3835 G3 X-4.799 Y-4.492 I0.389 J-0.456
N3840 X-4.572 Y-4.55 I0.259 J0.541 F#103
N3845 G2 X-3.533 Y-4.592 I-0.109 J-15.578 F#100
N3850 G3 X-3. Y-3.948 I-0.1 J0.625
N3855 G1 Y2.701
N3860 X-3.022 Y3.136
N3865 G3 X-3.56 Y4.248 I-1.494 J-0.037
N3870 G1 X-3.833 Y4.416
N3875 X-4.136 Y4.52
N3880 X-4.455 Y4.552
N3885 G3 X-4.923 Y3.618 I0.03 J-0.599 F#104
N3890 G1 X-4.098 Y2.388 F#105
N3895 G3 X-3.054 Y2.474 I0.498 J0.334
N3900 X-3. Y2.701 I-0.546 J0.249 F#103
N3905 G1 Y3.948 F#100
N3910 G3 X-3.774 Y4.57 I-0.622 J0.018
N3915 G2 X-6.035 Y4.55 I-1.505 J42.191
N3920 G3 X-6.079 Y4.525 I0.002 J-0.056 F#104
N3925 G1 X-6.184 Y4.375
N3930 G2 X-8.358 Y2.545 I-4.73 J3.411 F#105
N3935 X-8.621 Y2.484 I-0.263 J0.539
N3940 G1 X-13.207
N3945 G2 X-13.47 Y2.545 I0. J0.6
N3950 X-15.644 Y4.375 I2.556 J5.241
N3955 G1 X-15.749 Y4.525 F#103
N3960 G3 X-15.793 Y4.55 I-0.046 J-0.031
N3965 G1 X-17.871 F#100
N3970 G3 X-19.785 Y3.686 I0.186 J-2.964
N3975 X-21.255 Y1.213 I3.41 J-3.7
N3980 X-21.187 Y-2.684 I6.656 J-1.834
N3985 G1 X-21.006 Y-3.226
N3990 X-20.798 Y-3.705
N3995 G3 X-20.094 Y-4.422 I1.326 J0.599
N4000 G1 X-19.808 Y-4.517
N4005 X-19.507 Y-4.55
N4010 X-17.19
N4015 G3 X-16.613 Y-3.899 I-0.021 J0.6 F#104
N4020 G1 X-17.294 Y4.002 F#105
N4025 G3 X-17.643 Y4.496 I-0.598 J-0.052
N4030 X-17.871 Y4.55 I-0.249 J-0.546 F#103
N4035 G1 X-19.741 F#100
N4040 G3 X-21.42 Y3.851 I0.198 J-2.841
N4045 X-22.863 Y1.909 I3.098 J-3.81
N4050 X-23.446 Y-0.895 I6.438 J-2.8
N4055 X-23.124 Y-3.229 I7.498 J-0.155
N4060 G1 X-22.976 Y-3.631
N4065 X-22.928 Y-3.734
N4070 G3 X-21.655 Y-4.55 I1.272 J0.584
N4075 G1 X-19.507
N4080 G3 X-18.929 Y-3.933 I-0.021 J0.6 F#104
N4085 G1 X-19.162 Y3.968 F#105
N4090 G3 X-19.513 Y4.496 I-0.6 J-0.018
N4095 X-19.741 Y4.55 I-0.249 J-0.546 F#103
N4100 G1 X-21.518 F#100
N4105 G3 X-23.045 Y3.988 I0.08 J-2.573
N4110 X-23.5 Y2.952 I0.961 J-1.04
N4115 X-23.446 Y2.725 I0.6 J0.021 F#104
N4120 X-22.551 Y2.486 I0.546 J0.249 F#105
N4125 G1 X-21.189 Y3.463
N4130 G3 X-21.29 Y4.496 I-0.35 J0.487
N4135 X-21.518 Y4.55 I-0.249 J-0.546 F#103
N4140 G2 X-22.951 Y4.593 I-0.362 J11.888 F#100
N4145 G3 X-23.5 Y3.948 I0.08 J-0.624
N4150 G1 Y-3.948
N4155 G3 X-22.653 Y-4.559 I0.632 J-0.016
N4160 G1 X-22.443 Y-4.553
N4165 X-21.655 Y-4.55
N4170 G3 X-21.427 Y-4.496 I-0.021 J0.6 F#104
N4175 G1 X-21.342 Y-4.457 Z-3.393
N4180 X-21.259 Y-4.419 Z-3.371
N4185 X-21.179 Y-4.383 Z-3.335
N4190 X-21.106 Y-4.35 Z-3.285
N4195 X-21.041 Y-4.32 Z-3.224
N4200 X-20.986 Y-4.295 Z-3.153
N4205 X-20.941 Y-4.274 Z-3.072
N4210 X-20.908 Y-4.259 Z-2.985
N4215 X-20.888 Y-4.25 Z-2.894
N4220 X-20.881 Y-4.247 Z-2.8
N4225 G0 Z10.
(2D ADAPTIVE1 4)
N4235 M8
N4240 G0 X-5.987 Y0.788
N4245 #100=1000. (CUTTING)
N4250 #103=900. (ENTRY)
N4255 #104=1000. (EXIT)
N4260 #105=1000. (DIRECT)
N4265 #107=700. (RAMPING)
N4270 Z10.
N4275 Z-0.25
N4280 G1 Z-0.85 F#103
N4285 S2800
N4290 G3 X-9.914 Y-0.788 Z-1.082 I-1.964 J-0.788 F#107
N4295 X-5.987 Y0.788 Z-1.314 I1.964 J0.788
N4300 X-9.914 Y-0.788 Z-1.546 I-1.964 J-0.788
N4305 X-5.987 Y0.788 Z-1.778 I1.964 J0.788
N4310 X-9.914 Y-0.788 Z-2.011 I-1.964 J-0.788
N4315 X-5.987 Y0.788 Z-2.243 I1.964 J0.788
N4320 X-9.914 Y-0.788 Z-2.475 I-1.964 J-0.788
N4325 X-5.987 Y0.788 Z-2.707 I1.964 J0.788
N4330 X-9.914 Y-0.788 Z-2.939 I-1.964 J-0.788
N4335 X-5.987 Y0.788 Z-3.171 I1.964 J0.788
N4340 X-9.914 Y-0.788 Z-3.403 I-1.964 J-0.788
N4345 X-5.987 Y0.788 Z-3.635 I1.964 J0.788
N4350 X-9.914 Y-0.788 Z-3.868 I-1.964 J-0.788
N4355 X-5.987 Y0.788 Z-4.1 I1.964 J0.788
N4360 X-9.914 Y-0.788 Z-4.332 I-1.964 J-0.788
N4365 X-5.987 Y0.788 Z-4.564 I1.964 J0.788
N4370 X-9.914 Y-0.788 Z-4.796 I-1.964 J-0.788
N4375 X-5.834 Y0. Z-5. I1.964 J0.788
N4380 X-10.066 I-2.116 J0.
N4385 X-5.834 I2.116 J0.
N4390 S3300
N4395 G1 X-5.829 Y0.221 F#100
N4400 X-5.725 Y0.775
N4405 G3 X-7.102 Y2.432 I-1.376 J0.257
N4410 G1 X-9.158
N4415 G3 X-10.948 Y1.384 I0.062 J-2.16
N4420 X-10.992 Y-1.876 I2.525 J-1.664
N4425 X-9.871 Y-2.432 I1.125 J0.859
N4430 G1 X-6.743
N4435 G3 X-5.378 Y-1.078 I0.013 J1.351
N4440 X-5.432 Y-0.85 I-0.599 J-0.021 F#104
N4445 X-6.399 Y-0.672 I-0.546 J-0.249 F#105
N4450 G1 X-7.143 Y-1.405
N4455 G3 X-6.971 Y-2.378 I0.421 J-0.427
N4460 X-6.743 Y-2.432 I0.249 J0.546 F#103
N4465 G1 X-6.139 F#100
N4470 G3 X-5.534 Y-2.222 I0.106 J0.67
N4475 X-5.378 Y-1.711 I-0.493 J0.429
N4480 G1 Y1.711
N4485 G3 X-6.138 Y2.428 I-0.642 J0.081
N4490 G1 X-7.102 Y2.432
N4495 X-7.11 Y2.431 F#104
N4500 X-7.334 Y2.392
N4505 X-7.571 Y2.362 F#105
N4510 G2 X-7.634 Y2.359 I-0.063 J0.597
N4515 G1 X-8.626
N4520 X-8.646
N4525 X-8.667 Y2.36
N4530 X-8.688 Y2.362
N4535 X-8.926 Y2.392
N4540 X-9.149 Y2.431 F#103
N4545 X-9.158 Y2.432
N4550 X-10.567 F#100
N4555 G3 X-12.095 Y1.659 I0.091 J-2.077
N4560 X-12.798 Y-1.606 I2.567 J-2.261
N4565 G1 X-12.625 Y-1.88
N4570 G3 X-11.511 Y-2.432 I1.114 J0.848
N4575 G1 X-9.871
N4580 G3 X-9.303 Y-1.721 I-0.021 J0.6 F#104
N4585 G1 X-9.998 Y1.944 F#105
N4590 G3 X-10.339 Y2.378 I-0.589 J-0.112
N4595 X-10.567 Y2.432 I-0.249 J-0.546 F#103
N4600 G1 X-11.976 F#100
N4605 G3 X-13.441 Y1.743 I0.129 J-2.175
N4610 X-14.456 Y-1.311 I2.435 J-2.506
N4615 X-13.083 Y-2.432 I1.375 J0.283
N4620 G1 X-11.511
N4625 G3 X-10.936 Y-1.757 I-0.021 J0.6 F#104
N4630 G1 X-11.401 Y1.908 F#105
N4635 G3 X-11.748 Y2.378 I-0.595 J-0.076
N4640 X-11.976 Y2.432 I-0.249 J-0.546 F#103
N4645 G1 X-13.385 F#100
N4650 G3 X-15.095 Y1.585 I0.114 J-2.382
N4655 X-16.018 Y-1.269 I2.495 J-2.383
N4660 X-15.266 Y-2.282 I1.394 J0.249
N4665 G1 X-14.96 Y-2.394
N4670 X-14.636 Y-2.432
N4675 X-13.083
N4680 G3 X-12.506 Y-1.783 I-0.021 J0.6 F#104
N4685 G1 X-12.808 Y1.882 F#105
N4690 G3 X-13.157 Y2.378 I-0.598 J-0.049
N4695 X-13.385 Y2.432 I-0.249 J-0.546 F#103
N4700 G1 X-14.904 F#100
N4705 G3 X-16.635 Y1.583 I0.116 J-2.426
N4710 X-17.568 Y-1.264 I2.473 J-2.386
N4715 X-16.816 Y-2.282 I1.394 J0.243
N4720 G1 X-16.509 Y-2.394
N4725 X-16.185 Y-2.432
N4730 X-14.636
N4735 G3 X-14.058 Y-1.789 I-0.021 J0.6 F#104
N4740 G1 X-14.327 Y1.876 F#105
N4745 G3 X-14.676 Y2.378 I-0.598 J-0.044
N4750 X-14.904 Y2.432 I-0.249 J-0.546 F#103
N4755 G1 X-16.404 F#100
N4760 G3 X-18.183 Y1.579 I0.073 J-2.435
N4765 X-19.115 Y-1.264 I2.468 J-2.384
N4770 X-18.364 Y-2.282 I1.394 J0.243
N4775 G1 X-18.057 Y-2.394
N4780 X-17.732 Y-2.432
N4785 X-16.185
N4790 G3 X-15.607 Y-1.797 I-0.021 J0.6 F#104
N4795 G1 X-15.826 Y1.868 F#105
N4800 G3 X-16.176 Y2.378 I-0.599 J-0.036
N4805 X-16.404 Y2.432 I-0.249 J-0.546 F#103
N4810 G1 X-18.014 F#100
N4815 G3 X-19.745 Y1.565 I0.141 J-2.443
N4820 X-20.662 Y-1.274 I2.483 J-2.369
N4825 X-19.604 Y-2.395 I1.387 J0.25
N4830 G1 X-19.281 Y-2.432
N4835 X-17.732
N4840 G3 X-17.155 Y-1.786 I-0.021 J0.6 F#104
N4845 G1 X-17.437 Y1.878 F#105
N4850 G3 X-17.786 Y2.378 I-0.598 J-0.046
N4855 X-18.014 Y2.432 I-0.249 J-0.546 F#103
N4860 G1 X-19.534 F#100
N4865 G3 X-20.882 Y1.788 I-0.047 J-1.637
N4870 G1 X-21.012 Y1.54
N4875 X-21.094 Y1.273
N4880 X-21.122 Y0.995
N4885 G3 X-20.135 Y0.557 I0.6 J0.021 F#104
N4890 G1 X-19.168 Y1.374 F#105
N4895 G3 X-19.306 Y2.378 I-0.387 J0.459
N4900 X-19.534 Y2.432 I-0.249 J-0.546 F#103
N4905 G1 X-20.53 F#100
N4910 G3 X-21.12 Y1.711 I0.035 J-0.63
N4915 G1 X-21.122 Y-1.711
N4920 G3 X-20.53 Y-2.434 I0.633 J-0.085
N4925 G1 X-19.281 Y-2.432
N4930 G3 X-19.053 Y-2.378 I-0.021 J0.6 F#104
N4935 G1 X-18.967 Y-2.339 Z-4.993
N4940 X-18.884 Y-2.301 Z-4.971
N4945 X-18.805 Y-2.265 Z-4.935
N4950 X-18.732 Y-2.232 Z-4.885
N4955 X-18.667 Y-2.202 Z-4.824
N4960 X-18.611 Y-2.177 Z-4.753
N4965 X-18.566 Y-2.157 Z-4.672
N4970 X-18.534 Y-2.142 Z-4.585
N4975 X-18.514 Y-2.133 Z-4.494
N4980 X-18.507 Y-2.13 Z-4.4
N4985 G0 Z10.
(2D ADAPTIVE1 5)
N4995 M8
N5000 G0 X11.24 Y-1.739
N5005 #100=1000. (CUTTING)
N5010 #103=900. (ENTRY)
N5015 #104=1000. (EXIT)
N5020 #107=700. (RAMPING)
N5025 Z10.
N5030 Z0.85
N5035 G1 Z0.25 F#103
N5040 S2800
N5045 G3 X15.756 Y1.738 Z-0.063 I2.258 J1.739 F#107
N5050 X11.24 Y-1.739 Z-0.375 I-2.258 J-1.739
N5055 X15.756 Y1.738 Z-0.688 I2.258 J1.739
N5060 X11.24 Y-1.739 Z-1.001 I-2.258 J-1.739
N5065 X15.756 Y1.738 Z-1.313 I2.258 J1.739
N5070 X11.24 Y-1.739 Z-1.626 I-2.258 J-1.739
N5075 X15.756 Y1.738 Z-1.939 I2.258 J1.739
N5080 X11.24 Y-1.739 Z-2.251 I-2.258 J-1.739
N5085 X15.756 Y1.738 Z-2.564 I2.258 J1.739
N5090 X11.24 Y-1.739 Z-2.877 I-2.258 J-1.739
N5095 X15.756 Y1.738 Z-3.189 I2.258 J1.739
N5100 X11.24 Y-1.739 Z-3.502 I-2.258 J-1.739
N5105 X15.756 Y1.738 Z-3.815 I2.258 J1.739
N5110 X11.24 Y-1.739 Z-4.127 I-2.258 J-1.739
N5115 X15.756 Y1.738 Z-4.44 I2.258 J1.739
N5120 X11.24 Y-1.739 Z-4.753 I-2.258 J-1.739
N5125 X16.348 Y0. Z-5. I2.258 J1.739
N5130 X10.648 I-2.85 J0.
N5135 X16.348 I2.85 J0.
N5140 S3300
N5145 G1 X16.351 Y0.229 F#100
N5150 X16.513 Y1.13
N5155 G3 X16.289 Y2.761 I-1.831 J0.579
N5160 X14.218 Y4.276 I-2.763 J-1.603
N5165 X9.996 Y2.856 I-0.997 J-4.021
N5170 X14.141 Y-4.509 I3.477 J-2.892
N5175 X17.397 Y-2.367 I-0.598 J4.456
N5180 X18.367 Y-0.07 I-6.782 J4.217
N5185 X15.09 Y5.888 I-4.911 J1.178
N5190 X9.695 Y5.118 I-1.971 J-5.473
N5195 X8.068 Y-3.504 I3.673 J-5.157
N5200 X18.044 Y-4.61 I5.435 J3.48
N5205 X20.477 Y0.436 I-5.515 J5.768
N5210 X15.833 Y7.72 I-7.139 J0.57
N5215 X9.166 Y7.171 I-2.759 J-7.265
N5220 X5.032 Y-0.653 I4.115 J-7.177
N5225 X18.287 Y-7.039 I8.466 J0.623
N5230 X20.941 Y-4.364 I-5.11 J7.723
N5235 X21.63 Y-2.91 I-16.194 J8.566
N5240 G1 X21.963 Y-1.662
N5245 X22.01 Y-1.455
N5250 X22.101 Y-0.416
N5255 G3 X21.969 Y1.663 I-9.912 J0.413
N5260 G1 X21.629 Y2.909
N5265 G3 X20.942 Y4.364 I-15.974 J-6.658
N5270 X20.06 Y5.612 I-14.059 J-8.99
N5275 G1 X19.435 Y6.234
N5280 G3 X17.871 Y7.429 I-6.593 J-7.013
N5285 X16.417 Y8.129 I-10.367 J-19.659
N5290 G1 X15.17 Y8.461
N5295 X14.962 Y8.51
N5300 X14.131 Y8.582
N5305 X13.715 Y8.617
N5310 X13.507 Y8.634
N5315 X13.299 Y8.62
N5320 X12.053 Y8.511
N5325 X11.845 Y8.465
N5330 X10.598 Y8.131
N5335 G3 X8.934 Y7.311 I5.575 J-13.403
N5340 G1 X7.995 Y6.65
N5345 X7.896 Y6.566
N5350 X6.941 Y5.611
N5355 X6.857 Y5.515
N5360 X6.196 Y4.572
N5365 G3 X5.848 Y3.948 I2.336 J-1.714
N5370 G1 X5.403 Y2.996
N5375 X5.371 Y2.909
N5380 X5.093 Y1.87
N5385 G3 X4.867 Y0. I11.537 J-2.343
N5390 X5.094 Y-1.87 I11.563 J0.454
N5395 G1 X5.371 Y-2.909
N5400 G3 X6.053 Y-4.364 I19.861 J8.425
N5405 G1 X6.234 Y-4.625
N5410 X6.857 Y-5.515
N5415 X6.941 Y-5.611
N5420 X7.896 Y-6.566
N5425 X7.995 Y-6.65
N5430 X8.936 Y-7.309
N5435 G3 X10.598 Y-8.132 I6.452 J10.935
N5440 G1 X11.845 Y-8.465
N5445 X12.053 Y-8.511
N5450 X13.299 Y-8.62
N5455 X13.507 Y-8.634
N5460 X13.923 Y-8.6
N5465 X14.754 Y-8.528
N5470 X14.962 Y-8.51
N5475 X15.17 Y-8.461
N5480 X16.416 Y-8.127
N5485 G3 X18.082 Y-7.303 I-6.318 J14.873
N5490 X20.227 Y-5.407 I-5.633 J8.536
N5495 G1 X20.804 Y-4.572
N5500 X20.882 Y-4.453
N5505 G3 X20.964 Y-4.234 I-0.511 J0.314 F#104
N5510 G1 X20.978 Y-4.141 Z-4.993
N5515 X20.993 Y-4.051 Z-4.971
N5520 X21.007 Y-3.965 Z-4.935
N5525 X21.019 Y-3.885 Z-4.885
N5530 X21.031 Y-3.815 Z-4.824
N5535 X21.04 Y-3.754 Z-4.753
N5540 X21.048 Y-3.706 Z-4.672
N5545 X21.054 Y-3.67 Z-4.585
N5550 X21.057 Y-3.648 Z-4.494
N5555 X21.058 Y-3.641 Z-4.4
N5560 G0 Z10.
(2D CONTOUR1)
N5570 M8
N5575 G0 X20.55 Y-0.6
N5580 #102=512. (FINISH)
N5585 #103=900. (ENTRY)
N5590 #104=1000. (EXIT)
N5595 #108=400. (PLUNGE)
N5600 Z10.
N5605 Z2.7
N5610 G1 Z-1.3 F#103
N5615 Z-4.4 F#108
N5620 G18 G2 X21.15 Z-5. I0.6 K0.
N5625 G1 X21.75 F#103
N5630 G17 G3 X22.35 Y0. I0. J0.6
N5635 X4.65 I-8.85 J0. F#102
N5640 X22.35 I8.85 J0.
N5645 X21.75 Y0.6 I-0.6 J0. F#104
N5650 G1 X21.15
N5655 G18 G3 X20.55 Z-4.4 I0. K0.6
N5660 G0 Z10.
N5665 G17
(2D CONTOUR2)
N5670 M8
N5675 G0 X-0.224 Y-11.198
N5680 #102=512. (FINISH)
N5685 #103=900. (ENTRY)
N5690 #104=1000. (EXIT)
N5695 #108=400. (PLUNGE)
N5700 Z10.
N5705 Z5.
N5710 G1 Z1. F#103
N5715 Z-0.7 F#108
N5720 G19 G2 Y-11.798 Z-1.3 J-0.6 K0.
N5725 G1 Y-12.398 F#103
N5730 G17 G3 X0.376 Y-12.998 I0.6 J0.
N5735 G1 X2.675 F#102
N5740 G2 X3.662 Y-13.165 I0. J-3.
N5745 G3 X4.043 Y-13.144 I0.165 J0.472
N5750 G2 X5.338 Y-12.85 I1.295 J-2.706
N5755 G1 X21.913
N5760 G2 X23.045 Y-13.072 I0. J-3.
N5765 G3 X23.679 Y-12.381 I0.189 J0.463
N5770 G2 X23.35 Y-11.015 I2.671 J1.366
N5775 G1 Y11.293
N5780 G2 X23.595 Y12.481 I3. J0.
N5785 G3 X22.924 Y13.132 I-0.459 J0.198
N5790 G2 X21.655 Y12.85 I-1.27 J2.718
N5795 G1 X5.144
N5800 G2 X3.972 Y13.088 I0. J3.
N5805 G3 X3.291 Y12.51 I-0.195 J-0.46
N5810 G2 X0.376 Y8.802 I-2.915 J-0.708
N5815 G1 X-22.416
N5820 G2 X-24.399 Y9.551 I0. J3.
N5825 G3 X-25.107 Y9.503 I-0.33 J-0.375
N5830 X-25.054 Y8.795 I0.378 J-0.327
N5835 G2 X-24. Y6.512 I-1.946 J-2.283
N5840 G1 Y-11.221
N5845 G2 X-24.819 Y-13.281 I-3. J0.
N5850 G3 X-24.797 Y-13.99 I0.364 J-0.343
N5855 X-24.088 Y-13.963 I0.341 J0.365
N5860 G2 X-21.883 Y-12.998 I2.205 J-2.035
N5865 G1 X0.376
N5870 G3 X0.976 Y-12.398 I0. J0.6 F#104
N5875 G1 Y-11.798
N5880 G19 G3 Y-11.198 Z-0.7 J0. K0.6
N5885 G0 Z10.
N5890 G17
(2D CONTOUR3)
N5895 M8
N5900 G0 X21.55 Y-3.6
N5905 #102=512. (FINISH)
N5910 #103=900. (ENTRY)
N5915 #104=1000. (EXIT)
N5920 #108=400. (PLUNGE)
N5925 Z10.
N5930 Z3.7
N5935 G1 Z-0.3 F#103
N5940 Z-1.7 F#108
N5945 G18 G2 X22.15 Z-2.3 I0.6 K0.
N5950 G1 X22.75 F#103
N5955 G17 G3 X23.35 Y-3. I0. J0.6
N5960 G1 Y11.293 F#102
N5965 G2 X23.595 Y12.481 I3. J0.
N5970 G3 X22.924 Y13.132 I-0.459 J0.198
N5975 G2 X21.655 Y12.85 I-1.27 J2.718
N5980 G1 X5.144
N5985 G2 X3.972 Y13.088 I0. J3.
N5990 G3 X3.33 Y12.403 I-0.195 J-0.46
N5995 G2 X3.65 Y11.055 I-2.68 J-1.348
N6000 G1 Y-11.224
N6005 G2 X3.373 Y-12.483 I-3. J0.
N6010 G3 X4.043 Y-13.144 I0.454 J-0.21
N6015 G2 X5.338 Y-12.85 I1.295 J-2.706
N6020 G1 X21.913
N6025 G2 X23.045 Y-13.072 I0. J-3.
N6030 G3 X23.679 Y-12.381 I0.189 J0.463
N6035 G2 X23.35 Y-11.015 I2.671 J1.366
N6040 G1 Y-3.
N6045 G3 X22.75 Y-2.4 I-0.6 J0. F#104
N6050 G1 X22.15
N6055 G18 G3 X21.55 Z-1.7 I0. K0.6
N6060 G0 Z10.
N6065 G17
N6070 M9
N6075 G53 G0 Z0.
N6080 M30
%
