%
(1)
(T1  D=6. CR=0. - ZMIN=-4.5 - FLAT END MILL)
N10 G90 G94 G17 G91.1
N15 G21
N20 G53 G0 Z0.
(2D POCKET1)
N25 M9
N30 T1 M6
N35 S3300 M3
N40 G54
N45 M8
N55 G0 X-40.5 Y0.029
N60 G43 Z6. H1
N65 #100=1000. (CUTTING)
N70 #103=900. (ENTRY)
N75 #104=1000. (EXIT)
N80 #107=700. (RAMPING)
N85 G0 Z3.1
N90 S2800
N95 G1 X-40.501 Y0.057 Z2.918 F#107
N100 X-40.505 Y0.139 Z2.754
N105 X-40.518 Y0.266 Z2.622
N110 X-40.546 Y0.425 Z2.534
N115 G3 X-40.592 Y0.599 Z2.5 I-1.954 J-0.425
N120 X-44.408 Y-0.599 Z2.281 I-1.908 J-0.599
N125 X-40.592 Y0.599 Z2.061 I1.908 J0.599
N130 X-44.408 Y-0.599 Z1.842 I-1.908 J-0.599
N135 X-40.592 Y0.599 Z1.622 I1.908 J0.599
N140 X-44.408 Y-0.599 Z1.403 I-1.908 J-0.599
N145 X-40.592 Y0.599 Z1.184 I1.908 J0.599
N150 X-44.408 Y-0.599 Z0.964 I-1.908 J-0.599
N155 X-40.592 Y0.599 Z0.745 I1.908 J0.599
N160 X-44.408 Y-0.599 Z0.525 I-1.908 J-0.599
N165 X-40.592 Y0.599 Z0.306 I1.908 J0.599
N170 X-44.408 Y-0.599 Z0.086 I-1.908 J-0.599
N175 X-40.592 Y0.599 Z-0.133 I1.908 J0.599
N180 X-44.408 Y-0.599 Z-0.352 I-1.908 J-0.599
N185 X-40.592 Y0.599 Z-0.572 I1.908 J0.599
N190 X-44.408 Y-0.599 Z-0.791 I-1.908 J-0.599
N195 X-40.592 Y0.599 Z-1.011 I1.908 J0.599
N200 X-44.408 Y-0.599 Z-1.23 I-1.908 J-0.599
N205 X-40.592 Y0.599 Z-1.449 I1.908 J0.599
N210 X-44.408 Y-0.599 Z-1.669 I-1.908 J-0.599
N215 X-40.592 Y0.599 Z-1.888 I1.908 J0.599
N220 X-44.408 Y-0.599 Z-2.108 I-1.908 J-0.599
N225 X-40.592 Y0.599 Z-2.327 I1.908 J0.599
N230 X-44.408 Y-0.599 Z-2.547 I-1.908 J-0.599
N235 X-40.592 Y0.599 Z-2.766 I1.908 J0.599
N240 X-44.408 Y-0.599 Z-2.985 I-1.908 J-0.599
N245 X-40.592 Y0.599 Z-3.205 I1.908 J0.599
N250 X-44.408 Y-0.599 Z-3.424 I-1.908 J-0.599
N255 X-40.592 Y0.599 Z-3.644 I1.908 J0.599
N260 X-44.408 Y-0.599 Z-3.863 I-1.908 J-0.599
N265 X-40.592 Y0.599 Z-4.082 I1.908 J0.599
N270 X-44.408 Y-0.599 Z-4.302 I-1.908 J-0.599
N275 X-40.5 Y0. Z-4.5 I1.908 J0.599
N280 X-42.5 I-1. J0.
N285 S3300
N290 X-42. I0.25 J0. F#100
N295 X-43. I-0.5 J0.
N300 X-41.5 I0.75 J0.
N305 X-43.5 I-1. J0.
N310 X-41. I1.25 J0.
N315 X-44. I-1.5 J0.
N320 X-40.5 I1.75 J0.
N325 X-44.5 I-2. J0.
N330 X-40.5 I2. J0.
N335 X-40.528 Y0.182 Z-4.471 I-0.6 J0. F#104
N340 X-40.601 Y0.333 Z-4.385 I-0.572 J-0.182
N345 X-40.686 Y0.434 Z-4.253 I-0.499 J-0.333
N350 X-40.752 Y0.488 Z-4.085 I-0.414 J-0.434
N355 G1 X-40.776 Y0.505 Z-3.9
N360 G0 Z3.1
N365 X44.5 Y0.029
N370 S2800
N375 G1 X44.499 Y0.057 Z2.918 F#107
N380 X44.495 Y0.139 Z2.754
N385 X44.482 Y0.266 Z2.622
N390 X44.454 Y0.425 Z2.534
N395 G3 X44.408 Y0.599 Z2.5 I-1.954 J-0.425
N400 X40.592 Y-0.599 Z2.281 I-1.908 J-0.599
N405 X44.408 Y0.599 Z2.061 I1.908 J0.599
N410 X40.592 Y-0.599 Z1.842 I-1.908 J-0.599
N415 X44.408 Y0.599 Z1.622 I1.908 J0.599
N420 X40.592 Y-0.599 Z1.403 I-1.908 J-0.599
N425 X44.408 Y0.599 Z1.184 I1.908 J0.599
N430 X40.592 Y-0.599 Z0.964 I-1.908 J-0.599
N435 X44.408 Y0.599 Z0.745 I1.908 J0.599
N440 X40.592 Y-0.599 Z0.525 I-1.908 J-0.599
N445 X44.408 Y0.599 Z0.306 I1.908 J0.599
N450 X40.592 Y-0.599 Z0.086 I-1.908 J-0.599
N455 X44.408 Y0.599 Z-0.133 I1.908 J0.599
N460 X40.592 Y-0.599 Z-0.352 I-1.908 J-0.599
N465 X44.408 Y0.599 Z-0.572 I1.908 J0.599
N470 X40.592 Y-0.599 Z-0.791 I-1.908 J-0.599
N475 X44.408 Y0.599 Z-1.011 I1.908 J0.599
N480 X40.592 Y-0.599 Z-1.23 I-1.908 J-0.599
N485 X44.408 Y0.599 Z-1.449 I1.908 J0.599
N490 X40.592 Y-0.599 Z-1.669 I-1.908 J-0.599
N495 X44.408 Y0.599 Z-1.888 I1.908 J0.599
N500 X40.592 Y-0.599 Z-2.108 I-1.908 J-0.599
N505 X44.408 Y0.599 Z-2.327 I1.908 J0.599
N510 X40.592 Y-0.599 Z-2.547 I-1.908 J-0.599
N515 X44.408 Y0.599 Z-2.766 I1.908 J0.599
N520 X40.592 Y-0.599 Z-2.985 I-1.908 J-0.599
N525 X44.408 Y0.599 Z-3.205 I1.908 J0.599
N530 X40.592 Y-0.599 Z-3.424 I-1.908 J-0.599
N535 X44.408 Y0.599 Z-3.644 I1.908 J0.599
N540 X40.592 Y-0.599 Z-3.863 I-1.908 J-0.599
N545 X44.408 Y0.599 Z-4.082 I1.908 J0.599
N550 X40.592 Y-0.599 Z-4.302 I-1.908 J-0.599
N555 X44.5 Y0. Z-4.5 I1.908 J0.599
N560 X42.5 I-1. J0.
N565 S3300
N570 X43. I0.25 J0. F#100
N575 X42. I-0.5 J0.
N580 X43.5 I0.75 J0.
N585 X41.5 I-1. J0.
N590 X44. I1.25 J0.
N595 X41. I-1.5 J0.
N600 X44.5 I1.75 J0.
N605 X40.5 I-2. J0.
N610 X44.5 I2. J0.
N615 X44.472 Y0.182 Z-4.471 I-0.6 J0. F#104
N620 X44.399 Y0.333 Z-4.385 I-0.572 J-0.182
N625 X44.314 Y0.434 Z-4.253 I-0.499 J-0.333
N630 X44.248 Y0.488 Z-4.085 I-0.414 J-0.434
N635 G1 X44.224 Y0.505 Z-3.9
N640 G0 Z6.
N650 M9
N655 G53 Z0.
N660 M30
%
