%
(1)
(T1  D=6. CR=0. - ZMIN=-1. - FLAT END MILL)
N10 G90 G94 G17 G91.1
N15 G21
N20 G53 G0 Z0.
(FACE2)
N25 M9
N30 T1 M6
N35 S3300 M3
N40 G54
N45 M8
N55 G0 X54.6 Y-23.499
N60 G43 Z10. H1
N65 #100=1000. (CUTTING)
N70 #102=1000. (FINISH)
N75 #103=900. (ENTRY)
N80 #104=1000. (EXIT)
N85 G0 Z5.
N90 G1 Z-0.4 F#103
N95 G18 G3 X54. Z-1. I-0.6 K0.
N100 G1 X-54. F#102
N105 G17 G2 Y-23.003 I0. J0.248 F#100
N110 G1 X54. F#102
N115 G3 Y-22.508 I0. J0.248 F#100
N120 G1 X-54. F#102
N125 G2 Y-22.012 I0. J0.248 F#100
N130 G1 X54. F#102
N135 G3 Y-21.516 I0. J0.248 F#100
N140 G1 X-54. F#102
N145 G2 Y-21.02 I0. J0.248 F#100
N150 G1 X54. F#102
N155 G3 Y-20.525 I0. J0.248 F#100
N160 G1 X-54. F#102
N165 G2 Y-20.029 I0. J0.248 F#100
N170 G1 X54. F#102
N175 G3 Y-19.533 I0. J0.248 F#100
N180 G1 X-54. F#102
N185 G2 Y-19.037 I0. J0.248 F#100
N190 G1 X54. F#102
N195 G3 Y-18.542 I0. J0.248 F#100
N200 G1 X-54. F#102
N205 G2 Y-18.046 I0. J0.248 F#100
N210 G1 X54. F#102
N215 G3 Y-17.55 I0. J0.248 F#100
N220 G1 X-54. F#102
N225 G2 Y-17.054 I0. J0.248 F#100
N230 G1 X54. F#102
N235 G3 Y-16.559 I0. J0.248 F#100
N240 G1 X-54. F#102
N245 G2 Y-16.063 I0. J0.248 F#100
N250 G1 X54. F#102
N255 G3 Y-15.567 I0. J0.248 F#100
N260 G1 X-54. F#102
N265 G2 Y-15.071 I0. J0.248 F#100
N270 G1 X54. F#102
N275 G3 Y-14.575 I0. J0.248 F#100
N280 G1 X-54. F#102
N285 G2 Y-14.08 I0. J0.248 F#100
N290 G1 X54. F#102
N295 G3 Y-13.584 I0. J0.248 F#100
N300 G1 X-54. F#102
N305 G2 Y-13.088 I0. J0.248 F#100
N310 G1 X54. F#102
N315 G3 Y-12.592 I0. J0.248 F#100
N320 G1 X-54. F#102
N325 G2 Y-12.097 I0. J0.248 F#100
N330 G1 X54. F#102
N335 G3 Y-11.601 I0. J0.248 F#100
N340 G1 X-54. F#102
N345 G2 Y-11.105 I0. J0.248 F#100
N350 G1 X54. F#102
N355 G3 Y-10.609 I0. J0.248 F#100
N360 G1 X-54. F#102
N365 G2 Y-10.114 I0. J0.248 F#100
N370 G1 X54. F#102
N375 G3 Y-9.618 I0. J0.248 F#100
N380 G1 X-54. F#102
N385 G2 Y-9.122 I0. J0.248 F#100
N390 G1 X54. F#102
N395 G3 Y-8.626 I0. J0.248 F#100
N400 G1 X-54. F#102
N405 G2 Y-8.131 I0. J0.248 F#100
N410 G1 X54. F#102
N415 G3 Y-7.635 I0. J0.248 F#100
N420 G1 X-54. F#102
N425 G2 Y-7.139 I0. J0.248 F#100
N430 G1 X54. F#102
N435 G3 Y-6.643 I0. J0.248 F#100
N440 G1 X-54. F#102
N445 G2 Y-6.147 I0. J0.248 F#100
N450 G1 X54. F#102
N455 G3 Y-5.652 I0. J0.248 F#100
N460 G1 X-54. F#102
N465 G2 Y-5.156 I0. J0.248 F#100
N470 G1 X54. F#102
N475 G3 Y-4.66 I0. J0.248 F#100
N480 G1 X-54. F#102
N485 G2 Y-4.164 I0. J0.248 F#100
N490 G1 X54. F#102
N495 G3 Y-3.669 I0. J0.248 F#100
N500 G1 X-54. F#102
N505 G2 Y-3.173 I0. J0.248 F#100
N510 G1 X54. F#102
N515 G3 Y-2.677 I0. J0.248 F#100
N520 G1 X-54. F#102
N525 G2 Y-2.181 I0. J0.248 F#100
N530 G1 X54. F#102
N535 G3 Y-1.686 I0. J0.248 F#100
N540 G1 X-54. F#102
N545 G2 Y-1.19 I0. J0.248 F#100
N550 G1 X54. F#102
N555 G3 Y-0.694 I0. J0.248 F#100
N560 G1 X-54. F#102
N565 G2 Y-0.198 I0. J0.248 F#100
N570 G1 X54. F#102
N575 G3 Y0.297 I0. J0.248 F#100
N580 G1 X-54. F#102
N585 G2 Y0.793 I0. J0.248 F#100
N590 G1 X54. F#102
N595 G3 Y1.289 I0. J0.248 F#100
N600 G1 X-54. F#102
N605 G2 Y1.785 I0. J0.248 F#100
N610 G1 X54. F#102
N615 G3 Y2.281 I0. J0.248 F#100
N620 G1 X-54. F#102
N625 G2 Y2.776 I0. J0.248 F#100
N630 G1 X54. F#102
N635 G3 Y3.272 I0. J0.248 F#100
N640 G1 X-54. F#102
N645 G2 Y3.768 I0. J0.248 F#100
N650 G1 X54. F#102
N655 G3 Y4.264 I0. J0.248 F#100
N660 G1 X-54. F#102
N665 G2 Y4.759 I0. J0.248 F#100
N670 G1 X54. F#102
N675 G3 Y5.255 I0. J0.248 F#100
N680 G1 X-54. F#102
N685 G2 Y5.751 I0. J0.248 F#100
N690 G1 X54. F#102
N695 G3 Y6.247 I0. J0.248 F#100
N700 G1 X-54. F#102
N705 G2 Y6.742 I0. J0.248 F#100
N710 G1 X54. F#102
N715 G3 Y7.238 I0. J0.248 F#100
N720 G1 X-54. F#102
N725 G2 Y7.734 I0. J0.248 F#100
N730 G1 X54. F#102
N735 G3 Y8.23 I0. J0.248 F#100
N740 G1 X-54. F#102
N745 G2 Y8.725 I0. J0.248 F#100
N750 G1 X54. F#102
N755 G3 Y9.221 I0. J0.248 F#100
N760 G1 X-54. F#102
N765 G2 Y9.717 I0. J0.248 F#100
N770 G1 X54. F#102
N775 G3 Y10.213 I0. J0.248 F#100
N780 G1 X-54. F#102
N785 G2 Y10.709 I0. J0.248 F#100
N790 G1 X54. F#102
N795 G3 Y11.204 I0. J0.248 F#100
N800 G1 X-54. F#102
N805 G2 Y11.7 I0. J0.248 F#100
N810 G1 X54. F#102
N815 G3 Y12.196 I0. J0.248 F#100
N820 G1 X-54. F#102
N825 G2 Y12.692 I0. J0.248 F#100
N830 G1 X54. F#102
N835 G3 Y13.187 I0. J0.248 F#100
N840 G1 X-54. F#102
N845 G2 Y13.683 I0. J0.248 F#100
N850 G1 X54. F#102
N855 G3 Y14.179 I0. J0.248 F#100
N860 G1 X-54. F#102
N865 G2 Y14.675 I0. J0.248 F#100
N870 G1 X54. F#102
N875 G3 Y15.17 I0. J0.248 F#100
N880 G1 X-54. F#102
N885 G2 Y15.666 I0. J0.248 F#100
N890 G1 X54. F#102
N895 G3 Y16.162 I0. J0.248 F#100
N900 G1 X-54. F#102
N905 G2 Y16.658 I0. J0.248 F#100
N910 G1 X54. F#102
N915 G3 Y17.153 I0. J0.248 F#100
N920 G1 X-54. F#102
N925 G2 Y17.649 I0. J0.248 F#100
N930 G1 X54. F#102
N935 G3 Y18.145 I0. J0.248 F#100
N940 G1 X-54. F#102
N945 G18 G3 X-54.6 Z-0.4 I0. K0.6 F#104
N950 G0 Z10.
N955 G17
N960 M9
N965 G53 G0 Z0.
N970 M30
%
