%
(1)
(T1  D=6. CR=0. - ZMIN=-1. - FLAT END MILL)
N10 G90 G94 G17 G91.1
N15 G21
N20 G53 G0 Z0.
(FACE2)
N25 M9
N30 T1 M6
N35 S3300 M3
N40 G54
N45 M8
N55 G0 X54.9 Y-20.456
N60 G43 Z10. H1
N65 #102=1000. (FINISH)
N70 #103=900. (ENTRY)
N75 #104=1000. (EXIT)
N80 G0 Z5.
N85 G1 Z-0.4 F#103
N90 G18 G3 X54.3 Z-1. I-0.6 K0.
N95 G1 X51.
N100 X-51. F#102
N105 G3 X-51.6 Z-0.4 I0. K0.6 F#104
N110 G0 Z5.
N115 X54.9 Y-16.95
N120 G1 Z-0.4 F#103
N125 G3 X54.3 Z-1. I-0.6 K0.
N130 G1 X51.
N135 X-51. F#102
N140 G3 X-51.6 Z-0.4 I0. K0.6 F#104
N145 G0 Z5.
N150 X54.9 Y-13.443
N155 G1 Z-0.4 F#103
N160 G3 X54.3 Z-1. I-0.6 K0.
N165 G1 X51.
N170 X-51. F#102
N175 G3 X-51.6 Z-0.4 I0. K0.6 F#104
N180 G0 Z5.
N185 X54.9 Y-9.937
N190 G1 Z-0.4 F#103
N195 G3 X54.3 Z-1. I-0.6 K0.
N200 G1 X51.
N205 X-51. F#102
N210 G3 X-51.6 Z-0.4 I0. K0.6 F#104
N215 G0 Z5.
N220 X54.9 Y-6.431
N225 G1 Z-0.4 F#103
N230 G3 X54.3 Z-1. I-0.6 K0.
N235 G1 X51.
N240 X-51. F#102
N245 G3 X-51.6 Z-0.4 I0. K0.6 F#104
N250 G0 Z5.
N255 X54.9 Y-2.925
N260 G1 Z-0.4 F#103
N265 G3 X54.3 Z-1. I-0.6 K0.
N270 G1 X51.
N275 X-51. F#102
N280 G3 X-51.6 Z-0.4 I0. K0.6 F#104
N285 G0 Z5.
N290 X54.9 Y0.581
N295 G1 Z-0.4 F#103
N300 G3 X54.3 Z-1. I-0.6 K0.
N305 G1 X51.
N310 X-51. F#102
N315 G3 X-51.6 Z-0.4 I0. K0.6 F#104
N320 G0 Z5.
N325 X54.9 Y4.087
N330 G1 Z-0.4 F#103
N335 G3 X54.3 Z-1. I-0.6 K0.
N340 G1 X51.
N345 X-51. F#102
N350 G3 X-51.6 Z-0.4 I0. K0.6 F#104
N355 G0 Z5.
N360 X54.9 Y7.594
N365 G1 Z-0.4 F#103
N370 G3 X54.3 Z-1. I-0.6 K0.
N375 G1 X51.
N380 X-51. F#102
N385 G3 X-51.6 Z-0.4 I0. K0.6 F#104
N390 G0 Z5.
N395 X54.9 Y11.1
N400 G1 Z-0.4 F#103
N405 G3 X54.3 Z-1. I-0.6 K0.
N410 G1 X51.
N415 X-51. F#102
N420 G3 X-51.6 Z-0.4 I0. K0.6 F#104
N425 G0 Z5.
N430 X54.9 Y14.606
N435 G1 Z-0.4 F#103
N440 G3 X54.3 Z-1. I-0.6 K0.
N445 G1 X51.
N450 X-51. F#102
N455 G3 X-51.6 Z-0.4 I0. K0.6 F#104
N460 G0 Z5.
N465 X54.9 Y18.112
N470 G1 Z-0.4 F#103
N475 G3 X54.3 Z-1. I-0.6 K0.
N480 G1 X51.
N485 X-51. F#102
N490 G3 X-51.6 Z-0.4 I0. K0.6 F#104
N495 G0 Z10.
N500 G17
N505 M9
N510 G53 G0 Z0.
N515 M30
%
