%
(1)
(T1  D=6. CR=0. - ZMIN=-4.5 - FLAT END MILL)
N10 G90 G94 G17 G91.1
N15 G21
N20 G53 G0 Z0.
(2D POCKET2)
N25 M9
N30 T1 M6
N35 S3300 M3
N40 G54
N45 M8
N55 G0 X-5.083 Y24.893
N60 G43 Z6. H1
N65 #100=1000. (CUTTING)
N70 #103=900. (ENTRY)
N75 #104=1000. (EXIT)
N80 G0 Z3.1
N85 G1 Z-3.9 F#103
N90 X-5.076 Y24.89 Z-3.994
N95 X-5.056 Y24.881 Z-4.085
N100 X-5.022 Y24.868 Z-4.172
N105 X-4.977 Y24.849 Z-4.253
N110 X-4.92 Y24.825 Z-4.324
N115 X-4.854 Y24.798 Z-4.385
N120 X-4.78 Y24.767 Z-4.435
N125 X-4.7 Y24.734 Z-4.471
N130 X-4.615 Y24.699 Z-4.493
N135 X-4.529 Y24.663 Z-4.5
N140 X-2.676 Y23.896
N145 X-0.476 Y22.984 F#100
N150 G3 X0.476 I0.476 J1.148
N155 G1 X2.682 Y23.898
N160 G3 X2.567 Y24.476 I-0.115 J0.277
N165 G1 X-4.914 Y24.473
N170 G3 X-5.028 Y23.896 I0. J-0.3
N175 G1 X-0.476 Y22.01
N180 G3 X0.476 I0.476 J1.148
N185 G1 X5.033 Y23.898
N190 G3 X4.918 Y24.475 I-0.115 J0.277
N195 G1 X-7.266 Y24.473
N200 G3 X-7.381 Y23.896 I0. J-0.3
N205 G1 X-0.476 Y21.036
N210 G3 X0.476 I0.476 J1.148
N215 G1 X7.384 Y23.897
N220 G3 X7.269 Y24.475 I-0.115 J0.277
N225 G1 X-9.619 Y24.474
N230 G3 X-9.733 Y23.897 I0. J-0.3
N235 G1 X-0.476 Y20.062
N240 G3 X0.476 I0.476 J1.148
N245 G1 X9.734 Y23.897
N250 G3 X9.62 Y24.474 I-0.115 J0.277
N255 G1 X-11.971
N260 G3 X-12.086 Y23.897 I0. J-0.3
N265 G1 X-0.476 Y19.088
N270 G3 X0.476 I0.476 J1.148
N275 G1 X12.085 Y23.897
N280 G3 X11.97 Y24.474 I-0.115 J0.277
N285 G1 X-14.324
N290 G3 X-14.439 Y23.897 I0. J-0.3
N295 G1 X-0.476 Y18.114
N300 G3 X0.476 I0.476 J1.148
N305 G1 X14.436 Y23.896
N310 G3 X14.321 Y24.473 I-0.115 J0.277
N315 G1 X-16.676 Y24.475
N320 G3 X-16.791 Y23.898 I0. J-0.3
N325 G1 X-0.476 Y17.139
N330 G3 X0.476 I0.476 J1.148
N335 G1 X16.786 Y23.896
N340 G3 X16.672 Y24.473 I-0.115 J0.277
N345 G1 X-19.029 Y24.475
N350 G3 X-19.144 Y23.898 I0. J-0.3
N355 G1 X-0.476 Y16.165
N360 G3 X0.476 I0.476 J1.148
N365 G1 X19.148 Y23.9
N370 G3 X19.033 Y24.477 I-0.115 J0.277
N375 G1 X-21.381 Y24.475
N380 G3 X-21.496 Y23.898 I0. J-0.3
N385 G1 X-0.476 Y15.191
N390 G3 X0.476 I0.476 J1.148
N395 G1 X21.499 Y23.899
N400 G3 X21.384 Y24.476 I-0.115 J0.277
N405 G1 X-23.734
N410 G3 X-23.849 Y23.899 I0. J-0.3
N415 G1 X-0.476 Y14.217
N420 G3 X0.476 I0.476 J1.148
N425 G1 X23.85 Y23.899
N430 X23.871 Y23.908 F#104
N435 X23.958 Y23.944 Z-4.493
N440 X24.043 Y23.979 Z-4.471
N445 X24.123 Y24.012 Z-4.435
N450 X24.197 Y24.043 Z-4.385
N455 X24.263 Y24.07 Z-4.324
N460 X24.32 Y24.094 Z-4.253
N465 X24.365 Y24.112 Z-4.172
N470 X24.398 Y24.126 Z-4.085
N475 X24.419 Y24.135 Z-3.994
N480 X24.426 Y24.137 Z-3.9
N485 G0 Z3.1
N490 X-28.601 Y24.893
N495 G1 Z-3.9 F#103
N500 X-28.594 Y24.89 Z-3.994
N505 X-28.574 Y24.882 Z-4.085
N510 X-28.541 Y24.868 Z-4.172
N515 X-28.495 Y24.849 Z-4.253
N520 X-28.439 Y24.826 Z-4.324
N525 X-28.373 Y24.798 Z-4.385
N530 X-28.298 Y24.767 Z-4.435
N535 X-28.218 Y24.734 Z-4.471
N540 X-28.134 Y24.699 Z-4.493
N545 X-28.047 Y24.663 Z-4.5
N550 X-26.201 Y23.899
N555 X-0.475 Y13.243 F#100
N560 G3 X0.475 I0.475 J1.147
N565 G1 X26.2 Y23.898
N570 X26.221 Y23.907 F#104
N575 X26.308 Y23.943 Z-4.493
N580 X26.393 Y23.978 Z-4.471
N585 X26.473 Y24.011 Z-4.435
N590 X26.547 Y24.042 Z-4.385
N595 X26.613 Y24.069 Z-4.324
N600 X26.67 Y24.093 Z-4.253
N605 X26.715 Y24.112 Z-4.172
N610 X26.749 Y24.125 Z-4.085
N615 X26.769 Y24.134 Z-3.994
N620 X26.776 Y24.137 Z-3.9
N625 G0 Z3.1
N630 X-30.954 Y24.893
N635 G1 Z-3.9 F#103
N640 X-30.947 Y24.89 Z-3.994
N645 X-30.927 Y24.882 Z-4.085
N650 X-30.893 Y24.868 Z-4.172
N655 X-30.848 Y24.849 Z-4.253
N660 X-30.791 Y24.826 Z-4.324
N665 X-30.725 Y24.798 Z-4.385
N670 X-30.651 Y24.768 Z-4.435
N675 X-30.571 Y24.734 Z-4.471
N680 X-30.486 Y24.699 Z-4.493
N685 X-30.399 Y24.664 Z-4.5
N690 X-28.554 Y23.899
N695 X-0.427 Y12.249 F#100
N700 G3 X0.427 I0.427 J1.031
N705 G1 X28.547 Y23.896
N710 X28.569 Y23.905 F#104
N715 X28.655 Y23.941 Z-4.493
N720 X28.74 Y23.976 Z-4.471
N725 X28.82 Y24.009 Z-4.435
N730 X28.894 Y24.04 Z-4.385
N735 X28.961 Y24.068 Z-4.324
N740 X29.017 Y24.091 Z-4.253
N745 X29.062 Y24.11 Z-4.172
N750 X29.096 Y24.124 Z-4.085
N755 X29.116 Y24.132 Z-3.994
N760 X29.123 Y24.135 Z-3.9
N765 G0 Z3.1
N770 X-33.276 Y24.892
N775 G1 Z-3.9 F#103
N780 X-33.269 Y24.89 Z-3.994
N785 X-33.249 Y24.881 Z-4.085
N790 X-33.216 Y24.867 Z-4.172
N795 X-33.17 Y24.848 Z-4.253
N800 X-33.114 Y24.825 Z-4.324
N805 X-33.048 Y24.798 Z-4.385
N810 X-32.974 Y24.767 Z-4.435
N815 X-32.893 Y24.734 Z-4.471
N820 X-32.809 Y24.699 Z-4.493
N825 X-32.722 Y24.663 Z-4.5
N830 X-30.869 Y23.896
N835 X-0.763 Y11.428 F#100
N840 G2 X-0.571 Y11.338 I-0.927 J-2.237
N845 G3 X-0.381 Y11.244 I2.633 J5.055
N850 X0.381 I0.381 J0.803
N855 X0.571 Y11.338 I-2.444 J5.149
N860 G2 X0.763 Y11.428 I1.119 J-2.147
N865 G1 X30.88 Y23.9
N870 X30.901 Y23.909 F#104
N875 X30.988 Y23.945 Z-4.493
N880 X31.073 Y23.98 Z-4.471
N885 X31.153 Y24.013 Z-4.435
N890 X31.227 Y24.044 Z-4.385
N895 X31.293 Y24.071 Z-4.324
N900 X31.35 Y24.095 Z-4.253
N905 X31.395 Y24.113 Z-4.172
N910 X31.429 Y24.127 Z-4.085
N915 X31.449 Y24.136 Z-3.994
N920 X31.456 Y24.138 Z-3.9
N925 G0 Z3.1
N930 X-35.603 Y24.893
N935 G1 Z-3.9 F#103
N940 X-35.596 Y24.89 Z-3.994
N945 X-35.575 Y24.882 Z-4.085
N950 X-35.542 Y24.868 Z-4.172
N955 X-35.497 Y24.849 Z-4.253
N960 X-35.44 Y24.826 Z-4.324
N965 X-35.374 Y24.799 Z-4.385
N970 X-35.3 Y24.768 Z-4.435
N975 X-35.219 Y24.735 Z-4.471
N980 X-35.135 Y24.7 Z-4.493
N985 X-35.048 Y24.664 Z-4.5
N990 X-33.195 Y23.897
N995 X-1.102 Y10.609 F#100
N1000 G2 X-0.744 Y10.436 I-1.324 J-3.196
N1005 G1 X-0.335 Y10.208
N1010 G3 X0.335 I0.335 J0.601
N1015 G1 X0.744 Y10.436
N1020 G2 X1.102 Y10.609 I1.682 J-3.022
N1025 G1 X33.194 Y23.896
N1030 X33.215 Y23.905 F#104
N1035 X33.302 Y23.941 Z-4.493
N1040 X33.387 Y23.976 Z-4.471
N1045 X33.467 Y24.009 Z-4.435
N1050 X33.541 Y24.04 Z-4.385
N1055 X33.607 Y24.067 Z-4.324
N1060 X33.664 Y24.091 Z-4.253
N1065 X33.709 Y24.109 Z-4.172
N1070 X33.743 Y24.123 Z-4.085
N1075 X33.763 Y24.132 Z-3.994
N1080 X33.77 Y24.134 Z-3.9
N1085 G0 Z3.1
N1090 X-37.929 Y24.894
N1095 G1 Z-3.9 F#103
N1100 X-37.922 Y24.891 Z-3.994
N1105 X-37.902 Y24.883 Z-4.085
N1110 X-37.868 Y24.869 Z-4.172
N1115 X-37.823 Y24.85 Z-4.253
N1120 X-37.766 Y24.827 Z-4.324
N1125 X-37.7 Y24.8 Z-4.385
N1130 X-37.626 Y24.769 Z-4.435
N1135 X-37.546 Y24.736 Z-4.471
N1140 X-37.461 Y24.701 Z-4.493
N1145 X-37.374 Y24.665 Z-4.5
N1150 X-35.522 Y23.898
N1155 X-1.441 Y9.791 F#100
N1160 G2 X-0.847 Y9.486 I-1.572 J-3.795
N1165 X-0.287 Y9.123 I-9.073 J-14.621
N1170 G3 X0.287 I0.287 J0.425
N1175 G2 X0.847 Y9.486 I9.633 J-14.258
N1180 X1.441 Y9.791 I2.166 J-3.49
N1185 G1 X35.519 Y23.897
N1190 X35.54 Y23.906 F#104
N1195 X35.627 Y23.942 Z-4.493
N1200 X35.712 Y23.977 Z-4.471
N1205 X35.792 Y24.01 Z-4.435
N1210 X35.866 Y24.041 Z-4.385
N1215 X35.932 Y24.068 Z-4.324
N1220 X35.989 Y24.091 Z-4.253
N1225 X36.034 Y24.11 Z-4.172
N1230 X36.068 Y24.124 Z-4.085
N1235 X36.088 Y24.132 Z-3.994
N1240 X36.095 Y24.135 Z-3.9
N1245 G0 Z3.1
N1250 X-40.277 Y24.895
N1255 G1 Z-3.9 F#103
N1260 X-40.27 Y24.892 Z-3.994
N1265 X-40.25 Y24.884 Z-4.085
N1270 X-40.216 Y24.87 Z-4.172
N1275 X-40.171 Y24.851 Z-4.253
N1280 X-40.114 Y24.828 Z-4.324
N1285 X-40.048 Y24.8 Z-4.385
N1290 X-39.974 Y24.77 Z-4.435
N1295 X-39.894 Y24.736 Z-4.471
N1300 X-39.809 Y24.701 Z-4.493
N1305 X-39.722 Y24.666 Z-4.5
N1310 X-37.862 Y23.896
N1315 X-1.784 Y8.963 F#100
N1320 G2 X-0.97 Y8.52 I-1.692 J-4.085
N1325 X-0.237 Y7.952 I-4.616 J-6.707
N1330 G3 X0.237 I0.237 J0.272
N1335 G2 X0.97 Y8.52 I5.348 J-6.138
N1340 X1.784 Y8.963 I2.507 J-3.642
N1345 G1 X37.869 Y23.899
N1350 X37.891 Y23.908 F#104
N1355 X37.978 Y23.943 Z-4.493
N1360 X38.062 Y23.978 Z-4.471
N1365 X38.143 Y24.012 Z-4.435
N1370 X38.217 Y24.042 Z-4.385
N1375 X38.283 Y24.07 Z-4.324
N1380 X38.339 Y24.093 Z-4.253
N1385 X38.385 Y24.112 Z-4.172
N1390 X38.418 Y24.126 Z-4.085
N1395 X38.438 Y24.134 Z-3.994
N1400 X38.445 Y24.137 Z-3.9
N1405 G0 Z3.1
N1410 X-42.629 Y24.895
N1415 G1 Z-3.9 F#103
N1420 X-42.623 Y24.892 Z-3.994
N1425 X-42.602 Y24.884 Z-4.085
N1430 X-42.569 Y24.87 Z-4.172
N1435 X-42.524 Y24.851 Z-4.253
N1440 X-42.467 Y24.828 Z-4.324
N1445 X-42.401 Y24.8 Z-4.385
N1450 X-42.327 Y24.77 Z-4.435
N1455 X-42.246 Y24.736 Z-4.471
N1460 X-42.162 Y24.701 Z-4.493
N1465 X-42.075 Y24.665 Z-4.5
N1470 X-40.215 Y23.895
N1475 X-2.129 Y8.131 F#100
N1480 G2 X-1.055 Y7.487 I-1.63 J-3.935
N1485 X-0.182 Y6.588 I-3.54 J-4.307
N1490 G3 X0.182 I0.182 J0.141
N1495 G2 X1.055 Y7.487 I4.412 J-3.408
N1500 X2.129 Y8.131 I2.704 J-3.29
N1505 G1 X40.221 Y23.898
N1510 X40.242 Y23.907 F#104
N1515 X40.329 Y23.943 Z-4.493
N1520 X40.414 Y23.978 Z-4.471
N1525 X40.494 Y24.011 Z-4.435
N1530 X40.568 Y24.042 Z-4.385
N1535 X40.634 Y24.069 Z-4.324
N1540 X40.691 Y24.092 Z-4.253
N1545 X40.736 Y24.111 Z-4.172
N1550 X40.77 Y24.125 Z-4.085
N1555 X40.79 Y24.133 Z-3.994
N1560 X40.797 Y24.136 Z-3.9
N1565 G0 Z3.1
N1570 X-44.979 Y24.893
N1575 G1 Z-3.9 F#103
N1580 X-44.972 Y24.89 Z-3.994
N1585 X-44.952 Y24.882 Z-4.085
N1590 X-44.918 Y24.868 Z-4.172
N1595 X-44.873 Y24.849 Z-4.253
N1600 X-44.816 Y24.826 Z-4.324
N1605 X-44.75 Y24.799 Z-4.385
N1610 X-44.676 Y24.768 Z-4.435
N1615 X-44.596 Y24.735 Z-4.471
N1620 X-44.511 Y24.7 Z-4.493
N1625 X-44.424 Y24.664 Z-4.5
N1630 X-42.579 Y23.9
N1635 X-2.473 Y7.3 F#100
N1640 G2 X-0.854 Y6.021 I-1.451 J-3.503
N1645 X-0.105 Y4.098 I-3.299 J-2.39
N1650 G3 X0.105 I0.105 J0.012
N1655 G2 X0.854 Y6.021 I4.047 J-0.467
N1660 X2.473 Y7.3 I3.071 J-2.225
N1665 G1 X42.572 Y23.897
N1670 X44.435 Y24.668 F#104
N1675 X44.522 Y24.704 Z-4.493
N1680 X44.606 Y24.739 Z-4.471
N1685 X44.686 Y24.772 Z-4.435
N1690 X44.761 Y24.803 Z-4.385
N1695 X44.827 Y24.83 Z-4.324
N1700 X44.883 Y24.854 Z-4.253
N1705 X44.929 Y24.873 Z-4.172
N1710 X44.962 Y24.886 Z-4.085
N1715 X44.982 Y24.895 Z-3.994
N1720 X44.989 Y24.898 Z-3.9
N1725 G0 Z3.1
N1730 X-46.665 Y24.893
N1735 G1 Z-3.96 F#103
N1740 X-46.659 Y24.889 Z-4.044
N1745 X-46.642 Y24.879 Z-4.127
N1750 X-46.615 Y24.862 Z-4.205
N1755 X-46.577 Y24.839 Z-4.277
N1760 X-46.53 Y24.81 Z-4.342
N1765 X-46.475 Y24.776 Z-4.397
N1770 X-46.413 Y24.739 Z-4.441
N1775 X-46.347 Y24.698 Z-4.474
N1780 X-46.276 Y24.655 Z-4.493
N1785 X-46.204 Y24.611 Z-4.5
N1790 X-45.112 Y23.941
N1795 G3 X-45.028 Y23.898 I0.313 J0.512
N1800 G1 X-42.308 Y22.772 F#100
N1805 X-2.837 Y6.422
N1810 G2 X-0.996 Y3.913 I-1.148 J-2.772
N1815 G3 X0.996 I0.996 J0.087
N1820 G2 X2.837 Y6.422 I2.989 J-0.262
N1825 G1 X42.308 Y22.772
N1830 X45.024 Y23.897
N1835 G3 X45.108 Y23.94 I-0.23 J0.554 F#104
N1840 G1 X45.388 Y24.111
N1845 X45.468 Y24.16 Z-4.493
N1850 X45.546 Y24.208 Z-4.471
N1855 X45.62 Y24.253 Z-4.435
N1860 X45.689 Y24.295 Z-4.385
N1865 X45.75 Y24.333 Z-4.324
N1870 X45.802 Y24.365 Z-4.253
N1875 X45.844 Y24.39 Z-4.172
N1880 X45.875 Y24.409 Z-4.085
N1885 X45.893 Y24.421 Z-3.994
N1890 X45.9 Y24.425 Z-3.9
N1895 G0 Z3.1
N1900 X4.018 Y-24.035
N1905 G1 Z1. F#103
N1910 Z-3.9
N1915 X4.011 Y-24.033 Z-3.994
N1920 X3.989 Y-24.029 Z-4.085
N1925 X3.954 Y-24.021 Z-4.172
N1930 X3.906 Y-24.011 Z-4.253
N1935 X3.846 Y-23.999 Z-4.324
N1940 X3.776 Y-23.984 Z-4.385
N1945 X3.697 Y-23.967 Z-4.435
N1950 X3.612 Y-23.95 Z-4.471
N1955 X3.522 Y-23.931 Z-4.493
N1960 X3.431 Y-23.912 Z-4.5
N1965 X3.372 Y-23.899
N1970 G3 X-3.373 Y-23.9 I-3.372 J-16.101 F#100
N1975 X-3.311 Y-24.493 I0.062 J-0.294
N1980 G1 X6.349 Y-24.476
N1985 G3 X6.46 Y-23.898 I-0.001 J0.3
N1990 X-6.459 Y-23.897 I-6.46 J-16.102
N1995 X-6.347 Y-24.476 I0.112 J-0.278
N2000 G1 X8.449 Y-24.463
N2005 G3 X8.59 Y-23.898 I0. J0.3
N2010 X-8.586 Y-23.896 I-8.59 J-16.102
N2015 X-8.445 Y-24.461 I0.141 J-0.265
N2020 G1 X10.205 Y-24.451
N2025 G3 X10.367 Y-23.899 I0. J0.3
N2030 X-10.362 Y-23.895 I-10.367 J-16.101
N2035 X-10.199 Y-24.448 I0.162 J-0.252
N2040 G1 X11.768 Y-24.439
N2045 G3 X11.947 Y-23.898 I0. J0.3
N2050 X-11.949 Y-23.9 I-11.947 J-16.102
N2055 X-11.77 Y-24.441 I0.179 J-0.241
N2060 G1 X13.204 Y-24.423
N2065 G3 X13.396 Y-23.893 I0. J0.3
N2070 X-13.396 I-13.396 J-16.107
N2075 X-13.204 Y-24.423 I0.192 J-0.231
N2080 G1 X14.569 Y-24.421
N2085 G3 X14.772 Y-23.9 I0. J0.3
N2090 X-14.77 Y-23.898 I-14.772 J-16.1
N2095 X-14.567 Y-24.42 I0.203 J-0.221
N2100 G1 X15.853 Y-24.404
N2105 G3 X16.065 Y-23.892 I0. J0.3
N2110 X-16.07 Y-23.897 I-16.065 J-16.108
N2115 X-15.858 Y-24.409 I0.212 J-0.212
N2120 G1 X17.096 Y-24.396
N2125 G3 X17.316 Y-23.892 I0. J0.3
N2130 X-17.319 Y-23.895 I-17.316 J-16.108
N2135 X-17.099 Y-24.399 I0.22 J-0.204
N2140 G1 X18.302 Y-24.391
N2145 G3 X18.529 Y-23.894 I0. J0.3
N2150 X-18.53 Y-23.896 I-18.529 J-16.106
N2155 X-18.303 Y-24.393 I0.226 J-0.197
N2160 G1 X19.474 Y-24.385
N2165 G3 X19.707 Y-23.896 I0. J0.3
N2170 X-19.706 Y-23.895 I-19.707 J-16.104
N2175 X-19.474 Y-24.385 I0.232 J-0.19
N2180 G1 X20.616 Y-24.375
N2185 G3 X20.853 Y-23.892 I0. J0.3
N2190 X-20.858 Y-23.899 I-20.853 J-16.108
N2195 X-20.621 Y-24.382 I0.237 J-0.183
N2200 G1 X21.743 Y-24.376
N2205 G3 X21.985 Y-23.899 I0. J0.3
N2210 X-21.981 Y-23.894 I-21.985 J-16.101
N2215 X-21.739 Y-24.372 I0.242 J-0.177
N2220 G1 X22.843 Y-24.368
N2225 G3 X23.089 Y-23.897 I0. J0.3
N2230 X-23.087 Y-23.893 I-23.089 J-16.103
N2235 X-22.841 Y-24.365 I0.246 J-0.172
N2240 G1 X23.926 Y-24.359
N2245 G3 X24.175 Y-23.892 I0. J0.3
N2250 X-24.176 Y-23.893 I-24.175 J-16.108
N2255 G1 X-24.189 Y-23.913 F#104
N2260 X-24.241 Y-23.991 Z-4.493
N2265 X-24.292 Y-24.067 Z-4.471
N2270 X-24.34 Y-24.139 Z-4.435
N2275 X-24.384 Y-24.206 Z-4.385
N2280 X-24.424 Y-24.266 Z-4.324
N2285 X-24.458 Y-24.317 Z-4.253
N2290 X-24.485 Y-24.358 Z-4.172
N2295 X-24.505 Y-24.388 Z-4.085
N2300 X-24.517 Y-24.406 Z-3.994
N2305 X-24.521 Y-24.412 Z-3.9
N2310 G0 Z3.1
N2315 X25.896 Y-24.906
N2320 G1 Z-3.9 F#103
N2325 X25.892 Y-24.9 Z-3.994
N2330 X25.88 Y-24.881 Z-4.085
N2335 X25.861 Y-24.851 Z-4.172
N2340 X25.834 Y-24.809 Z-4.253
N2345 X25.802 Y-24.758 Z-4.324
N2350 X25.763 Y-24.697 Z-4.385
N2355 X25.72 Y-24.63 Z-4.435
N2360 X25.673 Y-24.556 Z-4.471
N2365 X25.624 Y-24.479 Z-4.493
N2370 X25.573 Y-24.4 Z-4.5
N2375 X25.251 Y-23.895
N2380 G3 X-25.254 Y-23.9 I-25.251 J-16.105 F#100
N2385 G1 X-25.267 Y-23.919 F#104
N2390 X-25.317 Y-23.998 Z-4.493
N2395 X-25.366 Y-24.076 Z-4.471
N2400 X-25.413 Y-24.149 Z-4.435
N2405 X-25.456 Y-24.217 Z-4.385
N2410 X-25.495 Y-24.277 Z-4.324
N2415 X-25.528 Y-24.329 Z-4.253
N2420 X-25.554 Y-24.37 Z-4.172
N2425 X-25.574 Y-24.4 Z-4.085
N2430 X-25.585 Y-24.419 Z-3.994
N2435 X-25.589 Y-24.425 Z-3.9
N2440 G0 Z3.1
N2445 X26.951 Y-24.901
N2450 G1 Z-3.9 F#103
N2455 X26.947 Y-24.895 Z-3.994
N2460 X26.935 Y-24.876 Z-4.085
N2465 X26.916 Y-24.846 Z-4.172
N2470 X26.889 Y-24.804 Z-4.253
N2475 X26.857 Y-24.752 Z-4.324
N2480 X26.819 Y-24.692 Z-4.385
N2485 X26.776 Y-24.624 Z-4.435
N2490 X26.729 Y-24.55 Z-4.471
N2495 X26.68 Y-24.473 Z-4.493
N2500 X26.63 Y-24.393 Z-4.5
N2505 X26.319 Y-23.9
N2510 X26.096 Y-23.547 F#100
N2515 G3 X-26.096 I-26.096 J-16.453
N2520 G1 X-26.314 Y-23.892
N2525 X-26.326 Y-23.912 F#104
N2530 X-26.376 Y-23.991 Z-4.493
N2535 X-26.425 Y-24.068 Z-4.471
N2540 X-26.472 Y-24.142 Z-4.435
N2545 X-26.515 Y-24.21 Z-4.385
N2550 X-26.553 Y-24.27 Z-4.324
N2555 X-26.585 Y-24.322 Z-4.253
N2560 X-26.612 Y-24.364 Z-4.172
N2565 X-26.631 Y-24.394 Z-4.085
N2570 X-26.643 Y-24.413 Z-3.994
N2575 X-26.647 Y-24.419 Z-3.9
N2580 G0 Z3.1
N2585 X28.014 Y-24.9
N2590 G1 Z-3.9 F#103
N2595 X28.011 Y-24.894 Z-3.994
N2600 X27.999 Y-24.875 Z-4.085
N2605 X27.98 Y-24.845 Z-4.172
N2610 X27.953 Y-24.803 Z-4.253
N2615 X27.921 Y-24.752 Z-4.324
N2620 X27.882 Y-24.691 Z-4.385
N2625 X27.84 Y-24.623 Z-4.435
N2630 X27.793 Y-24.55 Z-4.471
N2635 X27.744 Y-24.472 Z-4.493
N2640 X27.694 Y-24.393 Z-4.5
N2645 X27.383 Y-23.899
N2650 X26.857 Y-23.067 F#100
N2655 G3 X-26.857 I-26.857 J-16.933
N2660 G1 X-27.383 Y-23.899
N2665 X-27.395 Y-23.919 F#104
N2670 X-27.445 Y-23.998 Z-4.493
N2675 X-27.494 Y-24.076 Z-4.471
N2680 X-27.54 Y-24.149 Z-4.435
N2685 X-27.583 Y-24.217 Z-4.385
N2690 X-27.622 Y-24.278 Z-4.324
N2695 X-27.654 Y-24.329 Z-4.253
N2700 X-27.68 Y-24.371 Z-4.172
N2705 X-27.7 Y-24.401 Z-4.085
N2710 X-27.711 Y-24.42 Z-3.994
N2715 X-27.715 Y-24.426 Z-3.9
N2720 G0 Z3.1
N2725 X29.08 Y-24.903
N2730 G1 Z-3.9 F#103
N2735 X29.077 Y-24.897 Z-3.994
N2740 X29.065 Y-24.878 Z-4.085
N2745 X29.046 Y-24.848 Z-4.172
N2750 X29.019 Y-24.806 Z-4.253
N2755 X28.987 Y-24.755 Z-4.324
N2760 X28.949 Y-24.694 Z-4.385
N2765 X28.906 Y-24.626 Z-4.435
N2770 X28.859 Y-24.553 Z-4.471
N2775 X28.81 Y-24.475 Z-4.493
N2780 X28.76 Y-24.396 Z-4.5
N2785 X28.445 Y-23.896
N2790 X27.619 Y-22.587 F#100
N2795 G3 X-27.619 I-27.619 J-17.413
N2800 G1 X-28.445 Y-23.896
N2805 X-28.457 Y-23.916 F#104
N2810 X-28.508 Y-23.995 Z-4.493
N2815 X-28.556 Y-24.073 Z-4.471
N2820 X-28.603 Y-24.146 Z-4.435
N2825 X-28.646 Y-24.214 Z-4.385
N2830 X-28.684 Y-24.275 Z-4.324
N2835 X-28.716 Y-24.326 Z-4.253
N2840 X-28.743 Y-24.368 Z-4.172
N2845 X-28.762 Y-24.398 Z-4.085
N2850 X-28.774 Y-24.417 Z-3.994
N2855 X-28.778 Y-24.423 Z-3.9
N2860 G0 Z3.1
N2865 X30.142 Y-24.9
N2870 G1 Z-3.9 F#103
N2875 X30.138 Y-24.893 Z-3.994
N2880 X30.127 Y-24.875 Z-4.085
N2885 X30.107 Y-24.844 Z-4.172
N2890 X30.081 Y-24.803 Z-4.253
N2895 X30.049 Y-24.751 Z-4.324
N2900 X30.01 Y-24.69 Z-4.385
N2905 X29.968 Y-24.623 Z-4.435
N2910 X29.921 Y-24.549 Z-4.471
N2915 X29.872 Y-24.472 Z-4.493
N2920 X29.822 Y-24.392 Z-4.5
N2925 X29.507 Y-23.892
N2930 X28.38 Y-22.107 F#100
N2935 G3 X-28.38 I-28.38 J-17.893
N2940 G1 X-29.507 Y-23.893
N2945 X-29.682 Y-24.171 F#104
N2950 X-29.732 Y-24.25 Z-4.493
N2955 X-29.781 Y-24.327 Z-4.471
N2960 X-29.828 Y-24.401 Z-4.435
N2965 X-29.871 Y-24.469 Z-4.385
N2970 X-29.909 Y-24.529 Z-4.324
N2975 X-29.941 Y-24.581 Z-4.253
N2980 X-29.968 Y-24.623 Z-4.172
N2985 X-29.987 Y-24.653 Z-4.085
N2990 X-29.999 Y-24.672 Z-3.994
N2995 X-30.003 Y-24.678 Z-3.9
N3000 G0 Z3.1
N3005 X31.069 Y-24.901
N3010 G1 Z-3.96 F#103
N3015 X31.067 Y-24.894 Z-4.044
N3020 X31.059 Y-24.876 Z-4.127
N3025 X31.046 Y-24.846 Z-4.205
N3030 X31.029 Y-24.806 Z-4.277
N3035 X31.007 Y-24.755 Z-4.342
N3040 X30.982 Y-24.696 Z-4.397
N3045 X30.953 Y-24.63 Z-4.441
N3050 X30.922 Y-24.558 Z-4.474
N3055 X30.89 Y-24.482 Z-4.493
N3060 X30.856 Y-24.404 Z-4.5
N3065 X30.671 Y-23.974
N3070 G3 X30.628 Y-23.89 I-0.551 J-0.237
N3075 G1 X29.184 Y-21.6 F#100
N3080 G3 X-29.184 I-29.184 J-18.4
N3085 G1 X-30.63 Y-23.894
N3090 G3 X-30.674 Y-23.978 I0.508 J-0.32 F#104
N3095 G1 X-30.804 Y-24.279
N3100 X-30.841 Y-24.366 Z-4.493
N3105 X-30.877 Y-24.45 Z-4.471
N3110 X-30.911 Y-24.53 Z-4.435
N3115 X-30.943 Y-24.603 Z-4.385
N3120 X-30.971 Y-24.669 Z-4.324
N3125 X-30.995 Y-24.725 Z-4.253
N3130 X-31.014 Y-24.771 Z-4.172
N3135 X-31.029 Y-24.804 Z-4.085
N3140 X-31.037 Y-24.824 Z-3.994
N3145 X-31.04 Y-24.831 Z-3.9
N3150 G0 Z6.
N3160 M9
N3165 G53 Z0.
N3170 M30
%
