%
(T16 REST 1)
(T16  D=3.175 CR=0. - ZMIN=-3.4 - FLAT END MILL)
N10 G90 G94 G17 G91.1
N15 G21
N20 G53 G0 Z0.
(2D POCKET3)
N25 M9
N30 T16 M6
N35 S3000 M3
N40 G54
N45 M8
N55 G0 X-2.052 Y5.702
N60 G43 Z8. H16
N65 #100=600. (CUTTING)
N70 #103=600. (ENTRY)
N75 #104=600. (EXIT)
N80 G0 Z1.7
N85 G1 Z-3.082 F#103
N90 G19 G3 Y6.02 Z-3.4 J0.318 K0.
N95 G1 Y6.051
N100 Y6.506 F#100
N105 G17 G3 X-2.235 Y6.559 I-0.099 J0.
N110 G2 X-2.477 Y6.235 I-2.039 J1.271
N115 G1 X-2.996 Y5.651 F#104
N120 X-3.043 Y5.598 Z-3.392
N125 X-3.087 Y5.548 Z-3.369
N130 X-3.127 Y5.503 Z-3.331
N135 X-3.161 Y5.465 Z-3.28
N140 X-3.186 Y5.437 Z-3.22
N145 X-3.201 Y5.419 Z-3.153
N150 X-3.207 Y5.413 Z-3.082
N155 Z-0.3
N160 X-1.933 Y5.62
N165 Z-3.082 F#103
N170 G19 G3 Y5.937 Z-3.4 J0.318 K0.
N175 G1 Y5.969
N180 Y6.982 F#100
N185 G17 G3 X-2.142 Y7.019 I-0.108 J0.
N190 G2 X-2.595 Y6.271 I-2.126 J0.775
N195 G1 X-3.163 Y5.648 F#104
N200 X-3.21 Y5.595 Z-3.392
N205 X-3.256 Y5.546 Z-3.369
N210 X-3.296 Y5.501 Z-3.331
N215 X-3.33 Y5.464 Z-3.28
N220 X-3.355 Y5.436 Z-3.22
N225 X-3.371 Y5.419 Z-3.153
N230 X-3.377 Y5.413 Z-3.082
N235 Z-0.3
N240 X-1.842 Y5.544
N245 Z-3.082 F#103
N250 Y5.552 Z-3.153
N255 Y5.575 Z-3.22
N260 Y5.613 Z-3.28
N265 Y5.663 Z-3.331
N270 Y5.723 Z-3.369
N275 Y5.791 Z-3.392
N280 X-1.841 Y5.861 Z-3.4
N285 Y5.893
N290 X-1.839 Y7.061 F#100
N295 G2 X-1.832 Y7.177 I0.976 J0.
N300 G1 X-1.817 Y7.303
N305 G3 X-2.153 Y7.356 I-0.169 J0.02
N310 G2 X-2.706 Y6.298 I-2.073 J0.41
N315 G1 X-3.318 Y5.664 F#104
N320 X-3.367 Y5.614 Z-3.392
N325 X-3.414 Y5.565 Z-3.369
N330 X-3.455 Y5.522 Z-3.331
N335 X-3.49 Y5.486 Z-3.28
N340 X-3.517 Y5.459 Z-3.22
N345 X-3.533 Y5.442 Z-3.153
N350 X-3.538 Y5.436 Z-3.082
N355 Z-0.3
N360 X-1.816 Y5.433
N365 Z-3.146 F#103
N370 X-1.814 Y5.439 Z-3.203
N375 X-1.808 Y5.457 Z-3.256
N380 X-1.799 Y5.485 Z-3.304
N385 X-1.786 Y5.524 Z-3.345
N390 X-1.772 Y5.569 Z-3.375
N395 X-1.755 Y5.62 Z-3.394
N400 X-1.738 Y5.674 Z-3.4
N405 G3 X-1.722 Y5.772 I-0.302 J0.098
N410 G1 X-1.719 Y7.061 F#100
N415 G2 X-1.713 Y7.167 I0.901 J0.
N420 G3 X-1.701 Y7.272 I-14.952 J1.764
N425 X-2.273 Y7.362 I-0.288 J0.032
N430 G2 X-2.847 Y6.32 I-1.975 J0.409
N435 G1 X-3.472 Y5.717 F#104
N440 X-3.523 Y5.668 Z-3.392
N445 X-3.571 Y5.622 Z-3.369
N450 X-3.614 Y5.58 Z-3.331
N455 X-3.65 Y5.545 Z-3.28
N460 X-3.678 Y5.519 Z-3.22
N465 X-3.695 Y5.502 Z-3.153
N470 X-3.7 Y5.497 Z-3.082
N475 Z-0.3
N480 X-1.741 Y5.339
N485 Z-3.146 F#103
N490 X-1.739 Y5.346 Z-3.203
N495 X-1.733 Y5.363 Z-3.256
N500 X-1.724 Y5.392 Z-3.304
N505 X-1.711 Y5.43 Z-3.345
N510 X-1.697 Y5.476 Z-3.375
N515 X-1.68 Y5.527 Z-3.394
N520 X-1.663 Y5.581 Z-3.4
N525 G3 X-1.647 Y5.679 I-0.302 J0.098
N530 G1 X-1.648 Y7.061 F#100
N535 G3 X-1.657 Y7.455 I-8.619 J0.
N540 X-1.919 Y7.748 I-0.311 J-0.014
N545 X-2.322 Y7.456 I-0.054 J-0.348
N550 G2 X-2.958 Y6.335 I-1.824 J0.294
N555 G1 X-3.613 Y5.785 F#104
N560 X-3.667 Y5.739 Z-3.392
N565 X-3.718 Y5.696 Z-3.369
N570 X-3.764 Y5.658 Z-3.331
N575 X-3.803 Y5.625 Z-3.28
N580 X-3.832 Y5.601 Z-3.22
N585 X-3.85 Y5.586 Z-3.153
N590 X-3.856 Y5.581 Z-3.082
N595 Z-0.3
N600 X-1.71 Y5.164
N605 Z-3.21 F#103
N610 X-1.706 Y5.169 Z-3.259
N615 X-1.695 Y5.185 Z-3.305
N620 X-1.677 Y5.209 Z-3.344
N625 X-1.654 Y5.241 Z-3.374
N630 X-1.627 Y5.278 Z-3.394
N635 X-1.598 Y5.318 Z-3.4
N640 G3 X-1.537 Y5.505 I-0.257 J0.187
N645 G1 X-1.538 Y7.061 F#100
N650 G3 X-1.573 Y7.526 I-3.073 J0.
N655 X-1.903 Y7.857 I-0.39 J-0.06
N660 X-2.43 Y7.473 I-0.071 J-0.457
N665 G2 X-3.129 Y6.341 I-1.715 J0.277
N670 G3 X-2.944 Y6.083 I0.093 J-0.129
N675 X-2.893 Y6.144 I-0.093 J0.129
N680 G1 X-2.215 Y7.577
N685 G2 X-1.913 Y7.526 I0.143 J-0.068
N690 G1 X-1.696 Y5.505
N695 X-1.695 Y5.494
N700 Y5.484
N705 X-1.705 Y5.068
N710 G3 X-1.548 Y4.906 I0.159 J-0.004
N715 X-1.388 Y5.064 I0.002 J0.159
N720 G1 Y7.061
N725 G2 X-1.369 Y7.306 I1.588 J0.
N730 G3 X-2.578 Y7.497 I-0.605 J0.094
N735 G2 X-3.497 Y6.301 I-1.567 J0.253
N740 G1 X-4.154 Y6.007 F#104
N745 X-4.218 Y5.978 Z-3.392
N750 X-4.28 Y5.951 Z-3.369
N755 X-4.334 Y5.926 Z-3.331
N760 X-4.38 Y5.906 Z-3.28
N765 X-4.415 Y5.89 Z-3.22
N770 X-4.436 Y5.881 Z-3.153
N775 X-4.444 Y5.877 Z-3.082
N780 G0 Z3.
N785 X-2.721 Y-5.993
N790 Z1.7
N795 G1 Z-3.082 F#103
N800 X-2.716 Y-5.999 Z-3.153
N805 X-2.7 Y-6.017 Z-3.22
N810 X-2.676 Y-6.045 Z-3.28
N815 X-2.643 Y-6.083 Z-3.331
N820 X-2.603 Y-6.129 Z-3.369
N825 X-2.56 Y-6.18 Z-3.392
N830 X-2.513 Y-6.233 Z-3.4
N835 X-2.493 Y-6.257
N840 G2 X-2.233 Y-6.623 I-1.811 J-1.563 F#100
N845 G3 X-2.052 Y-6.574 I0.084 J0.049
N850 G1 Y-6.07
N855 Y-4.879 F#104
N860 G19 G3 Y-4.562 Z-3.082 J0. K0.318
N865 G1 Z-0.3
N870 X-2.841 Y-6.03
N875 Z-3.082 F#103
N880 X-2.836 Y-6.036 Z-3.153
N885 X-2.821 Y-6.054 Z-3.22
N890 X-2.796 Y-6.082 Z-3.28
N895 X-2.762 Y-6.12 Z-3.331
N900 X-2.722 Y-6.165 Z-3.369
N905 X-2.678 Y-6.215 Z-3.392
N910 X-2.631 Y-6.268 Z-3.4
N915 X-2.61 Y-6.292
N920 G17 G2 X-2.137 Y-7.145 I-1.685 J-1.492 F#100
N925 G3 X-1.933 Y-7.116 I0.1 J0.03
N930 G1 Y-5.987
N935 Y-4.797 F#104
N940 G19 G3 Y-4.479 Z-3.082 J0. K0.318
N945 G1 Z-0.3
N950 X-2.936 Y-6.063
N955 Z-3.082 F#103
N960 X-2.931 Y-6.069 Z-3.153
N965 X-2.915 Y-6.086 Z-3.22
N970 X-2.888 Y-6.113 Z-3.28
N975 X-2.853 Y-6.149 Z-3.331
N980 X-2.812 Y-6.193 Z-3.369
N985 X-2.765 Y-6.241 Z-3.392
N990 X-2.716 Y-6.292 Z-3.4
N995 X-2.694 Y-6.315
N1000 G17 G2 X-2.125 Y-7.537 I-1.488 J-1.435 F#100
N1005 G3 X-1.91 Y-7.568 I0.112 J0.012
N1010 X-1.867 Y-7.355 I-0.516 J0.214
N1015 G1 X-1.865 Y-5.933
N1020 X-1.862 Y-4.755 F#104
N1025 Y-4.684 Z-3.392
N1030 Y-4.617 Z-3.369
N1035 Y-4.557 Z-3.331
N1040 Y-4.507 Z-3.28
N1045 Y-4.469 Z-3.22
N1050 Y-4.445 Z-3.153
N1055 Y-4.437 Z-3.082
N1060 Z-0.3
N1065 X-3.079 Y-6.096
N1070 Z-3.082 F#103
N1075 X-3.073 Y-6.101 Z-3.153
N1080 X-3.056 Y-6.117 Z-3.22
N1085 X-3.029 Y-6.144 Z-3.28
N1090 X-2.993 Y-6.178 Z-3.331
N1095 X-2.949 Y-6.22 Z-3.369
N1100 X-2.901 Y-6.266 Z-3.392
N1105 X-2.85 Y-6.315 Z-3.4
N1110 X-2.827 Y-6.337
N1115 G2 X-2.235 Y-7.548 I-1.355 J-1.413 F#100
N1120 G3 X-1.752 Y-7.505 I0.241 J0.025
N1125 G1 X-1.748 Y-5.821
N1130 X-1.745 Y-4.704 F#104
N1135 Y-4.634 Z-3.392
N1140 Y-4.567 Z-3.369
N1145 Y-4.506 Z-3.331
N1150 Y-4.456 Z-3.28
N1155 Y-4.418 Z-3.22
N1160 Y-4.395 Z-3.153
N1165 Y-4.387 Z-3.082
N1170 Z-0.3
N1175 X-3.194 Y-6.098
N1180 Z-3.114 F#103
N1185 X-3.19 Y-6.103 Z-3.178
N1190 X-3.176 Y-6.119 Z-3.238
N1195 X-3.154 Y-6.145 Z-3.292
N1200 X-3.125 Y-6.18 Z-3.338
N1205 X-3.09 Y-6.221 Z-3.372
N1210 X-3.051 Y-6.267 Z-3.393
N1215 X-3.01 Y-6.316 Z-3.4
N1220 G3 X-2.975 Y-6.351 I0.242 J0.205
N1225 G2 X-2.344 Y-7.56 I-1.207 J-1.399 F#100
N1230 G3 X-1.642 Y-7.496 I0.351 J0.036
N1235 G1 X-1.643 Y-5.691
N1240 G3 X-1.814 Y-5.533 I-0.159 J0.
N1245 X-1.958 Y-5.716 I0.013 J-0.158
N1250 G1 X-1.684 Y-7.436
N1255 G2 X-1.972 Y-7.551 I-0.157 J-0.025
N1260 G1 X-2.871 Y-6.231
N1265 X-2.877 Y-6.222
N1270 X-2.882 Y-6.213
N1275 X-2.91 Y-6.156
N1280 G3 X-3.194 Y-6.298 I-0.142 J-0.071
N1285 X-3.147 Y-6.354 I0.142 J0.071
N1290 G2 X-2.454 Y-7.571 I-1.035 J-1.396
N1295 G3 X-1.532 Y-7.488 I0.46 J0.048
N1300 G1 X-1.533 Y-5.515
N1305 G3 X-1.701 Y-5.357 I-0.159 J0.
N1310 X-1.85 Y-5.533 I0.009 J-0.158
N1315 G1 X-1.623 Y-7.519
N1320 G2 X-1.904 Y-7.638 I-0.158 J-0.018
N1325 G1 X-3.052 Y-6.227
N1330 G3 X-3.094 Y-6.191 I-0.123 J-0.1
N1335 G1 X-3.369 Y-6.028
N1340 G3 X-3.59 Y-6.091 I-0.081 J-0.137
N1345 X-3.516 Y-6.309 I0.141 J-0.074
N1350 G2 X-2.603 Y-7.587 I-0.666 J-1.441
N1355 G3 X-1.383 Y-7.477 I0.609 J0.063
N1360 G2 X-1.388 Y-7.355 I1.583 J0.122
N1365 G1 Y-5.083
N1370 G3 X-1.391 Y-5.033 I-0.317 J0. F#104
N1375 G1 X-1.545 Y-4.066
N1380 X-1.556 Y-3.996 Z-3.392
N1385 X-1.566 Y-3.929 Z-3.369
N1390 X-1.576 Y-3.87 Z-3.331
N1395 X-1.584 Y-3.82 Z-3.28
N1400 X-1.589 Y-3.783 Z-3.22
N1405 X-1.593 Y-3.76 Z-3.153
N1410 X-1.594 Y-3.752 Z-3.082
N1415 G0 Z3.
N1420 X-24.448 Y-5.715
N1425 Z1.7
N1430 G1 Z-3.082 F#103
N1435 G19 G2 Y-6.032 Z-3.4 J-0.318 K0.
N1440 G1 Y-6.064
N1445 Y-6.552 F#100
N1450 G17 G3 X-24.266 Y-6.602 I0.098 J0.
N1455 G2 X-24.012 Y-6.25 I2.061 J-1.222
N1460 G1 X-23.499 Y-5.661 F#104
N1465 X-23.453 Y-5.608 Z-3.392
N1470 X-23.409 Y-5.557 Z-3.369
N1475 X-23.369 Y-5.512 Z-3.331
N1480 X-23.336 Y-5.474 Z-3.28
N1485 X-23.311 Y-5.445 Z-3.22
N1490 X-23.296 Y-5.428 Z-3.153
N1495 X-23.291 Y-5.422 Z-3.082
N1500 Z-0.3
N1505 X-24.567 Y-5.632
N1510 Z-3.082 F#103
N1515 G19 G2 Y-5.95 Z-3.4 J-0.318 K0.
N1520 G1 Y-5.982
N1525 Y-7.069 F#100
N1530 G17 G3 X-24.361 Y-7.101 I0.106 J0.
N1535 G2 X-23.895 Y-6.285 I2.147 J-0.686
N1540 G1 X-23.333 Y-5.656 F#104
N1545 X-23.286 Y-5.603 Z-3.392
N1550 X-23.241 Y-5.553 Z-3.369
N1555 X-23.201 Y-5.509 Z-3.331
N1560 X-23.167 Y-5.471 Z-3.28
N1565 X-23.142 Y-5.443 Z-3.22
N1570 X-23.127 Y-5.425 Z-3.153
N1575 X-23.121 Y-5.419 Z-3.082
N1580 Z-0.3
N1585 X-24.671 Y-5.545
N1590 Z-3.082 F#103
N1595 Y-5.553 Z-3.153
N1600 Y-5.577 Z-3.22
N1605 Y-5.614 Z-3.28
N1610 Y-5.665 Z-3.331
N1615 Y-5.725 Z-3.369
N1620 Y-5.792 Z-3.392
N1625 Y-5.863 Z-3.4
N1630 Y-5.894
N1635 X-24.672 Y-7.363 F#100
N1640 G3 X-24.331 Y-7.402 I0.171 J-0.01
N1645 G2 X-23.783 Y-6.311 I2.079 J-0.361
N1650 G1 X-23.177 Y-5.672 F#104
N1655 X-23.128 Y-5.621 Z-3.392
N1660 X-23.082 Y-5.572 Z-3.369
N1665 X-23.041 Y-5.529 Z-3.331
N1670 X-23.006 Y-5.492 Z-3.28
N1675 X-22.98 Y-5.465 Z-3.22
N1680 X-22.964 Y-5.448 Z-3.153
N1685 X-22.958 Y-5.442 Z-3.082
N1690 Z-0.3
N1695 X-24.695 Y-5.432
N1700 Z-3.146 F#103
N1705 X-24.697 Y-5.438 Z-3.203
N1710 X-24.703 Y-5.456 Z-3.256
N1715 X-24.713 Y-5.485 Z-3.304
N1720 X-24.725 Y-5.523 Z-3.345
N1725 X-24.74 Y-5.569 Z-3.375
N1730 X-24.756 Y-5.62 Z-3.394
N1735 X-24.774 Y-5.673 Z-3.4
N1740 G3 X-24.789 Y-5.772 I0.302 J-0.098
N1745 G1 X-24.79 Y-7.339 F#100
N1750 G3 X-24.211 Y-7.405 I0.292 J-0.014
N1755 G2 X-23.641 Y-6.332 I1.98 J-0.363
N1760 G1 X-23.022 Y-5.724 F#104
N1765 X-22.972 Y-5.674 Z-3.392
N1770 X-22.924 Y-5.627 Z-3.369
N1775 X-22.881 Y-5.585 Z-3.331
N1780 X-22.845 Y-5.55 Z-3.28
N1785 X-22.818 Y-5.523 Z-3.22
N1790 X-22.801 Y-5.507 Z-3.153
N1795 X-22.796 Y-5.501 Z-3.082
N1800 Z-0.3
N1805 X-24.759 Y-5.352
N1810 Z-3.146 F#103
N1815 X-24.761 Y-5.358 Z-3.203
N1820 X-24.767 Y-5.376 Z-3.256
N1825 X-24.776 Y-5.405 Z-3.304
N1830 X-24.788 Y-5.443 Z-3.345
N1835 X-24.803 Y-5.489 Z-3.375
N1840 X-24.82 Y-5.54 Z-3.394
N1845 X-24.837 Y-5.593 Z-3.4
N1850 G3 X-24.853 Y-5.692 I0.302 J-0.098
N1855 G1 Y-7.249 F#100
N1860 G3 X-24.804 Y-7.586 I1.201 J0.
N1865 X-24.542 Y-7.802 I0.29 J0.085
N1870 X-24.16 Y-7.499 I0.032 J0.351
N1875 G2 X-23.531 Y-6.346 I1.83 J-0.251
N1880 G1 X-22.88 Y-5.79 F#104
N1885 X-22.827 Y-5.744 Z-3.392
N1890 X-22.776 Y-5.7 Z-3.369
N1895 X-22.73 Y-5.661 Z-3.331
N1900 X-22.692 Y-5.628 Z-3.28
N1905 X-22.663 Y-5.604 Z-3.22
N1910 X-22.645 Y-5.589 Z-3.153
N1915 X-22.639 Y-5.583 Z-3.082
N1920 Z-0.3
N1925 X-24.79 Y-5.176
N1930 Z-3.21 F#103
N1935 X-24.794 Y-5.182 Z-3.259
N1940 X-24.805 Y-5.197 Z-3.305
N1945 X-24.823 Y-5.222 Z-3.344
N1950 X-24.846 Y-5.253 Z-3.374
N1955 X-24.873 Y-5.291 Z-3.394
N1960 X-24.902 Y-5.331 Z-3.4
N1965 G3 X-24.963 Y-5.517 I0.257 J-0.187
N1970 G1 X-24.962 Y-7.249 F#100
N1975 G3 X-24.886 Y-7.66 I1.136 J0.
N1980 X-24.552 Y-7.912 I0.37 J0.144
N1985 X-24.051 Y-7.514 I0.043 J0.461
N1990 G2 X-23.359 Y-6.35 I1.721 J-0.236
N1995 G3 X-23.547 Y-6.095 I-0.094 J0.128
N2000 X-23.598 Y-6.157 I0.094 J-0.128
N2005 G1 X-24.265 Y-7.624
N2010 G2 X-24.568 Y-7.576 I-0.144 J0.066
N2015 G1 X-24.804 Y-5.517
N2020 X-24.805 Y-5.506
N2025 Y-5.495
N2030 X-24.795 Y-5.081
N2035 G3 X-24.952 Y-4.918 I-0.159 J0.004
N2040 X-25.112 Y-5.077 I-0.002 J-0.159
N2045 G1 Y-7.249
N2050 G2 X-25.119 Y-7.395 I-1.588 J0.
N2055 G3 X-23.903 Y-7.534 I0.61 J-0.056
N2060 G2 X-22.989 Y-6.306 I1.573 J-0.216
N2065 G1 X-22.335 Y-6.007 F#104
N2070 X-22.27 Y-5.978 Z-3.392
N2075 X-22.209 Y-5.95 Z-3.369
N2080 X-22.155 Y-5.925 Z-3.331
N2085 X-22.109 Y-5.904 Z-3.28
N2090 X-22.074 Y-5.888 Z-3.22
N2095 X-22.053 Y-5.879 Z-3.153
N2100 X-22.046 Y-5.875 Z-3.082
N2105 G0 Z3.
N2110 X-23.78 Y5.993
N2115 Z1.7
N2120 G1 Z-3.082 F#103
N2125 X-23.785 Y5.999 Z-3.153
N2130 X-23.801 Y6.016 Z-3.22
N2135 X-23.825 Y6.045 Z-3.28
N2140 X-23.858 Y6.083 Z-3.331
N2145 X-23.897 Y6.129 Z-3.369
N2150 X-23.941 Y6.18 Z-3.392
N2155 X-23.987 Y6.233 Z-3.4
N2160 X-24.008 Y6.257
N2165 G2 X-24.303 Y6.688 I1.807 J1.555 F#100
N2170 G3 X-24.448 Y6.652 I-0.068 J-0.036
N2175 G1 Y6.07
N2180 Y4.879 F#104
N2185 G19 G2 Y4.562 Z-3.082 J0. K0.318
N2190 G1 Z-0.3
N2195 X-23.659 Y6.03
N2200 Z-3.082 F#103
N2205 X-23.665 Y6.036 Z-3.153
N2210 X-23.68 Y6.053 Z-3.22
N2215 X-23.705 Y6.082 Z-3.28
N2220 X-23.739 Y6.119 Z-3.331
N2225 X-23.778 Y6.164 Z-3.369
N2230 X-23.823 Y6.215 Z-3.392
N2235 X-23.87 Y6.268 Z-3.4
N2240 X-23.891 Y6.291
N2245 G17 G2 X-24.378 Y7.198 I1.682 J1.488 F#100
N2250 G3 X-24.567 Y7.174 I-0.093 J-0.025
N2255 G1 Y5.987
N2260 Y4.797 F#104
N2265 G19 G2 Y4.479 Z-3.082 J0. K0.318
N2270 G1 Z-0.3
N2275 X-23.539 Y6.063
N2280 Z-3.082 F#103
N2285 X-23.544 Y6.069 Z-3.153
N2290 X-23.56 Y6.086 Z-3.22
N2295 X-23.586 Y6.113 Z-3.28
N2300 X-23.621 Y6.15 Z-3.331
N2305 X-23.662 Y6.194 Z-3.369
N2310 X-23.708 Y6.243 Z-3.392
N2315 X-23.756 Y6.294 Z-3.4
N2320 X-23.778 Y6.317
N2325 G17 G2 X-24.328 Y7.457 I1.535 J1.444 F#100
N2330 G3 X-24.67 Y7.426 I-0.17 J-0.025
N2335 G1 Y5.902
N2340 Y4.736 F#104
N2345 Y4.665 Z-3.392
N2350 Y4.598 Z-3.369
N2355 Y4.538 Z-3.331
N2360 Y4.488 Z-3.28
N2365 Y4.45 Z-3.22
N2370 Y4.427 Z-3.153
N2375 Y4.419 Z-3.082
N2380 Z-0.3
N2385 X-23.389 Y6.092
N2390 Z-3.082 F#103
N2395 X-23.394 Y6.097 Z-3.153
N2400 X-23.411 Y6.114 Z-3.22
N2405 X-23.438 Y6.14 Z-3.28
N2410 X-23.473 Y6.176 Z-3.331
N2415 X-23.516 Y6.218 Z-3.369
N2420 X-23.564 Y6.265 Z-3.392
N2425 X-23.614 Y6.315 Z-3.4
N2430 X-23.637 Y6.338
N2435 G2 X-24.208 Y7.457 I1.414 J1.427 F#100
N2440 G3 X-24.788 Y7.405 I-0.288 J-0.045
N2445 G1 Y5.779
N2450 Y4.688 F#104
N2455 Y4.617 Z-3.392
N2460 Y4.55 Z-3.369
N2465 Y4.49 Z-3.331
N2470 Y4.439 Z-3.28
N2475 Y4.402 Z-3.22
N2480 Y4.378 Z-3.153
N2485 Y4.37 Z-3.082
N2490 Z-0.3
N2495 X-23.306 Y6.098
N2500 Z-3.114 F#103
N2505 X-23.31 Y6.103 Z-3.178
N2510 X-23.324 Y6.119 Z-3.238
N2515 X-23.346 Y6.145 Z-3.292
N2520 X-23.375 Y6.18 Z-3.338
N2525 X-23.41 Y6.221 Z-3.372
N2530 X-23.449 Y6.267 Z-3.393
N2535 X-23.49 Y6.316 Z-3.4
N2540 G3 X-23.525 Y6.351 I-0.242 J-0.205
N2545 G2 X-24.155 Y7.549 I1.207 J1.399 F#100
N2550 G3 X-24.857 Y7.487 I-0.35 J-0.038
N2555 G1 X-24.856 Y5.693
N2560 G3 X-24.685 Y5.535 I0.159 J0.
N2565 X-24.541 Y5.718 I-0.013 J0.158
N2570 G1 X-24.814 Y7.423
N2575 G2 X-24.527 Y7.538 I0.157 J0.025
N2580 G1 X-23.629 Y6.231
N2585 X-23.623 Y6.222
N2590 X-23.617 Y6.212
N2595 X-23.59 Y6.156
N2600 G3 X-23.306 Y6.298 I0.142 J0.071
N2605 X-23.353 Y6.354 I-0.142 J-0.071
N2610 G2 X-24.045 Y7.561 I1.035 J1.396
N2615 G3 X-24.967 Y7.479 I-0.46 J-0.05
N2620 G1 X-24.966 Y5.517
N2625 G3 X-24.798 Y5.359 I0.159 J0.
N2630 X-24.65 Y5.535 I-0.009 J0.158
N2635 G1 X-24.875 Y7.506
N2640 G2 X-24.594 Y7.625 I0.158 J0.018
N2645 G1 X-23.448 Y6.227
N2650 G3 X-23.406 Y6.191 I0.123 J0.101
N2655 G1 X-23.131 Y6.028
N2660 G3 X-22.91 Y6.091 I0.081 J0.137
N2665 X-22.984 Y6.309 I-0.141 J0.074
N2670 G2 X-23.896 Y7.577 I0.666 J1.441
N2675 G3 X-25.116 Y7.469 I-0.609 J-0.067
N2680 G2 X-25.112 Y7.361 I-1.584 J-0.108
N2685 G1 Y5.083
N2690 G3 X-25.109 Y5.033 I0.317 J0. F#104
N2695 G1 X-24.955 Y4.066
N2700 X-24.944 Y3.996 Z-3.392
N2705 X-24.934 Y3.929 Z-3.369
N2710 X-24.924 Y3.87 Z-3.331
N2715 X-24.916 Y3.82 Z-3.28
N2720 X-24.911 Y3.783 Z-3.22
N2725 X-24.907 Y3.76 Z-3.153
N2730 X-24.906 Y3.752 Z-3.082
N2735 G0 Z8.
N2745 M9
N2750 G53 Z0.
N2755 M30
%
