%
(T16 REST2)
(T16  D=3.175 CR=0. - ZMIN=-5. - FLAT END MILL)
N10 G90 G94 G17 G91.1
N15 G21
N20 G53 G0 Z0.
(2D POCKET4)
N25 M9
N30 T16 M6
N35 S3000 M3
N40 G54
N45 M8
N55 G0 X-21.527 Y3.404
N60 G43 Z8. H16
N65 #100=600. (CUTTING)
N70 #103=600. (ENTRY)
N75 #104=600. (EXIT)
N80 G0 Z-0.4
N85 G1 Z-4.778 F#103
N90 X-21.533 Y3.407 Z-4.835
N95 X-21.553 Y3.418 Z-4.889
N100 X-21.585 Y3.434 Z-4.935
N105 X-21.626 Y3.454 Z-4.97
N110 X-21.673 Y3.479 Z-4.992
N115 X-21.725 Y3.505 Z-5.
N120 G3 X-21.869 Y3.539 I-0.144 J-0.283
N125 G1 X-21.914 F#100
N130 G3 X-22.229 Y3.224 I0. J-0.315
N135 G1 Y3.179
N140 Y2.025 F#104
N145 G19 G2 Y1.708 Z-4.682 J0. K0.318
N150 G1 Z-2.4
N155 X-21.229 Y3.517
N160 Z-4.81 F#103
N165 X-21.234 Y3.521 Z-4.859
N170 X-21.249 Y3.532 Z-4.905
N175 X-21.274 Y3.55 Z-4.944
N180 X-21.306 Y3.573 Z-4.974
N185 X-21.343 Y3.6 Z-4.994
N190 X-21.383 Y3.629 Z-5.
N195 G17 G3 X-21.57 Y3.69 I-0.187 J-0.257
N200 G1 X-22.064 F#100
N205 G3 X-22.379 Y3.374 I0. J-0.315
N210 G1 Y2.88
N215 G3 X-22.062 I0.159 J0.
N220 X-22.073 Y2.938 I-0.159 J0.
N225 G1 X-22.162 Y3.163
N230 G2 X-22.063 Y3.373 I0.148 J0.058
N235 G1 X-21.57 Y3.531
N240 G2 X-21.517 Y3.538 I0.048 J-0.151
N245 G1 X-21.122 Y3.527
N250 G3 X-20.959 Y3.683 I0.005 J0.159
N255 X-21.117 Y3.845 I-0.159 J0.002
N260 G1 X-22.535
N265 Y2.427
N270 G3 X-22.531 Y2.378 I0.318 J0. F#104
N275 G1 X-22.377 Y1.41
N280 X-22.366 Y1.34 Z-4.992
N285 X-22.356 Y1.274 Z-4.969
N290 X-22.346 Y1.214 Z-4.931
N295 X-22.338 Y1.165 Z-4.88
N300 X-22.333 Y1.127 Z-4.82
N305 X-22.329 Y1.104 Z-4.753
N310 X-22.328 Y1.096 Z-4.682
N315 G0 Z3.
N320 X-22.094 Y-2.856
N325 Z-0.4
N330 G1 Z-4.778 F#103
N335 X-22.097 Y-2.863 Z-4.835
N340 X-22.108 Y-2.883 Z-4.889
N345 X-22.124 Y-2.914 Z-4.935
N350 X-22.144 Y-2.955 Z-4.97
N355 X-22.169 Y-3.003 Z-4.992
N360 X-22.195 Y-3.054 Z-5.
N365 G3 X-22.229 Y-3.198 I0.283 J-0.144
N370 G1 Y-3.22 F#100
N375 G3 X-21.91 Y-3.539 I0.319 J0.
N380 G1 X-21.888
N385 X-20.71 F#104
N390 G18 G2 X-20.393 Z-4.682 I0. K0.318
N395 G1 Z-2.4
N400 X-22.207 Y-2.539
N405 Z-4.81 F#103
N410 X-22.211 Y-2.544 Z-4.859
N415 X-22.222 Y-2.559 Z-4.905
N420 X-22.24 Y-2.584 Z-4.944
N425 X-22.263 Y-2.616 Z-4.974
N430 X-22.29 Y-2.653 Z-4.994
N435 X-22.319 Y-2.693 Z-5.
N440 G17 G3 X-22.379 Y-2.88 I0.257 J-0.187
N445 G1 Y-3.37 F#100
N450 G3 X-22.06 Y-3.69 I0.319 J0.
N455 G1 X-21.57
N460 G3 Y-3.372 I0. J0.159
N465 X-21.627 Y-3.383 I0. J-0.159
N470 G1 X-21.853 Y-3.471
N475 G2 X-22.061 Y-3.371 I-0.057 J0.148
N480 G1 X-22.221 Y-2.88
N485 G2 X-22.228 Y-2.826 I0.151 J0.049
N490 G1 X-22.217 Y-2.432
N495 G3 X-22.373 Y-2.269 I-0.159 J0.005
N500 X-22.535 Y-2.427 I-0.002 J-0.159
N505 G1 Y-3.845
N510 X-21.117
N515 G3 X-21.068 Y-3.841 I0. J0.318 F#104
N520 G1 X-20.1 Y-3.687
N525 X-20.03 Y-3.676 Z-4.992
N530 X-19.964 Y-3.666 Z-4.969
N535 X-19.904 Y-3.656 Z-4.931
N540 X-19.855 Y-3.648 Z-4.88
N545 X-19.817 Y-3.643 Z-4.82
N550 X-19.794 Y-3.639 Z-4.753
N555 X-19.786 Y-3.638 Z-4.682
N560 G0 Z3.
N565 X-4.954 Y-3.404
N570 Z-0.4
N575 G1 Z-4.778 F#103
N580 X-4.947 Y-3.407 Z-4.835
N585 X-4.927 Y-3.418 Z-4.889
N590 X-4.896 Y-3.434 Z-4.935
N595 X-4.855 Y-3.454 Z-4.97
N600 X-4.807 Y-3.479 Z-4.992
N605 X-4.756 Y-3.505 Z-5.
N610 G3 X-4.612 Y-3.539 I0.144 J0.283
N615 G1 X-4.59 F#100
N620 G3 X-4.271 Y-3.22 I0. J0.319
N625 G1 Y-3.198
N630 Y-2.02 F#104
N635 G19 G3 Y-1.703 Z-4.682 J0. K0.318
N640 G1 Z-2.4
N645 X-5.271 Y-3.517
N650 Z-4.81 F#103
N655 X-5.266 Y-3.521 Z-4.859
N660 X-5.251 Y-3.532 Z-4.905
N665 X-5.226 Y-3.55 Z-4.944
N670 X-5.194 Y-3.573 Z-4.974
N675 X-5.157 Y-3.6 Z-4.994
N680 X-5.117 Y-3.629 Z-5.
N685 G17 G3 X-4.93 Y-3.69 I0.187 J0.257
N690 G1 X-4.44 F#100
N695 G3 X-4.121 Y-3.37 I0. J0.319
N700 G1 Y-2.88
N705 G3 X-4.438 I-0.159 J0.
N710 X-4.427 Y-2.937 I0.159 J0.
N715 G1 X-4.339 Y-3.163
N720 G2 X-4.439 Y-3.371 I-0.148 J-0.057
N725 G1 X-4.93 Y-3.531
N730 G2 X-4.984 Y-3.538 I-0.049 J0.151
N735 G1 X-5.378 Y-3.527
N740 G3 X-5.541 Y-3.683 I-0.005 J-0.159
N745 X-5.383 Y-3.845 I0.159 J-0.002
N750 G1 X-3.966
N755 Y-2.427
N760 G3 X-3.969 Y-2.378 I-0.317 J0. F#104
N765 G1 X-4.123 Y-1.41
N770 X-4.134 Y-1.34 Z-4.992
N775 X-4.144 Y-1.274 Z-4.969
N780 X-4.154 Y-1.214 Z-4.931
N785 X-4.162 Y-1.165 Z-4.88
N790 X-4.167 Y-1.127 Z-4.82
N795 X-4.171 Y-1.104 Z-4.753
N800 X-4.172 Y-1.096 Z-4.682
N805 G0 Z3.
N810 X-4.406 Y2.856
N815 Z-0.4
N820 G1 Z-4.778 F#103
N825 X-4.403 Y2.863 Z-4.835
N830 X-4.392 Y2.883 Z-4.889
N835 X-4.376 Y2.914 Z-4.935
N840 X-4.356 Y2.955 Z-4.97
N845 X-4.331 Y3.003 Z-4.992
N850 X-4.305 Y3.054 Z-5.
N855 G3 X-4.271 Y3.198 I-0.283 J0.144
N860 G1 Y3.22 F#100
N865 G3 X-4.59 Y3.539 I-0.319 J0.
N870 G1 X-4.612
N875 X-5.79 F#104
N880 G18 G3 X-6.107 Z-4.682 I0. K0.318
N885 G1 Z-2.4
N890 X-4.293 Y2.539
N895 Z-4.81 F#103
N900 X-4.289 Y2.544 Z-4.859
N905 X-4.278 Y2.559 Z-4.905
N910 X-4.26 Y2.584 Z-4.944
N915 X-4.237 Y2.616 Z-4.974
N920 X-4.21 Y2.653 Z-4.994
N925 X-4.181 Y2.693 Z-5.
N930 G17 G3 X-4.121 Y2.88 I-0.257 J0.187
N935 G1 Y3.37 F#100
N940 G3 X-4.44 Y3.69 I-0.319 J0.
N945 G1 X-4.93
N950 G3 Y3.372 I0. J-0.159
N955 X-4.873 Y3.383 I0. J0.159
N960 G1 X-4.647 Y3.471
N965 G2 X-4.439 Y3.371 I0.057 J-0.148
N970 G1 X-4.279 Y2.88
N975 G2 X-4.272 Y2.826 I-0.151 J-0.049
N980 G1 X-4.283 Y2.432
N985 G3 X-4.127 Y2.269 I0.159 J-0.005
N990 X-3.966 Y2.427 I0.002 J0.159
N995 G1 Y3.845
N1000 X-5.383
N1005 G3 X-5.432 Y3.841 I0. J-0.318 F#104
N1010 G1 X-6.4 Y3.687
N1015 X-6.47 Y3.676 Z-4.992
N1020 X-6.536 Y3.666 Z-4.969
N1025 X-6.596 Y3.656 Z-4.931
N1030 X-6.645 Y3.648 Z-4.88
N1035 X-6.683 Y3.643 Z-4.82
N1040 X-6.706 Y3.639 Z-4.753
N1045 X-6.714 Y3.638 Z-4.682
N1050 G0 Z8.
(2D CONTOUR4)
N1060 M8
N1065 G0 X-3.405 Y-5.311
N1070 #102=512. (FINISH)
N1075 #103=600. (ENTRY)
N1080 #104=600. (EXIT)
N1085 #108=200. (PLUNGE)
N1090 Z8.
N1095 Z1.7
N1100 G1 Z-0.3 F#103
N1105 Z-3.083 F#108
N1110 X-3.408 Y-5.318 Z-3.153
N1115 X-3.418 Y-5.34 Z-3.22
N1120 X-3.434 Y-5.374 Z-3.28
N1125 X-3.455 Y-5.42 Z-3.331
N1130 X-3.48 Y-5.474 Z-3.369
N1135 X-3.508 Y-5.535 Z-3.392
N1140 X-3.538 Y-5.599 Z-3.4
N1145 X-3.671 Y-5.887 F#103
N1150 G3 X-3.516 Y-6.309 I0.288 J-0.133
N1155 G2 X-2.603 Y-7.587 I-0.666 J-1.441 F#102
N1160 G3 X-1.383 Y-7.477 I0.609 J0.063
N1165 G2 X-1.388 Y-7.355 I1.583 J0.122
N1170 G1 Y-5.083
N1175 G3 X-1.705 Y-4.765 I-0.317 J0. F#104
N1180 G1 X-2.023
N1185 G18 G3 X-2.34 Z-3.083 I0. K0.318
N1190 G1 Y4.747
N1195 G2 X-2.023 Z-3.4 I0.317 K0. F#108
N1200 G1 X-1.705 F#103
N1205 G17 G3 X-1.388 Y5.064 I0. J0.318
N1210 G1 Y7.061 F#102
N1215 G2 X-1.369 Y7.306 I1.588 J0.
N1220 G3 X-2.578 Y7.497 I-0.605 J0.094
N1225 G2 X-3.497 Y6.301 I-1.567 J0.253
N1230 G3 X-3.657 Y5.882 I0.13 J-0.29 F#104
N1235 G1 X-3.528 Y5.592
N1240 X-3.499 Y5.527 Z-3.392
N1245 X-3.471 Y5.466 Z-3.369
N1250 X-3.447 Y5.411 Z-3.331
N1255 X-3.426 Y5.365 Z-3.28
N1260 X-3.411 Y5.331 Z-3.22
N1265 X-3.401 Y5.309 Z-3.153
N1270 X-3.398 Y5.302 Z-3.083
N1275 X-23.095 Y5.311
N1280 X-23.092 Y5.318 Z-3.153 F#108
N1285 X-23.082 Y5.339 Z-3.22
N1290 X-23.066 Y5.374 Z-3.28
N1295 X-23.045 Y5.419 Z-3.331
N1300 X-23.02 Y5.474 Z-3.369
N1305 X-22.991 Y5.535 Z-3.392
N1310 X-22.962 Y5.599 Z-3.4
N1315 X-22.829 Y5.887 F#103
N1320 G3 X-22.984 Y6.309 I-0.288 J0.133
N1325 G2 X-23.896 Y7.577 I0.666 J1.441 F#102
N1330 G3 X-25.116 Y7.469 I-0.609 J-0.067
N1335 G2 X-25.112 Y7.361 I-1.584 J-0.108
N1340 G1 Y5.083
N1345 G3 X-24.795 Y4.765 I0.317 J0. F#104
N1350 G1 X-24.478
N1355 G18 G2 X-24.16 Z-3.083 I0. K0.318
N1360 G1 Y-4.759
N1365 G3 X-24.478 Z-3.4 I-0.318 K0. F#108
N1370 G1 X-24.795 F#103
N1375 G17 G3 X-25.112 Y-5.077 I0. J-0.318
N1380 G1 Y-7.249 F#102
N1385 G2 X-25.119 Y-7.395 I-1.588 J0.
N1390 G3 X-23.903 Y-7.534 I0.61 J-0.056
N1395 G2 X-22.989 Y-6.306 I1.573 J-0.216
N1400 G3 X-22.832 Y-5.885 I-0.132 J0.289 F#104
N1405 G1 X-22.964 Y-5.596
N1410 X-22.993 Y-5.532 Z-3.392
N1415 X-23.021 Y-5.471 Z-3.369
N1420 X-23.046 Y-5.416 Z-3.331
N1425 X-23.067 Y-5.371 Z-3.28
N1430 X-23.083 Y-5.336 Z-3.22
N1435 X-23.092 Y-5.315 Z-3.153
N1440 X-23.096 Y-5.308 Z-3.083
N1445 G0 Z8.
N1455 M9
N1460 G53 Z0.
N1465 M30
%
