%
(BEARING HOLDER FRONT T16)
(T16  D=3.175 CR=0. - ZMIN=-12.1 - FLAT END MILL)
N10 G90 G94 G17 G91.1
N15 G21
N20 G53 G0 Z0.
(FACE1)
N25 M9
N30 T16 M6
N35 S3000 M3
N40 G54
N45 M8
N55 G0 X43.351 Y5.122
N60 G43 Z10. H16
N65 G0 Z5.
N70 G1 Z0.218 F600.
N75 G19 G2 Y4.805 Z-0.1 J-0.318 K0.
N80 G1 Y3.68
N85 Y-29.88
N90 Y-30.2
N95 G17 G2 X40.94 I-1.206 J0.
N100 G1 Y4.
N105 G3 X38.528 I-1.206 J0.
N110 G1 Y-30.2
N115 G2 X36.117 I-1.206 J0.
N120 G1 Y4.
N125 G3 X33.705 I-1.206 J0.
N130 G1 Y-30.2
N135 G2 X31.294 I-1.206 J0.
N140 G1 Y4.
N145 G3 X28.882 I-1.206 J0.
N150 G1 Y-30.2
N155 G2 X26.471 I-1.206 J0.
N160 G1 Y4.
N165 G3 X24.059 I-1.206 J0.
N170 G1 Y-30.2
N175 G2 X21.648 I-1.206 J0.
N180 G1 Y4.
N185 G3 X19.236 I-1.206 J0.
N190 G1 Y-30.2
N195 G2 X16.825 I-1.206 J0.
N200 G1 Y4.
N205 G3 X14.413 I-1.206 J0.
N210 G1 Y-30.2
N215 G2 X12.002 I-1.206 J0.
N220 G1 Y4.
N225 G3 X9.59 I-1.206 J0.
N230 G1 Y-30.2
N235 G2 X7.179 I-1.206 J0.
N240 G1 Y4.
N245 G3 X4.768 I-1.206 J0.
N250 G1 Y-30.2
N255 G2 X2.356 I-1.206 J0.
N260 G1 Y4.
N265 G3 X-0.055 I-1.206 J0.
N270 G1 Y-30.2
N275 G2 X-2.467 I-1.206 J0.
N280 G1 Y-30.098
N285 Y3.898
N290 G19 G3 Y4.216 Z0.218 J0. K0.318
N295 G0 Z10.
N300 G17
(2D POCKET3)
N305 M8
N310 G0 X17.15 Y-16.207
N315 Z10.
N320 Z2.318
N325 G1 Z2.317 F600.
N330 Y-16.21 Z2.269 F500.
N335 G3 X17.151 Y-16.222 Z2.221 I1.504 J0.11
N340 X17.152 Y-16.24 Z2.176 I1.503 J0.121
N345 X17.155 Y-16.265 Z2.134 I1.502 J0.139
N350 X17.159 Y-16.295 Z2.097 I1.499 J0.164
N355 X17.164 Y-16.331 Z2.064 I1.495 J0.195
N360 X17.17 Y-16.372 Z2.038 I1.49 J0.231
N365 X17.179 Y-16.415 Z2.018 I1.483 J0.272
N370 X17.19 Y-16.461 Z2.005 I1.475 J0.315
N375 X17.202 Y-16.508 Z2. I1.464 J0.361
N380 X20.106 Y-15.693 Z1.835 I1.452 J0.408
N385 X17.202 Y-16.508 Z1.669 I-1.452 J-0.408
N390 X20.106 Y-15.693 Z1.504 I1.452 J0.408
N395 X17.202 Y-16.508 Z1.338 I-1.452 J-0.408
N400 X20.106 Y-15.693 Z1.173 I1.452 J0.408
N405 X17.202 Y-16.508 Z1.007 I-1.452 J-0.408
N410 X20.106 Y-15.693 Z0.842 I1.452 J0.408
N415 X17.202 Y-16.508 Z0.676 I-1.452 J-0.408
N420 X20.106 Y-15.693 Z0.511 I1.452 J0.408
N425 X17.202 Y-16.508 Z0.345 I-1.452 J-0.408
N430 X20.106 Y-15.693 Z0.18 I1.452 J0.408
N435 X17.202 Y-16.508 Z0.015 I-1.452 J-0.408
N440 X20.106 Y-15.693 Z-0.151 I1.452 J0.408
N445 X17.202 Y-16.508 Z-0.316 I-1.452 J-0.408
N450 X20.106 Y-15.693 Z-0.482 I1.452 J0.408
N455 X17.202 Y-16.508 Z-0.647 I-1.452 J-0.408
N460 X20.106 Y-15.693 Z-0.813 I1.452 J0.408
N465 X17.202 Y-16.508 Z-0.978 I-1.452 J-0.408
N470 X20.106 Y-15.693 Z-1.144 I1.452 J0.408
N475 X17.202 Y-16.508 Z-1.309 I-1.452 J-0.408
N480 X20.106 Y-15.693 Z-1.474 I1.452 J0.408
N485 X17.202 Y-16.508 Z-1.64 I-1.452 J-0.408
N490 X20.106 Y-15.693 Z-1.805 I1.452 J0.408
N495 X17.202 Y-16.508 Z-1.971 I-1.452 J-0.408
N500 X20.106 Y-15.693 Z-2.136 I1.452 J0.408
N505 X17.202 Y-16.508 Z-2.302 I-1.452 J-0.408
N510 X20.106 Y-15.693 Z-2.467 I1.452 J0.408
N515 X17.202 Y-16.508 Z-2.633 I-1.452 J-0.408
N520 X20.106 Y-15.693 Z-2.798 I1.452 J0.408
N525 X17.202 Y-16.508 Z-2.964 I-1.452 J-0.408
N530 X20.106 Y-15.693 Z-3.129 I1.452 J0.408
N535 X17.202 Y-16.508 Z-3.294 I-1.452 J-0.408
N540 X20.106 Y-15.693 Z-3.46 I1.452 J0.408
N545 X17.202 Y-16.508 Z-3.625 I-1.452 J-0.408
N550 X20.106 Y-15.693 Z-3.791 I1.452 J0.408
N555 X17.202 Y-16.508 Z-3.956 I-1.452 J-0.408
N560 X20.106 Y-15.693 Z-4.122 I1.452 J0.408
N565 X17.202 Y-16.508 Z-4.287 I-1.452 J-0.408
N570 X20.106 Y-15.693 Z-4.453 I1.452 J0.408
N575 X17.202 Y-16.508 Z-4.618 I-1.452 J-0.408
N580 X20.106 Y-15.693 Z-4.784 I1.452 J0.408
N585 X17.202 Y-16.508 Z-4.949 I-1.452 J-0.408
N590 X20.162 Y-16.1 Z-5.1 I1.452 J0.408
N595 X20.037 I-0.063 J0. F600.
N600 X20.312 I0.138 J0.
N605 X19.887 I-0.212 J0.
N610 X20.462 I0.288 J0.
N615 X19.737 I-0.362 J0.
N620 X20.612 I0.438 J0.
N625 X19.587 I-0.513 J0.
N630 X20.762 I0.588 J0.
N635 X19.437 I-0.663 J0.
N640 X20.912 I0.738 J0.
N645 X19.287 I-0.813 J0.
N650 X21.062 I0.888 J0.
N655 X19.137 I-0.962 J0.
N660 X21.212 I1.038 J0.
N665 X18.987 I-1.112 J0.
N670 X21.362 I1.188 J0.
N675 X18.837 I-1.263 J0.
N680 X21.512 I1.338 J0.
N685 X18.687 I-1.413 J0.
N690 X21.662 I1.488 J0.
N695 X18.537 I-1.563 J0.
N700 X21.812 I1.638 J0.
N705 X18.387 I-1.712 J0.
N710 X21.962 I1.788 J0.
N715 X18.237 I-1.862 J0.
N720 X22.112 I1.938 J0.
N725 X18.087 I-2.013 J0.
N730 X22.262 I2.088 J0.
N735 X17.937 I-2.163 J0.
N740 X22.412 I2.238 J0.
N745 X17.787 I-2.313 J0.
N750 X22.562 I2.388 J0.
N755 X17.637 I-2.462 J0.
N760 X22.712 I2.538 J0.
N765 X17.487 I-2.612 J0.
N770 X22.862 I2.688 J0.
N775 X17.337 I-2.763 J0.
N780 X23.012 I2.838 J0.
N785 X17.187 I-2.913 J0.
N790 X23.162 I2.988 J0.
N795 X17.037 I-3.063 J0.
N800 X23.312 I3.138 J0.
N805 X16.887 I-3.212 J0.
N810 X23.462 I3.288 J0.
N815 X16.737 I-3.362 J0.
N820 X23.612 I3.438 J0.
N825 X16.587 I-3.513 J0.
N830 X23.762 I3.588 J0.
N835 X16.437 I-3.663 J0.
N840 X23.912 I3.738 J0.
N845 X16.287 I-3.813 J0.
N850 X24.062 I3.888 J0.
N855 X16.137 I-3.962 J0.
N860 X24.212 I4.038 J0.
N865 X15.987 I-4.112 J0.
N870 X24.362 I4.188 J0.
N875 X15.837 I-4.263 J0.
N880 X24.512 I4.338 J0.
N885 X15.687 I-4.413 J0.
N890 X24.662 I4.488 J0.
N895 X15.537 I-4.563 J0.
N900 X24.812 I4.638 J0.
N905 X15.387 I-4.712 J0.
N910 X24.962 I4.788 J0.
N915 X15.237 I-4.862 J0.
N920 X25.112 I4.938 J0.
N925 X15.087 I-5.013 J0.
N930 X25.262 I5.088 J0.
N935 X14.937 I-5.163 J0.
N940 X25.412 I5.238 J0.
N945 X14.787 I-5.313 J0.
N950 X25.562 I5.388 J0.
N955 X14.637 I-5.462 J0.
N960 X25.712 I5.538 J0.
N965 X14.487 I-5.612 J0.
N970 X25.862 I5.688 J0.
N975 X14.337 I-5.763 J0.
N980 X26.012 I5.838 J0.
N985 X14.187 I-5.913 J0.
N990 X26.162 I5.988 J0.
N995 X14.037 I-6.063 J0.
N1000 X26.312 I6.138 J0.
N1005 X13.887 I-6.212 J0.
N1010 X26.462 I6.288 J0.
N1015 X13.737 I-6.362 J0.
N1020 X26.462 I6.362 J0.
N1025 X26.458 Y-16.051 Z-5.096 I-0.317 J0.
N1030 X26.447 Y-16.004 Z-5.084 I-0.314 J-0.049
N1035 X26.43 Y-15.961 Z-5.065 I-0.302 J-0.097
N1040 X26.409 Y-15.924 Z-5.039 I-0.285 J-0.139
N1045 X26.386 Y-15.894 Z-5.007 I-0.264 J-0.176
N1050 X26.364 Y-15.871 Z-4.969 I-0.241 J-0.206
N1055 X26.344 Y-15.853 Z-4.927 I-0.219 J-0.23
N1060 X26.329 Y-15.842 Z-4.881 I-0.2 J-0.247
N1065 X26.319 Y-15.835 Z-4.832 I-0.184 J-0.258
N1070 G1 X26.316 Y-15.833 Z-4.783
N1075 G0 Z10.
(2D POCKET3 3)
N1085 M8
N1090 G0 X21.838 Y-17.49
N1095 Z10.
N1100 Z-2.783
N1105 G1 X21.842 Y-17.489 Z-2.831 F500.
N1110 G3 X21.852 Y-17.484 Z-2.879 I-0.589 J1.388
N1115 X21.869 Y-17.477 Z-2.924 I-0.599 J1.384
N1120 X21.891 Y-17.467 Z-2.966 I-0.616 J1.377
N1125 X21.919 Y-17.453 Z-3.003 I-0.638 J1.366
N1130 X21.952 Y-17.437 Z-3.036 I-0.666 J1.353
N1135 X21.988 Y-17.417 Z-3.062 I-0.699 J1.336
N1140 X22.026 Y-17.395 Z-3.082 I-0.735 J1.317
N1145 X22.066 Y-17.37 Z-3.095 I-0.773 J1.295
N1150 X22.107 Y-17.343 Z-3.1 I-0.813 J1.27
N1155 X20.399 Y-14.857 Z-3.265 I-0.854 J1.243
N1160 X22.107 Y-17.343 Z-3.431 I0.854 J-1.243
N1165 X20.399 Y-14.857 Z-3.596 I-0.854 J1.243
N1170 X22.107 Y-17.343 Z-3.762 I0.854 J-1.243
N1175 X20.399 Y-14.857 Z-3.927 I-0.854 J1.243
N1180 X22.107 Y-17.343 Z-4.093 I0.854 J-1.243
N1185 X20.399 Y-14.857 Z-4.258 I-0.854 J1.243
N1190 X22.107 Y-17.343 Z-4.424 I0.854 J-1.243
N1195 X20.399 Y-14.857 Z-4.589 I-0.854 J1.243
N1200 X22.107 Y-17.343 Z-4.755 I0.854 J-1.243
N1205 X20.399 Y-14.857 Z-4.92 I-0.854 J1.243
N1210 X22.107 Y-17.343 Z-5.085 I0.854 J-1.243
N1215 X20.399 Y-14.857 Z-5.251 I-0.854 J1.243
N1220 X22.107 Y-17.343 Z-5.416 I0.854 J-1.243
N1225 X20.399 Y-14.857 Z-5.582 I-0.854 J1.243
N1230 X22.107 Y-17.343 Z-5.747 I0.854 J-1.243
N1235 X20.399 Y-14.857 Z-5.913 I-0.854 J1.243
N1240 X22.107 Y-17.343 Z-6.078 I0.854 J-1.243
N1245 X20.399 Y-14.857 Z-6.244 I-0.854 J1.243
N1250 X22.107 Y-17.343 Z-6.409 I0.854 J-1.243
N1255 X20.399 Y-14.857 Z-6.574 I-0.854 J1.243
N1260 X22.107 Y-17.343 Z-6.74 I0.854 J-1.243
N1265 X20.399 Y-14.857 Z-6.905 I-0.854 J1.243
N1270 X22.107 Y-17.343 Z-7.071 I0.854 J-1.243
N1275 X20.399 Y-14.857 Z-7.236 I-0.854 J1.243
N1280 X22.107 Y-17.343 Z-7.402 I0.854 J-1.243
N1285 X20.399 Y-14.857 Z-7.567 I-0.854 J1.243
N1290 X22.107 Y-17.343 Z-7.733 I0.854 J-1.243
N1295 X20.399 Y-14.857 Z-7.898 I-0.854 J1.243
N1300 X22.107 Y-17.343 Z-8.064 I0.854 J-1.243
N1305 X20.399 Y-14.857 Z-8.229 I-0.854 J1.243
N1310 X22.107 Y-17.343 Z-8.394 I0.854 J-1.243
N1315 X20.399 Y-14.857 Z-8.56 I-0.854 J1.243
N1320 X22.107 Y-17.343 Z-8.725 I0.854 J-1.243
N1325 X20.399 Y-14.857 Z-8.891 I-0.854 J1.243
N1330 X22.107 Y-17.343 Z-9.056 I0.854 J-1.243
N1335 X20.399 Y-14.857 Z-9.222 I-0.854 J1.243
N1340 X22.107 Y-17.343 Z-9.387 I0.854 J-1.243
N1345 X20.399 Y-14.857 Z-9.553 I-0.854 J1.243
N1350 X22.107 Y-17.343 Z-9.718 I0.854 J-1.243
N1355 X20.399 Y-14.857 Z-9.884 I-0.854 J1.243
N1360 X22.107 Y-17.343 Z-10.049 I0.854 J-1.243
N1365 X22.761 Y-16.1 Z-10.1 I-0.854 J1.243
N1370 X20.137 I-1.312 J0.
N1375 X20.212 I0.038 J0. F600.
N1380 X19.987 I-0.112 J0.
N1385 X20.362 I0.188 J0.
N1390 X19.837 I-0.263 J0.
N1395 X20.512 I0.338 J0.
N1400 X19.687 I-0.413 J0.
N1405 X20.662 I0.488 J0.
N1410 X19.537 I-0.563 J0.
N1415 X20.812 I0.638 J0.
N1420 X19.387 I-0.712 J0.
N1425 X20.962 I0.788 J0.
N1430 X19.237 I-0.862 J0.
N1435 X21.112 I0.938 J0.
N1440 X19.087 I-1.013 J0.
N1445 X21.262 I1.088 J0.
N1450 X18.937 I-1.163 J0.
N1455 X21.412 I1.238 J0.
N1460 X18.787 I-1.313 J0.
N1465 X21.562 I1.388 J0.
N1470 X18.637 I-1.462 J0.
N1475 X21.712 I1.538 J0.
N1480 X18.487 I-1.612 J0.
N1485 X21.862 I1.688 J0.
N1490 X18.337 I-1.763 J0.
N1495 X22.012 I1.838 J0.
N1500 X18.187 I-1.913 J0.
N1505 X22.162 I1.988 J0.
N1510 X18.037 I-2.063 J0.
N1515 X22.312 I2.138 J0.
N1520 X17.887 I-2.212 J0.
N1525 X22.462 I2.288 J0.
N1530 X17.737 I-2.362 J0.
N1535 X22.612 I2.438 J0.
N1540 X17.587 I-2.513 J0.
N1545 X22.762 I2.588 J0.
N1550 X17.437 I-2.663 J0.
N1555 X22.762 I2.663 J0.
N1560 X22.758 Y-16.051 Z-10.096 I-0.318 J0.
N1565 X22.747 Y-16.004 Z-10.084 I-0.314 J-0.049
N1570 X22.73 Y-15.961 Z-10.065 I-0.302 J-0.097
N1575 X22.709 Y-15.924 Z-10.039 I-0.285 J-0.139
N1580 X22.686 Y-15.894 Z-10.007 I-0.264 J-0.176
N1585 X22.664 Y-15.871 Z-9.969 I-0.241 J-0.206
N1590 X22.644 Y-15.853 Z-9.927 I-0.219 J-0.23
N1595 X22.629 Y-15.842 Z-9.881 I-0.2 J-0.247
N1600 X22.619 Y-15.835 Z-9.832 I-0.184 J-0.258
N1605 G1 X22.616 Y-15.833 Z-9.783
N1610 G0 Z10.
(2D CONTOUR3)
N1620 M8
N1625 G0 X21.81 Y-16.418
N1630 Z10.
N1635 Z-8.1
N1640 G1 Z-9.1 F600.
N1645 Z-9.783 F200.
N1650 G18 G2 X22.127 Z-10.1 I0.317 K0.
N1655 G1 X22.445 F600.
N1660 G17 G3 X22.762 Y-16.1 I0. J0.318
N1665 X17.437 I-2.663 J0.
N1670 X22.762 I2.663 J0.
N1675 X22.445 Y-15.783 I-0.318 J0.
N1680 G1 X22.127
N1685 G18 G3 X21.81 Z-9.783 I0. K0.318
N1690 G0 Z10.
N1695 G17
(2D CONTOUR3 2)
N1700 M8
N1705 G0 X25.61 Y-16.418
N1710 Z10.
N1715 Z-3.1
N1720 G1 Z-4.1 F600.
N1725 Z-4.783 F200.
N1730 G18 G2 X25.927 Z-5.1 I0.317 K0.
N1735 G1 X26.245 F600.
N1740 G17 G3 X26.562 Y-16.1 I0. J0.318
N1745 X13.637 I-6.462 J0.
N1750 X26.562 I6.462 J0.
N1755 X26.245 Y-15.783 I-0.317 J0.
N1760 G1 X25.927
N1765 G18 G3 X25.61 Z-4.783 I0. K0.318
N1770 G0 Z10.
N1775 G17
(2D CONTOUR3 3)
N1780 M8
N1785 G0 X25.81 Y-16.418
N1790 Z10.
N1795 Z-1.3
N1800 G1 Z-2.3 F600.
N1805 Z-2.983 F200.
N1810 G18 G2 X26.127 Z-3.3 I0.317 K0.
N1815 G1 X26.445 F600.
N1820 G17 G3 X26.762 Y-16.1 I0. J0.318
N1825 X13.437 I-6.663 J0.
N1830 X26.762 I6.663 J0.
N1835 X26.445 Y-15.783 I-0.318 J0.
N1840 G1 X26.127
N1845 G18 G3 X25.81 Z-2.983 I0. K0.317
N1850 G0 Z10.
N1855 G17
(2D CONTOUR2)
N1860 M8
N1865 G0 X42.706 Y0.218
N1870 Z10.
N1875 Z5.
N1880 G1 Z2. F600.
N1885 Z-0.683 F200.
N1890 G18 G3 X42.388 Z-1. I-0.318 K0.
N1895 G1 X42.071 F600.
N1900 G17 G3 X41.753 Y-0.1 I0. J-0.318
N1905 G1 Y-10.1
N1910 G2 X40.1 Y-11.753 I-1.653 J0.
N1915 G1 X33.753
N1920 Y-26.1
N1925 G2 X32.1 Y-27.753 I-1.653 J0.
N1930 G1 X8.1
N1935 G2 X6.447 Y-26.1 I0. J1.653
N1940 G1 Y-11.753
N1945 X0.1
N1950 G2 X-1.553 Y-10.1 I0. J1.653
N1955 G1 Y-0.1
N1960 G3 X-1.871 Y0.218 I-0.317 J0.
N1965 G1 X-2.188
N1970 G18 G3 X-2.506 Z-0.683 I0. K0.317
N1975 G0 Z5.
N1980 X42.723
N1985 G1 Z1. F600.
N1990 Z-1.683 F200.
N1995 G3 X42.406 Z-2. I-0.317 K0.
N2000 G1 X42.088 F600.
N2005 G17 G3 X41.771 Y-0.1 I0. J-0.318
N2010 G1 Y-10.1
N2015 G2 X40.1 Y-11.771 I-1.671 J0.
N2020 G1 X33.771
N2025 Y-26.1
N2030 G2 X32.1 Y-27.771 I-1.671 J0.
N2035 G1 X8.1
N2040 G2 X6.429 Y-26.1 I0. J1.671
N2045 G1 Y-11.771
N2050 X0.1
N2055 G2 X-1.571 Y-10.1 I0. J1.671
N2060 G1 Y-0.1
N2065 G3 X-1.888 Y0.218 I-0.317 J0.
N2070 G1 X-2.206
N2075 G18 G3 X-2.523 Z-1.683 I0. K0.317
N2080 G0 Z5.
N2085 X42.741
N2090 G1 Z0. F600.
N2095 Z-2.683 F200.
N2100 G3 X42.423 Z-3. I-0.318 K0.
N2105 G1 X42.106 F600.
N2110 G17 G3 X41.788 Y-0.1 I0. J-0.318
N2115 G1 Y-10.1
N2120 G2 X40.1 Y-11.788 I-1.688 J0.
N2125 G1 X33.788
N2130 Y-26.1
N2135 G2 X32.1 Y-27.788 I-1.688 J0.
N2140 G1 X8.1
N2145 G2 X6.412 Y-26.1 I0. J1.688
N2150 G1 Y-11.788
N2155 X0.1
N2160 G2 X-1.588 Y-10.1 I0. J1.688
N2165 G1 Y-0.1
N2170 G3 X-1.906 Y0.218 I-0.317 J0.
N2175 G1 X-2.223
N2180 G18 G3 X-2.541 Z-2.683 I0. K0.318
N2185 G0 Z5.
N2190 X42.758
N2195 G1 Z-1. F600.
N2200 Z-3.683 F200.
N2205 G3 X42.441 Z-4. I-0.318 K0.
N2210 G1 X42.123 F600.
N2215 G17 G3 X41.806 Y-0.1 I0. J-0.318
N2220 G1 Y-10.1
N2225 G2 X40.1 Y-11.806 I-1.706 J0.
N2230 G1 X33.806
N2235 Y-26.1
N2240 G2 X32.1 Y-27.806 I-1.706 J0.
N2245 G1 X8.1
N2250 G2 X6.394 Y-26.1 I0. J1.706
N2255 G1 Y-11.806
N2260 X0.1
N2265 G2 X-1.606 Y-10.1 I0. J1.706
N2270 G1 Y-0.1
N2275 G3 X-1.923 Y0.218 I-0.317 J0.
N2280 G1 X-2.241
N2285 G18 G3 X-2.558 Z-3.683 I0. K0.318
N2290 G0 Z5.
N2295 X42.776
N2300 G1 Z-2. F600.
N2305 Z-4.683 F200.
N2310 G3 X42.458 Z-5. I-0.317 K0.
N2315 G1 X42.141 F600.
N2320 G17 G3 X41.823 Y-0.1 I0. J-0.318
N2325 G1 Y-10.1
N2330 G2 X40.1 Y-11.823 I-1.723 J0.
N2335 G1 X33.823
N2340 Y-26.1
N2345 G2 X32.1 Y-27.823 I-1.723 J0.
N2350 G1 X8.1
N2355 G2 X6.377 Y-26.1 I0. J1.723
N2360 G1 Y-11.823
N2365 X0.1
N2370 G2 X-1.623 Y-10.1 I0. J1.723
N2375 G1 Y-0.1
N2380 G3 X-1.941 Y0.218 I-0.317 J0.
N2385 G1 X-2.258
N2390 G18 G3 X-2.576 Z-4.683 I0. K0.318
N2395 G0 Z5.
N2400 X42.793
N2405 G1 Z-3. F600.
N2410 Z-5.683 F200.
N2415 G3 X42.475 Z-6. I-0.317 K0.
N2420 G1 X42.158 F600.
N2425 G17 G3 X41.84 Y-0.1 I0. J-0.318
N2430 G1 Y-10.1
N2435 G2 X40.1 Y-11.84 I-1.74 J0.
N2440 G1 X33.84
N2445 Y-26.1
N2450 G2 X32.1 Y-27.84 I-1.74 J0.
N2455 G1 X8.1
N2460 G2 X6.36 Y-26.1 I0. J1.74
N2465 G1 Y-11.84
N2470 X0.1
N2475 G2 X-1.64 Y-10.1 I0. J1.74
N2480 G1 Y-0.1
N2485 G3 X-1.958 Y0.218 I-0.317 J0.
N2490 G1 X-2.275
N2495 G18 G3 X-2.593 Z-5.683 I0. K0.318
N2500 G0 Z5.
N2505 X42.81
N2510 G1 Z-4. F600.
N2515 Z-6.683 F200.
N2520 G3 X42.493 Z-7. I-0.318 K0.
N2525 G1 X42.175 F600.
N2530 G17 G3 X41.858 Y-0.1 I0. J-0.318
N2535 G1 Y-10.1
N2540 G2 X40.1 Y-11.858 I-1.758 J0.
N2545 G1 X33.858
N2550 Y-26.1
N2555 G2 X32.1 Y-27.858 I-1.758 J0.
N2560 G1 X8.1
N2565 G2 X6.342 Y-26.1 I0. J1.758
N2570 G1 Y-11.858
N2575 X0.1
N2580 G2 X-1.658 Y-10.1 I0. J1.758
N2585 G1 Y-0.1
N2590 G3 X-1.975 Y0.218 I-0.317 J0.
N2595 G1 X-2.293
N2600 G18 G3 X-2.61 Z-6.683 I0. K0.318
N2605 G0 Z5.
N2610 X42.828
N2615 G1 Z-5. F600.
N2620 Z-7.683 F200.
N2625 G3 X42.51 Z-8. I-0.318 K0.
N2630 G1 X42.193 F600.
N2635 G17 G3 X41.875 Y-0.1 I0. J-0.318
N2640 G1 Y-10.1
N2645 G2 X40.1 Y-11.875 I-1.775 J0.
N2650 G1 X33.875
N2655 Y-26.1
N2660 G2 X32.1 Y-27.875 I-1.775 J0.
N2665 G1 X8.1
N2670 G2 X6.325 Y-26.1 I0. J1.775
N2675 G1 Y-11.875
N2680 X0.1
N2685 G2 X-1.675 Y-10.1 I0. J1.775
N2690 G1 Y-0.1
N2695 G3 X-1.993 Y0.218 I-0.317 J0.
N2700 G1 X-2.31
N2705 G18 G3 X-2.628 Z-7.683 I0. K0.318
N2710 G0 Z5.
N2715 X42.845
N2720 G1 Z-6. F600.
N2725 Z-8.683 F200.
N2730 G3 X42.528 Z-9. I-0.317 K0.
N2735 G1 X42.21 F600.
N2740 G17 G3 X41.893 Y-0.1 I0. J-0.318
N2745 G1 Y-10.1
N2750 G2 X40.1 Y-11.893 I-1.793 J0.
N2755 G1 X33.893
N2760 Y-26.1
N2765 G2 X32.1 Y-27.893 I-1.793 J0.
N2770 G1 X8.1
N2775 G2 X6.307 Y-26.1 I0. J1.793
N2780 G1 Y-11.893
N2785 X0.1
N2790 G2 X-1.693 Y-10.1 I0. J1.793
N2795 G1 Y-0.1
N2800 G3 X-2.01 Y0.218 I-0.317 J0.
N2805 G1 X-2.328
N2810 G18 G3 X-2.645 Z-8.683 I0. K0.318
N2815 G0 Z5.
N2820 X42.863
N2825 G1 Z-7. F600.
N2830 Z-9.683 F200.
N2835 G3 X42.545 Z-10. I-0.318 K0.
N2840 G1 X42.228 F600.
N2845 G17 G3 X41.91 Y-0.1 I0. J-0.318
N2850 G1 Y-10.1
N2855 G2 X40.1 Y-11.91 I-1.81 J0.
N2860 G1 X33.91
N2865 Y-26.1
N2870 G2 X32.1 Y-27.91 I-1.81 J0.
N2875 G1 X8.1
N2880 G2 X6.29 Y-26.1 I0. J1.81
N2885 G1 Y-11.91
N2890 X0.1
N2895 G2 X-1.71 Y-10.1 I0. J1.81
N2900 G1 Y-0.1
N2905 G3 X-2.028 Y0.218 I-0.317 J0.
N2910 G1 X-2.345
N2915 G18 G3 X-2.663 Z-9.683 I0. K0.318
N2920 G0 Z5.
N2925 X42.88
N2930 G1 Z-8. F600.
N2935 Z-10.683 F200.
N2940 G3 X42.563 Z-11. I-0.318 K0.
N2945 G1 X42.245 F600.
N2950 G17 G3 X41.928 Y-0.1 I0. J-0.318
N2955 G1 Y-10.1
N2960 G2 X40.1 Y-11.928 I-1.828 J0.
N2965 G1 X33.928
N2970 Y-26.1
N2975 G2 X32.1 Y-27.928 I-1.828 J0.
N2980 G1 X8.1
N2985 G2 X6.272 Y-26.1 I0. J1.828
N2990 G1 Y-11.928
N2995 X0.1
N3000 G2 X-1.728 Y-10.1 I0. J1.828
N3005 G1 Y-0.1
N3010 G3 X-2.045 Y0.218 I-0.317 J0.
N3015 G1 X-2.363
N3020 G18 G3 X-2.68 Z-10.683 I0. K0.318
N3025 G0 Z5.
N3030 X42.89
N3035 G1 Z-9. F600.
N3040 Z-11.233 F200.
N3045 G3 X42.572 Z-11.55 I-0.318 K0.
N3050 G1 X42.255 F600.
N3055 G17 G3 X41.937 Y-0.1 I0. J-0.318
N3060 G1 Y-10.1
N3065 G2 X40.1 Y-11.937 I-1.837 J0.
N3070 G1 X33.937
N3075 Y-26.1
N3080 G2 X32.1 Y-27.937 I-1.837 J0.
N3085 G1 X8.1
N3090 G2 X6.263 Y-26.1 I0. J1.837
N3095 G1 Y-11.937
N3100 X0.1
N3105 G2 X-1.737 Y-10.1 I0. J1.837
N3110 G1 Y-0.1
N3115 G3 X-2.055 Y0.218 I-0.318 J0.
N3120 G1 X-2.372
N3125 G18 G3 X-2.69 Z-11.233 I0. K0.318
N3130 G0 Z5.
N3135 X42.899
N3140 G1 Z-9.55 F600.
N3145 Z-11.783 F200.
N3150 G3 X42.582 Z-12.1 I-0.317 K0.
N3155 G1 X42.264 F600.
N3160 G17 G3 X41.947 Y-0.1 I0. J-0.318
N3165 G1 Y-10.1
N3170 G2 X40.1 Y-11.947 I-1.847 J0.
N3175 G1 X33.947
N3180 Y-26.1
N3185 G2 X32.1 Y-27.947 I-1.847 J0.
N3190 G1 X8.1
N3195 G2 X6.253 Y-26.1 I0. J1.847
N3200 G1 Y-11.947
N3205 X0.1
N3210 G2 X-1.747 Y-10.1 I0. J1.847
N3215 G1 Y-0.1
N3220 G3 X-2.064 Y0.218 I-0.317 J0.
N3225 G1 X-2.382
N3230 G18 G3 X-2.699 Z-11.783 I0. K0.318
N3235 G0 Z10.
N3240 G17
(2D CONTOUR2 2)
N3245 M8
N3250 G0 X42.64 Y0.218
N3255 Z10.
N3260 Z5.
N3265 G1 Z1. F600.
N3270 Z-11.783 F200.
N3275 G18 G3 X42.322 Z-12.1 I-0.318 K0.
N3280 G1 X42.005 F600.
N3285 G17 G3 X41.688 Y-0.1 I0. J-0.318
N3290 G1 Y-10.1
N3295 G2 X40.1 Y-11.688 I-1.588 J0.
N3300 G1 X33.688
N3305 Y-26.1
N3310 G2 X32.1 Y-27.688 I-1.588 J0.
N3315 G1 X8.1
N3320 G2 X6.512 Y-26.1 I0. J1.587
N3325 G1 Y-11.688
N3330 X0.1
N3335 G2 X-1.487 Y-10.1 I0. J1.587
N3340 G1 Y-0.1
N3345 G3 X-1.805 Y0.218 I-0.317 J0.
N3350 G1 X-2.122
N3355 G18 G3 X-2.44 Z-11.783 I0. K0.318
N3360 G0 Z10.
N3365 G17
N3370 M9
N3375 G53 G0 Z0.
N3380 M30
%
