%
(EFRON 10MM SPACER 200X40)
(T16  D=3.175 CR=0. - ZMIN=-10. - FLAT END MILL)
N10 G90 G94 G17 G91.1
N15 G21
N20 G53 G0 Z0.
(2D POCKET1)
N25 M9
N30 T16 M6
N35 S3000 M3
N40 G54
N45 M8
N55 G0 X100.711 Y-14.248
N60 G43 Z10. H16
N65 #100=600. (CUTTING)
N70 #103=600. (ENTRY)
N75 #104=600. (EXIT)
N80 #107=500. (RAMPING)
N85 G0 Z2.
N90 G1 Z1.617 F#103
N95 X100.718 Y-14.243 Z1.573 F#107
N100 G3 X100.739 Y-14.229 Z1.535 I-0.854 J1.243
N105 X100.769 Y-14.207 Z1.509 I-0.874 J1.229
N110 X100.802 Y-14.181 Z1.5 I-0.905 J1.207
N115 X98.927 Y-11.819 Z1.335 I-0.938 J1.181
N120 X100.802 Y-14.181 Z1.169 I0.938 J-1.181
N125 X98.927 Y-11.819 Z1.004 I-0.938 J1.181
N130 X100.802 Y-14.181 Z0.838 I0.938 J-1.181
N135 X98.927 Y-11.819 Z0.673 I-0.938 J1.181
N140 X100.802 Y-14.181 Z0.507 I0.938 J-1.181
N145 X98.927 Y-11.819 Z0.342 I-0.938 J1.181
N150 X100.802 Y-14.181 Z0.176 I0.938 J-1.181
N155 X98.927 Y-11.819 Z0.011 I-0.938 J1.181
N160 X100.802 Y-14.181 Z-0.155 I0.938 J-1.181
N165 X98.927 Y-11.819 Z-0.32 I-0.938 J1.181
N170 X100.802 Y-14.181 Z-0.485 I0.938 J-1.181
N175 X98.927 Y-11.819 Z-0.651 I-0.938 J1.181
N180 X100.802 Y-14.181 Z-0.816 I0.938 J-1.181
N185 X98.927 Y-11.819 Z-0.982 I-0.938 J1.181
N190 X100.802 Y-14.181 Z-1.147 I0.938 J-1.181
N195 X98.927 Y-11.819 Z-1.313 I-0.938 J1.181
N200 X100.802 Y-14.181 Z-1.478 I0.938 J-1.181
N205 X98.927 Y-11.819 Z-1.644 I-0.938 J1.181
N210 X100.802 Y-14.181 Z-1.809 I0.938 J-1.181
N215 X98.927 Y-11.819 Z-1.974 I-0.938 J1.181
N220 X100.802 Y-14.181 Z-2.14 I0.938 J-1.181
N225 X98.927 Y-11.819 Z-2.305 I-0.938 J1.181
N230 X100.802 Y-14.181 Z-2.471 I0.938 J-1.181
N235 X98.927 Y-11.819 Z-2.636 I-0.938 J1.181
N240 X100.802 Y-14.181 Z-2.802 I0.938 J-1.181
N245 X98.927 Y-11.819 Z-2.967 I-0.938 J1.181
N250 X100.802 Y-14.181 Z-3.133 I0.938 J-1.181
N255 X98.927 Y-11.819 Z-3.298 I-0.938 J1.181
N260 X100.802 Y-14.181 Z-3.464 I0.938 J-1.181
N265 X98.927 Y-11.819 Z-3.629 I-0.938 J1.181
N270 X100.802 Y-14.181 Z-3.794 I0.938 J-1.181
N275 X98.927 Y-11.819 Z-3.96 I-0.938 J1.181
N280 X100.802 Y-14.181 Z-4.125 I0.938 J-1.181
N285 X98.927 Y-11.819 Z-4.291 I-0.938 J1.181
N290 X100.802 Y-14.181 Z-4.456 I0.938 J-1.181
N295 X98.927 Y-11.819 Z-4.622 I-0.938 J1.181
N300 X100.802 Y-14.181 Z-4.787 I0.938 J-1.181
N305 X98.927 Y-11.819 Z-4.953 I-0.938 J1.181
N310 X98.356 Y-13. Z-5. I0.938 J-1.181
N315 X100.063 I0.853 J0.
N320 X99.938 I-0.063 J0. F#100
N325 X100.262 I0.162 J0.
N330 X99.738 I-0.262 J0.
N335 X100.463 I0.362 J0.
N340 X99.537 I-0.463 J0.
N345 X100.662 I0.563 J0.
N350 X99.338 I-0.662 J0.
N355 X100.863 I0.762 J0.
N360 X99.137 I-0.863 J0.
N365 X101.063 I0.963 J0.
N370 X98.938 I-1.063 J0.
N375 X101.262 I1.162 J0.
N380 X98.738 I-1.262 J0.
N385 X101.463 I1.362 J0.
N390 X98.537 I-1.463 J0.
N395 X101.662 I1.563 J0.
N400 X98.338 I-1.662 J0.
N405 X101.662 I1.662 J0.
N410 X101.648 Y-12.944 Z-4.984 I-0.118 J0. F#104
N415 X101.621 Y-12.91 Z-4.941 I-0.103 J-0.056
N420 X101.608 Y-12.901 Z-4.883 I-0.076 J-0.09
N425 G0 Z5.
N430 X100.711 Y-38.248
N435 Z2.
N440 G1 Z1.617 F#103
N445 X100.718 Y-38.243 Z1.573 F#107
N450 G3 X100.739 Y-38.229 Z1.535 I-0.854 J1.243
N455 X100.769 Y-38.207 Z1.509 I-0.874 J1.229
N460 X100.802 Y-38.181 Z1.5 I-0.905 J1.207
N465 X98.927 Y-35.819 Z1.335 I-0.938 J1.181
N470 X100.802 Y-38.181 Z1.169 I0.938 J-1.181
N475 X98.927 Y-35.819 Z1.004 I-0.938 J1.181
N480 X100.802 Y-38.181 Z0.838 I0.938 J-1.181
N485 X98.927 Y-35.819 Z0.673 I-0.938 J1.181
N490 X100.802 Y-38.181 Z0.507 I0.938 J-1.181
N495 X98.927 Y-35.819 Z0.342 I-0.938 J1.181
N500 X100.802 Y-38.181 Z0.176 I0.938 J-1.181
N505 X98.927 Y-35.819 Z0.011 I-0.938 J1.181
N510 X100.802 Y-38.181 Z-0.155 I0.938 J-1.181
N515 X98.927 Y-35.819 Z-0.32 I-0.938 J1.181
N520 X100.802 Y-38.181 Z-0.485 I0.938 J-1.181
N525 X98.927 Y-35.819 Z-0.651 I-0.938 J1.181
N530 X100.802 Y-38.181 Z-0.816 I0.938 J-1.181
N535 X98.927 Y-35.819 Z-0.982 I-0.938 J1.181
N540 X100.802 Y-38.181 Z-1.147 I0.938 J-1.181
N545 X98.927 Y-35.819 Z-1.313 I-0.938 J1.181
N550 X100.802 Y-38.181 Z-1.478 I0.938 J-1.181
N555 X98.927 Y-35.819 Z-1.644 I-0.938 J1.181
N560 X100.802 Y-38.181 Z-1.809 I0.938 J-1.181
N565 X98.927 Y-35.819 Z-1.974 I-0.938 J1.181
N570 X100.802 Y-38.181 Z-2.14 I0.938 J-1.181
N575 X98.927 Y-35.819 Z-2.305 I-0.938 J1.181
N580 X100.802 Y-38.181 Z-2.471 I0.938 J-1.181
N585 X98.927 Y-35.819 Z-2.636 I-0.938 J1.181
N590 X100.802 Y-38.181 Z-2.802 I0.938 J-1.181
N595 X98.927 Y-35.819 Z-2.967 I-0.938 J1.181
N600 X100.802 Y-38.181 Z-3.133 I0.938 J-1.181
N605 X98.927 Y-35.819 Z-3.298 I-0.938 J1.181
N610 X100.802 Y-38.181 Z-3.464 I0.938 J-1.181
N615 X98.927 Y-35.819 Z-3.629 I-0.938 J1.181
N620 X100.802 Y-38.181 Z-3.794 I0.938 J-1.181
N625 X98.927 Y-35.819 Z-3.96 I-0.938 J1.181
N630 X100.802 Y-38.181 Z-4.125 I0.938 J-1.181
N635 X98.927 Y-35.819 Z-4.291 I-0.938 J1.181
N640 X100.802 Y-38.181 Z-4.456 I0.938 J-1.181
N645 X98.927 Y-35.819 Z-4.622 I-0.938 J1.181
N650 X100.802 Y-38.181 Z-4.787 I0.938 J-1.181
N655 X98.927 Y-35.819 Z-4.953 I-0.938 J1.181
N660 X98.356 Y-37. Z-5. I0.938 J-1.181
N665 X100.063 I0.853 J0.
N670 X99.938 I-0.063 J0. F#100
N675 X100.262 I0.162 J0.
N680 X99.738 I-0.262 J0.
N685 X100.463 I0.362 J0.
N690 X99.537 I-0.463 J0.
N695 X100.662 I0.563 J0.
N700 X99.338 I-0.662 J0.
N705 X100.863 I0.762 J0.
N710 X99.137 I-0.863 J0.
N715 X101.063 I0.963 J0.
N720 X98.938 I-1.063 J0.
N725 X101.262 I1.162 J0.
N730 X98.738 I-1.262 J0.
N735 X101.463 I1.362 J0.
N740 X98.537 I-1.463 J0.
N745 X101.662 I1.563 J0.
N750 X98.338 I-1.662 J0.
N755 X101.662 I1.662 J0.
N760 X101.648 Y-36.944 Z-4.984 I-0.118 J0. F#104
N765 X101.621 Y-36.91 Z-4.941 I-0.103 J-0.056
N770 X101.608 Y-36.901 Z-4.883 I-0.076 J-0.09
N775 G0 Z5.
N780 X145.711 Y-38.248
N785 Z2.
N790 G1 Z1.617 F#103
N795 X145.718 Y-38.243 Z1.573 F#107
N800 G3 X145.739 Y-38.229 Z1.535 I-0.854 J1.243
N805 X145.769 Y-38.207 Z1.509 I-0.874 J1.229
N810 X145.802 Y-38.181 Z1.5 I-0.905 J1.207
N815 X143.927 Y-35.819 Z1.335 I-0.938 J1.181
N820 X145.802 Y-38.181 Z1.169 I0.938 J-1.181
N825 X143.927 Y-35.819 Z1.004 I-0.938 J1.181
N830 X145.802 Y-38.181 Z0.838 I0.938 J-1.181
N835 X143.927 Y-35.819 Z0.673 I-0.938 J1.181
N840 X145.802 Y-38.181 Z0.507 I0.938 J-1.181
N845 X143.927 Y-35.819 Z0.342 I-0.938 J1.181
N850 X145.802 Y-38.181 Z0.176 I0.938 J-1.181
N855 X143.927 Y-35.819 Z0.011 I-0.938 J1.181
N860 X145.802 Y-38.181 Z-0.155 I0.938 J-1.181
N865 X143.927 Y-35.819 Z-0.32 I-0.938 J1.181
N870 X145.802 Y-38.181 Z-0.485 I0.938 J-1.181
N875 X143.927 Y-35.819 Z-0.651 I-0.938 J1.181
N880 X145.802 Y-38.181 Z-0.816 I0.938 J-1.181
N885 X143.927 Y-35.819 Z-0.982 I-0.938 J1.181
N890 X145.802 Y-38.181 Z-1.147 I0.938 J-1.181
N895 X143.927 Y-35.819 Z-1.313 I-0.938 J1.181
N900 X145.802 Y-38.181 Z-1.478 I0.938 J-1.181
N905 X143.927 Y-35.819 Z-1.644 I-0.938 J1.181
N910 X145.802 Y-38.181 Z-1.809 I0.938 J-1.181
N915 X143.927 Y-35.819 Z-1.974 I-0.938 J1.181
N920 X145.802 Y-38.181 Z-2.14 I0.938 J-1.181
N925 X143.927 Y-35.819 Z-2.305 I-0.938 J1.181
N930 X145.802 Y-38.181 Z-2.471 I0.938 J-1.181
N935 X143.927 Y-35.819 Z-2.636 I-0.938 J1.181
N940 X145.802 Y-38.181 Z-2.802 I0.938 J-1.181
N945 X143.927 Y-35.819 Z-2.967 I-0.938 J1.181
N950 X145.802 Y-38.181 Z-3.133 I0.938 J-1.181
N955 X143.927 Y-35.819 Z-3.298 I-0.938 J1.181
N960 X145.802 Y-38.181 Z-3.464 I0.938 J-1.181
N965 X143.927 Y-35.819 Z-3.629 I-0.938 J1.181
N970 X145.802 Y-38.181 Z-3.794 I0.938 J-1.181
N975 X143.927 Y-35.819 Z-3.96 I-0.938 J1.181
N980 X145.802 Y-38.181 Z-4.125 I0.938 J-1.181
N985 X143.927 Y-35.819 Z-4.291 I-0.938 J1.181
N990 X145.802 Y-38.181 Z-4.456 I0.938 J-1.181
N995 X143.927 Y-35.819 Z-4.622 I-0.938 J1.181
N1000 X145.802 Y-38.181 Z-4.787 I0.938 J-1.181
N1005 X143.927 Y-35.819 Z-4.953 I-0.938 J1.181
N1010 X143.356 Y-37. Z-5. I0.938 J-1.181
N1015 X145.063 I0.853 J0.
N1020 X144.938 I-0.063 J0. F#100
N1025 X145.262 I0.163 J0.
N1030 X144.738 I-0.262 J0.
N1035 X145.462 I0.363 J0.
N1040 X144.538 I-0.462 J0.
N1045 X145.663 I0.563 J0.
N1050 X144.337 I-0.663 J0.
N1055 X145.863 I0.763 J0.
N1060 X144.137 I-0.863 J0.
N1065 X146.063 I0.963 J0.
N1070 X143.938 I-1.063 J0.
N1075 X146.262 I1.163 J0.
N1080 X143.738 I-1.262 J0.
N1085 X146.462 I1.363 J0.
N1090 X143.538 I-1.462 J0.
N1095 X146.663 I1.563 J0.
N1100 X143.337 I-1.663 J0.
N1105 X146.663 I1.663 J0.
N1110 X146.648 Y-36.944 Z-4.984 I-0.118 J0. F#104
N1115 X146.621 Y-36.91 Z-4.941 I-0.103 J-0.056
N1120 X146.608 Y-36.901 Z-4.883 I-0.076 J-0.09
N1125 G0 Z5.
N1130 X145.711 Y-14.248
N1135 Z2.
N1140 G1 Z1.617 F#103
N1145 X145.718 Y-14.243 Z1.573 F#107
N1150 G3 X145.739 Y-14.229 Z1.535 I-0.854 J1.243
N1155 X145.769 Y-14.207 Z1.509 I-0.874 J1.229
N1160 X145.802 Y-14.181 Z1.5 I-0.905 J1.207
N1165 X143.927 Y-11.819 Z1.335 I-0.938 J1.181
N1170 X145.802 Y-14.181 Z1.169 I0.938 J-1.181
N1175 X143.927 Y-11.819 Z1.004 I-0.938 J1.181
N1180 X145.802 Y-14.181 Z0.838 I0.938 J-1.181
N1185 X143.927 Y-11.819 Z0.673 I-0.938 J1.181
N1190 X145.802 Y-14.181 Z0.507 I0.938 J-1.181
N1195 X143.927 Y-11.819 Z0.342 I-0.938 J1.181
N1200 X145.802 Y-14.181 Z0.176 I0.938 J-1.181
N1205 X143.927 Y-11.819 Z0.011 I-0.938 J1.181
N1210 X145.802 Y-14.181 Z-0.155 I0.938 J-1.181
N1215 X143.927 Y-11.819 Z-0.32 I-0.938 J1.181
N1220 X145.802 Y-14.181 Z-0.485 I0.938 J-1.181
N1225 X143.927 Y-11.819 Z-0.651 I-0.938 J1.181
N1230 X145.802 Y-14.181 Z-0.816 I0.938 J-1.181
N1235 X143.927 Y-11.819 Z-0.982 I-0.938 J1.181
N1240 X145.802 Y-14.181 Z-1.147 I0.938 J-1.181
N1245 X143.927 Y-11.819 Z-1.313 I-0.938 J1.181
N1250 X145.802 Y-14.181 Z-1.478 I0.938 J-1.181
N1255 X143.927 Y-11.819 Z-1.644 I-0.938 J1.181
N1260 X145.802 Y-14.181 Z-1.809 I0.938 J-1.181
N1265 X143.927 Y-11.819 Z-1.974 I-0.938 J1.181
N1270 X145.802 Y-14.181 Z-2.14 I0.938 J-1.181
N1275 X143.927 Y-11.819 Z-2.305 I-0.938 J1.181
N1280 X145.802 Y-14.181 Z-2.471 I0.938 J-1.181
N1285 X143.927 Y-11.819 Z-2.636 I-0.938 J1.181
N1290 X145.802 Y-14.181 Z-2.802 I0.938 J-1.181
N1295 X143.927 Y-11.819 Z-2.967 I-0.938 J1.181
N1300 X145.802 Y-14.181 Z-3.133 I0.938 J-1.181
N1305 X143.927 Y-11.819 Z-3.298 I-0.938 J1.181
N1310 X145.802 Y-14.181 Z-3.464 I0.938 J-1.181
N1315 X143.927 Y-11.819 Z-3.629 I-0.938 J1.181
N1320 X145.802 Y-14.181 Z-3.794 I0.938 J-1.181
N1325 X143.927 Y-11.819 Z-3.96 I-0.938 J1.181
N1330 X145.802 Y-14.181 Z-4.125 I0.938 J-1.181
N1335 X143.927 Y-11.819 Z-4.291 I-0.938 J1.181
N1340 X145.802 Y-14.181 Z-4.456 I0.938 J-1.181
N1345 X143.927 Y-11.819 Z-4.622 I-0.938 J1.181
N1350 X145.802 Y-14.181 Z-4.787 I0.938 J-1.181
N1355 X143.927 Y-11.819 Z-4.953 I-0.938 J1.181
N1360 X143.356 Y-13. Z-5. I0.938 J-1.181
N1365 X145.063 I0.853 J0.
N1370 X144.938 I-0.063 J0. F#100
N1375 X145.262 I0.163 J0.
N1380 X144.738 I-0.262 J0.
N1385 X145.462 I0.363 J0.
N1390 X144.538 I-0.462 J0.
N1395 X145.663 I0.563 J0.
N1400 X144.337 I-0.663 J0.
N1405 X145.863 I0.763 J0.
N1410 X144.137 I-0.863 J0.
N1415 X146.063 I0.963 J0.
N1420 X143.938 I-1.063 J0.
N1425 X146.262 I1.163 J0.
N1430 X143.738 I-1.262 J0.
N1435 X146.462 I1.363 J0.
N1440 X143.538 I-1.462 J0.
N1445 X146.663 I1.563 J0.
N1450 X143.337 I-1.663 J0.
N1455 X146.663 I1.663 J0.
N1460 X146.648 Y-12.944 Z-4.984 I-0.118 J0. F#104
N1465 X146.621 Y-12.91 Z-4.941 I-0.103 J-0.056
N1470 X146.608 Y-12.901 Z-4.883 I-0.076 J-0.09
N1475 G0 Z5.
N1480 X179.608 Y-9.748
N1485 Z2.
N1490 G1 Z1.617 F#103
N1495 X179.616 Y-9.743 Z1.573 F#107
N1500 G3 X179.636 Y-9.729 Z1.535 I-0.854 J1.243
N1505 X179.667 Y-9.707 Z1.509 I-0.874 J1.229
N1510 X179.7 Y-9.681 Z1.5 I-0.905 J1.207
N1515 X177.824 Y-7.319 Z1.335 I-0.938 J1.181
N1520 X179.7 Y-9.681 Z1.169 I0.938 J-1.181
N1525 X177.824 Y-7.319 Z1.004 I-0.938 J1.181
N1530 X179.7 Y-9.681 Z0.838 I0.938 J-1.181
N1535 X177.824 Y-7.319 Z0.673 I-0.938 J1.181
N1540 X179.7 Y-9.681 Z0.507 I0.938 J-1.181
N1545 X177.824 Y-7.319 Z0.342 I-0.938 J1.181
N1550 X179.7 Y-9.681 Z0.176 I0.938 J-1.181
N1555 X177.824 Y-7.319 Z0.011 I-0.938 J1.181
N1560 X179.7 Y-9.681 Z-0.155 I0.938 J-1.181
N1565 X177.824 Y-7.319 Z-0.32 I-0.938 J1.181
N1570 X179.7 Y-9.681 Z-0.485 I0.938 J-1.181
N1575 X177.824 Y-7.319 Z-0.651 I-0.938 J1.181
N1580 X179.7 Y-9.681 Z-0.816 I0.938 J-1.181
N1585 X177.824 Y-7.319 Z-0.982 I-0.938 J1.181
N1590 X179.7 Y-9.681 Z-1.147 I0.938 J-1.181
N1595 X177.824 Y-7.319 Z-1.313 I-0.938 J1.181
N1600 X179.7 Y-9.681 Z-1.478 I0.938 J-1.181
N1605 X177.824 Y-7.319 Z-1.644 I-0.938 J1.181
N1610 X179.7 Y-9.681 Z-1.809 I0.938 J-1.181
N1615 X177.824 Y-7.319 Z-1.974 I-0.938 J1.181
N1620 X179.7 Y-9.681 Z-2.14 I0.938 J-1.181
N1625 X177.824 Y-7.319 Z-2.305 I-0.938 J1.181
N1630 X179.7 Y-9.681 Z-2.471 I0.938 J-1.181
N1635 X177.824 Y-7.319 Z-2.636 I-0.938 J1.181
N1640 X179.7 Y-9.681 Z-2.802 I0.938 J-1.181
N1645 X177.824 Y-7.319 Z-2.967 I-0.938 J1.181
N1650 X179.7 Y-9.681 Z-3.133 I0.938 J-1.181
N1655 X177.824 Y-7.319 Z-3.298 I-0.938 J1.181
N1660 X179.7 Y-9.681 Z-3.464 I0.938 J-1.181
N1665 X177.824 Y-7.319 Z-3.629 I-0.938 J1.181
N1670 X179.7 Y-9.681 Z-3.794 I0.938 J-1.181
N1675 X177.824 Y-7.319 Z-3.96 I-0.938 J1.181
N1680 X179.7 Y-9.681 Z-4.125 I0.938 J-1.181
N1685 X177.824 Y-7.319 Z-4.291 I-0.938 J1.181
N1690 X179.7 Y-9.681 Z-4.456 I0.938 J-1.181
N1695 X177.824 Y-7.319 Z-4.622 I-0.938 J1.181
N1700 X179.7 Y-9.681 Z-4.787 I0.938 J-1.181
N1705 X177.824 Y-7.319 Z-4.953 I-0.938 J1.181
N1710 X177.254 Y-8.5 Z-5. I0.938 J-1.181
N1715 X179.663 I1.204 J0.
N1720 X179.637 I-0.013 J0. F#100
N1725 X179.863 I0.113 J0.
N1730 X179.438 I-0.213 J0.
N1735 X180.063 I0.313 J0.
N1740 X179.238 I-0.413 J0.
N1745 X180.262 I0.512 J0.
N1750 X179.038 I-0.613 J0.
N1755 X180.462 I0.712 J0.
N1760 X178.837 I-0.813 J0.
N1765 X180.663 I0.913 J0.
N1770 X178.637 I-1.013 J0.
N1775 X180.863 I1.113 J0.
N1780 X178.438 I-1.213 J0.
N1785 X181.063 I1.313 J0.
N1790 X178.238 I-1.413 J0.
N1795 X181.262 I1.512 J0.
N1800 X178.038 I-1.613 J0.
N1805 X181.462 I1.712 J0.
N1810 X177.837 I-1.813 J0.
N1815 X181.663 I1.913 J0.
N1820 X177.637 I-2.013 J0.
N1825 X181.863 I2.113 J0.
N1830 X177.438 I-2.213 J0.
N1835 X182.063 I2.313 J0.
N1840 X177.237 I-2.413 J0.
N1845 X182.063 I2.413 J0.
N1850 X182.048 Y-8.444 Z-4.984 I-0.117 J0. F#104
N1855 X182.021 Y-8.41 Z-4.941 I-0.103 J-0.056
N1860 X182.008 Y-8.401 Z-4.883 I-0.076 J-0.09
N1865 G0 Z5.
N1870 X194.608 Y-9.748
N1875 Z2.
N1880 G1 Z1.617 F#103
N1885 X194.616 Y-9.743 Z1.573 F#107
N1890 G3 X194.636 Y-9.729 Z1.535 I-0.854 J1.243
N1895 X194.667 Y-9.707 Z1.509 I-0.874 J1.229
N1900 X194.7 Y-9.681 Z1.5 I-0.905 J1.207
N1905 X192.824 Y-7.319 Z1.335 I-0.938 J1.181
N1910 X194.7 Y-9.681 Z1.169 I0.938 J-1.181
N1915 X192.824 Y-7.319 Z1.004 I-0.938 J1.181
N1920 X194.7 Y-9.681 Z0.838 I0.938 J-1.181
N1925 X192.824 Y-7.319 Z0.673 I-0.938 J1.181
N1930 X194.7 Y-9.681 Z0.507 I0.938 J-1.181
N1935 X192.824 Y-7.319 Z0.342 I-0.938 J1.181
N1940 X194.7 Y-9.681 Z0.176 I0.938 J-1.181
N1945 X192.824 Y-7.319 Z0.011 I-0.938 J1.181
N1950 X194.7 Y-9.681 Z-0.155 I0.938 J-1.181
N1955 X192.824 Y-7.319 Z-0.32 I-0.938 J1.181
N1960 X194.7 Y-9.681 Z-0.485 I0.938 J-1.181
N1965 X192.824 Y-7.319 Z-0.651 I-0.938 J1.181
N1970 X194.7 Y-9.681 Z-0.816 I0.938 J-1.181
N1975 X192.824 Y-7.319 Z-0.982 I-0.938 J1.181
N1980 X194.7 Y-9.681 Z-1.147 I0.938 J-1.181
N1985 X192.824 Y-7.319 Z-1.313 I-0.938 J1.181
N1990 X194.7 Y-9.681 Z-1.478 I0.938 J-1.181
N1995 X192.824 Y-7.319 Z-1.644 I-0.938 J1.181
N2000 X194.7 Y-9.681 Z-1.809 I0.938 J-1.181
N2005 X192.824 Y-7.319 Z-1.974 I-0.938 J1.181
N2010 X194.7 Y-9.681 Z-2.14 I0.938 J-1.181
N2015 X192.824 Y-7.319 Z-2.305 I-0.938 J1.181
N2020 X194.7 Y-9.681 Z-2.471 I0.938 J-1.181
N2025 X192.824 Y-7.319 Z-2.636 I-0.938 J1.181
N2030 X194.7 Y-9.681 Z-2.802 I0.938 J-1.181
N2035 X192.824 Y-7.319 Z-2.967 I-0.938 J1.181
N2040 X194.7 Y-9.681 Z-3.133 I0.938 J-1.181
N2045 X192.824 Y-7.319 Z-3.298 I-0.938 J1.181
N2050 X194.7 Y-9.681 Z-3.464 I0.938 J-1.181
N2055 X192.824 Y-7.319 Z-3.629 I-0.938 J1.181
N2060 X194.7 Y-9.681 Z-3.794 I0.938 J-1.181
N2065 X192.824 Y-7.319 Z-3.96 I-0.938 J1.181
N2070 X194.7 Y-9.681 Z-4.125 I0.938 J-1.181
N2075 X192.824 Y-7.319 Z-4.291 I-0.938 J1.181
N2080 X194.7 Y-9.681 Z-4.456 I0.938 J-1.181
N2085 X192.824 Y-7.319 Z-4.622 I-0.938 J1.181
N2090 X194.7 Y-9.681 Z-4.787 I0.938 J-1.181
N2095 X192.824 Y-7.319 Z-4.953 I-0.938 J1.181
N2100 X192.254 Y-8.5 Z-5. I0.938 J-1.181
N2105 X194.663 I1.204 J0.
N2110 X194.637 I-0.013 J0. F#100
N2115 X194.863 I0.113 J0.
N2120 X194.438 I-0.213 J0.
N2125 X195.063 I0.313 J0.
N2130 X194.238 I-0.413 J0.
N2135 X195.262 I0.512 J0.
N2140 X194.038 I-0.613 J0.
N2145 X195.462 I0.712 J0.
N2150 X193.837 I-0.813 J0.
N2155 X195.663 I0.913 J0.
N2160 X193.637 I-1.013 J0.
N2165 X195.863 I1.113 J0.
N2170 X193.438 I-1.213 J0.
N2175 X196.063 I1.313 J0.
N2180 X193.238 I-1.413 J0.
N2185 X196.262 I1.512 J0.
N2190 X193.038 I-1.613 J0.
N2195 X196.462 I1.712 J0.
N2200 X192.837 I-1.813 J0.
N2205 X196.663 I1.913 J0.
N2210 X192.637 I-2.013 J0.
N2215 X196.863 I2.113 J0.
N2220 X192.438 I-2.213 J0.
N2225 X197.063 I2.313 J0.
N2230 X192.237 I-2.413 J0.
N2235 X197.063 I2.413 J0.
N2240 X197.048 Y-8.444 Z-4.984 I-0.117 J0. F#104
N2245 X197.021 Y-8.41 Z-4.941 I-0.103 J-0.056
N2250 X197.008 Y-8.401 Z-4.883 I-0.076 J-0.09
N2255 G0 Z5.
N2260 X194.684 Y-27.252
N2265 Z2.
N2270 G1 Z1.617 F#103
N2275 X194.677 Y-27.257 Z1.573 F#107
N2280 G3 X194.656 Y-27.271 Z1.535 I0.854 J-1.243
N2285 X194.626 Y-27.293 Z1.509 I0.874 J-1.229
N2290 X194.593 Y-27.319 Z1.5 I0.905 J-1.207
N2295 X196.468 Y-29.681 Z1.335 I0.938 J-1.181
N2300 X194.593 Y-27.319 Z1.169 I-0.938 J1.181
N2305 X196.468 Y-29.681 Z1.004 I0.938 J-1.181
N2310 X194.593 Y-27.319 Z0.838 I-0.938 J1.181
N2315 X196.468 Y-29.681 Z0.673 I0.938 J-1.181
N2320 X194.593 Y-27.319 Z0.507 I-0.938 J1.181
N2325 X196.468 Y-29.681 Z0.342 I0.938 J-1.181
N2330 X194.593 Y-27.319 Z0.176 I-0.938 J1.181
N2335 X196.468 Y-29.681 Z0.011 I0.938 J-1.181
N2340 X194.593 Y-27.319 Z-0.155 I-0.938 J1.181
N2345 X196.468 Y-29.681 Z-0.32 I0.938 J-1.181
N2350 X194.593 Y-27.319 Z-0.485 I-0.938 J1.181
N2355 X196.468 Y-29.681 Z-0.651 I0.938 J-1.181
N2360 X194.593 Y-27.319 Z-0.816 I-0.938 J1.181
N2365 X196.468 Y-29.681 Z-0.982 I0.938 J-1.181
N2370 X194.593 Y-27.319 Z-1.147 I-0.938 J1.181
N2375 X196.468 Y-29.681 Z-1.313 I0.938 J-1.181
N2380 X194.593 Y-27.319 Z-1.478 I-0.938 J1.181
N2385 X196.468 Y-29.681 Z-1.644 I0.938 J-1.181
N2390 X194.593 Y-27.319 Z-1.809 I-0.938 J1.181
N2395 X196.468 Y-29.681 Z-1.974 I0.938 J-1.181
N2400 X194.593 Y-27.319 Z-2.14 I-0.938 J1.181
N2405 X196.468 Y-29.681 Z-2.305 I0.938 J-1.181
N2410 X194.593 Y-27.319 Z-2.471 I-0.938 J1.181
N2415 X196.468 Y-29.681 Z-2.636 I0.938 J-1.181
N2420 X194.593 Y-27.319 Z-2.802 I-0.938 J1.181
N2425 X196.468 Y-29.681 Z-2.967 I0.938 J-1.181
N2430 X194.593 Y-27.319 Z-3.133 I-0.938 J1.181
N2435 X196.468 Y-29.681 Z-3.298 I0.938 J-1.181
N2440 X194.593 Y-27.319 Z-3.464 I-0.938 J1.181
N2445 X196.468 Y-29.681 Z-3.629 I0.938 J-1.181
N2450 X194.593 Y-27.319 Z-3.794 I-0.938 J1.181
N2455 X196.468 Y-29.681 Z-3.96 I0.938 J-1.181
N2460 X194.593 Y-27.319 Z-4.125 I-0.938 J1.181
N2465 X196.468 Y-29.681 Z-4.291 I0.938 J-1.181
N2470 X194.593 Y-27.319 Z-4.456 I-0.938 J1.181
N2475 X196.468 Y-29.681 Z-4.622 I0.938 J-1.181
N2480 X194.593 Y-27.319 Z-4.787 I-0.938 J1.181
N2485 X196.468 Y-29.681 Z-4.953 I0.938 J-1.181
N2490 X197.039 Y-28.5 Z-5. I-0.938 J1.181
N2495 X194.708 I-1.166 J0.
N2500 X194.792 I0.042 J0. F#100
N2505 X194.508 I-0.142 J0.
N2510 X194.992 I0.242 J0.
N2515 X194.308 I-0.342 J0.
N2520 X195.192 I0.442 J0.
N2525 X194.108 I-0.542 J0.
N2530 X195.392 I0.642 J0.
N2535 X193.908 I-0.742 J0.
N2540 X195.592 I0.842 J0.
N2545 X193.708 I-0.942 J0.
N2550 X194.085 Y-29.254 I0.942 J0.
N2555 X195.592 Y-28.5 I0.565 J0.754
N2560 G2 X195.648 Y-28.412 I0.097 J0.
N2565 G3 X195.695 Y-28.32 I-0.036 J0.077
N2570 X195.155 Y-27.577 I-1.052 J-0.197
N2575 X193.791 Y-27.861 I-0.515 J-0.942
N2580 X193.863 Y-29.252 I0.843 J-0.654
N2585 X194.437 Y-29.567 I0.781 J0.74
N2590 X195.695 Y-28.32 I0.205 J1.051
N2595 G2 X195.729 Y-28.238 I0.079 J0.015
N2600 G3 X195.759 Y-28.155 I-0.041 J0.062
N2605 X195.208 Y-27.48 I-1.107 J-0.341
N2610 X193.699 Y-27.794 I-0.57 J-1.042
N2615 X193.778 Y-29.333 I0.932 J-0.724
N2620 G2 X193.8 Y-29.356 I-0.369 J-0.352
N2625 G3 X193.821 Y-29.38 I0.389 J0.328
N2630 X194.356 Y-29.673 I0.728 J0.696
N2635 X195.721 Y-28.941 I0.235 J1.202
N2640 X195.759 Y-28.155 I-1.07 J0.445
N2645 G2 X195.785 Y-28.065 I0.082 J0.025
N2650 G3 X195.805 Y-27.973 I-0.052 J0.06
N2655 X195.261 Y-27.384 I-1.148 J-0.515
N2660 X193.706 Y-29.402 I-0.619 J-1.131
N2665 G2 X193.73 Y-29.43 I-0.429 J-0.41
N2670 G3 X193.755 Y-29.457 I0.453 J0.382
N2675 X194.327 Y-29.77 I0.778 J0.743
N2680 X195.816 Y-28.977 I0.257 J1.313
N2685 X195.805 Y-27.973 I-1.159 J0.489
N2690 G2 X195.82 Y-27.874 I0.085 J0.038
N2695 G3 X195.828 Y-27.773 I-0.063 J0.056
N2700 X195.313 Y-27.287 I-1.185 J-0.738
N2705 X193.524 Y-27.66 I-0.676 J-1.236
N2710 X193.618 Y-29.485 I1.107 J-0.858
N2715 G2 X193.627 Y-29.495 I-0.151 J-0.144
N2720 G3 X193.636 Y-29.505 I0.159 J0.134
N2725 X194.351 Y-29.896 I0.972 J0.929
N2730 X195.95 Y-29.004 I0.272 J1.392
N2735 X195.828 Y-27.773 I-1.306 J0.492
N2740 G2 X195.83 Y-27.678 I0.074 J0.046
N2745 G3 X195.827 Y-27.582 I-0.067 J0.046
N2750 X195.366 Y-27.191 I-1.18 J-0.924
N2755 X193.546 Y-29.555 I-0.725 J-1.325
N2760 G2 X193.555 Y-29.566 I-0.17 J-0.163
N2765 G3 X193.565 Y-29.577 I0.18 J0.151
N2770 X194.328 Y-29.994 I1.038 J0.992
N2775 X196.048 Y-29.037 I0.293 J1.498
N2780 X195.827 Y-27.582 I-1.402 J0.532
N2785 G2 X195.819 Y-27.487 I0.068 J0.053
N2790 G3 X195.807 Y-27.392 I-0.071 J0.039
N2795 X195.419 Y-27.094 I-1.148 J-1.091
N2800 X193.461 Y-29.636 I-0.779 J-1.425
N2805 G2 X193.493 Y-29.672 I-0.558 J-0.533
N2810 G3 X193.525 Y-29.708 I0.589 J0.496
N2815 X194.24 Y-30.098 I0.972 J0.929
N2820 X196.117 Y-29.102 I0.324 J1.656
N2825 X195.807 Y-27.392 I-1.457 J0.618
N2830 G2 X195.789 Y-27.296 I0.065 J0.062
N2835 G3 X195.766 Y-27.202 I-0.077 J0.032
N2840 X195.472 Y-26.998 I-1.117 J-1.299
N2845 X193.387 Y-29.707 I-0.83 J-1.518
N2850 G2 X193.401 Y-29.723 I-0.245 J-0.234
N2855 G3 X193.415 Y-29.738 I0.258 J0.218
N2860 X194.273 Y-30.208 I1.168 J1.116
N2865 X196.248 Y-29.116 I0.337 J1.723
N2870 X195.766 Y-27.202 I-1.598 J0.616
N2875 G2 X195.739 Y-27.108 I0.058 J0.067
N2880 G3 X195.708 Y-27.016 I-0.08 J0.024
N2885 X195.525 Y-26.901 I-1.065 J-1.497
N2890 X193.3 Y-29.789 I-0.885 J-1.619
N2895 G2 X193.308 Y-29.798 I-0.132 J-0.126
N2900 G3 X193.316 Y-29.807 I0.14 J0.117
N2905 X194.269 Y-30.328 I1.298 J1.24
N2910 X196.365 Y-29.153 I0.356 J1.822
N2915 X195.708 Y-27.016 I-1.723 J0.639
N2920 G2 X195.673 Y-26.926 I0.051 J0.072
N2925 G3 X195.634 Y-26.837 I-0.081 J0.017
N2930 X195.577 Y-26.805 I-0.969 J-1.635
N2935 X193.229 Y-29.857 I-0.935 J-1.71
N2940 G2 X193.267 Y-29.899 I-0.65 J-0.622
N2945 G3 X193.304 Y-29.941 I0.687 J0.579
N2950 X194.163 Y-30.41 I1.168 J1.116
N2955 X196.415 Y-29.214 I0.388 J1.987
N2960 X195.634 Y-26.837 I-1.75 J0.742
N2965 G2 X195.591 Y-26.749 I0.045 J0.076
N2970 G3 X195.545 Y-26.664 I-0.083 J0.01
N2975 X193.141 Y-29.942 I-0.906 J-1.856
N2980 G2 X193.148 Y-29.95 I-0.123 J-0.117
N2985 G3 X193.156 Y-29.958 I0.13 J0.109
N2990 X194.229 Y-30.545 I1.46 J1.396
N2995 X196.573 Y-29.227 I0.398 J2.037
N3000 X195.63 Y-26.708 I-1.931 J0.713
N3005 X195.545 Y-26.664 I-0.991 J-1.812
N3010 G2 X195.495 Y-26.58 I0.039 J0.08
N3015 G3 X195.442 Y-26.498 I-0.084 J0.004
N3020 X193.072 Y-30.008 I-0.799 J-2.015
N3025 G2 X193.133 Y-30.076 I-1.056 J-1.009
N3030 G3 X193.193 Y-30.143 I1.115 J0.94
N3035 X194.052 Y-30.613 I1.168 J1.116
N3040 X194.142 Y-30.628 I0.279 J1.43
N3045 G2 X194.231 Y-30.642 I-0.19 J-1.446
N3050 G3 X195.683 Y-26.612 I0.416 J2.127
N3055 X195.442 Y-26.498 I-1.04 J-1.902
N3060 G2 X195.386 Y-26.419 I0.033 J0.083
N3065 G3 X195.327 Y-26.341 I-0.084 J-0.003
N3070 X192.984 Y-30.092 I-0.687 J-2.178
N3075 G2 X193.014 Y-30.126 I-0.53 J-0.507
N3080 G3 X193.045 Y-30.16 I0.56 J0.472
N3085 X194.118 Y-30.747 I1.46 J1.396
N3090 X196.74 Y-29.324 I0.449 J2.3
N3095 X195.736 Y-26.515 I-2.082 J0.84
N3100 X195.327 Y-26.341 I-1.096 J-2.004
N3105 G2 X195.244 Y-26.239 I0.036 J0.115
N3110 G3 X195.155 Y-26.141 I-0.112 J-0.012
N3115 X192.906 Y-30.167 I-0.505 J-2.359
N3120 G1 X193.435 Y-30.721
N3125 X194.187 Y-30.868
N3130 G3 X195.155 Y-26.141 I0.463 J2.368
N3135 X195.097 Y-26.143 Z-4.984 I-0.025 J-0.115 F#104
N3140 X195.059 Y-26.163 Z-4.941 I0.033 J-0.113
N3145 X195.047 Y-26.173 Z-4.883 I0.072 J-0.093
N3150 G0 Z5.
N3155 X190.711 Y-38.248
N3160 Z2.
N3165 G1 Z1.617 F#103
N3170 X190.718 Y-38.243 Z1.573 F#107
N3175 G3 X190.739 Y-38.229 Z1.535 I-0.854 J1.243
N3180 X190.769 Y-38.207 Z1.509 I-0.874 J1.229
N3185 X190.802 Y-38.181 Z1.5 I-0.905 J1.207
N3190 X188.927 Y-35.819 Z1.335 I-0.938 J1.181
N3195 X190.802 Y-38.181 Z1.169 I0.938 J-1.181
N3200 X188.927 Y-35.819 Z1.004 I-0.938 J1.181
N3205 X190.802 Y-38.181 Z0.838 I0.938 J-1.181
N3210 X188.927 Y-35.819 Z0.673 I-0.938 J1.181
N3215 X190.802 Y-38.181 Z0.507 I0.938 J-1.181
N3220 X188.927 Y-35.819 Z0.342 I-0.938 J1.181
N3225 X190.802 Y-38.181 Z0.176 I0.938 J-1.181
N3230 X188.927 Y-35.819 Z0.011 I-0.938 J1.181
N3235 X190.802 Y-38.181 Z-0.155 I0.938 J-1.181
N3240 X188.927 Y-35.819 Z-0.32 I-0.938 J1.181
N3245 X190.802 Y-38.181 Z-0.485 I0.938 J-1.181
N3250 X188.927 Y-35.819 Z-0.651 I-0.938 J1.181
N3255 X190.802 Y-38.181 Z-0.816 I0.938 J-1.181
N3260 X188.927 Y-35.819 Z-0.982 I-0.938 J1.181
N3265 X190.802 Y-38.181 Z-1.147 I0.938 J-1.181
N3270 X188.927 Y-35.819 Z-1.313 I-0.938 J1.181
N3275 X190.802 Y-38.181 Z-1.478 I0.938 J-1.181
N3280 X188.927 Y-35.819 Z-1.644 I-0.938 J1.181
N3285 X190.802 Y-38.181 Z-1.809 I0.938 J-1.181
N3290 X188.927 Y-35.819 Z-1.974 I-0.938 J1.181
N3295 X190.802 Y-38.181 Z-2.14 I0.938 J-1.181
N3300 X188.927 Y-35.819 Z-2.305 I-0.938 J1.181
N3305 X190.802 Y-38.181 Z-2.471 I0.938 J-1.181
N3310 X188.927 Y-35.819 Z-2.636 I-0.938 J1.181
N3315 X190.802 Y-38.181 Z-2.802 I0.938 J-1.181
N3320 X188.927 Y-35.819 Z-2.967 I-0.938 J1.181
N3325 X190.802 Y-38.181 Z-3.133 I0.938 J-1.181
N3330 X188.927 Y-35.819 Z-3.298 I-0.938 J1.181
N3335 X190.802 Y-38.181 Z-3.464 I0.938 J-1.181
N3340 X188.927 Y-35.819 Z-3.629 I-0.938 J1.181
N3345 X190.802 Y-38.181 Z-3.794 I0.938 J-1.181
N3350 X188.927 Y-35.819 Z-3.96 I-0.938 J1.181
N3355 X190.802 Y-38.181 Z-4.125 I0.938 J-1.181
N3360 X188.927 Y-35.819 Z-4.291 I-0.938 J1.181
N3365 X190.802 Y-38.181 Z-4.456 I0.938 J-1.181
N3370 X188.927 Y-35.819 Z-4.622 I-0.938 J1.181
N3375 X190.802 Y-38.181 Z-4.787 I0.938 J-1.181
N3380 X188.927 Y-35.819 Z-4.953 I-0.938 J1.181
N3385 X188.356 Y-37. Z-5. I0.938 J-1.181
N3390 X190.063 I0.853 J0.
N3395 X189.938 I-0.063 J0. F#100
N3400 X190.262 I0.163 J0.
N3405 X189.738 I-0.262 J0.
N3410 X190.462 I0.363 J0.
N3415 X189.538 I-0.462 J0.
N3420 X190.663 I0.563 J0.
N3425 X189.337 I-0.663 J0.
N3430 X190.863 I0.763 J0.
N3435 X189.137 I-0.863 J0.
N3440 X191.063 I0.963 J0.
N3445 X188.938 I-1.063 J0.
N3450 X191.262 I1.163 J0.
N3455 X188.738 I-1.262 J0.
N3460 X191.462 I1.363 J0.
N3465 X188.538 I-1.462 J0.
N3470 X191.663 I1.563 J0.
N3475 X188.337 I-1.663 J0.
N3480 X191.663 I1.663 J0.
N3485 X191.648 Y-36.944 Z-4.984 I-0.118 J0. F#104
N3490 X191.621 Y-36.91 Z-4.941 I-0.103 J-0.056
N3495 X191.608 Y-36.901 Z-4.883 I-0.076 J-0.09
N3500 G0 Z5.
N3505 X179.608 Y-29.748
N3510 Z2.
N3515 G1 Z1.617 F#103
N3520 X179.616 Y-29.743 Z1.573 F#107
N3525 G3 X179.636 Y-29.729 Z1.535 I-0.854 J1.243
N3530 X179.667 Y-29.706 Z1.509 I-0.874 J1.229
N3535 X179.7 Y-29.681 Z1.5 I-0.905 J1.206
N3540 X177.824 Y-27.319 Z1.335 I-0.938 J1.181
N3545 X179.7 Y-29.681 Z1.169 I0.938 J-1.181
N3550 X177.824 Y-27.319 Z1.004 I-0.938 J1.181
N3555 X179.7 Y-29.681 Z0.838 I0.938 J-1.181
N3560 X177.824 Y-27.319 Z0.673 I-0.938 J1.181
N3565 X179.7 Y-29.681 Z0.507 I0.938 J-1.181
N3570 X177.824 Y-27.319 Z0.342 I-0.938 J1.181
N3575 X179.7 Y-29.681 Z0.176 I0.938 J-1.181
N3580 X177.824 Y-27.319 Z0.011 I-0.938 J1.181
N3585 X179.7 Y-29.681 Z-0.155 I0.938 J-1.181
N3590 X177.824 Y-27.319 Z-0.32 I-0.938 J1.181
N3595 X179.7 Y-29.681 Z-0.485 I0.938 J-1.181
N3600 X177.824 Y-27.319 Z-0.651 I-0.938 J1.181
N3605 X179.7 Y-29.681 Z-0.816 I0.938 J-1.181
N3610 X177.824 Y-27.319 Z-0.982 I-0.938 J1.181
N3615 X179.7 Y-29.681 Z-1.147 I0.938 J-1.181
N3620 X177.824 Y-27.319 Z-1.313 I-0.938 J1.181
N3625 X179.7 Y-29.681 Z-1.478 I0.938 J-1.181
N3630 X177.824 Y-27.319 Z-1.644 I-0.938 J1.181
N3635 X179.7 Y-29.681 Z-1.809 I0.938 J-1.181
N3640 X177.824 Y-27.319 Z-1.974 I-0.938 J1.181
N3645 X179.7 Y-29.681 Z-2.14 I0.938 J-1.181
N3650 X177.824 Y-27.319 Z-2.305 I-0.938 J1.181
N3655 X179.7 Y-29.681 Z-2.471 I0.938 J-1.181
N3660 X177.824 Y-27.319 Z-2.636 I-0.938 J1.181
N3665 X179.7 Y-29.681 Z-2.802 I0.938 J-1.181
N3670 X177.824 Y-27.319 Z-2.967 I-0.938 J1.181
N3675 X179.7 Y-29.681 Z-3.133 I0.938 J-1.181
N3680 X177.824 Y-27.319 Z-3.298 I-0.938 J1.181
N3685 X179.7 Y-29.681 Z-3.464 I0.938 J-1.181
N3690 X177.824 Y-27.319 Z-3.629 I-0.938 J1.181
N3695 X179.7 Y-29.681 Z-3.794 I0.938 J-1.181
N3700 X177.824 Y-27.319 Z-3.96 I-0.938 J1.181
N3705 X179.7 Y-29.681 Z-4.125 I0.938 J-1.181
N3710 X177.824 Y-27.319 Z-4.291 I-0.938 J1.181
N3715 X179.7 Y-29.681 Z-4.456 I0.938 J-1.181
N3720 X177.824 Y-27.319 Z-4.622 I-0.938 J1.181
N3725 X179.7 Y-29.681 Z-4.787 I0.938 J-1.181
N3730 X177.824 Y-27.319 Z-4.953 I-0.938 J1.181
N3735 X177.254 Y-28.5 Z-5. I0.938 J-1.181
N3740 X179.663 I1.204 J0.
N3745 X179.637 I-0.013 J0. F#100
N3750 X179.863 I0.113 J0.
N3755 X179.438 I-0.213 J0.
N3760 X180.063 I0.313 J0.
N3765 X179.238 I-0.413 J0.
N3770 X180.262 I0.512 J0.
N3775 X179.038 I-0.613 J0.
N3780 X180.462 I0.712 J0.
N3785 X178.837 I-0.813 J0.
N3790 X180.663 I0.913 J0.
N3795 X178.637 I-1.013 J0.
N3800 X180.863 I1.113 J0.
N3805 X178.438 I-1.213 J0.
N3810 X181.063 I1.313 J0.
N3815 X178.238 I-1.413 J0.
N3820 X181.262 I1.512 J0.
N3825 X178.038 I-1.613 J0.
N3830 X181.462 I1.712 J0.
N3835 X177.837 I-1.813 J0.
N3840 X181.663 I1.913 J0.
N3845 X177.637 I-2.013 J0.
N3850 X181.863 I2.113 J0.
N3855 X177.438 I-2.213 J0.
N3860 X182.063 I2.313 J0.
N3865 X177.237 I-2.413 J0.
N3870 X182.063 I2.413 J0.
N3875 X182.048 Y-28.444 Z-4.984 I-0.117 J0. F#104
N3880 X182.021 Y-28.41 Z-4.941 I-0.103 J-0.056
N3885 X182.008 Y-28.401 Z-4.883 I-0.076 J-0.09
N3890 G0 Z5.
N3895 X55.711 Y-38.248
N3900 Z2.
N3905 G1 Z1.617 F#103
N3910 X55.718 Y-38.243 Z1.573 F#107
N3915 G3 X55.739 Y-38.229 Z1.535 I-0.854 J1.243
N3920 X55.769 Y-38.207 Z1.509 I-0.874 J1.229
N3925 X55.802 Y-38.181 Z1.5 I-0.905 J1.207
N3930 X53.927 Y-35.819 Z1.335 I-0.938 J1.181
N3935 X55.802 Y-38.181 Z1.169 I0.938 J-1.181
N3940 X53.927 Y-35.819 Z1.004 I-0.938 J1.181
N3945 X55.802 Y-38.181 Z0.838 I0.938 J-1.181
N3950 X53.927 Y-35.819 Z0.673 I-0.938 J1.181
N3955 X55.802 Y-38.181 Z0.507 I0.938 J-1.181
N3960 X53.927 Y-35.819 Z0.342 I-0.938 J1.181
N3965 X55.802 Y-38.181 Z0.176 I0.938 J-1.181
N3970 X53.927 Y-35.819 Z0.011 I-0.938 J1.181
N3975 X55.802 Y-38.181 Z-0.155 I0.938 J-1.181
N3980 X53.927 Y-35.819 Z-0.32 I-0.938 J1.181
N3985 X55.802 Y-38.181 Z-0.485 I0.938 J-1.181
N3990 X53.927 Y-35.819 Z-0.651 I-0.938 J1.181
N3995 X55.802 Y-38.181 Z-0.816 I0.938 J-1.181
N4000 X53.927 Y-35.819 Z-0.982 I-0.938 J1.181
N4005 X55.802 Y-38.181 Z-1.147 I0.938 J-1.181
N4010 X53.927 Y-35.819 Z-1.313 I-0.938 J1.181
N4015 X55.802 Y-38.181 Z-1.478 I0.938 J-1.181
N4020 X53.927 Y-35.819 Z-1.644 I-0.938 J1.181
N4025 X55.802 Y-38.181 Z-1.809 I0.938 J-1.181
N4030 X53.927 Y-35.819 Z-1.974 I-0.938 J1.181
N4035 X55.802 Y-38.181 Z-2.14 I0.938 J-1.181
N4040 X53.927 Y-35.819 Z-2.305 I-0.938 J1.181
N4045 X55.802 Y-38.181 Z-2.471 I0.938 J-1.181
N4050 X53.927 Y-35.819 Z-2.636 I-0.938 J1.181
N4055 X55.802 Y-38.181 Z-2.802 I0.938 J-1.181
N4060 X53.927 Y-35.819 Z-2.967 I-0.938 J1.181
N4065 X55.802 Y-38.181 Z-3.133 I0.938 J-1.181
N4070 X53.927 Y-35.819 Z-3.298 I-0.938 J1.181
N4075 X55.802 Y-38.181 Z-3.464 I0.938 J-1.181
N4080 X53.927 Y-35.819 Z-3.629 I-0.938 J1.181
N4085 X55.802 Y-38.181 Z-3.794 I0.938 J-1.181
N4090 X53.927 Y-35.819 Z-3.96 I-0.938 J1.181
N4095 X55.802 Y-38.181 Z-4.125 I0.938 J-1.181
N4100 X53.927 Y-35.819 Z-4.291 I-0.938 J1.181
N4105 X55.802 Y-38.181 Z-4.456 I0.938 J-1.181
N4110 X53.927 Y-35.819 Z-4.622 I-0.938 J1.181
N4115 X55.802 Y-38.181 Z-4.787 I0.938 J-1.181
N4120 X53.927 Y-35.819 Z-4.953 I-0.938 J1.181
N4125 X53.356 Y-37. Z-5. I0.938 J-1.181
N4130 X55.063 I0.853 J0.
N4135 X54.938 I-0.063 J0. F#100
N4140 X55.263 I0.162 J0.
N4145 X54.737 I-0.263 J0.
N4150 X55.463 I0.362 J0.
N4155 X54.537 I-0.463 J0.
N4160 X55.662 I0.563 J0.
N4165 X54.338 I-0.662 J0.
N4170 X55.862 I0.762 J0.
N4175 X54.138 I-0.862 J0.
N4180 X56.063 I0.962 J0.
N4185 X53.938 I-1.063 J0.
N4190 X56.263 I1.162 J0.
N4195 X53.737 I-1.263 J0.
N4200 X56.463 I1.362 J0.
N4205 X53.537 I-1.463 J0.
N4210 X56.662 I1.563 J0.
N4215 X53.338 I-1.662 J0.
N4220 X56.662 I1.662 J0.
N4225 X56.648 Y-36.944 Z-4.984 I-0.118 J0. F#104
N4230 X56.621 Y-36.91 Z-4.941 I-0.103 J-0.056
N4235 X56.608 Y-36.901 Z-4.883 I-0.076 J-0.09
N4240 G0 Z5.
N4245 X55.711 Y-14.248
N4250 Z2.
N4255 G1 Z1.617 F#103
N4260 X55.718 Y-14.243 Z1.573 F#107
N4265 G3 X55.739 Y-14.229 Z1.535 I-0.854 J1.243
N4270 X55.769 Y-14.207 Z1.509 I-0.874 J1.229
N4275 X55.802 Y-14.181 Z1.5 I-0.905 J1.207
N4280 X53.927 Y-11.819 Z1.335 I-0.938 J1.181
N4285 X55.802 Y-14.181 Z1.169 I0.938 J-1.181
N4290 X53.927 Y-11.819 Z1.004 I-0.938 J1.181
N4295 X55.802 Y-14.181 Z0.838 I0.938 J-1.181
N4300 X53.927 Y-11.819 Z0.673 I-0.938 J1.181
N4305 X55.802 Y-14.181 Z0.507 I0.938 J-1.181
N4310 X53.927 Y-11.819 Z0.342 I-0.938 J1.181
N4315 X55.802 Y-14.181 Z0.176 I0.938 J-1.181
N4320 X53.927 Y-11.819 Z0.011 I-0.938 J1.181
N4325 X55.802 Y-14.181 Z-0.155 I0.938 J-1.181
N4330 X53.927 Y-11.819 Z-0.32 I-0.938 J1.181
N4335 X55.802 Y-14.181 Z-0.485 I0.938 J-1.181
N4340 X53.927 Y-11.819 Z-0.651 I-0.938 J1.181
N4345 X55.802 Y-14.181 Z-0.816 I0.938 J-1.181
N4350 X53.927 Y-11.819 Z-0.982 I-0.938 J1.181
N4355 X55.802 Y-14.181 Z-1.147 I0.938 J-1.181
N4360 X53.927 Y-11.819 Z-1.313 I-0.938 J1.181
N4365 X55.802 Y-14.181 Z-1.478 I0.938 J-1.181
N4370 X53.927 Y-11.819 Z-1.644 I-0.938 J1.181
N4375 X55.802 Y-14.181 Z-1.809 I0.938 J-1.181
N4380 X53.927 Y-11.819 Z-1.974 I-0.938 J1.181
N4385 X55.802 Y-14.181 Z-2.14 I0.938 J-1.181
N4390 X53.927 Y-11.819 Z-2.305 I-0.938 J1.181
N4395 X55.802 Y-14.181 Z-2.471 I0.938 J-1.181
N4400 X53.927 Y-11.819 Z-2.636 I-0.938 J1.181
N4405 X55.802 Y-14.181 Z-2.802 I0.938 J-1.181
N4410 X53.927 Y-11.819 Z-2.967 I-0.938 J1.181
N4415 X55.802 Y-14.181 Z-3.133 I0.938 J-1.181
N4420 X53.927 Y-11.819 Z-3.298 I-0.938 J1.181
N4425 X55.802 Y-14.181 Z-3.464 I0.938 J-1.181
N4430 X53.927 Y-11.819 Z-3.629 I-0.938 J1.181
N4435 X55.802 Y-14.181 Z-3.794 I0.938 J-1.181
N4440 X53.927 Y-11.819 Z-3.96 I-0.938 J1.181
N4445 X55.802 Y-14.181 Z-4.125 I0.938 J-1.181
N4450 X53.927 Y-11.819 Z-4.291 I-0.938 J1.181
N4455 X55.802 Y-14.181 Z-4.456 I0.938 J-1.181
N4460 X53.927 Y-11.819 Z-4.622 I-0.938 J1.181
N4465 X55.802 Y-14.181 Z-4.787 I0.938 J-1.181
N4470 X53.927 Y-11.819 Z-4.953 I-0.938 J1.181
N4475 X53.356 Y-13. Z-5. I0.938 J-1.181
N4480 X55.063 I0.853 J0.
N4485 X54.938 I-0.063 J0. F#100
N4490 X55.263 I0.162 J0.
N4495 X54.737 I-0.263 J0.
N4500 X55.463 I0.362 J0.
N4505 X54.537 I-0.463 J0.
N4510 X55.662 I0.563 J0.
N4515 X54.338 I-0.662 J0.
N4520 X55.862 I0.762 J0.
N4525 X54.138 I-0.862 J0.
N4530 X56.063 I0.962 J0.
N4535 X53.938 I-1.063 J0.
N4540 X56.263 I1.162 J0.
N4545 X53.737 I-1.263 J0.
N4550 X56.463 I1.362 J0.
N4555 X53.537 I-1.463 J0.
N4560 X56.662 I1.563 J0.
N4565 X53.338 I-1.662 J0.
N4570 X56.662 I1.662 J0.
N4575 X56.648 Y-12.944 Z-4.984 I-0.118 J0. F#104
N4580 X56.621 Y-12.91 Z-4.941 I-0.103 J-0.056
N4585 X56.608 Y-12.901 Z-4.883 I-0.076 J-0.09
N4590 G0 Z5.
N4595 X19.608 Y-9.748
N4600 Z2.
N4605 G1 Z1.617 F#103
N4610 X19.616 Y-9.743 Z1.573 F#107
N4615 G3 X19.636 Y-9.729 Z1.535 I-0.854 J1.243
N4620 X19.667 Y-9.707 Z1.509 I-0.874 J1.229
N4625 X19.7 Y-9.681 Z1.5 I-0.905 J1.207
N4630 X17.824 Y-7.319 Z1.335 I-0.938 J1.181
N4635 X19.7 Y-9.681 Z1.169 I0.938 J-1.181
N4640 X17.824 Y-7.319 Z1.004 I-0.938 J1.181
N4645 X19.7 Y-9.681 Z0.838 I0.938 J-1.181
N4650 X17.824 Y-7.319 Z0.673 I-0.938 J1.181
N4655 X19.7 Y-9.681 Z0.507 I0.938 J-1.181
N4660 X17.824 Y-7.319 Z0.342 I-0.938 J1.181
N4665 X19.7 Y-9.681 Z0.176 I0.938 J-1.181
N4670 X17.824 Y-7.319 Z0.011 I-0.938 J1.181
N4675 X19.7 Y-9.681 Z-0.155 I0.938 J-1.181
N4680 X17.824 Y-7.319 Z-0.32 I-0.938 J1.181
N4685 X19.7 Y-9.681 Z-0.485 I0.938 J-1.181
N4690 X17.824 Y-7.319 Z-0.651 I-0.938 J1.181
N4695 X19.7 Y-9.681 Z-0.816 I0.938 J-1.181
N4700 X17.824 Y-7.319 Z-0.982 I-0.938 J1.181
N4705 X19.7 Y-9.681 Z-1.147 I0.938 J-1.181
N4710 X17.824 Y-7.319 Z-1.313 I-0.938 J1.181
N4715 X19.7 Y-9.681 Z-1.478 I0.938 J-1.181
N4720 X17.824 Y-7.319 Z-1.644 I-0.938 J1.181
N4725 X19.7 Y-9.681 Z-1.809 I0.938 J-1.181
N4730 X17.824 Y-7.319 Z-1.974 I-0.938 J1.181
N4735 X19.7 Y-9.681 Z-2.14 I0.938 J-1.181
N4740 X17.824 Y-7.319 Z-2.305 I-0.938 J1.181
N4745 X19.7 Y-9.681 Z-2.471 I0.938 J-1.181
N4750 X17.824 Y-7.319 Z-2.636 I-0.938 J1.181
N4755 X19.7 Y-9.681 Z-2.802 I0.938 J-1.181
N4760 X17.824 Y-7.319 Z-2.967 I-0.938 J1.181
N4765 X19.7 Y-9.681 Z-3.133 I0.938 J-1.181
N4770 X17.824 Y-7.319 Z-3.298 I-0.938 J1.181
N4775 X19.7 Y-9.681 Z-3.464 I0.938 J-1.181
N4780 X17.824 Y-7.319 Z-3.629 I-0.938 J1.181
N4785 X19.7 Y-9.681 Z-3.794 I0.938 J-1.181
N4790 X17.824 Y-7.319 Z-3.96 I-0.938 J1.181
N4795 X19.7 Y-9.681 Z-4.125 I0.938 J-1.181
N4800 X17.824 Y-7.319 Z-4.291 I-0.938 J1.181
N4805 X19.7 Y-9.681 Z-4.456 I0.938 J-1.181
N4810 X17.824 Y-7.319 Z-4.622 I-0.938 J1.181
N4815 X19.7 Y-9.681 Z-4.787 I0.938 J-1.181
N4820 X17.824 Y-7.319 Z-4.953 I-0.938 J1.181
N4825 X17.254 Y-8.5 Z-5. I0.938 J-1.181
N4830 X19.663 I1.204 J0.
N4835 X19.638 I-0.013 J0. F#100
N4840 X19.862 I0.112 J0.
N4845 X19.438 I-0.212 J0.
N4850 X20.063 I0.313 J0.
N4855 X19.237 I-0.413 J0.
N4860 X20.263 I0.513 J0.
N4865 X19.038 I-0.613 J0.
N4870 X20.462 I0.712 J0.
N4875 X18.837 I-0.813 J0.
N4880 X20.663 I0.913 J0.
N4885 X18.638 I-1.013 J0.
N4890 X20.862 I1.112 J0.
N4895 X18.438 I-1.212 J0.
N4900 X21.063 I1.313 J0.
N4905 X18.237 I-1.413 J0.
N4910 X21.263 I1.513 J0.
N4915 X18.038 I-1.613 J0.
N4920 X21.462 I1.712 J0.
N4925 X17.837 I-1.813 J0.
N4930 X21.663 I1.913 J0.
N4935 X17.638 I-2.013 J0.
N4940 X21.862 I2.112 J0.
N4945 X17.438 I-2.212 J0.
N4950 X22.063 I2.313 J0.
N4955 X17.237 I-2.413 J0.
N4960 X22.063 I2.413 J0.
N4965 X22.048 Y-8.444 Z-4.984 I-0.118 J0. F#104
N4970 X22.021 Y-8.41 Z-4.941 I-0.103 J-0.056
N4975 X22.008 Y-8.401 Z-4.883 I-0.076 J-0.09
N4980 G0 Z5.
N4985 X4.608 Y-9.748
N4990 Z2.
N4995 G1 Z1.617 F#103
N5000 X4.616 Y-9.743 Z1.573 F#107
N5005 G3 X4.636 Y-9.729 Z1.535 I-0.854 J1.243
N5010 X4.667 Y-9.707 Z1.509 I-0.874 J1.229
N5015 X4.7 Y-9.681 Z1.5 I-0.905 J1.207
N5020 X2.824 Y-7.319 Z1.335 I-0.938 J1.181
N5025 X4.7 Y-9.681 Z1.169 I0.938 J-1.181
N5030 X2.824 Y-7.319 Z1.004 I-0.938 J1.181
N5035 X4.7 Y-9.681 Z0.838 I0.938 J-1.181
N5040 X2.824 Y-7.319 Z0.673 I-0.938 J1.181
N5045 X4.7 Y-9.681 Z0.507 I0.938 J-1.181
N5050 X2.824 Y-7.319 Z0.342 I-0.938 J1.181
N5055 X4.7 Y-9.681 Z0.176 I0.938 J-1.181
N5060 X2.824 Y-7.319 Z0.011 I-0.938 J1.181
N5065 X4.7 Y-9.681 Z-0.155 I0.938 J-1.181
N5070 X2.824 Y-7.319 Z-0.32 I-0.938 J1.181
N5075 X4.7 Y-9.681 Z-0.485 I0.938 J-1.181
N5080 X2.824 Y-7.319 Z-0.651 I-0.938 J1.181
N5085 X4.7 Y-9.681 Z-0.816 I0.938 J-1.181
N5090 X2.824 Y-7.319 Z-0.982 I-0.938 J1.181
N5095 X4.7 Y-9.681 Z-1.147 I0.938 J-1.181
N5100 X2.824 Y-7.319 Z-1.313 I-0.938 J1.181
N5105 X4.7 Y-9.681 Z-1.478 I0.938 J-1.181
N5110 X2.824 Y-7.319 Z-1.644 I-0.938 J1.181
N5115 X4.7 Y-9.681 Z-1.809 I0.938 J-1.181
N5120 X2.824 Y-7.319 Z-1.974 I-0.938 J1.181
N5125 X4.7 Y-9.681 Z-2.14 I0.938 J-1.181
N5130 X2.824 Y-7.319 Z-2.305 I-0.938 J1.181
N5135 X4.7 Y-9.681 Z-2.471 I0.938 J-1.181
N5140 X2.824 Y-7.319 Z-2.636 I-0.938 J1.181
N5145 X4.7 Y-9.681 Z-2.802 I0.938 J-1.181
N5150 X2.824 Y-7.319 Z-2.967 I-0.938 J1.181
N5155 X4.7 Y-9.681 Z-3.133 I0.938 J-1.181
N5160 X2.824 Y-7.319 Z-3.298 I-0.938 J1.181
N5165 X4.7 Y-9.681 Z-3.464 I0.938 J-1.181
N5170 X2.824 Y-7.319 Z-3.629 I-0.938 J1.181
N5175 X4.7 Y-9.681 Z-3.794 I0.938 J-1.181
N5180 X2.824 Y-7.319 Z-3.96 I-0.938 J1.181
N5185 X4.7 Y-9.681 Z-4.125 I0.938 J-1.181
N5190 X2.824 Y-7.319 Z-4.291 I-0.938 J1.181
N5195 X4.7 Y-9.681 Z-4.456 I0.938 J-1.181
N5200 X2.824 Y-7.319 Z-4.622 I-0.938 J1.181
N5205 X4.7 Y-9.681 Z-4.787 I0.938 J-1.181
N5210 X2.824 Y-7.319 Z-4.953 I-0.938 J1.181
N5215 X2.254 Y-8.5 Z-5. I0.938 J-1.181
N5220 X4.662 I1.204 J0.
N5225 X4.637 I-0.012 J0. F#100
N5230 X4.863 I0.113 J0.
N5235 X4.438 I-0.213 J0.
N5240 X5.063 I0.313 J0.
N5245 X4.238 I-0.412 J0.
N5250 X5.262 I0.512 J0.
N5255 X4.037 I-0.612 J0.
N5260 X5.463 I0.713 J0.
N5265 X3.838 I-0.813 J0.
N5270 X5.662 I0.912 J0.
N5275 X3.638 I-1.012 J0.
N5280 X5.863 I1.112 J0.
N5285 X3.438 I-1.213 J0.
N5290 X6.063 I1.313 J0.
N5295 X3.237 I-1.412 J0.
N5300 X6.262 I1.513 J0.
N5305 X3.037 I-1.612 J0.
N5310 X6.463 I1.713 J0.
N5315 X2.838 I-1.813 J0.
N5320 X6.662 I1.912 J0.
N5325 X2.638 I-2.012 J0.
N5330 X6.863 I2.112 J0.
N5335 X2.438 I-2.213 J0.
N5340 X7.063 I2.313 J0.
N5345 X2.238 I-2.412 J0.
N5350 X7.063 I2.412 J0.
N5355 X7.048 Y-8.444 Z-4.984 I-0.117 J0. F#104
N5360 X7.021 Y-8.41 Z-4.941 I-0.103 J-0.056
N5365 X7.008 Y-8.401 Z-4.883 I-0.076 J-0.09
N5370 G0 Z5.
N5375 X4.608 Y-29.748
N5380 Z2.
N5385 G1 Z1.617 F#103
N5390 X4.616 Y-29.743 Z1.573 F#107
N5395 G3 X4.636 Y-29.729 Z1.535 I-0.854 J1.243
N5400 X4.667 Y-29.706 Z1.509 I-0.874 J1.229
N5405 X4.7 Y-29.681 Z1.5 I-0.905 J1.206
N5410 X2.824 Y-27.319 Z1.335 I-0.938 J1.181
N5415 X4.7 Y-29.681 Z1.169 I0.938 J-1.181
N5420 X2.824 Y-27.319 Z1.004 I-0.938 J1.181
N5425 X4.7 Y-29.681 Z0.838 I0.938 J-1.181
N5430 X2.824 Y-27.319 Z0.673 I-0.938 J1.181
N5435 X4.7 Y-29.681 Z0.507 I0.938 J-1.181
N5440 X2.824 Y-27.319 Z0.342 I-0.938 J1.181
N5445 X4.7 Y-29.681 Z0.176 I0.938 J-1.181
N5450 X2.824 Y-27.319 Z0.011 I-0.938 J1.181
N5455 X4.7 Y-29.681 Z-0.155 I0.938 J-1.181
N5460 X2.824 Y-27.319 Z-0.32 I-0.938 J1.181
N5465 X4.7 Y-29.681 Z-0.485 I0.938 J-1.181
N5470 X2.824 Y-27.319 Z-0.651 I-0.938 J1.181
N5475 X4.7 Y-29.681 Z-0.816 I0.938 J-1.181
N5480 X2.824 Y-27.319 Z-0.982 I-0.938 J1.181
N5485 X4.7 Y-29.681 Z-1.147 I0.938 J-1.181
N5490 X2.824 Y-27.319 Z-1.313 I-0.938 J1.181
N5495 X4.7 Y-29.681 Z-1.478 I0.938 J-1.181
N5500 X2.824 Y-27.319 Z-1.644 I-0.938 J1.181
N5505 X4.7 Y-29.681 Z-1.809 I0.938 J-1.181
N5510 X2.824 Y-27.319 Z-1.974 I-0.938 J1.181
N5515 X4.7 Y-29.681 Z-2.14 I0.938 J-1.181
N5520 X2.824 Y-27.319 Z-2.305 I-0.938 J1.181
N5525 X4.7 Y-29.681 Z-2.471 I0.938 J-1.181
N5530 X2.824 Y-27.319 Z-2.636 I-0.938 J1.181
N5535 X4.7 Y-29.681 Z-2.802 I0.938 J-1.181
N5540 X2.824 Y-27.319 Z-2.967 I-0.938 J1.181
N5545 X4.7 Y-29.681 Z-3.133 I0.938 J-1.181
N5550 X2.824 Y-27.319 Z-3.298 I-0.938 J1.181
N5555 X4.7 Y-29.681 Z-3.464 I0.938 J-1.181
N5560 X2.824 Y-27.319 Z-3.629 I-0.938 J1.181
N5565 X4.7 Y-29.681 Z-3.794 I0.938 J-1.181
N5570 X2.824 Y-27.319 Z-3.96 I-0.938 J1.181
N5575 X4.7 Y-29.681 Z-4.125 I0.938 J-1.181
N5580 X2.824 Y-27.319 Z-4.291 I-0.938 J1.181
N5585 X4.7 Y-29.681 Z-4.456 I0.938 J-1.181
N5590 X2.824 Y-27.319 Z-4.622 I-0.938 J1.181
N5595 X4.7 Y-29.681 Z-4.787 I0.938 J-1.181
N5600 X2.824 Y-27.319 Z-4.953 I-0.938 J1.181
N5605 X2.254 Y-28.5 Z-5. I0.938 J-1.181
N5610 X4.662 I1.204 J0.
N5615 X4.637 I-0.012 J0. F#100
N5620 X4.863 I0.113 J0.
N5625 X4.438 I-0.213 J0.
N5630 X5.063 I0.313 J0.
N5635 X4.238 I-0.412 J0.
N5640 X5.262 I0.512 J0.
N5645 X4.037 I-0.612 J0.
N5650 X5.463 I0.713 J0.
N5655 X3.838 I-0.813 J0.
N5660 X5.662 I0.912 J0.
N5665 X3.638 I-1.012 J0.
N5670 X5.863 I1.112 J0.
N5675 X3.438 I-1.213 J0.
N5680 X6.063 I1.313 J0.
N5685 X3.237 I-1.412 J0.
N5690 X6.262 I1.513 J0.
N5695 X3.037 I-1.612 J0.
N5700 X6.463 I1.713 J0.
N5705 X2.838 I-1.813 J0.
N5710 X6.662 I1.912 J0.
N5715 X2.638 I-2.012 J0.
N5720 X6.863 I2.112 J0.
N5725 X2.438 I-2.213 J0.
N5730 X7.063 I2.313 J0.
N5735 X2.238 I-2.412 J0.
N5740 X7.063 I2.412 J0.
N5745 X7.048 Y-28.444 Z-4.984 I-0.117 J0. F#104
N5750 X7.021 Y-28.41 Z-4.941 I-0.103 J-0.056
N5755 X7.008 Y-28.401 Z-4.883 I-0.076 J-0.09
N5760 G0 Z5.
N5765 X10.711 Y-38.248
N5770 Z2.
N5775 G1 Z1.617 F#103
N5780 X10.718 Y-38.243 Z1.573 F#107
N5785 G3 X10.739 Y-38.229 Z1.535 I-0.854 J1.243
N5790 X10.769 Y-38.207 Z1.509 I-0.874 J1.229
N5795 X10.802 Y-38.181 Z1.5 I-0.905 J1.207
N5800 X8.927 Y-35.819 Z1.335 I-0.938 J1.181
N5805 X10.802 Y-38.181 Z1.169 I0.938 J-1.181
N5810 X8.927 Y-35.819 Z1.004 I-0.938 J1.181
N5815 X10.802 Y-38.181 Z0.838 I0.938 J-1.181
N5820 X8.927 Y-35.819 Z0.673 I-0.938 J1.181
N5825 X10.802 Y-38.181 Z0.507 I0.938 J-1.181
N5830 X8.927 Y-35.819 Z0.342 I-0.938 J1.181
N5835 X10.802 Y-38.181 Z0.176 I0.938 J-1.181
N5840 X8.927 Y-35.819 Z0.011 I-0.938 J1.181
N5845 X10.802 Y-38.181 Z-0.155 I0.938 J-1.181
N5850 X8.927 Y-35.819 Z-0.32 I-0.938 J1.181
N5855 X10.802 Y-38.181 Z-0.485 I0.938 J-1.181
N5860 X8.927 Y-35.819 Z-0.651 I-0.938 J1.181
N5865 X10.802 Y-38.181 Z-0.816 I0.938 J-1.181
N5870 X8.927 Y-35.819 Z-0.982 I-0.938 J1.181
N5875 X10.802 Y-38.181 Z-1.147 I0.938 J-1.181
N5880 X8.927 Y-35.819 Z-1.313 I-0.938 J1.181
N5885 X10.802 Y-38.181 Z-1.478 I0.938 J-1.181
N5890 X8.927 Y-35.819 Z-1.644 I-0.938 J1.181
N5895 X10.802 Y-38.181 Z-1.809 I0.938 J-1.181
N5900 X8.927 Y-35.819 Z-1.974 I-0.938 J1.181
N5905 X10.802 Y-38.181 Z-2.14 I0.938 J-1.181
N5910 X8.927 Y-35.819 Z-2.305 I-0.938 J1.181
N5915 X10.802 Y-38.181 Z-2.471 I0.938 J-1.181
N5920 X8.927 Y-35.819 Z-2.636 I-0.938 J1.181
N5925 X10.802 Y-38.181 Z-2.802 I0.938 J-1.181
N5930 X8.927 Y-35.819 Z-2.967 I-0.938 J1.181
N5935 X10.802 Y-38.181 Z-3.133 I0.938 J-1.181
N5940 X8.927 Y-35.819 Z-3.298 I-0.938 J1.181
N5945 X10.802 Y-38.181 Z-3.464 I0.938 J-1.181
N5950 X8.927 Y-35.819 Z-3.629 I-0.938 J1.181
N5955 X10.802 Y-38.181 Z-3.794 I0.938 J-1.181
N5960 X8.927 Y-35.819 Z-3.96 I-0.938 J1.181
N5965 X10.802 Y-38.181 Z-4.125 I0.938 J-1.181
N5970 X8.927 Y-35.819 Z-4.291 I-0.938 J1.181
N5975 X10.802 Y-38.181 Z-4.456 I0.938 J-1.181
N5980 X8.927 Y-35.819 Z-4.622 I-0.938 J1.181
N5985 X10.802 Y-38.181 Z-4.787 I0.938 J-1.181
N5990 X8.927 Y-35.819 Z-4.953 I-0.938 J1.181
N5995 X8.356 Y-37. Z-5. I0.938 J-1.181
N6000 X10.063 I0.853 J0.
N6005 X9.938 I-0.063 J0. F#100
N6010 X10.262 I0.163 J0.
N6015 X9.738 I-0.262 J0.
N6020 X10.462 I0.363 J0.
N6025 X9.538 I-0.462 J0.
N6030 X10.663 I0.563 J0.
N6035 X9.337 I-0.663 J0.
N6040 X10.863 I0.763 J0.
N6045 X9.137 I-0.863 J0.
N6050 X11.063 I0.963 J0.
N6055 X8.938 I-1.063 J0.
N6060 X11.262 I1.163 J0.
N6065 X8.738 I-1.262 J0.
N6070 X11.462 I1.363 J0.
N6075 X8.538 I-1.462 J0.
N6080 X11.663 I1.563 J0.
N6085 X8.337 I-1.663 J0.
N6090 X11.663 I1.663 J0.
N6095 X11.648 Y-36.944 Z-4.984 I-0.118 J0. F#104
N6100 X11.621 Y-36.91 Z-4.941 I-0.103 J-0.056
N6105 X11.608 Y-36.901 Z-4.883 I-0.076 J-0.09
N6110 G0 Z5.
N6115 X19.608 Y-29.748
N6120 Z2.
N6125 G1 Z1.617 F#103
N6130 X19.616 Y-29.743 Z1.573 F#107
N6135 G3 X19.636 Y-29.729 Z1.535 I-0.854 J1.243
N6140 X19.667 Y-29.706 Z1.509 I-0.874 J1.229
N6145 X19.7 Y-29.681 Z1.5 I-0.905 J1.206
N6150 X17.824 Y-27.319 Z1.335 I-0.938 J1.181
N6155 X19.7 Y-29.681 Z1.169 I0.938 J-1.181
N6160 X17.824 Y-27.319 Z1.004 I-0.938 J1.181
N6165 X19.7 Y-29.681 Z0.838 I0.938 J-1.181
N6170 X17.824 Y-27.319 Z0.673 I-0.938 J1.181
N6175 X19.7 Y-29.681 Z0.507 I0.938 J-1.181
N6180 X17.824 Y-27.319 Z0.342 I-0.938 J1.181
N6185 X19.7 Y-29.681 Z0.176 I0.938 J-1.181
N6190 X17.824 Y-27.319 Z0.011 I-0.938 J1.181
N6195 X19.7 Y-29.681 Z-0.155 I0.938 J-1.181
N6200 X17.824 Y-27.319 Z-0.32 I-0.938 J1.181
N6205 X19.7 Y-29.681 Z-0.485 I0.938 J-1.181
N6210 X17.824 Y-27.319 Z-0.651 I-0.938 J1.181
N6215 X19.7 Y-29.681 Z-0.816 I0.938 J-1.181
N6220 X17.824 Y-27.319 Z-0.982 I-0.938 J1.181
N6225 X19.7 Y-29.681 Z-1.147 I0.938 J-1.181
N6230 X17.824 Y-27.319 Z-1.313 I-0.938 J1.181
N6235 X19.7 Y-29.681 Z-1.478 I0.938 J-1.181
N6240 X17.824 Y-27.319 Z-1.644 I-0.938 J1.181
N6245 X19.7 Y-29.681 Z-1.809 I0.938 J-1.181
N6250 X17.824 Y-27.319 Z-1.974 I-0.938 J1.181
N6255 X19.7 Y-29.681 Z-2.14 I0.938 J-1.181
N6260 X17.824 Y-27.319 Z-2.305 I-0.938 J1.181
N6265 X19.7 Y-29.681 Z-2.471 I0.938 J-1.181
N6270 X17.824 Y-27.319 Z-2.636 I-0.938 J1.181
N6275 X19.7 Y-29.681 Z-2.802 I0.938 J-1.181
N6280 X17.824 Y-27.319 Z-2.967 I-0.938 J1.181
N6285 X19.7 Y-29.681 Z-3.133 I0.938 J-1.181
N6290 X17.824 Y-27.319 Z-3.298 I-0.938 J1.181
N6295 X19.7 Y-29.681 Z-3.464 I0.938 J-1.181
N6300 X17.824 Y-27.319 Z-3.629 I-0.938 J1.181
N6305 X19.7 Y-29.681 Z-3.794 I0.938 J-1.181
N6310 X17.824 Y-27.319 Z-3.96 I-0.938 J1.181
N6315 X19.7 Y-29.681 Z-4.125 I0.938 J-1.181
N6320 X17.824 Y-27.319 Z-4.291 I-0.938 J1.181
N6325 X19.7 Y-29.681 Z-4.456 I0.938 J-1.181
N6330 X17.824 Y-27.319 Z-4.622 I-0.938 J1.181
N6335 X19.7 Y-29.681 Z-4.787 I0.938 J-1.181
N6340 X17.824 Y-27.319 Z-4.953 I-0.938 J1.181
N6345 X17.254 Y-28.5 Z-5. I0.938 J-1.181
N6350 X19.663 I1.204 J0.
N6355 X19.638 I-0.013 J0. F#100
N6360 X19.862 I0.112 J0.
N6365 X19.438 I-0.212 J0.
N6370 X20.063 I0.313 J0.
N6375 X19.237 I-0.413 J0.
N6380 X20.263 I0.513 J0.
N6385 X19.038 I-0.613 J0.
N6390 X20.462 I0.712 J0.
N6395 X18.837 I-0.813 J0.
N6400 X20.663 I0.913 J0.
N6405 X18.638 I-1.013 J0.
N6410 X20.862 I1.112 J0.
N6415 X18.438 I-1.212 J0.
N6420 X21.063 I1.313 J0.
N6425 X18.237 I-1.413 J0.
N6430 X21.263 I1.513 J0.
N6435 X18.038 I-1.613 J0.
N6440 X21.462 I1.712 J0.
N6445 X17.837 I-1.813 J0.
N6450 X21.663 I1.913 J0.
N6455 X17.638 I-2.013 J0.
N6460 X21.862 I2.112 J0.
N6465 X17.438 I-2.212 J0.
N6470 X22.063 I2.313 J0.
N6475 X17.237 I-2.413 J0.
N6480 X22.063 I2.413 J0.
N6485 X22.048 Y-28.444 Z-4.984 I-0.118 J0. F#104
N6490 X22.021 Y-28.41 Z-4.941 I-0.103 J-0.056
N6495 X22.008 Y-28.401 Z-4.883 I-0.076 J-0.09
N6500 G0 Z10.
(2D POCKET1 2)
N6510 M8
N6515 G0 X19.323 Y-8.249
N6520 #100=600. (CUTTING)
N6525 #103=600. (ENTRY)
N6530 #104=600. (EXIT)
N6535 #107=500. (RAMPING)
N6540 Z10.
N6545 Z2.
N6550 G1 Z1.617 F#103
N6555 G3 X19.314 Y-8.261 Z1.56 I0.327 J-0.251 F#107
N6560 X19.292 Y-8.296 Z1.517 I0.336 J-0.239
N6565 X19.267 Y-8.347 Z1.5 I0.358 J-0.204
N6570 X20.033 Y-8.653 Z1.455 I0.383 J-0.153
N6575 X19.267 Y-8.347 Z1.409 I-0.383 J0.153
N6580 X20.033 Y-8.653 Z1.364 I0.383 J-0.153
N6585 X19.267 Y-8.347 Z1.319 I-0.383 J0.153
N6590 X20.033 Y-8.653 Z1.274 I0.383 J-0.153
N6595 X19.267 Y-8.347 Z1.228 I-0.383 J0.153
N6600 X20.033 Y-8.653 Z1.183 I0.383 J-0.153
N6605 X19.267 Y-8.347 Z1.138 I-0.383 J0.153
N6610 X20.033 Y-8.653 Z1.093 I0.383 J-0.153
N6615 X19.267 Y-8.347 Z1.047 I-0.383 J0.153
N6620 X20.033 Y-8.653 Z1.002 I0.383 J-0.153
N6625 X19.267 Y-8.347 Z0.957 I-0.383 J0.153
N6630 X20.033 Y-8.653 Z0.912 I0.383 J-0.153
N6635 X19.267 Y-8.347 Z0.866 I-0.383 J0.153
N6640 X20.033 Y-8.653 Z0.821 I0.383 J-0.153
N6645 X19.267 Y-8.347 Z0.776 I-0.383 J0.153
N6650 X20.033 Y-8.653 Z0.731 I0.383 J-0.153
N6655 X19.267 Y-8.347 Z0.685 I-0.383 J0.153
N6660 X20.033 Y-8.653 Z0.64 I0.383 J-0.153
N6665 X19.267 Y-8.347 Z0.595 I-0.383 J0.153
N6670 X20.033 Y-8.653 Z0.55 I0.383 J-0.153
N6675 X19.267 Y-8.347 Z0.504 I-0.383 J0.153
N6680 X20.033 Y-8.653 Z0.459 I0.383 J-0.153
N6685 X19.267 Y-8.347 Z0.414 I-0.383 J0.153
N6690 X20.033 Y-8.653 Z0.369 I0.383 J-0.153
N6695 X19.267 Y-8.347 Z0.323 I-0.383 J0.153
N6700 X20.033 Y-8.653 Z0.278 I0.383 J-0.153
N6705 X19.267 Y-8.347 Z0.233 I-0.383 J0.153
N6710 X20.033 Y-8.653 Z0.188 I0.383 J-0.153
N6715 X19.267 Y-8.347 Z0.142 I-0.383 J0.153
N6720 X20.033 Y-8.653 Z0.097 I0.383 J-0.153
N6725 X19.267 Y-8.347 Z0.052 I-0.383 J0.153
N6730 X20.033 Y-8.653 Z0.007 I0.383 J-0.153
N6735 X19.267 Y-8.347 Z-0.039 I-0.383 J0.153
N6740 X20.033 Y-8.653 Z-0.084 I0.383 J-0.153
N6745 X19.267 Y-8.347 Z-0.129 I-0.383 J0.153
N6750 X20.033 Y-8.653 Z-0.174 I0.383 J-0.153
N6755 X19.267 Y-8.347 Z-0.22 I-0.383 J0.153
N6760 X20.033 Y-8.653 Z-0.265 I0.383 J-0.153
N6765 X19.267 Y-8.347 Z-0.31 I-0.383 J0.153
N6770 X20.033 Y-8.653 Z-0.355 I0.383 J-0.153
N6775 X19.267 Y-8.347 Z-0.401 I-0.383 J0.153
N6780 X20.033 Y-8.653 Z-0.446 I0.383 J-0.153
N6785 X19.267 Y-8.347 Z-0.491 I-0.383 J0.153
N6790 X20.033 Y-8.653 Z-0.536 I0.383 J-0.153
N6795 X19.267 Y-8.347 Z-0.582 I-0.383 J0.153
N6800 X20.033 Y-8.653 Z-0.627 I0.383 J-0.153
N6805 X19.267 Y-8.347 Z-0.672 I-0.383 J0.153
N6810 X20.033 Y-8.653 Z-0.717 I0.383 J-0.153
N6815 X19.267 Y-8.347 Z-0.763 I-0.383 J0.153
N6820 X20.033 Y-8.653 Z-0.808 I0.383 J-0.153
N6825 X19.267 Y-8.347 Z-0.853 I-0.383 J0.153
N6830 X20.033 Y-8.653 Z-0.898 I0.383 J-0.153
N6835 X19.267 Y-8.347 Z-0.944 I-0.383 J0.153
N6840 X20.033 Y-8.653 Z-0.989 I0.383 J-0.153
N6845 X19.267 Y-8.347 Z-1.034 I-0.383 J0.153
N6850 X20.033 Y-8.653 Z-1.079 I0.383 J-0.153
N6855 X19.267 Y-8.347 Z-1.125 I-0.383 J0.153
N6860 X20.033 Y-8.653 Z-1.17 I0.383 J-0.153
N6865 X19.267 Y-8.347 Z-1.215 I-0.383 J0.153
N6870 X20.033 Y-8.653 Z-1.26 I0.383 J-0.153
N6875 X19.267 Y-8.347 Z-1.306 I-0.383 J0.153
N6880 X20.033 Y-8.653 Z-1.351 I0.383 J-0.153
N6885 X19.267 Y-8.347 Z-1.396 I-0.383 J0.153
N6890 X20.033 Y-8.653 Z-1.442 I0.383 J-0.153
N6895 X19.267 Y-8.347 Z-1.487 I-0.383 J0.153
N6900 X20.033 Y-8.653 Z-1.532 I0.383 J-0.153
N6905 X19.267 Y-8.347 Z-1.577 I-0.383 J0.153
N6910 X20.033 Y-8.653 Z-1.623 I0.383 J-0.153
N6915 X19.267 Y-8.347 Z-1.668 I-0.383 J0.153
N6920 X20.033 Y-8.653 Z-1.713 I0.383 J-0.153
N6925 X19.267 Y-8.347 Z-1.758 I-0.383 J0.153
N6930 X20.033 Y-8.653 Z-1.804 I0.383 J-0.153
N6935 X19.267 Y-8.347 Z-1.849 I-0.383 J0.153
N6940 X20.033 Y-8.653 Z-1.894 I0.383 J-0.153
N6945 X19.267 Y-8.347 Z-1.939 I-0.383 J0.153
N6950 X20.033 Y-8.653 Z-1.985 I0.383 J-0.153
N6955 X19.267 Y-8.347 Z-2.03 I-0.383 J0.153
N6960 X20.033 Y-8.653 Z-2.075 I0.383 J-0.153
N6965 X19.267 Y-8.347 Z-2.12 I-0.383 J0.153
N6970 X20.033 Y-8.653 Z-2.166 I0.383 J-0.153
N6975 X19.267 Y-8.347 Z-2.211 I-0.383 J0.153
N6980 X20.033 Y-8.653 Z-2.256 I0.383 J-0.153
N6985 X19.267 Y-8.347 Z-2.301 I-0.383 J0.153
N6990 X20.033 Y-8.653 Z-2.347 I0.383 J-0.153
N6995 X19.267 Y-8.347 Z-2.392 I-0.383 J0.153
N7000 X20.033 Y-8.653 Z-2.437 I0.383 J-0.153
N7005 X19.267 Y-8.347 Z-2.482 I-0.383 J0.153
N7010 X20.033 Y-8.653 Z-2.528 I0.383 J-0.153
N7015 X19.267 Y-8.347 Z-2.573 I-0.383 J0.153
N7020 X20.033 Y-8.653 Z-2.618 I0.383 J-0.153
N7025 X19.267 Y-8.347 Z-2.663 I-0.383 J0.153
N7030 X20.033 Y-8.653 Z-2.709 I0.383 J-0.153
N7035 X19.267 Y-8.347 Z-2.754 I-0.383 J0.153
N7040 X20.033 Y-8.653 Z-2.799 I0.383 J-0.153
N7045 X19.267 Y-8.347 Z-2.844 I-0.383 J0.153
N7050 X20.033 Y-8.653 Z-2.89 I0.383 J-0.153
N7055 X19.267 Y-8.347 Z-2.935 I-0.383 J0.153
N7060 X20.033 Y-8.653 Z-2.98 I0.383 J-0.153
N7065 X19.267 Y-8.347 Z-3.025 I-0.383 J0.153
N7070 X20.033 Y-8.653 Z-3.071 I0.383 J-0.153
N7075 X19.267 Y-8.347 Z-3.116 I-0.383 J0.153
N7080 X20.033 Y-8.653 Z-3.161 I0.383 J-0.153
N7085 X19.267 Y-8.347 Z-3.206 I-0.383 J0.153
N7090 X20.033 Y-8.653 Z-3.252 I0.383 J-0.153
N7095 X19.267 Y-8.347 Z-3.297 I-0.383 J0.153
N7100 X20.033 Y-8.653 Z-3.342 I0.383 J-0.153
N7105 X19.267 Y-8.347 Z-3.387 I-0.383 J0.153
N7110 X20.033 Y-8.653 Z-3.433 I0.383 J-0.153
N7115 X19.267 Y-8.347 Z-3.478 I-0.383 J0.153
N7120 X20.033 Y-8.653 Z-3.523 I0.383 J-0.153
N7125 X19.267 Y-8.347 Z-3.568 I-0.383 J0.153
N7130 X20.033 Y-8.653 Z-3.614 I0.383 J-0.153
N7135 X19.267 Y-8.347 Z-3.659 I-0.383 J0.153
N7140 X20.033 Y-8.653 Z-3.704 I0.383 J-0.153
N7145 X19.267 Y-8.347 Z-3.749 I-0.383 J0.153
N7150 X20.033 Y-8.653 Z-3.795 I0.383 J-0.153
N7155 X19.267 Y-8.347 Z-3.84 I-0.383 J0.153
N7160 X20.033 Y-8.653 Z-3.885 I0.383 J-0.153
N7165 X19.267 Y-8.347 Z-3.93 I-0.383 J0.153
N7170 X20.033 Y-8.653 Z-3.976 I0.383 J-0.153
N7175 X19.267 Y-8.347 Z-4.021 I-0.383 J0.153
N7180 X20.033 Y-8.653 Z-4.066 I0.383 J-0.153
N7185 X19.267 Y-8.347 Z-4.112 I-0.383 J0.153
N7190 X20.033 Y-8.653 Z-4.157 I0.383 J-0.153
N7195 X19.267 Y-8.347 Z-4.202 I-0.383 J0.153
N7200 X20.033 Y-8.653 Z-4.247 I0.383 J-0.153
N7205 X19.267 Y-8.347 Z-4.293 I-0.383 J0.153
N7210 X20.033 Y-8.653 Z-4.338 I0.383 J-0.153
N7215 X19.267 Y-8.347 Z-4.383 I-0.383 J0.153
N7220 X20.033 Y-8.653 Z-4.428 I0.383 J-0.153
N7225 X19.267 Y-8.347 Z-4.474 I-0.383 J0.153
N7230 X20.033 Y-8.653 Z-4.519 I0.383 J-0.153
N7235 X19.267 Y-8.347 Z-4.564 I-0.383 J0.153
N7240 X20.033 Y-8.653 Z-4.609 I0.383 J-0.153
N7245 X19.267 Y-8.347 Z-4.655 I-0.383 J0.153
N7250 X20.033 Y-8.653 Z-4.7 I0.383 J-0.153
N7255 X19.267 Y-8.347 Z-4.745 I-0.383 J0.153
N7260 X20.033 Y-8.653 Z-4.79 I0.383 J-0.153
N7265 X19.267 Y-8.347 Z-4.836 I-0.383 J0.153
N7270 X20.033 Y-8.653 Z-4.881 I0.383 J-0.153
N7275 X19.267 Y-8.347 Z-4.926 I-0.383 J0.153
N7280 X20.033 Y-8.653 Z-4.971 I0.383 J-0.153
N7285 X19.267 Y-8.347 Z-5.017 I-0.383 J0.153
N7290 X20.033 Y-8.653 Z-5.062 I0.383 J-0.153
N7295 X19.267 Y-8.347 Z-5.107 I-0.383 J0.153
N7300 X20.033 Y-8.653 Z-5.152 I0.383 J-0.153
N7305 X19.267 Y-8.347 Z-5.198 I-0.383 J0.153
N7310 X20.033 Y-8.653 Z-5.243 I0.383 J-0.153
N7315 X19.267 Y-8.347 Z-5.288 I-0.383 J0.153
N7320 X20.033 Y-8.653 Z-5.333 I0.383 J-0.153
N7325 X19.267 Y-8.347 Z-5.379 I-0.383 J0.153
N7330 X20.033 Y-8.653 Z-5.424 I0.383 J-0.153
N7335 X19.267 Y-8.347 Z-5.469 I-0.383 J0.153
N7340 X20.033 Y-8.653 Z-5.514 I0.383 J-0.153
N7345 X19.267 Y-8.347 Z-5.56 I-0.383 J0.153
N7350 X20.033 Y-8.653 Z-5.605 I0.383 J-0.153
N7355 X19.267 Y-8.347 Z-5.65 I-0.383 J0.153
N7360 X20.033 Y-8.653 Z-5.695 I0.383 J-0.153
N7365 X19.267 Y-8.347 Z-5.741 I-0.383 J0.153
N7370 X20.033 Y-8.653 Z-5.786 I0.383 J-0.153
N7375 X19.267 Y-8.347 Z-5.831 I-0.383 J0.153
N7380 X20.033 Y-8.653 Z-5.876 I0.383 J-0.153
N7385 X19.267 Y-8.347 Z-5.922 I-0.383 J0.153
N7390 X20.033 Y-8.653 Z-5.967 I0.383 J-0.153
N7395 X19.267 Y-8.347 Z-6.012 I-0.383 J0.153
N7400 X20.033 Y-8.653 Z-6.057 I0.383 J-0.153
N7405 X19.267 Y-8.347 Z-6.103 I-0.383 J0.153
N7410 X20.033 Y-8.653 Z-6.148 I0.383 J-0.153
N7415 X19.267 Y-8.347 Z-6.193 I-0.383 J0.153
N7420 X20.033 Y-8.653 Z-6.238 I0.383 J-0.153
N7425 X19.267 Y-8.347 Z-6.284 I-0.383 J0.153
N7430 X20.033 Y-8.653 Z-6.329 I0.383 J-0.153
N7435 X19.267 Y-8.347 Z-6.374 I-0.383 J0.153
N7440 X20.033 Y-8.653 Z-6.419 I0.383 J-0.153
N7445 X19.267 Y-8.347 Z-6.465 I-0.383 J0.153
N7450 X20.033 Y-8.653 Z-6.51 I0.383 J-0.153
N7455 X19.267 Y-8.347 Z-6.555 I-0.383 J0.153
N7460 X20.033 Y-8.653 Z-6.6 I0.383 J-0.153
N7465 X19.267 Y-8.347 Z-6.646 I-0.383 J0.153
N7470 X20.033 Y-8.653 Z-6.691 I0.383 J-0.153
N7475 X19.267 Y-8.347 Z-6.736 I-0.383 J0.153
N7480 X20.033 Y-8.653 Z-6.781 I0.383 J-0.153
N7485 X19.267 Y-8.347 Z-6.827 I-0.383 J0.153
N7490 X20.033 Y-8.653 Z-6.872 I0.383 J-0.153
N7495 X19.267 Y-8.347 Z-6.917 I-0.383 J0.153
N7500 X20.033 Y-8.653 Z-6.963 I0.383 J-0.153
N7505 X19.267 Y-8.347 Z-7.008 I-0.383 J0.153
N7510 X20.033 Y-8.653 Z-7.053 I0.383 J-0.153
N7515 X19.267 Y-8.347 Z-7.098 I-0.383 J0.153
N7520 X20.033 Y-8.653 Z-7.144 I0.383 J-0.153
N7525 X19.267 Y-8.347 Z-7.189 I-0.383 J0.153
N7530 X20.033 Y-8.653 Z-7.234 I0.383 J-0.153
N7535 X19.267 Y-8.347 Z-7.279 I-0.383 J0.153
N7540 X20.033 Y-8.653 Z-7.325 I0.383 J-0.153
N7545 X19.267 Y-8.347 Z-7.37 I-0.383 J0.153
N7550 X20.033 Y-8.653 Z-7.415 I0.383 J-0.153
N7555 X19.267 Y-8.347 Z-7.46 I-0.383 J0.153
N7560 X20.033 Y-8.653 Z-7.506 I0.383 J-0.153
N7565 X19.267 Y-8.347 Z-7.551 I-0.383 J0.153
N7570 X20.033 Y-8.653 Z-7.596 I0.383 J-0.153
N7575 X19.267 Y-8.347 Z-7.641 I-0.383 J0.153
N7580 X20.033 Y-8.653 Z-7.687 I0.383 J-0.153
N7585 X19.267 Y-8.347 Z-7.732 I-0.383 J0.153
N7590 X20.033 Y-8.653 Z-7.777 I0.383 J-0.153
N7595 X19.267 Y-8.347 Z-7.822 I-0.383 J0.153
N7600 X20.033 Y-8.653 Z-7.868 I0.383 J-0.153
N7605 X19.267 Y-8.347 Z-7.913 I-0.383 J0.153
N7610 X20.033 Y-8.653 Z-7.958 I0.383 J-0.153
N7615 X19.267 Y-8.347 Z-8.003 I-0.383 J0.153
N7620 X20.033 Y-8.653 Z-8.049 I0.383 J-0.153
N7625 X19.267 Y-8.347 Z-8.094 I-0.383 J0.153
N7630 X20.033 Y-8.653 Z-8.139 I0.383 J-0.153
N7635 X19.267 Y-8.347 Z-8.184 I-0.383 J0.153
N7640 X20.033 Y-8.653 Z-8.23 I0.383 J-0.153
N7645 X19.267 Y-8.347 Z-8.275 I-0.383 J0.153
N7650 X20.033 Y-8.653 Z-8.32 I0.383 J-0.153
N7655 X19.267 Y-8.347 Z-8.365 I-0.383 J0.153
N7660 X20.033 Y-8.653 Z-8.411 I0.383 J-0.153
N7665 X19.267 Y-8.347 Z-8.456 I-0.383 J0.153
N7670 X20.033 Y-8.653 Z-8.501 I0.383 J-0.153
N7675 X19.267 Y-8.347 Z-8.546 I-0.383 J0.153
N7680 X20.033 Y-8.653 Z-8.592 I0.383 J-0.153
N7685 X19.267 Y-8.347 Z-8.637 I-0.383 J0.153
N7690 X20.033 Y-8.653 Z-8.682 I0.383 J-0.153
N7695 X19.267 Y-8.347 Z-8.727 I-0.383 J0.153
N7700 X20.033 Y-8.653 Z-8.773 I0.383 J-0.153
N7705 X19.267 Y-8.347 Z-8.818 I-0.383 J0.153
N7710 X20.033 Y-8.653 Z-8.863 I0.383 J-0.153
N7715 X19.267 Y-8.347 Z-8.908 I-0.383 J0.153
N7720 X20.033 Y-8.653 Z-8.954 I0.383 J-0.153
N7725 X19.267 Y-8.347 Z-8.999 I-0.383 J0.153
N7730 X20.033 Y-8.653 Z-9.044 I0.383 J-0.153
N7735 X19.267 Y-8.347 Z-9.089 I-0.383 J0.153
N7740 X20.033 Y-8.653 Z-9.135 I0.383 J-0.153
N7745 X19.267 Y-8.347 Z-9.18 I-0.383 J0.153
N7750 X20.033 Y-8.653 Z-9.225 I0.383 J-0.153
N7755 X19.267 Y-8.347 Z-9.27 I-0.383 J0.153
N7760 X20.033 Y-8.653 Z-9.316 I0.383 J-0.153
N7765 X19.267 Y-8.347 Z-9.361 I-0.383 J0.153
N7770 X20.033 Y-8.653 Z-9.406 I0.383 J-0.153
N7775 X19.267 Y-8.347 Z-9.451 I-0.383 J0.153
N7780 X20.033 Y-8.653 Z-9.497 I0.383 J-0.153
N7785 X19.267 Y-8.347 Z-9.542 I-0.383 J0.153
N7790 X20.033 Y-8.653 Z-9.587 I0.383 J-0.153
N7795 X19.267 Y-8.347 Z-9.633 I-0.383 J0.153
N7800 X20.033 Y-8.653 Z-9.678 I0.383 J-0.153
N7805 X19.267 Y-8.347 Z-9.723 I-0.383 J0.153
N7810 X20.033 Y-8.653 Z-9.768 I0.383 J-0.153
N7815 X19.267 Y-8.347 Z-9.814 I-0.383 J0.153
N7820 X20.033 Y-8.653 Z-9.859 I0.383 J-0.153
N7825 X19.267 Y-8.347 Z-9.904 I-0.383 J0.153
N7830 X20.033 Y-8.653 Z-9.949 I0.383 J-0.153
N7835 X19.267 Y-8.347 Z-9.995 I-0.383 J0.153
N7840 X19.237 Y-8.5 Z-10. I0.383 J-0.153
N7845 X19.663 I0.213 J0.
N7850 X19.638 I-0.013 J0. F#100
N7855 X19.862 I0.112 J0.
N7860 X19.438 I-0.212 J0.
N7865 X20.063 I0.313 J0.
N7870 X19.237 I-0.413 J0.
N7875 X20.063 I0.413 J0.
N7880 X20.048 Y-8.444 Z-9.984 I-0.118 J0. F#104
N7885 X20.021 Y-8.41 Z-9.941 I-0.103 J-0.056
N7890 X20.008 Y-8.401 Z-9.882 I-0.076 J-0.09
N7895 G0 Z5.
N7900 X4.323 Y-8.249
N7905 Z2.
N7910 G1 Z1.617 F#103
N7915 G3 X4.314 Y-8.261 Z1.56 I0.327 J-0.251 F#107
N7920 X4.292 Y-8.296 Z1.517 I0.336 J-0.239
N7925 X4.267 Y-8.347 Z1.5 I0.358 J-0.204
N7930 X5.033 Y-8.653 Z1.455 I0.383 J-0.153
N7935 X4.267 Y-8.347 Z1.409 I-0.383 J0.153
N7940 X5.033 Y-8.653 Z1.364 I0.383 J-0.153
N7945 X4.267 Y-8.347 Z1.319 I-0.383 J0.153
N7950 X5.033 Y-8.653 Z1.274 I0.383 J-0.153
N7955 X4.267 Y-8.347 Z1.228 I-0.383 J0.153
N7960 X5.033 Y-8.653 Z1.183 I0.383 J-0.153
N7965 X4.267 Y-8.347 Z1.138 I-0.383 J0.153
N7970 X5.033 Y-8.653 Z1.093 I0.383 J-0.153
N7975 X4.267 Y-8.347 Z1.047 I-0.383 J0.153
N7980 X5.033 Y-8.653 Z1.002 I0.383 J-0.153
N7985 X4.267 Y-8.347 Z0.957 I-0.383 J0.153
N7990 X5.033 Y-8.653 Z0.912 I0.383 J-0.153
N7995 X4.267 Y-8.347 Z0.866 I-0.383 J0.153
N8000 X5.033 Y-8.653 Z0.821 I0.383 J-0.153
N8005 X4.267 Y-8.347 Z0.776 I-0.383 J0.153
N8010 X5.033 Y-8.653 Z0.731 I0.383 J-0.153
N8015 X4.267 Y-8.347 Z0.685 I-0.383 J0.153
N8020 X5.033 Y-8.653 Z0.64 I0.383 J-0.153
N8025 X4.267 Y-8.347 Z0.595 I-0.383 J0.153
N8030 X5.033 Y-8.653 Z0.55 I0.383 J-0.153
N8035 X4.267 Y-8.347 Z0.504 I-0.383 J0.153
N8040 X5.033 Y-8.653 Z0.459 I0.383 J-0.153
N8045 X4.267 Y-8.347 Z0.414 I-0.383 J0.153
N8050 X5.033 Y-8.653 Z0.369 I0.383 J-0.153
N8055 X4.267 Y-8.347 Z0.323 I-0.383 J0.153
N8060 X5.033 Y-8.653 Z0.278 I0.383 J-0.153
N8065 X4.267 Y-8.347 Z0.233 I-0.383 J0.153
N8070 X5.033 Y-8.653 Z0.188 I0.383 J-0.153
N8075 X4.267 Y-8.347 Z0.142 I-0.383 J0.153
N8080 X5.033 Y-8.653 Z0.097 I0.383 J-0.153
N8085 X4.267 Y-8.347 Z0.052 I-0.383 J0.153
N8090 X5.033 Y-8.653 Z0.007 I0.383 J-0.153
N8095 X4.267 Y-8.347 Z-0.039 I-0.383 J0.153
N8100 X5.033 Y-8.653 Z-0.084 I0.383 J-0.153
N8105 X4.267 Y-8.347 Z-0.129 I-0.383 J0.153
N8110 X5.033 Y-8.653 Z-0.174 I0.383 J-0.153
N8115 X4.267 Y-8.347 Z-0.22 I-0.383 J0.153
N8120 X5.033 Y-8.653 Z-0.265 I0.383 J-0.153
N8125 X4.267 Y-8.347 Z-0.31 I-0.383 J0.153
N8130 X5.033 Y-8.653 Z-0.355 I0.383 J-0.153
N8135 X4.267 Y-8.347 Z-0.401 I-0.383 J0.153
N8140 X5.033 Y-8.653 Z-0.446 I0.383 J-0.153
N8145 X4.267 Y-8.347 Z-0.491 I-0.383 J0.153
N8150 X5.033 Y-8.653 Z-0.536 I0.383 J-0.153
N8155 X4.267 Y-8.347 Z-0.582 I-0.383 J0.153
N8160 X5.033 Y-8.653 Z-0.627 I0.383 J-0.153
N8165 X4.267 Y-8.347 Z-0.672 I-0.383 J0.153
N8170 X5.033 Y-8.653 Z-0.717 I0.383 J-0.153
N8175 X4.267 Y-8.347 Z-0.763 I-0.383 J0.153
N8180 X5.033 Y-8.653 Z-0.808 I0.383 J-0.153
N8185 X4.267 Y-8.347 Z-0.853 I-0.383 J0.153
N8190 X5.033 Y-8.653 Z-0.898 I0.383 J-0.153
N8195 X4.267 Y-8.347 Z-0.944 I-0.383 J0.153
N8200 X5.033 Y-8.653 Z-0.989 I0.383 J-0.153
N8205 X4.267 Y-8.347 Z-1.034 I-0.383 J0.153
N8210 X5.033 Y-8.653 Z-1.079 I0.383 J-0.153
N8215 X4.267 Y-8.347 Z-1.125 I-0.383 J0.153
N8220 X5.033 Y-8.653 Z-1.17 I0.383 J-0.153
N8225 X4.267 Y-8.347 Z-1.215 I-0.383 J0.153
N8230 X5.033 Y-8.653 Z-1.26 I0.383 J-0.153
N8235 X4.267 Y-8.347 Z-1.306 I-0.383 J0.153
N8240 X5.033 Y-8.653 Z-1.351 I0.383 J-0.153
N8245 X4.267 Y-8.347 Z-1.396 I-0.383 J0.153
N8250 X5.033 Y-8.653 Z-1.442 I0.383 J-0.153
N8255 X4.267 Y-8.347 Z-1.487 I-0.383 J0.153
N8260 X5.033 Y-8.653 Z-1.532 I0.383 J-0.153
N8265 X4.267 Y-8.347 Z-1.577 I-0.383 J0.153
N8270 X5.033 Y-8.653 Z-1.623 I0.383 J-0.153
N8275 X4.267 Y-8.347 Z-1.668 I-0.383 J0.153
N8280 X5.033 Y-8.653 Z-1.713 I0.383 J-0.153
N8285 X4.267 Y-8.347 Z-1.758 I-0.383 J0.153
N8290 X5.033 Y-8.653 Z-1.804 I0.383 J-0.153
N8295 X4.267 Y-8.347 Z-1.849 I-0.383 J0.153
N8300 X5.033 Y-8.653 Z-1.894 I0.383 J-0.153
N8305 X4.267 Y-8.347 Z-1.939 I-0.383 J0.153
N8310 X5.033 Y-8.653 Z-1.985 I0.383 J-0.153
N8315 X4.267 Y-8.347 Z-2.03 I-0.383 J0.153
N8320 X5.033 Y-8.653 Z-2.075 I0.383 J-0.153
N8325 X4.267 Y-8.347 Z-2.12 I-0.383 J0.153
N8330 X5.033 Y-8.653 Z-2.166 I0.383 J-0.153
N8335 X4.267 Y-8.347 Z-2.211 I-0.383 J0.153
N8340 X5.033 Y-8.653 Z-2.256 I0.383 J-0.153
N8345 X4.267 Y-8.347 Z-2.301 I-0.383 J0.153
N8350 X5.033 Y-8.653 Z-2.347 I0.383 J-0.153
N8355 X4.267 Y-8.347 Z-2.392 I-0.383 J0.153
N8360 X5.033 Y-8.653 Z-2.437 I0.383 J-0.153
N8365 X4.267 Y-8.347 Z-2.482 I-0.383 J0.153
N8370 X5.033 Y-8.653 Z-2.528 I0.383 J-0.153
N8375 X4.267 Y-8.347 Z-2.573 I-0.383 J0.153
N8380 X5.033 Y-8.653 Z-2.618 I0.383 J-0.153
N8385 X4.267 Y-8.347 Z-2.663 I-0.383 J0.153
N8390 X5.033 Y-8.653 Z-2.709 I0.383 J-0.153
N8395 X4.267 Y-8.347 Z-2.754 I-0.383 J0.153
N8400 X5.033 Y-8.653 Z-2.799 I0.383 J-0.153
N8405 X4.267 Y-8.347 Z-2.844 I-0.383 J0.153
N8410 X5.033 Y-8.653 Z-2.89 I0.383 J-0.153
N8415 X4.267 Y-8.347 Z-2.935 I-0.383 J0.153
N8420 X5.033 Y-8.653 Z-2.98 I0.383 J-0.153
N8425 X4.267 Y-8.347 Z-3.025 I-0.383 J0.153
N8430 X5.033 Y-8.653 Z-3.071 I0.383 J-0.153
N8435 X4.267 Y-8.347 Z-3.116 I-0.383 J0.153
N8440 X5.033 Y-8.653 Z-3.161 I0.383 J-0.153
N8445 X4.267 Y-8.347 Z-3.206 I-0.383 J0.153
N8450 X5.033 Y-8.653 Z-3.252 I0.383 J-0.153
N8455 X4.267 Y-8.347 Z-3.297 I-0.383 J0.153
N8460 X5.033 Y-8.653 Z-3.342 I0.383 J-0.153
N8465 X4.267 Y-8.347 Z-3.387 I-0.383 J0.153
N8470 X5.033 Y-8.653 Z-3.433 I0.383 J-0.153
N8475 X4.267 Y-8.347 Z-3.478 I-0.383 J0.153
N8480 X5.033 Y-8.653 Z-3.523 I0.383 J-0.153
N8485 X4.267 Y-8.347 Z-3.568 I-0.383 J0.153
N8490 X5.033 Y-8.653 Z-3.614 I0.383 J-0.153
N8495 X4.267 Y-8.347 Z-3.659 I-0.383 J0.153
N8500 X5.033 Y-8.653 Z-3.704 I0.383 J-0.153
N8505 X4.267 Y-8.347 Z-3.749 I-0.383 J0.153
N8510 X5.033 Y-8.653 Z-3.795 I0.383 J-0.153
N8515 X4.267 Y-8.347 Z-3.84 I-0.383 J0.153
N8520 X5.033 Y-8.653 Z-3.885 I0.383 J-0.153
N8525 X4.267 Y-8.347 Z-3.93 I-0.383 J0.153
N8530 X5.033 Y-8.653 Z-3.976 I0.383 J-0.153
N8535 X4.267 Y-8.347 Z-4.021 I-0.383 J0.153
N8540 X5.033 Y-8.653 Z-4.066 I0.383 J-0.153
N8545 X4.267 Y-8.347 Z-4.112 I-0.383 J0.153
N8550 X5.033 Y-8.653 Z-4.157 I0.383 J-0.153
N8555 X4.267 Y-8.347 Z-4.202 I-0.383 J0.153
N8560 X5.033 Y-8.653 Z-4.247 I0.383 J-0.153
N8565 X4.267 Y-8.347 Z-4.293 I-0.383 J0.153
N8570 X5.033 Y-8.653 Z-4.338 I0.383 J-0.153
N8575 X4.267 Y-8.347 Z-4.383 I-0.383 J0.153
N8580 X5.033 Y-8.653 Z-4.428 I0.383 J-0.153
N8585 X4.267 Y-8.347 Z-4.474 I-0.383 J0.153
N8590 X5.033 Y-8.653 Z-4.519 I0.383 J-0.153
N8595 X4.267 Y-8.347 Z-4.564 I-0.383 J0.153
N8600 X5.033 Y-8.653 Z-4.609 I0.383 J-0.153
N8605 X4.267 Y-8.347 Z-4.655 I-0.383 J0.153
N8610 X5.033 Y-8.653 Z-4.7 I0.383 J-0.153
N8615 X4.267 Y-8.347 Z-4.745 I-0.383 J0.153
N8620 X5.033 Y-8.653 Z-4.79 I0.383 J-0.153
N8625 X4.267 Y-8.347 Z-4.836 I-0.383 J0.153
N8630 X5.033 Y-8.653 Z-4.881 I0.383 J-0.153
N8635 X4.267 Y-8.347 Z-4.926 I-0.383 J0.153
N8640 X5.033 Y-8.653 Z-4.971 I0.383 J-0.153
N8645 X4.267 Y-8.347 Z-5.017 I-0.383 J0.153
N8650 X5.033 Y-8.653 Z-5.062 I0.383 J-0.153
N8655 X4.267 Y-8.347 Z-5.107 I-0.383 J0.153
N8660 X5.033 Y-8.653 Z-5.152 I0.383 J-0.153
N8665 X4.267 Y-8.347 Z-5.198 I-0.383 J0.153
N8670 X5.033 Y-8.653 Z-5.243 I0.383 J-0.153
N8675 X4.267 Y-8.347 Z-5.288 I-0.383 J0.153
N8680 X5.033 Y-8.653 Z-5.333 I0.383 J-0.153
N8685 X4.267 Y-8.347 Z-5.379 I-0.383 J0.153
N8690 X5.033 Y-8.653 Z-5.424 I0.383 J-0.153
N8695 X4.267 Y-8.347 Z-5.469 I-0.383 J0.153
N8700 X5.033 Y-8.653 Z-5.514 I0.383 J-0.153
N8705 X4.267 Y-8.347 Z-5.56 I-0.383 J0.153
N8710 X5.033 Y-8.653 Z-5.605 I0.383 J-0.153
N8715 X4.267 Y-8.347 Z-5.65 I-0.383 J0.153
N8720 X5.033 Y-8.653 Z-5.695 I0.383 J-0.153
N8725 X4.267 Y-8.347 Z-5.741 I-0.383 J0.153
N8730 X5.033 Y-8.653 Z-5.786 I0.383 J-0.153
N8735 X4.267 Y-8.347 Z-5.831 I-0.383 J0.153
N8740 X5.033 Y-8.653 Z-5.876 I0.383 J-0.153
N8745 X4.267 Y-8.347 Z-5.922 I-0.383 J0.153
N8750 X5.033 Y-8.653 Z-5.967 I0.383 J-0.153
N8755 X4.267 Y-8.347 Z-6.012 I-0.383 J0.153
N8760 X5.033 Y-8.653 Z-6.057 I0.383 J-0.153
N8765 X4.267 Y-8.347 Z-6.103 I-0.383 J0.153
N8770 X5.033 Y-8.653 Z-6.148 I0.383 J-0.153
N8775 X4.267 Y-8.347 Z-6.193 I-0.383 J0.153
N8780 X5.033 Y-8.653 Z-6.238 I0.383 J-0.153
N8785 X4.267 Y-8.347 Z-6.284 I-0.383 J0.153
N8790 X5.033 Y-8.653 Z-6.329 I0.383 J-0.153
N8795 X4.267 Y-8.347 Z-6.374 I-0.383 J0.153
N8800 X5.033 Y-8.653 Z-6.419 I0.383 J-0.153
N8805 X4.267 Y-8.347 Z-6.465 I-0.383 J0.153
N8810 X5.033 Y-8.653 Z-6.51 I0.383 J-0.153
N8815 X4.267 Y-8.347 Z-6.555 I-0.383 J0.153
N8820 X5.033 Y-8.653 Z-6.6 I0.383 J-0.153
N8825 X4.267 Y-8.347 Z-6.646 I-0.383 J0.153
N8830 X5.033 Y-8.653 Z-6.691 I0.383 J-0.153
N8835 X4.267 Y-8.347 Z-6.736 I-0.383 J0.153
N8840 X5.033 Y-8.653 Z-6.781 I0.383 J-0.153
N8845 X4.267 Y-8.347 Z-6.827 I-0.383 J0.153
N8850 X5.033 Y-8.653 Z-6.872 I0.383 J-0.153
N8855 X4.267 Y-8.347 Z-6.917 I-0.383 J0.153
N8860 X5.033 Y-8.653 Z-6.963 I0.383 J-0.153
N8865 X4.267 Y-8.347 Z-7.008 I-0.383 J0.153
N8870 X5.033 Y-8.653 Z-7.053 I0.383 J-0.153
N8875 X4.267 Y-8.347 Z-7.098 I-0.383 J0.153
N8880 X5.033 Y-8.653 Z-7.144 I0.383 J-0.153
N8885 X4.267 Y-8.347 Z-7.189 I-0.383 J0.153
N8890 X5.033 Y-8.653 Z-7.234 I0.383 J-0.153
N8895 X4.267 Y-8.347 Z-7.279 I-0.383 J0.153
N8900 X5.033 Y-8.653 Z-7.325 I0.383 J-0.153
N8905 X4.267 Y-8.347 Z-7.37 I-0.383 J0.153
N8910 X5.033 Y-8.653 Z-7.415 I0.383 J-0.153
N8915 X4.267 Y-8.347 Z-7.46 I-0.383 J0.153
N8920 X5.033 Y-8.653 Z-7.506 I0.383 J-0.153
N8925 X4.267 Y-8.347 Z-7.551 I-0.383 J0.153
N8930 X5.033 Y-8.653 Z-7.596 I0.383 J-0.153
N8935 X4.267 Y-8.347 Z-7.641 I-0.383 J0.153
N8940 X5.033 Y-8.653 Z-7.687 I0.383 J-0.153
N8945 X4.267 Y-8.347 Z-7.732 I-0.383 J0.153
N8950 X5.033 Y-8.653 Z-7.777 I0.383 J-0.153
N8955 X4.267 Y-8.347 Z-7.822 I-0.383 J0.153
N8960 X5.033 Y-8.653 Z-7.868 I0.383 J-0.153
N8965 X4.267 Y-8.347 Z-7.913 I-0.383 J0.153
N8970 X5.033 Y-8.653 Z-7.958 I0.383 J-0.153
N8975 X4.267 Y-8.347 Z-8.003 I-0.383 J0.153
N8980 X5.033 Y-8.653 Z-8.049 I0.383 J-0.153
N8985 X4.267 Y-8.347 Z-8.094 I-0.383 J0.153
N8990 X5.033 Y-8.653 Z-8.139 I0.383 J-0.153
N8995 X4.267 Y-8.347 Z-8.184 I-0.383 J0.153
N9000 X5.033 Y-8.653 Z-8.23 I0.383 J-0.153
N9005 X4.267 Y-8.347 Z-8.275 I-0.383 J0.153
N9010 X5.033 Y-8.653 Z-8.32 I0.383 J-0.153
N9015 X4.267 Y-8.347 Z-8.365 I-0.383 J0.153
N9020 X5.033 Y-8.653 Z-8.411 I0.383 J-0.153
N9025 X4.267 Y-8.347 Z-8.456 I-0.383 J0.153
N9030 X5.033 Y-8.653 Z-8.501 I0.383 J-0.153
N9035 X4.267 Y-8.347 Z-8.546 I-0.383 J0.153
N9040 X5.033 Y-8.653 Z-8.592 I0.383 J-0.153
N9045 X4.267 Y-8.347 Z-8.637 I-0.383 J0.153
N9050 X5.033 Y-8.653 Z-8.682 I0.383 J-0.153
N9055 X4.267 Y-8.347 Z-8.727 I-0.383 J0.153
N9060 X5.033 Y-8.653 Z-8.773 I0.383 J-0.153
N9065 X4.267 Y-8.347 Z-8.818 I-0.383 J0.153
N9070 X5.033 Y-8.653 Z-8.863 I0.383 J-0.153
N9075 X4.267 Y-8.347 Z-8.908 I-0.383 J0.153
N9080 X5.033 Y-8.653 Z-8.954 I0.383 J-0.153
N9085 X4.267 Y-8.347 Z-8.999 I-0.383 J0.153
N9090 X5.033 Y-8.653 Z-9.044 I0.383 J-0.153
N9095 X4.267 Y-8.347 Z-9.089 I-0.383 J0.153
N9100 X5.033 Y-8.653 Z-9.135 I0.383 J-0.153
N9105 X4.267 Y-8.347 Z-9.18 I-0.383 J0.153
N9110 X5.033 Y-8.653 Z-9.225 I0.383 J-0.153
N9115 X4.267 Y-8.347 Z-9.27 I-0.383 J0.153
N9120 X5.033 Y-8.653 Z-9.316 I0.383 J-0.153
N9125 X4.267 Y-8.347 Z-9.361 I-0.383 J0.153
N9130 X5.033 Y-8.653 Z-9.406 I0.383 J-0.153
N9135 X4.267 Y-8.347 Z-9.451 I-0.383 J0.153
N9140 X5.033 Y-8.653 Z-9.497 I0.383 J-0.153
N9145 X4.267 Y-8.347 Z-9.542 I-0.383 J0.153
N9150 X5.033 Y-8.653 Z-9.587 I0.383 J-0.153
N9155 X4.267 Y-8.347 Z-9.633 I-0.383 J0.153
N9160 X5.033 Y-8.653 Z-9.678 I0.383 J-0.153
N9165 X4.267 Y-8.347 Z-9.723 I-0.383 J0.153
N9170 X5.033 Y-8.653 Z-9.768 I0.383 J-0.153
N9175 X4.267 Y-8.347 Z-9.814 I-0.383 J0.153
N9180 X5.033 Y-8.653 Z-9.859 I0.383 J-0.153
N9185 X4.267 Y-8.347 Z-9.904 I-0.383 J0.153
N9190 X5.033 Y-8.653 Z-9.949 I0.383 J-0.153
N9195 X4.267 Y-8.347 Z-9.995 I-0.383 J0.153
N9200 X4.238 Y-8.5 Z-10. I0.383 J-0.153
N9205 X4.662 I0.212 J0.
N9210 X4.637 I-0.012 J0. F#100
N9215 X4.863 I0.113 J0.
N9220 X4.438 I-0.213 J0.
N9225 X5.063 I0.313 J0.
N9230 X4.238 I-0.412 J0.
N9235 X5.063 I0.412 J0.
N9240 X5.048 Y-8.444 Z-9.984 I-0.117 J0. F#104
N9245 X5.021 Y-8.41 Z-9.941 I-0.103 J-0.056
N9250 X5.008 Y-8.401 Z-9.882 I-0.076 J-0.09
N9255 G0 Z5.
N9260 X4.323 Y-28.249
N9265 Z2.
N9270 G1 Z1.617 F#103
N9275 G3 X4.314 Y-28.261 Z1.56 I0.327 J-0.251 F#107
N9280 X4.292 Y-28.296 Z1.517 I0.336 J-0.239
N9285 X4.267 Y-28.347 Z1.5 I0.358 J-0.204
N9290 X5.033 Y-28.653 Z1.455 I0.383 J-0.153
N9295 X4.267 Y-28.347 Z1.409 I-0.383 J0.153
N9300 X5.033 Y-28.653 Z1.364 I0.383 J-0.153
N9305 X4.267 Y-28.347 Z1.319 I-0.383 J0.153
N9310 X5.033 Y-28.653 Z1.274 I0.383 J-0.153
N9315 X4.267 Y-28.347 Z1.228 I-0.383 J0.153
N9320 X5.033 Y-28.653 Z1.183 I0.383 J-0.153
N9325 X4.267 Y-28.347 Z1.138 I-0.383 J0.153
N9330 X5.033 Y-28.653 Z1.093 I0.383 J-0.153
N9335 X4.267 Y-28.347 Z1.047 I-0.383 J0.153
N9340 X5.033 Y-28.653 Z1.002 I0.383 J-0.153
N9345 X4.267 Y-28.347 Z0.957 I-0.383 J0.153
N9350 X5.033 Y-28.653 Z0.912 I0.383 J-0.153
N9355 X4.267 Y-28.347 Z0.866 I-0.383 J0.153
N9360 X5.033 Y-28.653 Z0.821 I0.383 J-0.153
N9365 X4.267 Y-28.347 Z0.776 I-0.383 J0.153
N9370 X5.033 Y-28.653 Z0.731 I0.383 J-0.153
N9375 X4.267 Y-28.347 Z0.685 I-0.383 J0.153
N9380 X5.033 Y-28.653 Z0.64 I0.383 J-0.153
N9385 X4.267 Y-28.347 Z0.595 I-0.383 J0.153
N9390 X5.033 Y-28.653 Z0.55 I0.383 J-0.153
N9395 X4.267 Y-28.347 Z0.504 I-0.383 J0.153
N9400 X5.033 Y-28.653 Z0.459 I0.383 J-0.153
N9405 X4.267 Y-28.347 Z0.414 I-0.383 J0.153
N9410 X5.033 Y-28.653 Z0.369 I0.383 J-0.153
N9415 X4.267 Y-28.347 Z0.323 I-0.383 J0.153
N9420 X5.033 Y-28.653 Z0.278 I0.383 J-0.153
N9425 X4.267 Y-28.347 Z0.233 I-0.383 J0.153
N9430 X5.033 Y-28.653 Z0.188 I0.383 J-0.153
N9435 X4.267 Y-28.347 Z0.142 I-0.383 J0.153
N9440 X5.033 Y-28.653 Z0.097 I0.383 J-0.153
N9445 X4.267 Y-28.347 Z0.052 I-0.383 J0.153
N9450 X5.033 Y-28.653 Z0.007 I0.383 J-0.153
N9455 X4.267 Y-28.347 Z-0.039 I-0.383 J0.153
N9460 X5.033 Y-28.653 Z-0.084 I0.383 J-0.153
N9465 X4.267 Y-28.347 Z-0.129 I-0.383 J0.153
N9470 X5.033 Y-28.653 Z-0.174 I0.383 J-0.153
N9475 X4.267 Y-28.347 Z-0.22 I-0.383 J0.153
N9480 X5.033 Y-28.653 Z-0.265 I0.383 J-0.153
N9485 X4.267 Y-28.347 Z-0.31 I-0.383 J0.153
N9490 X5.033 Y-28.653 Z-0.355 I0.383 J-0.153
N9495 X4.267 Y-28.347 Z-0.401 I-0.383 J0.153
N9500 X5.033 Y-28.653 Z-0.446 I0.383 J-0.153
N9505 X4.267 Y-28.347 Z-0.491 I-0.383 J0.153
N9510 X5.033 Y-28.653 Z-0.536 I0.383 J-0.153
N9515 X4.267 Y-28.347 Z-0.582 I-0.383 J0.153
N9520 X5.033 Y-28.653 Z-0.627 I0.383 J-0.153
N9525 X4.267 Y-28.347 Z-0.672 I-0.383 J0.153
N9530 X5.033 Y-28.653 Z-0.717 I0.383 J-0.153
N9535 X4.267 Y-28.347 Z-0.763 I-0.383 J0.153
N9540 X5.033 Y-28.653 Z-0.808 I0.383 J-0.153
N9545 X4.267 Y-28.347 Z-0.853 I-0.383 J0.153
N9550 X5.033 Y-28.653 Z-0.898 I0.383 J-0.153
N9555 X4.267 Y-28.347 Z-0.944 I-0.383 J0.153
N9560 X5.033 Y-28.653 Z-0.989 I0.383 J-0.153
N9565 X4.267 Y-28.347 Z-1.034 I-0.383 J0.153
N9570 X5.033 Y-28.653 Z-1.079 I0.383 J-0.153
N9575 X4.267 Y-28.347 Z-1.125 I-0.383 J0.153
N9580 X5.033 Y-28.653 Z-1.17 I0.383 J-0.153
N9585 X4.267 Y-28.347 Z-1.215 I-0.383 J0.153
N9590 X5.033 Y-28.653 Z-1.26 I0.383 J-0.153
N9595 X4.267 Y-28.347 Z-1.306 I-0.383 J0.153
N9600 X5.033 Y-28.653 Z-1.351 I0.383 J-0.153
N9605 X4.267 Y-28.347 Z-1.396 I-0.383 J0.153
N9610 X5.033 Y-28.653 Z-1.442 I0.383 J-0.153
N9615 X4.267 Y-28.347 Z-1.487 I-0.383 J0.153
N9620 X5.033 Y-28.653 Z-1.532 I0.383 J-0.153
N9625 X4.267 Y-28.347 Z-1.577 I-0.383 J0.153
N9630 X5.033 Y-28.653 Z-1.623 I0.383 J-0.153
N9635 X4.267 Y-28.347 Z-1.668 I-0.383 J0.153
N9640 X5.033 Y-28.653 Z-1.713 I0.383 J-0.153
N9645 X4.267 Y-28.347 Z-1.758 I-0.383 J0.153
N9650 X5.033 Y-28.653 Z-1.804 I0.383 J-0.153
N9655 X4.267 Y-28.347 Z-1.849 I-0.383 J0.153
N9660 X5.033 Y-28.653 Z-1.894 I0.383 J-0.153
N9665 X4.267 Y-28.347 Z-1.939 I-0.383 J0.153
N9670 X5.033 Y-28.653 Z-1.985 I0.383 J-0.153
N9675 X4.267 Y-28.347 Z-2.03 I-0.383 J0.153
N9680 X5.033 Y-28.653 Z-2.075 I0.383 J-0.153
N9685 X4.267 Y-28.347 Z-2.12 I-0.383 J0.153
N9690 X5.033 Y-28.653 Z-2.166 I0.383 J-0.153
N9695 X4.267 Y-28.347 Z-2.211 I-0.383 J0.153
N9700 X5.033 Y-28.653 Z-2.256 I0.383 J-0.153
N9705 X4.267 Y-28.347 Z-2.301 I-0.383 J0.153
N9710 X5.033 Y-28.653 Z-2.347 I0.383 J-0.153
N9715 X4.267 Y-28.347 Z-2.392 I-0.383 J0.153
N9720 X5.033 Y-28.653 Z-2.437 I0.383 J-0.153
N9725 X4.267 Y-28.347 Z-2.482 I-0.383 J0.153
N9730 X5.033 Y-28.653 Z-2.528 I0.383 J-0.153
N9735 X4.267 Y-28.347 Z-2.573 I-0.383 J0.153
N9740 X5.033 Y-28.653 Z-2.618 I0.383 J-0.153
N9745 X4.267 Y-28.347 Z-2.663 I-0.383 J0.153
N9750 X5.033 Y-28.653 Z-2.709 I0.383 J-0.153
N9755 X4.267 Y-28.347 Z-2.754 I-0.383 J0.153
N9760 X5.033 Y-28.653 Z-2.799 I0.383 J-0.153
N9765 X4.267 Y-28.347 Z-2.844 I-0.383 J0.153
N9770 X5.033 Y-28.653 Z-2.89 I0.383 J-0.153
N9775 X4.267 Y-28.347 Z-2.935 I-0.383 J0.153
N9780 X5.033 Y-28.653 Z-2.98 I0.383 J-0.153
N9785 X4.267 Y-28.347 Z-3.025 I-0.383 J0.153
N9790 X5.033 Y-28.653 Z-3.071 I0.383 J-0.153
N9795 X4.267 Y-28.347 Z-3.116 I-0.383 J0.153
N9800 X5.033 Y-28.653 Z-3.161 I0.383 J-0.153
N9805 X4.267 Y-28.347 Z-3.206 I-0.383 J0.153
N9810 X5.033 Y-28.653 Z-3.252 I0.383 J-0.153
N9815 X4.267 Y-28.347 Z-3.297 I-0.383 J0.153
N9820 X5.033 Y-28.653 Z-3.342 I0.383 J-0.153
N9825 X4.267 Y-28.347 Z-3.387 I-0.383 J0.153
N9830 X5.033 Y-28.653 Z-3.433 I0.383 J-0.153
N9835 X4.267 Y-28.347 Z-3.478 I-0.383 J0.153
N9840 X5.033 Y-28.653 Z-3.523 I0.383 J-0.153
N9845 X4.267 Y-28.347 Z-3.568 I-0.383 J0.153
N9850 X5.033 Y-28.653 Z-3.614 I0.383 J-0.153
N9855 X4.267 Y-28.347 Z-3.659 I-0.383 J0.153
N9860 X5.033 Y-28.653 Z-3.704 I0.383 J-0.153
N9865 X4.267 Y-28.347 Z-3.749 I-0.383 J0.153
N9870 X5.033 Y-28.653 Z-3.795 I0.383 J-0.153
N9875 X4.267 Y-28.347 Z-3.84 I-0.383 J0.153
N9880 X5.033 Y-28.653 Z-3.885 I0.383 J-0.153
N9885 X4.267 Y-28.347 Z-3.93 I-0.383 J0.153
N9890 X5.033 Y-28.653 Z-3.976 I0.383 J-0.153
N9895 X4.267 Y-28.347 Z-4.021 I-0.383 J0.153
N9900 X5.033 Y-28.653 Z-4.066 I0.383 J-0.153
N9905 X4.267 Y-28.347 Z-4.112 I-0.383 J0.153
N9910 X5.033 Y-28.653 Z-4.157 I0.383 J-0.153
N9915 X4.267 Y-28.347 Z-4.202 I-0.383 J0.153
N9920 X5.033 Y-28.653 Z-4.247 I0.383 J-0.153
N9925 X4.267 Y-28.347 Z-4.293 I-0.383 J0.153
N9930 X5.033 Y-28.653 Z-4.338 I0.383 J-0.153
N9935 X4.267 Y-28.347 Z-4.383 I-0.383 J0.153
N9940 X5.033 Y-28.653 Z-4.428 I0.383 J-0.153
N9945 X4.267 Y-28.347 Z-4.474 I-0.383 J0.153
N9950 X5.033 Y-28.653 Z-4.519 I0.383 J-0.153
N9955 X4.267 Y-28.347 Z-4.564 I-0.383 J0.153
N9960 X5.033 Y-28.653 Z-4.609 I0.383 J-0.153
N9965 X4.267 Y-28.347 Z-4.655 I-0.383 J0.153
N9970 X5.033 Y-28.653 Z-4.7 I0.383 J-0.153
N9975 X4.267 Y-28.347 Z-4.745 I-0.383 J0.153
N9980 X5.033 Y-28.653 Z-4.79 I0.383 J-0.153
N9985 X4.267 Y-28.347 Z-4.836 I-0.383 J0.153
N9990 X5.033 Y-28.653 Z-4.881 I0.383 J-0.153
N9995 X4.267 Y-28.347 Z-4.926 I-0.383 J0.153
N10000 X5.033 Y-28.653 Z-4.971 I0.383 J-0.153
N10005 X4.267 Y-28.347 Z-5.017 I-0.383 J0.153
N10010 X5.033 Y-28.653 Z-5.062 I0.383 J-0.153
N10015 X4.267 Y-28.347 Z-5.107 I-0.383 J0.153
N10020 X5.033 Y-28.653 Z-5.152 I0.383 J-0.153
N10025 X4.267 Y-28.347 Z-5.198 I-0.383 J0.153
N10030 X5.033 Y-28.653 Z-5.243 I0.383 J-0.153
N10035 X4.267 Y-28.347 Z-5.288 I-0.383 J0.153
N10040 X5.033 Y-28.653 Z-5.333 I0.383 J-0.153
N10045 X4.267 Y-28.347 Z-5.379 I-0.383 J0.153
N10050 X5.033 Y-28.653 Z-5.424 I0.383 J-0.153
N10055 X4.267 Y-28.347 Z-5.469 I-0.383 J0.153
N10060 X5.033 Y-28.653 Z-5.514 I0.383 J-0.153
N10065 X4.267 Y-28.347 Z-5.56 I-0.383 J0.153
N10070 X5.033 Y-28.653 Z-5.605 I0.383 J-0.153
N10075 X4.267 Y-28.347 Z-5.65 I-0.383 J0.153
N10080 X5.033 Y-28.653 Z-5.695 I0.383 J-0.153
N10085 X4.267 Y-28.347 Z-5.741 I-0.383 J0.153
N10090 X5.033 Y-28.653 Z-5.786 I0.383 J-0.153
N10095 X4.267 Y-28.347 Z-5.831 I-0.383 J0.153
N10100 X5.033 Y-28.653 Z-5.876 I0.383 J-0.153
N10105 X4.267 Y-28.347 Z-5.922 I-0.383 J0.153
N10110 X5.033 Y-28.653 Z-5.967 I0.383 J-0.153
N10115 X4.267 Y-28.347 Z-6.012 I-0.383 J0.153
N10120 X5.033 Y-28.653 Z-6.057 I0.383 J-0.153
N10125 X4.267 Y-28.347 Z-6.103 I-0.383 J0.153
N10130 X5.033 Y-28.653 Z-6.148 I0.383 J-0.153
N10135 X4.267 Y-28.347 Z-6.193 I-0.383 J0.153
N10140 X5.033 Y-28.653 Z-6.238 I0.383 J-0.153
N10145 X4.267 Y-28.347 Z-6.284 I-0.383 J0.153
N10150 X5.033 Y-28.653 Z-6.329 I0.383 J-0.153
N10155 X4.267 Y-28.347 Z-6.374 I-0.383 J0.153
N10160 X5.033 Y-28.653 Z-6.419 I0.383 J-0.153
N10165 X4.267 Y-28.347 Z-6.465 I-0.383 J0.153
N10170 X5.033 Y-28.653 Z-6.51 I0.383 J-0.153
N10175 X4.267 Y-28.347 Z-6.555 I-0.383 J0.153
N10180 X5.033 Y-28.653 Z-6.6 I0.383 J-0.153
N10185 X4.267 Y-28.347 Z-6.646 I-0.383 J0.153
N10190 X5.033 Y-28.653 Z-6.691 I0.383 J-0.153
N10195 X4.267 Y-28.347 Z-6.736 I-0.383 J0.153
N10200 X5.033 Y-28.653 Z-6.781 I0.383 J-0.153
N10205 X4.267 Y-28.347 Z-6.827 I-0.383 J0.153
N10210 X5.033 Y-28.653 Z-6.872 I0.383 J-0.153
N10215 X4.267 Y-28.347 Z-6.917 I-0.383 J0.153
N10220 X5.033 Y-28.653 Z-6.963 I0.383 J-0.153
N10225 X4.267 Y-28.347 Z-7.008 I-0.383 J0.153
N10230 X5.033 Y-28.653 Z-7.053 I0.383 J-0.153
N10235 X4.267 Y-28.347 Z-7.098 I-0.383 J0.153
N10240 X5.033 Y-28.653 Z-7.144 I0.383 J-0.153
N10245 X4.267 Y-28.347 Z-7.189 I-0.383 J0.153
N10250 X5.033 Y-28.653 Z-7.234 I0.383 J-0.153
N10255 X4.267 Y-28.347 Z-7.279 I-0.383 J0.153
N10260 X5.033 Y-28.653 Z-7.325 I0.383 J-0.153
N10265 X4.267 Y-28.347 Z-7.37 I-0.383 J0.153
N10270 X5.033 Y-28.653 Z-7.415 I0.383 J-0.153
N10275 X4.267 Y-28.347 Z-7.46 I-0.383 J0.153
N10280 X5.033 Y-28.653 Z-7.506 I0.383 J-0.153
N10285 X4.267 Y-28.347 Z-7.551 I-0.383 J0.153
N10290 X5.033 Y-28.653 Z-7.596 I0.383 J-0.153
N10295 X4.267 Y-28.347 Z-7.641 I-0.383 J0.153
N10300 X5.033 Y-28.653 Z-7.687 I0.383 J-0.153
N10305 X4.267 Y-28.347 Z-7.732 I-0.383 J0.153
N10310 X5.033 Y-28.653 Z-7.777 I0.383 J-0.153
N10315 X4.267 Y-28.347 Z-7.822 I-0.383 J0.153
N10320 X5.033 Y-28.653 Z-7.868 I0.383 J-0.153
N10325 X4.267 Y-28.347 Z-7.913 I-0.383 J0.153
N10330 X5.033 Y-28.653 Z-7.958 I0.383 J-0.153
N10335 X4.267 Y-28.347 Z-8.003 I-0.383 J0.153
N10340 X5.033 Y-28.653 Z-8.049 I0.383 J-0.153
N10345 X4.267 Y-28.347 Z-8.094 I-0.383 J0.153
N10350 X5.033 Y-28.653 Z-8.139 I0.383 J-0.153
N10355 X4.267 Y-28.347 Z-8.184 I-0.383 J0.153
N10360 X5.033 Y-28.653 Z-8.23 I0.383 J-0.153
N10365 X4.267 Y-28.347 Z-8.275 I-0.383 J0.153
N10370 X5.033 Y-28.653 Z-8.32 I0.383 J-0.153
N10375 X4.267 Y-28.347 Z-8.365 I-0.383 J0.153
N10380 X5.033 Y-28.653 Z-8.411 I0.383 J-0.153
N10385 X4.267 Y-28.347 Z-8.456 I-0.383 J0.153
N10390 X5.033 Y-28.653 Z-8.501 I0.383 J-0.153
N10395 X4.267 Y-28.347 Z-8.546 I-0.383 J0.153
N10400 X5.033 Y-28.653 Z-8.592 I0.383 J-0.153
N10405 X4.267 Y-28.347 Z-8.637 I-0.383 J0.153
N10410 X5.033 Y-28.653 Z-8.682 I0.383 J-0.153
N10415 X4.267 Y-28.347 Z-8.727 I-0.383 J0.153
N10420 X5.033 Y-28.653 Z-8.773 I0.383 J-0.153
N10425 X4.267 Y-28.347 Z-8.818 I-0.383 J0.153
N10430 X5.033 Y-28.653 Z-8.863 I0.383 J-0.153
N10435 X4.267 Y-28.347 Z-8.908 I-0.383 J0.153
N10440 X5.033 Y-28.653 Z-8.954 I0.383 J-0.153
N10445 X4.267 Y-28.347 Z-8.999 I-0.383 J0.153
N10450 X5.033 Y-28.653 Z-9.044 I0.383 J-0.153
N10455 X4.267 Y-28.347 Z-9.089 I-0.383 J0.153
N10460 X5.033 Y-28.653 Z-9.135 I0.383 J-0.153
N10465 X4.267 Y-28.347 Z-9.18 I-0.383 J0.153
N10470 X5.033 Y-28.653 Z-9.225 I0.383 J-0.153
N10475 X4.267 Y-28.347 Z-9.27 I-0.383 J0.153
N10480 X5.033 Y-28.653 Z-9.316 I0.383 J-0.153
N10485 X4.267 Y-28.347 Z-9.361 I-0.383 J0.153
N10490 X5.033 Y-28.653 Z-9.406 I0.383 J-0.153
N10495 X4.267 Y-28.347 Z-9.451 I-0.383 J0.153
N10500 X5.033 Y-28.653 Z-9.497 I0.383 J-0.153
N10505 X4.267 Y-28.347 Z-9.542 I-0.383 J0.153
N10510 X5.033 Y-28.653 Z-9.587 I0.383 J-0.153
N10515 X4.267 Y-28.347 Z-9.633 I-0.383 J0.153
N10520 X5.033 Y-28.653 Z-9.678 I0.383 J-0.153
N10525 X4.267 Y-28.347 Z-9.723 I-0.383 J0.153
N10530 X5.033 Y-28.653 Z-9.768 I0.383 J-0.153
N10535 X4.267 Y-28.347 Z-9.814 I-0.383 J0.153
N10540 X5.033 Y-28.653 Z-9.859 I0.383 J-0.153
N10545 X4.267 Y-28.347 Z-9.904 I-0.383 J0.153
N10550 X5.033 Y-28.653 Z-9.949 I0.383 J-0.153
N10555 X4.267 Y-28.347 Z-9.995 I-0.383 J0.153
N10560 X4.238 Y-28.5 Z-10. I0.383 J-0.153
N10565 X4.662 I0.212 J0.
N10570 X4.637 I-0.012 J0. F#100
N10575 X4.863 I0.113 J0.
N10580 X4.438 I-0.213 J0.
N10585 X5.063 I0.313 J0.
N10590 X4.238 I-0.412 J0.
N10595 X5.063 I0.412 J0.
N10600 X5.048 Y-28.444 Z-9.984 I-0.117 J0. F#104
N10605 X5.021 Y-28.41 Z-9.941 I-0.103 J-0.056
N10610 X5.008 Y-28.401 Z-9.882 I-0.076 J-0.09
N10615 G0 Z5.
N10620 X19.323 Y-28.249
N10625 Z2.
N10630 G1 Z1.617 F#103
N10635 G3 X19.314 Y-28.261 Z1.56 I0.327 J-0.251 F#107
N10640 X19.292 Y-28.296 Z1.517 I0.336 J-0.239
N10645 X19.267 Y-28.347 Z1.5 I0.358 J-0.204
N10650 X20.033 Y-28.653 Z1.455 I0.383 J-0.153
N10655 X19.267 Y-28.347 Z1.409 I-0.383 J0.153
N10660 X20.033 Y-28.653 Z1.364 I0.383 J-0.153
N10665 X19.267 Y-28.347 Z1.319 I-0.383 J0.153
N10670 X20.033 Y-28.653 Z1.274 I0.383 J-0.153
N10675 X19.267 Y-28.347 Z1.228 I-0.383 J0.153
N10680 X20.033 Y-28.653 Z1.183 I0.383 J-0.153
N10685 X19.267 Y-28.347 Z1.138 I-0.383 J0.153
N10690 X20.033 Y-28.653 Z1.093 I0.383 J-0.153
N10695 X19.267 Y-28.347 Z1.047 I-0.383 J0.153
N10700 X20.033 Y-28.653 Z1.002 I0.383 J-0.153
N10705 X19.267 Y-28.347 Z0.957 I-0.383 J0.153
N10710 X20.033 Y-28.653 Z0.912 I0.383 J-0.153
N10715 X19.267 Y-28.347 Z0.866 I-0.383 J0.153
N10720 X20.033 Y-28.653 Z0.821 I0.383 J-0.153
N10725 X19.267 Y-28.347 Z0.776 I-0.383 J0.153
N10730 X20.033 Y-28.653 Z0.731 I0.383 J-0.153
N10735 X19.267 Y-28.347 Z0.685 I-0.383 J0.153
N10740 X20.033 Y-28.653 Z0.64 I0.383 J-0.153
N10745 X19.267 Y-28.347 Z0.595 I-0.383 J0.153
N10750 X20.033 Y-28.653 Z0.55 I0.383 J-0.153
N10755 X19.267 Y-28.347 Z0.504 I-0.383 J0.153
N10760 X20.033 Y-28.653 Z0.459 I0.383 J-0.153
N10765 X19.267 Y-28.347 Z0.414 I-0.383 J0.153
N10770 X20.033 Y-28.653 Z0.369 I0.383 J-0.153
N10775 X19.267 Y-28.347 Z0.323 I-0.383 J0.153
N10780 X20.033 Y-28.653 Z0.278 I0.383 J-0.153
N10785 X19.267 Y-28.347 Z0.233 I-0.383 J0.153
N10790 X20.033 Y-28.653 Z0.188 I0.383 J-0.153
N10795 X19.267 Y-28.347 Z0.142 I-0.383 J0.153
N10800 X20.033 Y-28.653 Z0.097 I0.383 J-0.153
N10805 X19.267 Y-28.347 Z0.052 I-0.383 J0.153
N10810 X20.033 Y-28.653 Z0.007 I0.383 J-0.153
N10815 X19.267 Y-28.347 Z-0.039 I-0.383 J0.153
N10820 X20.033 Y-28.653 Z-0.084 I0.383 J-0.153
N10825 X19.267 Y-28.347 Z-0.129 I-0.383 J0.153
N10830 X20.033 Y-28.653 Z-0.174 I0.383 J-0.153
N10835 X19.267 Y-28.347 Z-0.22 I-0.383 J0.153
N10840 X20.033 Y-28.653 Z-0.265 I0.383 J-0.153
N10845 X19.267 Y-28.347 Z-0.31 I-0.383 J0.153
N10850 X20.033 Y-28.653 Z-0.355 I0.383 J-0.153
N10855 X19.267 Y-28.347 Z-0.401 I-0.383 J0.153
N10860 X20.033 Y-28.653 Z-0.446 I0.383 J-0.153
N10865 X19.267 Y-28.347 Z-0.491 I-0.383 J0.153
N10870 X20.033 Y-28.653 Z-0.536 I0.383 J-0.153
N10875 X19.267 Y-28.347 Z-0.582 I-0.383 J0.153
N10880 X20.033 Y-28.653 Z-0.627 I0.383 J-0.153
N10885 X19.267 Y-28.347 Z-0.672 I-0.383 J0.153
N10890 X20.033 Y-28.653 Z-0.717 I0.383 J-0.153
N10895 X19.267 Y-28.347 Z-0.763 I-0.383 J0.153
N10900 X20.033 Y-28.653 Z-0.808 I0.383 J-0.153
N10905 X19.267 Y-28.347 Z-0.853 I-0.383 J0.153
N10910 X20.033 Y-28.653 Z-0.898 I0.383 J-0.153
N10915 X19.267 Y-28.347 Z-0.944 I-0.383 J0.153
N10920 X20.033 Y-28.653 Z-0.989 I0.383 J-0.153
N10925 X19.267 Y-28.347 Z-1.034 I-0.383 J0.153
N10930 X20.033 Y-28.653 Z-1.079 I0.383 J-0.153
N10935 X19.267 Y-28.347 Z-1.125 I-0.383 J0.153
N10940 X20.033 Y-28.653 Z-1.17 I0.383 J-0.153
N10945 X19.267 Y-28.347 Z-1.215 I-0.383 J0.153
N10950 X20.033 Y-28.653 Z-1.26 I0.383 J-0.153
N10955 X19.267 Y-28.347 Z-1.306 I-0.383 J0.153
N10960 X20.033 Y-28.653 Z-1.351 I0.383 J-0.153
N10965 X19.267 Y-28.347 Z-1.396 I-0.383 J0.153
N10970 X20.033 Y-28.653 Z-1.442 I0.383 J-0.153
N10975 X19.267 Y-28.347 Z-1.487 I-0.383 J0.153
N10980 X20.033 Y-28.653 Z-1.532 I0.383 J-0.153
N10985 X19.267 Y-28.347 Z-1.577 I-0.383 J0.153
N10990 X20.033 Y-28.653 Z-1.623 I0.383 J-0.153
N10995 X19.267 Y-28.347 Z-1.668 I-0.383 J0.153
N11000 X20.033 Y-28.653 Z-1.713 I0.383 J-0.153
N11005 X19.267 Y-28.347 Z-1.758 I-0.383 J0.153
N11010 X20.033 Y-28.653 Z-1.804 I0.383 J-0.153
N11015 X19.267 Y-28.347 Z-1.849 I-0.383 J0.153
N11020 X20.033 Y-28.653 Z-1.894 I0.383 J-0.153
N11025 X19.267 Y-28.347 Z-1.939 I-0.383 J0.153
N11030 X20.033 Y-28.653 Z-1.985 I0.383 J-0.153
N11035 X19.267 Y-28.347 Z-2.03 I-0.383 J0.153
N11040 X20.033 Y-28.653 Z-2.075 I0.383 J-0.153
N11045 X19.267 Y-28.347 Z-2.12 I-0.383 J0.153
N11050 X20.033 Y-28.653 Z-2.166 I0.383 J-0.153
N11055 X19.267 Y-28.347 Z-2.211 I-0.383 J0.153
N11060 X20.033 Y-28.653 Z-2.256 I0.383 J-0.153
N11065 X19.267 Y-28.347 Z-2.301 I-0.383 J0.153
N11070 X20.033 Y-28.653 Z-2.347 I0.383 J-0.153
N11075 X19.267 Y-28.347 Z-2.392 I-0.383 J0.153
N11080 X20.033 Y-28.653 Z-2.437 I0.383 J-0.153
N11085 X19.267 Y-28.347 Z-2.482 I-0.383 J0.153
N11090 X20.033 Y-28.653 Z-2.528 I0.383 J-0.153
N11095 X19.267 Y-28.347 Z-2.573 I-0.383 J0.153
N11100 X20.033 Y-28.653 Z-2.618 I0.383 J-0.153
N11105 X19.267 Y-28.347 Z-2.663 I-0.383 J0.153
N11110 X20.033 Y-28.653 Z-2.709 I0.383 J-0.153
N11115 X19.267 Y-28.347 Z-2.754 I-0.383 J0.153
N11120 X20.033 Y-28.653 Z-2.799 I0.383 J-0.153
N11125 X19.267 Y-28.347 Z-2.844 I-0.383 J0.153
N11130 X20.033 Y-28.653 Z-2.89 I0.383 J-0.153
N11135 X19.267 Y-28.347 Z-2.935 I-0.383 J0.153
N11140 X20.033 Y-28.653 Z-2.98 I0.383 J-0.153
N11145 X19.267 Y-28.347 Z-3.025 I-0.383 J0.153
N11150 X20.033 Y-28.653 Z-3.071 I0.383 J-0.153
N11155 X19.267 Y-28.347 Z-3.116 I-0.383 J0.153
N11160 X20.033 Y-28.653 Z-3.161 I0.383 J-0.153
N11165 X19.267 Y-28.347 Z-3.206 I-0.383 J0.153
N11170 X20.033 Y-28.653 Z-3.252 I0.383 J-0.153
N11175 X19.267 Y-28.347 Z-3.297 I-0.383 J0.153
N11180 X20.033 Y-28.653 Z-3.342 I0.383 J-0.153
N11185 X19.267 Y-28.347 Z-3.387 I-0.383 J0.153
N11190 X20.033 Y-28.653 Z-3.433 I0.383 J-0.153
N11195 X19.267 Y-28.347 Z-3.478 I-0.383 J0.153
N11200 X20.033 Y-28.653 Z-3.523 I0.383 J-0.153
N11205 X19.267 Y-28.347 Z-3.568 I-0.383 J0.153
N11210 X20.033 Y-28.653 Z-3.614 I0.383 J-0.153
N11215 X19.267 Y-28.347 Z-3.659 I-0.383 J0.153
N11220 X20.033 Y-28.653 Z-3.704 I0.383 J-0.153
N11225 X19.267 Y-28.347 Z-3.749 I-0.383 J0.153
N11230 X20.033 Y-28.653 Z-3.795 I0.383 J-0.153
N11235 X19.267 Y-28.347 Z-3.84 I-0.383 J0.153
N11240 X20.033 Y-28.653 Z-3.885 I0.383 J-0.153
N11245 X19.267 Y-28.347 Z-3.93 I-0.383 J0.153
N11250 X20.033 Y-28.653 Z-3.976 I0.383 J-0.153
N11255 X19.267 Y-28.347 Z-4.021 I-0.383 J0.153
N11260 X20.033 Y-28.653 Z-4.066 I0.383 J-0.153
N11265 X19.267 Y-28.347 Z-4.112 I-0.383 J0.153
N11270 X20.033 Y-28.653 Z-4.157 I0.383 J-0.153
N11275 X19.267 Y-28.347 Z-4.202 I-0.383 J0.153
N11280 X20.033 Y-28.653 Z-4.247 I0.383 J-0.153
N11285 X19.267 Y-28.347 Z-4.293 I-0.383 J0.153
N11290 X20.033 Y-28.653 Z-4.338 I0.383 J-0.153
N11295 X19.267 Y-28.347 Z-4.383 I-0.383 J0.153
N11300 X20.033 Y-28.653 Z-4.428 I0.383 J-0.153
N11305 X19.267 Y-28.347 Z-4.474 I-0.383 J0.153
N11310 X20.033 Y-28.653 Z-4.519 I0.383 J-0.153
N11315 X19.267 Y-28.347 Z-4.564 I-0.383 J0.153
N11320 X20.033 Y-28.653 Z-4.609 I0.383 J-0.153
N11325 X19.267 Y-28.347 Z-4.655 I-0.383 J0.153
N11330 X20.033 Y-28.653 Z-4.7 I0.383 J-0.153
N11335 X19.267 Y-28.347 Z-4.745 I-0.383 J0.153
N11340 X20.033 Y-28.653 Z-4.79 I0.383 J-0.153
N11345 X19.267 Y-28.347 Z-4.836 I-0.383 J0.153
N11350 X20.033 Y-28.653 Z-4.881 I0.383 J-0.153
N11355 X19.267 Y-28.347 Z-4.926 I-0.383 J0.153
N11360 X20.033 Y-28.653 Z-4.971 I0.383 J-0.153
N11365 X19.267 Y-28.347 Z-5.017 I-0.383 J0.153
N11370 X20.033 Y-28.653 Z-5.062 I0.383 J-0.153
N11375 X19.267 Y-28.347 Z-5.107 I-0.383 J0.153
N11380 X20.033 Y-28.653 Z-5.152 I0.383 J-0.153
N11385 X19.267 Y-28.347 Z-5.198 I-0.383 J0.153
N11390 X20.033 Y-28.653 Z-5.243 I0.383 J-0.153
N11395 X19.267 Y-28.347 Z-5.288 I-0.383 J0.153
N11400 X20.033 Y-28.653 Z-5.333 I0.383 J-0.153
N11405 X19.267 Y-28.347 Z-5.379 I-0.383 J0.153
N11410 X20.033 Y-28.653 Z-5.424 I0.383 J-0.153
N11415 X19.267 Y-28.347 Z-5.469 I-0.383 J0.153
N11420 X20.033 Y-28.653 Z-5.514 I0.383 J-0.153
N11425 X19.267 Y-28.347 Z-5.56 I-0.383 J0.153
N11430 X20.033 Y-28.653 Z-5.605 I0.383 J-0.153
N11435 X19.267 Y-28.347 Z-5.65 I-0.383 J0.153
N11440 X20.033 Y-28.653 Z-5.695 I0.383 J-0.153
N11445 X19.267 Y-28.347 Z-5.741 I-0.383 J0.153
N11450 X20.033 Y-28.653 Z-5.786 I0.383 J-0.153
N11455 X19.267 Y-28.347 Z-5.831 I-0.383 J0.153
N11460 X20.033 Y-28.653 Z-5.876 I0.383 J-0.153
N11465 X19.267 Y-28.347 Z-5.922 I-0.383 J0.153
N11470 X20.033 Y-28.653 Z-5.967 I0.383 J-0.153
N11475 X19.267 Y-28.347 Z-6.012 I-0.383 J0.153
N11480 X20.033 Y-28.653 Z-6.057 I0.383 J-0.153
N11485 X19.267 Y-28.347 Z-6.103 I-0.383 J0.153
N11490 X20.033 Y-28.653 Z-6.148 I0.383 J-0.153
N11495 X19.267 Y-28.347 Z-6.193 I-0.383 J0.153
N11500 X20.033 Y-28.653 Z-6.238 I0.383 J-0.153
N11505 X19.267 Y-28.347 Z-6.284 I-0.383 J0.153
N11510 X20.033 Y-28.653 Z-6.329 I0.383 J-0.153
N11515 X19.267 Y-28.347 Z-6.374 I-0.383 J0.153
N11520 X20.033 Y-28.653 Z-6.419 I0.383 J-0.153
N11525 X19.267 Y-28.347 Z-6.465 I-0.383 J0.153
N11530 X20.033 Y-28.653 Z-6.51 I0.383 J-0.153
N11535 X19.267 Y-28.347 Z-6.555 I-0.383 J0.153
N11540 X20.033 Y-28.653 Z-6.6 I0.383 J-0.153
N11545 X19.267 Y-28.347 Z-6.646 I-0.383 J0.153
N11550 X20.033 Y-28.653 Z-6.691 I0.383 J-0.153
N11555 X19.267 Y-28.347 Z-6.736 I-0.383 J0.153
N11560 X20.033 Y-28.653 Z-6.781 I0.383 J-0.153
N11565 X19.267 Y-28.347 Z-6.827 I-0.383 J0.153
N11570 X20.033 Y-28.653 Z-6.872 I0.383 J-0.153
N11575 X19.267 Y-28.347 Z-6.917 I-0.383 J0.153
N11580 X20.033 Y-28.653 Z-6.963 I0.383 J-0.153
N11585 X19.267 Y-28.347 Z-7.008 I-0.383 J0.153
N11590 X20.033 Y-28.653 Z-7.053 I0.383 J-0.153
N11595 X19.267 Y-28.347 Z-7.098 I-0.383 J0.153
N11600 X20.033 Y-28.653 Z-7.144 I0.383 J-0.153
N11605 X19.267 Y-28.347 Z-7.189 I-0.383 J0.153
N11610 X20.033 Y-28.653 Z-7.234 I0.383 J-0.153
N11615 X19.267 Y-28.347 Z-7.279 I-0.383 J0.153
N11620 X20.033 Y-28.653 Z-7.325 I0.383 J-0.153
N11625 X19.267 Y-28.347 Z-7.37 I-0.383 J0.153
N11630 X20.033 Y-28.653 Z-7.415 I0.383 J-0.153
N11635 X19.267 Y-28.347 Z-7.46 I-0.383 J0.153
N11640 X20.033 Y-28.653 Z-7.506 I0.383 J-0.153
N11645 X19.267 Y-28.347 Z-7.551 I-0.383 J0.153
N11650 X20.033 Y-28.653 Z-7.596 I0.383 J-0.153
N11655 X19.267 Y-28.347 Z-7.641 I-0.383 J0.153
N11660 X20.033 Y-28.653 Z-7.687 I0.383 J-0.153
N11665 X19.267 Y-28.347 Z-7.732 I-0.383 J0.153
N11670 X20.033 Y-28.653 Z-7.777 I0.383 J-0.153
N11675 X19.267 Y-28.347 Z-7.822 I-0.383 J0.153
N11680 X20.033 Y-28.653 Z-7.868 I0.383 J-0.153
N11685 X19.267 Y-28.347 Z-7.913 I-0.383 J0.153
N11690 X20.033 Y-28.653 Z-7.958 I0.383 J-0.153
N11695 X19.267 Y-28.347 Z-8.003 I-0.383 J0.153
N11700 X20.033 Y-28.653 Z-8.049 I0.383 J-0.153
N11705 X19.267 Y-28.347 Z-8.094 I-0.383 J0.153
N11710 X20.033 Y-28.653 Z-8.139 I0.383 J-0.153
N11715 X19.267 Y-28.347 Z-8.184 I-0.383 J0.153
N11720 X20.033 Y-28.653 Z-8.23 I0.383 J-0.153
N11725 X19.267 Y-28.347 Z-8.275 I-0.383 J0.153
N11730 X20.033 Y-28.653 Z-8.32 I0.383 J-0.153
N11735 X19.267 Y-28.347 Z-8.365 I-0.383 J0.153
N11740 X20.033 Y-28.653 Z-8.411 I0.383 J-0.153
N11745 X19.267 Y-28.347 Z-8.456 I-0.383 J0.153
N11750 X20.033 Y-28.653 Z-8.501 I0.383 J-0.153
N11755 X19.267 Y-28.347 Z-8.546 I-0.383 J0.153
N11760 X20.033 Y-28.653 Z-8.592 I0.383 J-0.153
N11765 X19.267 Y-28.347 Z-8.637 I-0.383 J0.153
N11770 X20.033 Y-28.653 Z-8.682 I0.383 J-0.153
N11775 X19.267 Y-28.347 Z-8.727 I-0.383 J0.153
N11780 X20.033 Y-28.653 Z-8.773 I0.383 J-0.153
N11785 X19.267 Y-28.347 Z-8.818 I-0.383 J0.153
N11790 X20.033 Y-28.653 Z-8.863 I0.383 J-0.153
N11795 X19.267 Y-28.347 Z-8.908 I-0.383 J0.153
N11800 X20.033 Y-28.653 Z-8.954 I0.383 J-0.153
N11805 X19.267 Y-28.347 Z-8.999 I-0.383 J0.153
N11810 X20.033 Y-28.653 Z-9.044 I0.383 J-0.153
N11815 X19.267 Y-28.347 Z-9.089 I-0.383 J0.153
N11820 X20.033 Y-28.653 Z-9.135 I0.383 J-0.153
N11825 X19.267 Y-28.347 Z-9.18 I-0.383 J0.153
N11830 X20.033 Y-28.653 Z-9.225 I0.383 J-0.153
N11835 X19.267 Y-28.347 Z-9.27 I-0.383 J0.153
N11840 X20.033 Y-28.653 Z-9.316 I0.383 J-0.153
N11845 X19.267 Y-28.347 Z-9.361 I-0.383 J0.153
N11850 X20.033 Y-28.653 Z-9.406 I0.383 J-0.153
N11855 X19.267 Y-28.347 Z-9.451 I-0.383 J0.153
N11860 X20.033 Y-28.653 Z-9.497 I0.383 J-0.153
N11865 X19.267 Y-28.347 Z-9.542 I-0.383 J0.153
N11870 X20.033 Y-28.653 Z-9.587 I0.383 J-0.153
N11875 X19.267 Y-28.347 Z-9.633 I-0.383 J0.153
N11880 X20.033 Y-28.653 Z-9.678 I0.383 J-0.153
N11885 X19.267 Y-28.347 Z-9.723 I-0.383 J0.153
N11890 X20.033 Y-28.653 Z-9.768 I0.383 J-0.153
N11895 X19.267 Y-28.347 Z-9.814 I-0.383 J0.153
N11900 X20.033 Y-28.653 Z-9.859 I0.383 J-0.153
N11905 X19.267 Y-28.347 Z-9.904 I-0.383 J0.153
N11910 X20.033 Y-28.653 Z-9.949 I0.383 J-0.153
N11915 X19.267 Y-28.347 Z-9.995 I-0.383 J0.153
N11920 X19.237 Y-28.5 Z-10. I0.383 J-0.153
N11925 X19.663 I0.213 J0.
N11930 X19.638 I-0.013 J0. F#100
N11935 X19.862 I0.112 J0.
N11940 X19.438 I-0.212 J0.
N11945 X20.063 I0.313 J0.
N11950 X19.237 I-0.413 J0.
N11955 X20.063 I0.413 J0.
N11960 X20.048 Y-28.444 Z-9.984 I-0.118 J0. F#104
N11965 X20.021 Y-28.41 Z-9.941 I-0.103 J-0.056
N11970 X20.008 Y-28.401 Z-9.882 I-0.076 J-0.09
N11975 G0 Z5.
N11980 X179.323 Y-28.249
N11985 Z2.
N11990 G1 Z1.617 F#103
N11995 G3 X179.314 Y-28.261 Z1.56 I0.327 J-0.251 F#107
N12000 X179.292 Y-28.296 Z1.517 I0.336 J-0.239
N12005 X179.267 Y-28.347 Z1.5 I0.358 J-0.204
N12010 X179.238 Y-28.5 Z1.495 I0.383 J-0.153
N12015 X180.062 Z1.449 I0.412 J0.
N12020 X179.898 Y-28.17 Z1.436 I-0.413 J0.
