%
(1)
(T13  D=6. CR=0. - ZMIN=0.1 - FLAT END MILL)
N10 G90 G94 G17 G91.1
N15 G21
N20 G53 G0 Z0.
(2D POCKET4)
N25 M9
N30 T13 M6
N35 S3200 M3
N40 G54
N45 M8
N55 G0 X-0.124 Y-37.985
N60 G43 Z23. H13
N65 #100=1000. (CUTTING)
N70 #103=1000. (ENTRY)
N75 #104=1000. (EXIT)
N80 G0 Z18.
N85 G1 Z14. F#103
N90 Z0.7
N95 X-0.131 Y-37.984 Z0.606
N100 X-0.153 Y-37.981 Z0.515
N105 X-0.188 Y-37.977 Z0.428
N110 X-0.237 Y-37.97 Z0.347
N115 X-0.298 Y-37.962 Z0.276
N120 X-0.369 Y-37.953 Z0.215
N125 X-0.448 Y-37.942 Z0.165
N130 X-0.535 Y-37.931 Z0.129
N135 X-0.625 Y-37.919 Z0.107
N140 X-0.718 Y-37.907 Z0.1
N145 X-0.778 Y-37.899
N150 G2 X-2.609 Y-37.348 I0.778 J5.899 F#100
N155 G3 X-2.872 Y-37.887 I-0.132 J-0.27
N160 X-2.74 Y-37.917 I0.132 J0.27
N165 G1 X17.749 Y-37.913
N170 G3 X17.748 Y-37.313 I0. J0.3
N175 X17.617 Y-37.344 I0. J-0.3
N180 G2 X15.775 Y-37.899 I-2.617 J5.344
N185 G3 X15.853 Y-38.494 I0.039 J-0.297
N190 X15.965 Y-38.456 I-0.039 J0.297
N195 G1 X18.907 Y-36.744
N200 G3 X19.001 Y-36.313 I-0.151 J0.259
N205 X18.563 Y-36.255 I-0.246 J-0.172
N210 G2 X15. Y-37.55 I-3.563 J4.255
N215 G1 X0.
N220 G2 X-3.56 Y-36.258 I0. J5.55
N225 G1 X-3.578 Y-36.243 F#104
N230 X-3.65 Y-36.183 Z0.107
N235 X-3.72 Y-36.124 Z0.129
N240 X-3.787 Y-36.068 Z0.165
N245 X-3.848 Y-36.017 Z0.215
N250 X-3.903 Y-35.971 Z0.276
N255 X-3.95 Y-35.932 Z0.347
N260 X-3.988 Y-35.9 Z0.428
N265 X-4.016 Y-35.877 Z0.515
N270 X-4.032 Y-35.863 Z0.606
N275 X-4.038 Y-35.858 Z0.7
N280 G0 Z18.
N285 X19.888 Y-34.315
N290 G1 Z0.7 F#103
N295 X19.883 Y-34.32 Z0.606
N300 X19.868 Y-34.336 Z0.515
N305 X19.843 Y-34.363 Z0.428
N310 X19.81 Y-34.399 Z0.347
N315 X19.768 Y-34.443 Z0.276
N320 X19.719 Y-34.495 Z0.215
N325 X19.664 Y-34.554 Z0.165
N330 X19.605 Y-34.617 Z0.129
N335 X19.542 Y-34.684 Z0.107
N340 X19.478 Y-34.753 Z0.1
N345 X18.759 Y-35.521
N350 G2 X15. Y-37.15 I-3.759 J3.521 F#100
N355 G1 X0.
N360 G2 X-3.758 Y-35.521 I0. J5.15
N365 G1 X-3.774 Y-35.504 F#104
N370 X-3.839 Y-35.435 Z0.107
N375 X-3.901 Y-35.369 Z0.129
N380 X-3.961 Y-35.305 Z0.165
N385 X-4.015 Y-35.247 Z0.215
N390 X-4.064 Y-35.194 Z0.276
N395 X-4.106 Y-35.15 Z0.347
N400 X-4.14 Y-35.114 Z0.428
N405 X-4.164 Y-35.087 Z0.515
N410 X-4.18 Y-35.071 Z0.606
N415 X-4.185 Y-35.066 Z0.7
N420 G0 Z18.
N425 X19.89 Y-33.291
N430 G1 Z0.7 F#103
N435 X19.886 Y-33.297 Z0.606
N440 X19.874 Y-33.315 Z0.515
N445 X19.853 Y-33.345 Z0.428
N450 X19.825 Y-33.385 Z0.347
N455 X19.79 Y-33.435 Z0.276
N460 X19.749 Y-33.494 Z0.215
N465 X19.703 Y-33.56 Z0.165
N470 X19.653 Y-33.631 Z0.129
N475 X19.601 Y-33.706 Z0.107
N480 X19.547 Y-33.783 Z0.1
N485 X18.896 Y-34.717
N490 G2 X15. Y-36.75 I-3.896 J2.717 F#100
N495 G1 X0.
N500 G2 X-3.898 Y-34.714 I0. J4.75
N505 G3 X-4.414 Y-35.018 I-0.246 J-0.171
N510 G1 X-3.138 Y-37.611
N515 G3 X-2.854 Y-37.778 I0.269 J0.132
N520 G1 X18.31 Y-36.74
N525 G3 X18.577 Y-36.544 I-0.015 J0.3
N530 G1 X19.447 Y-34.171
N535 G3 X18.896 Y-33.934 I-0.282 J0.103
N540 G2 X15. Y-36.35 I-3.896 J1.934
N545 G1 X0.
N550 G2 X-3.9 Y-33.927 I0. J4.35
N555 G3 X-4.449 Y-34.166 I-0.269 J-0.133
N560 G1 X-2.898 Y-38.247
N565 G3 X-2.585 Y-38.438 I0.28 J0.107
N570 G1 X18.807 Y-36.114
N575 G3 X19.072 Y-35.855 I-0.032 J0.298
N580 G1 X19.492 Y-32.721
N585 G3 X18.899 Y-32.633 I-0.297 J0.04
N590 G2 X15. Y-35.95 I-3.899 J0.633
N595 G1 X0.
N600 G2 X-3.899 Y-32.633 I0. J3.95
N605 G3 X-4.006 Y-32.448 I-0.296 J-0.048
N610 G1 X-6.643 Y-30.305
N615 G2 X-6.753 Y-30.054 I0.189 J0.233
N620 G1 X-4.175 Y13.031
N625 G2 X-3.876 Y13.314 I0.299 J-0.018
N630 G1 X-2.749 Y13.313
N635 G3 X-2.617 Y13.344 I0. J0.3
N640 G2 X-0.775 Y13.899 I2.617 J-5.344
N645 G1 X15.778
N650 G2 X17.609 Y13.348 I-0.778 J-5.899
N655 G3 X18.013 Y13.492 I0.132 J0.27
N660 X17.858 Y13.893 I-0.273 J0.125
N665 G1 X17.028 Y14.248
N670 G3 X16.889 Y14.272 I-0.118 J-0.276
N675 G1 X15.817 Y14.196
N680 X-3.332 Y11.727
N685 G2 X-3.563 Y12.255 I-0.038 J0.298
N690 X0. Y13.55 I3.563 J-4.255
N695 G1 X15.
N700 G2 X18.56 Y12.258 I0. J-5.55
N705 G1 X18.578 Y12.243 F#104
N710 X18.65 Y12.183 Z0.107
N715 X18.72 Y12.124 Z0.129
N720 X18.787 Y12.068 Z0.165
N725 X18.848 Y12.017 Z0.215
N730 X18.903 Y11.971 Z0.276
N735 X18.95 Y11.932 Z0.347
N740 X18.988 Y11.9 Z0.428
N745 X19.016 Y11.877 Z0.515
N750 X19.032 Y11.863 Z0.606
N755 X19.038 Y11.858 Z0.7
N760 G0 Z18.
N765 X-4.904 Y10.298
N770 G1 Z0.7 F#103
N775 X-4.899 Y10.303 Z0.606
N780 X-4.884 Y10.319 Z0.515
N785 X-4.859 Y10.346 Z0.428
N790 X-4.826 Y10.381 Z0.347
N795 X-4.784 Y10.426 Z0.276
N800 X-4.735 Y10.478 Z0.215
N805 X-4.68 Y10.537 Z0.165
N810 X-4.621 Y10.6 Z0.129
N815 X-4.558 Y10.667 Z0.107
N820 X-4.494 Y10.736 Z0.1
N825 X-3.759 Y11.521
N830 G2 X0. Y13.15 I3.759 J-3.521 F#100
N835 G1 X15.
N840 G2 X18.758 Y11.521 I0. J-5.15
N845 G1 X18.774 Y11.504 F#104
N850 X18.839 Y11.435 Z0.107
N855 X18.901 Y11.369 Z0.129
N860 X18.961 Y11.305 Z0.165
N865 X19.015 Y11.247 Z0.215
N870 X19.064 Y11.194 Z0.276
N875 X19.106 Y11.15 Z0.347
N880 X19.14 Y11.114 Z0.428
N885 X19.164 Y11.087 Z0.515
N890 X19.18 Y11.071 Z0.606
N895 X19.185 Y11.066 Z0.7
N900 G0 Z18.
N905 X-4.904 Y9.272
N910 G1 Z0.7 F#103
N915 X-4.9 Y9.278 Z0.606
N920 X-4.887 Y9.296 Z0.515
N925 X-4.866 Y9.326 Z0.428
N930 X-4.838 Y9.366 Z0.347
N935 X-4.803 Y9.416 Z0.276
N940 X-4.762 Y9.475 Z0.215
N945 X-4.716 Y9.541 Z0.165
N950 X-4.667 Y9.612 Z0.129
N955 X-4.614 Y9.687 Z0.107
N960 X-4.561 Y9.764 Z0.1
N965 X-3.896 Y10.717
N970 G2 X0. Y12.75 I3.896 J-2.717 F#100
N975 G1 X15.
N980 G2 X18.898 Y10.714 I0. J-4.75
N985 G3 X19.414 Y11.018 I0.246 J0.171
N990 G1 X18.138 Y13.611
N995 G3 X17.854 Y13.778 I-0.269 J-0.132
N1000 G1 X-3.31 Y12.74
N1005 G3 X-3.577 Y12.544 I0.015 J-0.3
N1010 G1 X-4.447 Y10.171
N1015 G3 X-3.896 Y9.934 I0.282 J-0.103
N1020 G2 X0. Y12.35 I3.896 J-1.934
N1025 G1 X15.
N1030 G2 X18.9 Y9.927 I0. J-4.35
N1035 G3 X19.449 Y10.166 I0.269 J0.133
N1040 G1 X17.898 Y14.247
N1045 G3 X17.585 Y14.438 I-0.28 J-0.107
N1050 G1 X-3.807 Y12.114
N1055 G3 X-4.072 Y11.855 I0.032 J-0.298
N1060 G1 X-4.492 Y8.721
N1065 G3 X-3.899 Y8.633 I0.297 J-0.04
N1070 G2 X0. Y11.95 I3.899 J-0.633
N1075 G1 X15.
N1080 G2 X18.899 Y8.633 I0. J-3.95
N1085 X18.738 Y8.295 I-0.324 J-0.053
N1090 G3 X18.55 Y7.971 I0.185 J-0.324
N1095 G1 Y-32.
N1100 G2 X15. Y-35.55 I-3.55 J0.
N1105 G1 X0.
N1110 G2 X-3.55 Y-32. I0. J3.55
N1115 G1 Y8.
N1120 G2 X0. Y11.55 I3.55 J0.
N1125 G1 X15.
N1130 G2 X18.55 Y8. I0. J-3.55
N1135 G1 Y7.971
N1140 G2 X18.325 Y7.634 I-0.366 J0.
N1145 G3 X18.1 Y7.296 I0.141 J-0.337
N1150 G1 Y-32.
N1155 G2 X15. Y-35.1 I-3.1 J0.
N1160 G1 X0.
N1165 G2 X-3.1 Y-32. I0. J3.1
N1170 G1 Y8.
N1175 G2 X0. Y11.1 I3.1 J0.
N1180 G1 X15.
N1185 G2 X18.1 Y8. I0. J-3.1
N1190 G1 Y7.296
N1195 G3 X18.129 Y7.111 I0.6 J0. F#104
N1200 G1 X18.919 Y4.681
N1205 X18.948 Y4.592 Z0.107
N1210 X18.976 Y4.505 Z0.129
N1215 X19.003 Y4.422 Z0.165
N1220 X19.028 Y4.346 Z0.215
N1225 X19.05 Y4.278 Z0.276
N1230 X19.069 Y4.22 Z0.347
N1235 X19.084 Y4.173 Z0.428
N1240 X19.095 Y4.139 Z0.515
N1245 X19.102 Y4.118 Z0.606
N1250 X19.104 Y4.111 Z0.7
N1255 G0 Z23.
(2D CONTOUR4)
N1265 M8
N1270 G0 X19.8 Y8.6
N1275 #102=1000. (FINISH)
N1280 #103=1000. (ENTRY)
N1285 #104=1000. (EXIT)
N1290 #108=333.33 (PLUNGE)
N1295 Z17.
N1300 Z15.
N1305 G1 Z14. F#103
N1310 Z0.7 F#108
N1315 G18 G3 X19.2 Z0.1 I-0.6 K0.
N1320 G1 X18.6 F#103
N1325 G17 G3 X18. Y8. I0. J-0.6
N1330 G1 Y-32. F#102
N1335 G2 X15. Y-35. I-3. J0.
N1340 G1 X0.
N1345 G2 X-3. Y-32. I0. J3.
N1350 G1 Y8.
N1355 G2 X0. Y11. I3. J0.
N1360 G1 X15.
N1365 G2 X18. Y8. I0. J-3.
N1370 G3 X18.6 Y7.4 I0.6 J0. F#104
N1375 G1 X19.2
N1380 G18 G2 X19.8 Z0.7 I0. K0.6
N1385 G0 Z17.
N1390 G17
N1395 M9
N1405 M30
%
