%
(1)
(T3  D=2.5 CR=0. TAPER=118DEG - ZMIN=0. - DRILL)
N10 G90 G94 G17 G91.1
N15 G21
N20 G53 G0 Z0.
(DRILL1)
N25 M9
N30 T3 M6
N35 S1910 M3
N40 G54
N45 M8
N55 G0 X12. Y-36.
N60 G43 Z28. H3
N70 G0 Z23.
N75 G98 G83 X12. Y-36. Z0. R18. Q1. F3.34
N80 G80
N90 G0 Y-28. Z23.
N95 G83 X12. Y-28. Z3. R18. Q1. F3.34
N100 X3.
N105 G80
N115 G0 Y-36. Z23.
N120 G83 X3. Y-36. Z0. R18. Q1. F3.34
N125 G80
N135 G0 Y-12. Z23.
N140 G83 X3. Y-12. Z3. R18. Q1. F3.34
N145 G80
N155 G0 Y-4. Z23.
N160 G83 X3. Y-4. Z0. R18. Q1. F3.34
N165 X12.
N170 G80
N180 G0 Y-12. Z23.
N185 G83 X12. Y-12. Z3. R18. Q1. F3.34
N190 G80
N195 G0 Z28.
N205 M9
N210 G53 Z0.
N215 M30
%
