%
(1)
(T13  D=6. CR=0. - ZMIN=0.1 - FLAT END MILL)
N10 G90 G94 G17 G91.1
N15 G21
N20 G53 G0 Z0.
(FACE1 4)
N25 M9
N30 T13 M6
N35 S3200 M3
N40 G54
N45 M8
N55 G0 X18.069 Y14.6
N60 G43 Z24. H13
N65 #100=1000. (CUTTING)
N70 #102=1000. (FINISH)
N75 #103=1000. (ENTRY)
N80 #104=1000. (EXIT)
N85 G0 Z21.
N90 G1 Z14.6 F#103
N95 G19 G2 Y14. Z14. J-0.6 K0.
N100 G1 Y-54. F#102
N105 G17 G2 X16.158 I-0.955 J0. F#100
N110 G1 Y14. F#102
N115 G3 X14.247 I-0.956 J0. F#100
N120 G1 Y-54. F#102
N125 G2 X12.336 I-0.955 J0. F#100
N130 G1 Y14. F#102
N135 G3 X10.425 I-0.956 J0. F#100
N140 G1 Y-54. F#102
N145 G2 X8.514 I-0.956 J0. F#100
N150 G1 Y14. F#102
N155 G3 X6.603 I-0.956 J0. F#100
N160 G1 Y-54. F#102
N165 G2 X4.692 I-0.956 J0. F#100
N170 G1 Y14. F#102
N175 G3 X2.781 I-0.955 J0. F#100
N180 G1 Y-54. F#102
N185 G2 X0.87 I-0.955 J0. F#100
N190 G1 Y14. F#102
N195 G19 G3 Y14.6 Z14.6 J0. K0.6 F#104
N200 G0 Z24.
N205 G17
(2D POCKET4)
N210 M8
N215 G0 Z28.
N220 X-0.124 Y-45.985
N225 #100=1000. (CUTTING)
N230 #103=1000. (ENTRY)
N235 #104=1000. (EXIT)
N240 Z23.
N245 G1 Z19. F#103
N250 Z0.7
N255 X-0.131 Y-45.984 Z0.606
N260 X-0.153 Y-45.981 Z0.515
N265 X-0.188 Y-45.977 Z0.428
N270 X-0.237 Y-45.97 Z0.347
N275 X-0.298 Y-45.962 Z0.276
N280 X-0.369 Y-45.953 Z0.215
N285 X-0.448 Y-45.942 Z0.165
N290 X-0.535 Y-45.931 Z0.129
N295 X-0.625 Y-45.919 Z0.107
N300 X-0.718 Y-45.907 Z0.1
N305 X-0.778 Y-45.899
N310 G2 X-2.609 Y-45.348 I0.778 J5.899 F#100
N315 G3 X-2.872 Y-45.887 I-0.132 J-0.27
N320 X-2.74 Y-45.917 I0.132 J0.27
N325 G1 X17.749 Y-45.913
N330 G3 X17.748 Y-45.313 I0. J0.3
N335 X17.617 Y-45.344 I0. J-0.3
N340 G2 X15.775 Y-45.899 I-2.617 J5.344
N345 G3 X15.853 Y-46.494 I0.039 J-0.297
N350 X15.965 Y-46.456 I-0.039 J0.297
N355 G1 X18.907 Y-44.744
N360 G3 X19.001 Y-44.313 I-0.151 J0.259
N365 X18.563 Y-44.255 I-0.246 J-0.172
N370 G2 X15. Y-45.55 I-3.563 J4.255
N375 G1 X0.
N380 G2 X-3.56 Y-44.258 I0. J5.55
N385 G1 X-3.578 Y-44.243 F#104
N390 X-3.65 Y-44.183 Z0.107
N395 X-3.72 Y-44.124 Z0.129
N400 X-3.787 Y-44.068 Z0.165
N405 X-3.848 Y-44.017 Z0.215
N410 X-3.903 Y-43.971 Z0.276
N415 X-3.95 Y-43.932 Z0.347
N420 X-3.988 Y-43.9 Z0.428
N425 X-4.016 Y-43.877 Z0.515
N430 X-4.032 Y-43.863 Z0.606
N435 X-4.038 Y-43.858 Z0.7
N440 G0 Z23.
N445 X19.888 Y-42.315
N450 G1 Z0.7 F#103
N455 X19.883 Y-42.32 Z0.606
N460 X19.868 Y-42.336 Z0.515
N465 X19.843 Y-42.363 Z0.428
N470 X19.81 Y-42.399 Z0.347
N475 X19.768 Y-42.443 Z0.276
N480 X19.719 Y-42.495 Z0.215
N485 X19.664 Y-42.554 Z0.165
N490 X19.605 Y-42.617 Z0.129
N495 X19.542 Y-42.684 Z0.107
N500 X19.478 Y-42.753 Z0.1
N505 X18.759 Y-43.521
N510 G2 X15. Y-45.15 I-3.759 J3.521 F#100
N515 G1 X0.
N520 G2 X-3.758 Y-43.521 I0. J5.15
N525 G1 X-3.774 Y-43.504 F#104
N530 X-3.839 Y-43.435 Z0.107
N535 X-3.901 Y-43.369 Z0.129
N540 X-3.961 Y-43.305 Z0.165
N545 X-4.015 Y-43.247 Z0.215
N550 X-4.064 Y-43.194 Z0.276
N555 X-4.106 Y-43.15 Z0.347
N560 X-4.14 Y-43.114 Z0.428
N565 X-4.164 Y-43.087 Z0.515
N570 X-4.18 Y-43.071 Z0.606
N575 X-4.185 Y-43.066 Z0.7
N580 G0 Z23.
N585 X19.89 Y-41.291
N590 G1 Z0.7 F#103
N595 X19.886 Y-41.297 Z0.606
N600 X19.874 Y-41.315 Z0.515
N605 X19.853 Y-41.345 Z0.428
N610 X19.825 Y-41.385 Z0.347
N615 X19.79 Y-41.435 Z0.276
N620 X19.749 Y-41.494 Z0.215
N625 X19.703 Y-41.56 Z0.165
N630 X19.653 Y-41.631 Z0.129
N635 X19.601 Y-41.706 Z0.107
N640 X19.547 Y-41.783 Z0.1
N645 X18.896 Y-42.717
N650 G2 X15. Y-44.75 I-3.896 J2.717 F#100
N655 G1 X0.
N660 G2 X-3.898 Y-42.714 I0. J4.75
N665 G3 X-4.414 Y-43.018 I-0.246 J-0.171
N670 G1 X-3.138 Y-45.611
N675 G3 X-2.854 Y-45.778 I0.269 J0.132
N680 G1 X18.31 Y-44.74
N685 G3 X18.577 Y-44.544 I-0.015 J0.3
N690 G1 X19.447 Y-42.171
N695 G3 X18.896 Y-41.934 I-0.282 J0.103
N700 G2 X15. Y-44.35 I-3.896 J1.934
N705 G1 X0.
N710 G2 X-3.9 Y-41.927 I0. J4.35
N715 G3 X-4.449 Y-42.166 I-0.269 J-0.133
N720 G1 X-2.898 Y-46.247
N725 G3 X-2.585 Y-46.438 I0.28 J0.107
N730 G1 X18.807 Y-44.114
N735 G3 X19.072 Y-43.855 I-0.032 J0.298
N740 G1 X19.492 Y-40.721
N745 G3 X18.899 Y-40.633 I-0.297 J0.04
N750 G2 X15. Y-43.95 I-3.899 J0.633
N755 G1 X0.
N760 G2 X-3.899 Y-40.633 I0. J3.95
N765 G3 X-4.006 Y-40.448 I-0.296 J-0.048
N770 G1 X-6.643 Y-38.305
N775 G2 X-6.753 Y-38.054 I0.189 J0.233
N780 G1 X-4.175 Y5.031
N785 G2 X-3.876 Y5.314 I0.299 J-0.018
N790 G1 X-2.749 Y5.313
N795 G3 X-2.617 Y5.344 I0. J0.3
N800 G2 X-0.775 Y5.899 I2.617 J-5.344
N805 G1 X15.778
N810 G2 X17.609 Y5.348 I-0.778 J-5.899
N815 G3 X18.013 Y5.492 I0.132 J0.27
N820 X17.858 Y5.893 I-0.273 J0.125
N825 G1 X17.028 Y6.248
N830 G3 X16.889 Y6.272 I-0.118 J-0.276
N835 G1 X15.817 Y6.196
N840 X-3.332 Y3.727
N845 G2 X-3.563 Y4.255 I-0.038 J0.298
N850 X0. Y5.55 I3.563 J-4.255
N855 G1 X15.
N860 G2 X18.56 Y4.258 I0. J-5.55
N865 G1 X18.578 Y4.243 F#104
N870 X18.65 Y4.183 Z0.107
N875 X18.72 Y4.124 Z0.129
N880 X18.787 Y4.068 Z0.165
N885 X18.848 Y4.017 Z0.215
N890 X18.903 Y3.971 Z0.276
N895 X18.95 Y3.932 Z0.347
N900 X18.988 Y3.9 Z0.428
N905 X19.016 Y3.877 Z0.515
N910 X19.032 Y3.863 Z0.606
N915 X19.038 Y3.858 Z0.7
N920 G0 Z23.
N925 X-4.904 Y2.298
N930 G1 Z0.7 F#103
N935 X-4.899 Y2.303 Z0.606
N940 X-4.884 Y2.319 Z0.515
N945 X-4.859 Y2.346 Z0.428
N950 X-4.826 Y2.381 Z0.347
N955 X-4.784 Y2.426 Z0.276
N960 X-4.735 Y2.478 Z0.215
N965 X-4.68 Y2.537 Z0.165
N970 X-4.621 Y2.6 Z0.129
N975 X-4.558 Y2.667 Z0.107
N980 X-4.494 Y2.736 Z0.1
N985 X-3.759 Y3.521
N990 G2 X0. Y5.15 I3.759 J-3.521 F#100
N995 G1 X15.
N1000 G2 X18.758 Y3.521 I0. J-5.15
N1005 G1 X18.774 Y3.504 F#104
N1010 X18.839 Y3.435 Z0.107
N1015 X18.901 Y3.369 Z0.129
N1020 X18.961 Y3.305 Z0.165
N1025 X19.015 Y3.247 Z0.215
N1030 X19.064 Y3.194 Z0.276
N1035 X19.106 Y3.15 Z0.347
N1040 X19.14 Y3.114 Z0.428
N1045 X19.164 Y3.087 Z0.515
N1050 X19.18 Y3.071 Z0.606
N1055 X19.185 Y3.066 Z0.7
N1060 G0 Z23.
N1065 X-4.904 Y1.272
N1070 G1 Z0.7 F#103
N1075 X-4.9 Y1.278 Z0.606
N1080 X-4.887 Y1.296 Z0.515
N1085 X-4.866 Y1.326 Z0.428
N1090 X-4.838 Y1.366 Z0.347
N1095 X-4.803 Y1.416 Z0.276
N1100 X-4.762 Y1.475 Z0.215
N1105 X-4.716 Y1.541 Z0.165
N1110 X-4.667 Y1.612 Z0.129
N1115 X-4.614 Y1.687 Z0.107
N1120 X-4.561 Y1.764 Z0.1
N1125 X-3.896 Y2.717
N1130 G2 X0. Y4.75 I3.896 J-2.717 F#100
N1135 G1 X15.
N1140 G2 X18.898 Y2.714 I0. J-4.75
N1145 G3 X19.414 Y3.018 I0.246 J0.171
N1150 G1 X18.138 Y5.611
N1155 G3 X17.854 Y5.778 I-0.269 J-0.132
N1160 G1 X-3.31 Y4.74
N1165 G3 X-3.577 Y4.544 I0.015 J-0.3
N1170 G1 X-4.447 Y2.171
N1175 G3 X-3.896 Y1.934 I0.282 J-0.103
N1180 G2 X0. Y4.35 I3.896 J-1.934
N1185 G1 X15.
N1190 G2 X18.9 Y1.927 I0. J-4.35
N1195 G3 X19.449 Y2.166 I0.269 J0.133
N1200 G1 X17.898 Y6.247
N1205 G3 X17.585 Y6.438 I-0.28 J-0.107
N1210 G1 X-3.807 Y4.114
N1215 G3 X-4.072 Y3.855 I0.032 J-0.298
N1220 G1 X-4.492 Y0.721
N1225 G3 X-3.899 Y0.633 I0.297 J-0.04
N1230 G2 X0. Y3.95 I3.899 J-0.633
N1235 G1 X15.
N1240 G2 X18.899 Y0.633 I0. J-3.95
N1245 X18.738 Y0.295 I-0.324 J-0.053
N1250 G3 X18.55 Y-0.029 I0.185 J-0.324
N1255 G1 Y-40.
N1260 G2 X15. Y-43.55 I-3.55 J0.
N1265 G1 X0.
N1270 G2 X-3.55 Y-40. I0. J3.55
N1275 G1 Y0.
N1280 G2 X0. Y3.55 I3.55 J0.
N1285 G1 X15.
N1290 G2 X18.55 Y0. I0. J-3.55
N1295 G1 Y-0.029
N1300 G2 X18.325 Y-0.366 I-0.366 J0.
N1305 G3 X18.1 Y-0.704 I0.141 J-0.338
N1310 G1 Y-40.
N1315 G2 X15. Y-43.1 I-3.1 J0.
N1320 G1 X0.
N1325 G2 X-3.1 Y-40. I0. J3.1
N1330 G1 Y0.
N1335 G2 X0. Y3.1 I3.1 J0.
N1340 G1 X15.
N1345 G2 X18.1 Y0. I0. J-3.1
N1350 G1 Y-0.704
N1355 G3 X18.129 Y-0.889 I0.6 J0. F#104
N1360 G1 X18.919 Y-3.319
N1365 X18.948 Y-3.408 Z0.107
N1370 X18.976 Y-3.495 Z0.129
N1375 X19.003 Y-3.578 Z0.165
N1380 X19.028 Y-3.654 Z0.215
N1385 X19.05 Y-3.722 Z0.276
N1390 X19.069 Y-3.78 Z0.347
N1395 X19.084 Y-3.827 Z0.428
N1400 X19.095 Y-3.861 Z0.515
N1405 X19.102 Y-3.882 Z0.606
N1410 X19.104 Y-3.889 Z0.7
N1415 G0 Z28.
(2D CONTOUR4)
N1425 M8
N1430 G0 X19.8 Y0.6
N1435 #102=1000. (FINISH)
N1440 #103=1000. (ENTRY)
N1445 #104=1000. (EXIT)
N1450 #108=333.33 (PLUNGE)
N1455 Z22.
N1460 Z20.
N1465 G1 Z19. F#103
N1470 Z0.7 F#108
N1475 G18 G3 X19.2 Z0.1 I-0.6 K0.
N1480 G1 X18.6 F#103
N1485 G17 G3 X18. Y0. I0. J-0.6
N1490 G1 Y-40. F#102
N1495 G2 X15. Y-43. I-3. J0.
N1500 G1 X0.
N1505 G2 X-3. Y-40. I0. J3.
N1510 G1 Y0.
N1515 G2 X0. Y3. I3. J0.
N1520 G1 X15.
N1525 G2 X18. Y0. I0. J-3.
N1530 G3 X18.6 Y-0.6 I0.6 J0. F#104
N1535 G1 X19.2
N1540 G18 G2 X19.8 Z0.7 I0. K0.6
N1545 G0 Z22.
N1550 G17
N1555 M9
N1560 G53 G0 Z0.
N1565 M30
%
