%
(T13 BEARING HOLDER BOTTOM)
(T13  D=6. CR=0. - ZMIN=0.1 - FLAT END MILL)
N10 G90 G94 G17 G91.1
N15 G21
N20 G53 G0 Z0.
(FACE1 4)
N25 M9
N30 T13 M6
N35 S3200 M3
N40 G54
N45 M8
N55 G0 X20.054 Y8.42
N60 G43 Z28. H13
N65 G0 Z23.
N70 G1 Z13.85 F1000.
N75 G19 G2 Y7.82 Z13.25 J-0.6 K0.
N80 G1 Y5.805
N85 Y-45.805
N90 Y-46.
N95 G17 G2 X18.128 I-0.963 J0.
N100 G1 Y6.
N105 G3 X16.202 I-0.963 J0.
N110 G1 Y-46.
N115 G2 X14.277 I-0.963 J0.
N120 G1 Y6.
N125 G3 X12.351 I-0.963 J0.
N130 G1 Y-46.
N135 G2 X10.425 I-0.963 J0.
N140 G1 Y6.
N145 G3 X8.499 I-0.963 J0.
N150 G1 Y-46.
N155 G2 X6.573 I-0.963 J0.
N160 G1 Y6.
N165 G3 X4.648 I-0.963 J0.
N170 G1 Y-46.
N175 G2 X2.722 I-0.963 J0.
N180 G1 Y6.
N185 G3 X0.796 I-0.963 J0.
N190 G1 Y-46.
N195 G2 X-1.13 I-0.963 J0.
N200 G1 Y6.
N205 G19 G3 Y6.6 Z13.85 J0. K0.6
N210 G0 Z28.
N215 G17
(2D POCKET4)
N220 M8
N225 G0 X-0.124 Y-45.985
N230 Z28.
N235 Z23.
N240 G1 Z19. F1000.
N245 Z0.7
N250 X-0.131 Y-45.984 Z0.606
N255 X-0.153 Y-45.981 Z0.515
N260 X-0.188 Y-45.977 Z0.428
N265 X-0.237 Y-45.97 Z0.347
N270 X-0.298 Y-45.962 Z0.276
N275 X-0.369 Y-45.953 Z0.215
N280 X-0.448 Y-45.942 Z0.165
N285 X-0.535 Y-45.931 Z0.129
N290 X-0.625 Y-45.919 Z0.107
N295 X-0.718 Y-45.907 Z0.1
N300 X-0.778 Y-45.899
N305 G2 X-2.609 Y-45.348 I0.778 J5.899
N310 G3 X-2.872 Y-45.887 I-0.132 J-0.27
N315 X-2.74 Y-45.917 I0.132 J0.27
N320 G1 X17.749 Y-45.913
N325 G3 X17.748 Y-45.313 I0. J0.3
N330 X17.617 Y-45.344 I0. J-0.3
N335 G2 X15.775 Y-45.899 I-2.617 J5.344
N340 G3 X15.853 Y-46.494 I0.039 J-0.297
N345 X15.965 Y-46.456 I-0.039 J0.297
N350 G1 X18.907 Y-44.744
N355 G3 X19.001 Y-44.313 I-0.151 J0.259
N360 X18.563 Y-44.255 I-0.246 J-0.172
N365 G2 X15. Y-45.55 I-3.563 J4.255
N370 G1 X0.
N375 G2 X-3.56 Y-44.258 I0. J5.55
N380 G1 X-3.578 Y-44.243
N385 X-3.65 Y-44.183 Z0.107
N390 X-3.72 Y-44.124 Z0.129
N395 X-3.787 Y-44.068 Z0.165
N400 X-3.848 Y-44.017 Z0.215
N405 X-3.903 Y-43.971 Z0.276
N410 X-3.95 Y-43.932 Z0.347
N415 X-3.988 Y-43.9 Z0.428
N420 X-4.016 Y-43.877 Z0.515
N425 X-4.032 Y-43.863 Z0.606
N430 X-4.038 Y-43.858 Z0.7
N435 G0 Z23.
N440 X19.888 Y-42.315
N445 G1 Z0.7 F1000.
N450 X19.883 Y-42.32 Z0.606
N455 X19.868 Y-42.336 Z0.515
N460 X19.843 Y-42.363 Z0.428
N465 X19.81 Y-42.399 Z0.347
N470 X19.768 Y-42.443 Z0.276
N475 X19.719 Y-42.495 Z0.215
N480 X19.664 Y-42.554 Z0.165
N485 X19.605 Y-42.617 Z0.129
N490 X19.542 Y-42.684 Z0.107
N495 X19.478 Y-42.753 Z0.1
N500 X18.759 Y-43.521
N505 G2 X15. Y-45.15 I-3.759 J3.521
N510 G1 X0.
N515 G2 X-3.758 Y-43.521 I0. J5.15
N520 G1 X-3.774 Y-43.504
N525 X-3.839 Y-43.435 Z0.107
N530 X-3.901 Y-43.369 Z0.129
N535 X-3.961 Y-43.305 Z0.165
N540 X-4.015 Y-43.247 Z0.215
N545 X-4.064 Y-43.194 Z0.276
N550 X-4.106 Y-43.15 Z0.347
N555 X-4.14 Y-43.114 Z0.428
N560 X-4.164 Y-43.087 Z0.515
N565 X-4.18 Y-43.071 Z0.606
N570 X-4.185 Y-43.066 Z0.7
N575 G0 Z23.
N580 X19.89 Y-41.291
N585 G1 Z0.7 F1000.
N590 X19.886 Y-41.297 Z0.606
N595 X19.874 Y-41.315 Z0.515
N600 X19.853 Y-41.345 Z0.428
N605 X19.825 Y-41.385 Z0.347
N610 X19.79 Y-41.435 Z0.276
N615 X19.749 Y-41.494 Z0.215
N620 X19.703 Y-41.56 Z0.165
N625 X19.653 Y-41.631 Z0.129
N630 X19.601 Y-41.706 Z0.107
N635 X19.547 Y-41.783 Z0.1
N640 X18.896 Y-42.717
N645 G2 X15. Y-44.75 I-3.896 J2.717
N650 G1 X0.
N655 G2 X-3.898 Y-42.714 I0. J4.75
N660 G3 X-4.414 Y-43.018 I-0.246 J-0.171
N665 G1 X-3.138 Y-45.611
N670 G3 X-2.854 Y-45.778 I0.269 J0.132
N675 G1 X18.31 Y-44.74
N680 G3 X18.577 Y-44.544 I-0.015 J0.3
N685 G1 X19.447 Y-42.171
N690 G3 X18.896 Y-41.934 I-0.282 J0.103
N695 G2 X15. Y-44.35 I-3.896 J1.934
N700 G1 X0.
N705 G2 X-3.9 Y-41.927 I0. J4.35
N710 G3 X-4.449 Y-42.166 I-0.269 J-0.133
N715 G1 X-2.898 Y-46.247
N720 G3 X-2.585 Y-46.438 I0.28 J0.107
N725 G1 X18.807 Y-44.114
N730 G3 X19.072 Y-43.855 I-0.032 J0.298
N735 G1 X19.492 Y-40.721
N740 G3 X18.899 Y-40.633 I-0.297 J0.04
N745 G2 X15. Y-43.95 I-3.899 J0.633
N750 G1 X0.
N755 G2 X-3.899 Y-40.633 I0. J3.95
N760 G3 X-4.006 Y-40.448 I-0.296 J-0.048
N765 G1 X-6.643 Y-38.305
N770 G2 X-6.753 Y-38.054 I0.189 J0.233
N775 G1 X-4.175 Y5.031
N780 G2 X-3.876 Y5.314 I0.299 J-0.018
N785 G1 X-2.749 Y5.313
N790 G3 X-2.617 Y5.344 I0. J0.3
N795 G2 X-0.775 Y5.899 I2.617 J-5.344
N800 G1 X15.778
N805 G2 X17.609 Y5.348 I-0.778 J-5.899
N810 G3 X18.013 Y5.492 I0.132 J0.27
N815 X17.858 Y5.893 I-0.273 J0.125
N820 G1 X17.028 Y6.248
N825 G3 X16.889 Y6.272 I-0.118 J-0.276
N830 G1 X15.817 Y6.196
N835 X-3.332 Y3.727
N840 G2 X-3.563 Y4.255 I-0.038 J0.298
N845 X0. Y5.55 I3.563 J-4.255
N850 G1 X15.
N855 G2 X18.56 Y4.258 I0. J-5.55
N860 G1 X18.578 Y4.243
N865 X18.65 Y4.183 Z0.107
N870 X18.72 Y4.124 Z0.129
N875 X18.787 Y4.068 Z0.165
N880 X18.848 Y4.017 Z0.215
N885 X18.903 Y3.971 Z0.276
N890 X18.95 Y3.932 Z0.347
N895 X18.988 Y3.9 Z0.428
N900 X19.016 Y3.877 Z0.515
N905 X19.032 Y3.863 Z0.606
N910 X19.038 Y3.858 Z0.7
N915 G0 Z23.
N920 X-4.904 Y2.298
N925 G1 Z0.7 F1000.
N930 X-4.899 Y2.303 Z0.606
N935 X-4.884 Y2.319 Z0.515
N940 X-4.859 Y2.346 Z0.428
N945 X-4.826 Y2.381 Z0.347
N950 X-4.784 Y2.426 Z0.276
N955 X-4.735 Y2.478 Z0.215
N960 X-4.68 Y2.537 Z0.165
N965 X-4.621 Y2.6 Z0.129
N970 X-4.558 Y2.667 Z0.107
N975 X-4.494 Y2.736 Z0.1
N980 X-3.759 Y3.521
N985 G2 X0. Y5.15 I3.759 J-3.521
N990 G1 X15.
N995 G2 X18.758 Y3.521 I0. J-5.15
N1000 G1 X18.774 Y3.504
N1005 X18.839 Y3.435 Z0.107
N1010 X18.901 Y3.369 Z0.129
N1015 X18.961 Y3.305 Z0.165
N1020 X19.015 Y3.247 Z0.215
N1025 X19.064 Y3.194 Z0.276
N1030 X19.106 Y3.15 Z0.347
N1035 X19.14 Y3.114 Z0.428
N1040 X19.164 Y3.087 Z0.515
N1045 X19.18 Y3.071 Z0.606
N1050 X19.185 Y3.066 Z0.7
N1055 G0 Z23.
N1060 X-4.904 Y1.272
N1065 G1 Z0.7 F1000.
N1070 X-4.9 Y1.278 Z0.606
N1075 X-4.887 Y1.296 Z0.515
N1080 X-4.866 Y1.326 Z0.428
N1085 X-4.838 Y1.366 Z0.347
N1090 X-4.803 Y1.416 Z0.276
N1095 X-4.762 Y1.475 Z0.215
N1100 X-4.716 Y1.541 Z0.165
N1105 X-4.667 Y1.612 Z0.129
N1110 X-4.614 Y1.687 Z0.107
N1115 X-4.561 Y1.764 Z0.1
N1120 X-3.896 Y2.717
N1125 G2 X0. Y4.75 I3.896 J-2.717
N1130 G1 X15.
N1135 G2 X18.898 Y2.714 I0. J-4.75
N1140 G3 X19.414 Y3.018 I0.246 J0.171
N1145 G1 X18.138 Y5.611
N1150 G3 X17.854 Y5.778 I-0.269 J-0.132
N1155 G1 X-3.31 Y4.74
N1160 G3 X-3.577 Y4.544 I0.015 J-0.3
N1165 G1 X-4.447 Y2.171
N1170 G3 X-3.896 Y1.934 I0.282 J-0.103
N1175 G2 X0. Y4.35 I3.896 J-1.934
N1180 G1 X15.
N1185 G2 X18.9 Y1.927 I0. J-4.35
N1190 G3 X19.449 Y2.166 I0.269 J0.133
N1195 G1 X17.898 Y6.247
N1200 G3 X17.585 Y6.438 I-0.28 J-0.107
N1205 G1 X-3.807 Y4.114
N1210 G3 X-4.072 Y3.855 I0.032 J-0.298
N1215 G1 X-4.492 Y0.721
N1220 G3 X-3.899 Y0.633 I0.297 J-0.04
N1225 G2 X0. Y3.95 I3.899 J-0.633
N1230 G1 X15.
N1235 G2 X18.899 Y0.633 I0. J-3.95
N1240 X18.738 Y0.295 I-0.324 J-0.053
N1245 G3 X18.55 Y-0.029 I0.185 J-0.324
N1250 G1 Y-40.
N1255 G2 X15. Y-43.55 I-3.55 J0.
N1260 G1 X0.
N1265 G2 X-3.55 Y-40. I0. J3.55
N1270 G1 Y0.
N1275 G2 X0. Y3.55 I3.55 J0.
N1280 G1 X15.
N1285 G2 X18.55 Y0. I0. J-3.55
N1290 G1 Y-0.029
N1295 G2 X18.325 Y-0.366 I-0.366 J0.
N1300 G3 X18.1 Y-0.704 I0.141 J-0.338
N1305 G1 Y-40.
N1310 G2 X15. Y-43.1 I-3.1 J0.
N1315 G1 X0.
N1320 G2 X-3.1 Y-40. I0. J3.1
N1325 G1 Y0.
N1330 G2 X0. Y3.1 I3.1 J0.
N1335 G1 X15.
N1340 G2 X18.1 Y0. I0. J-3.1
N1345 G1 Y-0.704
N1350 G3 X18.129 Y-0.889 I0.6 J0.
N1355 G1 X18.919 Y-3.319
N1360 X18.948 Y-3.408 Z0.107
N1365 X18.976 Y-3.495 Z0.129
N1370 X19.003 Y-3.578 Z0.165
N1375 X19.028 Y-3.654 Z0.215
N1380 X19.05 Y-3.722 Z0.276
N1385 X19.069 Y-3.78 Z0.347
N1390 X19.084 Y-3.827 Z0.428
N1395 X19.095 Y-3.861 Z0.515
N1400 X19.102 Y-3.882 Z0.606
N1405 X19.104 Y-3.889 Z0.7
N1410 G0 Z28.
(2D CONTOUR4)
N1420 M8
N1425 G0 X19.8 Y0.6
N1430 Z28.
N1435 Z23.
N1440 G1 Z19. F1000.
N1445 Z0.7 F333.33
N1450 G18 G3 X19.2 Z0.1 I-0.6 K0.
N1455 G1 X18.6 F1000.
N1460 G17 G3 X18. Y0. I0. J-0.6
N1465 G1 Y-40.
N1470 G2 X15. Y-43. I-3. J0.
N1475 G1 X0.
N1480 G2 X-3. Y-40. I0. J3.
N1485 G1 Y0.
N1490 G2 X0. Y3. I3. J0.
N1495 G1 X15.
N1500 G2 X18. Y0. I0. J-3.
N1505 G3 X18.6 Y-0.6 I0.6 J0.
N1510 G1 X19.2
N1515 G18 G2 X19.8 Z0.7 I0. K0.6
N1520 G0 Z28.
N1525 G17
N1530 M9
N1535 G53 G0 Z0.
N1540 M30
%
