%
(1001)
(T13  D=6. CR=0. - ZMIN=-14. - FLAT END MILL)
N10 G90 G94 G17 G91.1
N15 G21
N20 G53 G0 Z0.
(FACE1 3)
N25 M9
N30 T13 M6
N35 S3200 M3
N40 G54
N45 M8
N55 G0 X53.99 Y-18.775
N60 G43 Z10. H13
N65 G0 Z5.
N70 G1 Z-0.4 F1000.
N75 G18 G3 X53.39 Z-1. I-0.6 K0.
N80 G1 X50.936
N85 X-4.936
N90 X-5.
N95 G17 G2 Y-14.6 I0. J2.087
N100 G1 X51.
N105 G3 Y-10.425 I0. J2.088
N110 G1 X-5.
N115 G2 Y-6.25 I0. J2.088
N120 G1 X51.
N125 G3 Y-2.075 I0. J2.088
N130 G1 X-5.
N135 G2 Y2.1 I0. J2.088
N140 G1 X51.
N145 G18 G2 X51.6 Z-0.4 I0. K0.6
N150 G0 Z10.
N155 G17
(2D POCKET3 4)
N160 M8
N165 G0 X48.805 Y10.613
N170 Z10.
N175 Z8.
N180 G1 Z-6.4 F1000.
N185 G19 G2 Y10.013 Z-7. J-0.6 K0.
N190 G1 Y1.016
N195 Y-16.017
N200 G17 G3 X49.105 Y-16.317 I0.3 J0.
N205 X49.405 Y-16.017 I0. J0.3
N210 G1 Y-7.511
N215 G3 Y-7.5 I-0.3 J0.
N220 G1 X49.105 Y1.016
N225 G3 X49.077 Y1.132 I-0.3 J-0.011
N230 G1 X48.477 Y2.419
N235 G3 X47.905 Y2.293 I-0.272 J-0.127
N240 G1 Y-17.293
N245 G3 X48.505 I0.3 J0.
N250 G1 Y-7.509
N255 Y-7.5
N260 X48.205 Y2.293
N265 G3 X48.103 Y2.509 I-0.3 J-0.009
N270 G1 X47.502 Y3.034
N275 G3 X47.005 Y2.808 I-0.197 J-0.226
N280 G1 Y-17.81
N285 G3 X47.605 I0.3 J0.
N290 G1 Y-7.509
N295 Y-7.501
N300 X47.305 Y2.808
N305 G3 X47.092 Y3.087 I-0.3 J-0.009
N310 G1 X46.492 Y3.269
N315 G3 X46.105 Y2.982 I-0.087 J-0.287
N320 G1 Y-17.98
N325 G3 X46.705 I0.3 J0.
N330 G1 Y-7.508
N335 Y-7.499
N340 X46.405 Y2.982
N345 G3 X46.113 Y3.273 I-0.3 J-0.009
N350 G1 X45.513 Y3.289
N355 G3 X45.205 Y2.989 I-0.008 J-0.3
N360 G1 Y-17.989
N365 G3 X45.805 I0.3 J0.
N370 G1 Y-7.508
N375 Y-7.5
N380 X45.505 Y2.989
N385 G3 X45.209 Y3.28 I-0.3 J-0.009
N390 G1 X44.609 Y3.288
N395 G3 X44.305 Y2.988 I-0.004 J-0.3
N400 G1 Y-17.989
N405 G3 X44.905 I0.3 J0.
N410 G1 Y-7.509
N415 Y-7.5
N420 X44.605 Y2.988
N425 G3 X44.31 Y3.28 I-0.3 J-0.009
N430 G1 X43.71 Y3.289
N435 G3 X43.405 Y2.989 I-0.005 J-0.3
N440 G1 Y-17.99
N445 G3 X43.705 Y-18.29 I0.3 J0.
N450 X44.005 Y-17.99 I0. J0.3
N455 G1 Y-7.509
N460 Y-7.5
N465 X43.705 Y2.989
N470 G3 X43.409 Y3.281 I-0.3 J-0.009
N475 G1 X42.809 Y3.289
N480 G3 X42.505 Y2.989 I-0.004 J-0.3
N485 G1 Y-17.988
N490 G3 X43.105 I0.3 J0.
N495 G1 Y-7.508
N500 Y-7.5
N505 X42.805 Y2.989
N510 G3 X42.509 Y3.28 I-0.3 J-0.009
N515 G1 X41.909 Y3.288
N520 G3 X41.605 Y2.988 I-0.004 J-0.3
N525 G1 Y-17.989
N530 G3 X42.205 I0.3 J0.
N535 G1 Y-7.509
N540 Y-7.5
N545 X41.905 Y2.988
N550 G3 X41.61 Y3.28 I-0.3 J-0.009
N555 G1 X41.01 Y3.29
N560 G3 X40.705 Y2.99 I-0.005 J-0.3
N565 G1 Y-17.99
N570 G3 X41.305 I0.3 J0.
N575 G1 Y-7.509
N580 Y-7.5
N585 X41.005 Y2.99
N590 G3 X40.709 Y3.281 I-0.3 J-0.009
N595 G1 X40.109 Y3.289
N600 G3 X39.805 Y2.989 I-0.004 J-0.3
N605 G1 Y-17.988
N610 G3 X40.405 I0.3 J0.
N615 G1 Y-7.508
N620 Y-7.5
N625 X40.105 Y2.989
N630 G3 X39.809 Y3.28 I-0.3 J-0.009
N635 G1 X39.209 Y3.288
N640 G3 X38.905 Y2.988 I-0.004 J-0.3
N645 G1 Y-17.989
N650 G3 X39.505 I0.3 J0.
N655 G1 Y-7.509
N660 Y-7.5
N665 X39.205 Y2.988
N670 G3 X38.91 Y3.28 I-0.3 J-0.009
N675 G1 X38.304 Y3.289
N680 G3 X38. Y2.989 I-0.004 J-0.3
N685 G1 Y-15.
N690 Y-17.989
N695 G3 X38.571 Y-18.117 I0.3 J0.
N700 G1 X48.234 Y2.367
N705 G2 X48.805 Y2.239 I0.271 J-0.128
N710 G19 G3 Y1.639 Z-7.6 J0. K-0.6
N715 G1 Z-13.4
N720 G2 Y1.039 Z-14. J-0.6 K0.
N725 G1 Y1.016
N730 Y-16.017
N735 G17 G3 X49.105 Y-16.317 I0.3 J0.
N740 X49.405 Y-16.017 I0. J0.3
N745 G1 Y-7.511
N750 G3 Y-7.5 I-0.3 J0.
N755 G1 X49.105 Y1.016
N760 G3 X49.077 Y1.132 I-0.3 J-0.011
N765 G1 X48.477 Y2.419
N770 G3 X47.905 Y2.293 I-0.272 J-0.127
N775 G1 Y-17.293
N780 G3 X48.505 I0.3 J0.
N785 G1 Y-7.509
N790 Y-7.5
N795 X48.205 Y2.293
N800 G3 X48.103 Y2.509 I-0.3 J-0.009
N805 G1 X47.502 Y3.034
N810 G3 X47.005 Y2.808 I-0.197 J-0.226
N815 G1 Y-17.81
N820 G3 X47.605 I0.3 J0.
N825 G1 Y-7.509
N830 Y-7.501
N835 X47.305 Y2.808
N840 G3 X47.092 Y3.087 I-0.3 J-0.009
N845 G1 X46.492 Y3.269
N850 G3 X46.105 Y2.982 I-0.087 J-0.287
N855 G1 Y-17.98
N860 G3 X46.705 I0.3 J0.
N865 G1 Y-7.508
N870 Y-7.499
N875 X46.405 Y2.982
N880 G3 X46.113 Y3.273 I-0.3 J-0.009
N885 G1 X45.513 Y3.289
N890 G3 X45.205 Y2.989 I-0.008 J-0.3
N895 G1 Y-17.989
N900 G3 X45.805 I0.3 J0.
N905 G1 Y-7.508
N910 Y-7.5
N915 X45.505 Y2.989
N920 G3 X45.209 Y3.28 I-0.3 J-0.009
N925 G1 X44.609 Y3.288
N930 G3 X44.305 Y2.988 I-0.004 J-0.3
N935 G1 Y-17.989
N940 G3 X44.905 I0.3 J0.
N945 G1 Y-7.509
N950 Y-7.5
N955 X44.605 Y2.988
N960 G3 X44.31 Y3.28 I-0.3 J-0.009
N965 G1 X43.71 Y3.289
N970 G3 X43.405 Y2.989 I-0.005 J-0.3
N975 G1 Y-17.99
N980 G3 X43.705 Y-18.29 I0.3 J0.
N985 X44.005 Y-17.99 I0. J0.3
N990 G1 Y-7.509
N995 Y-7.5
N1000 X43.705 Y2.989
N1005 G3 X43.409 Y3.281 I-0.3 J-0.009
N1010 G1 X42.809 Y3.289
N1015 G3 X42.505 Y2.989 I-0.004 J-0.3
N1020 G1 Y-17.988
N1025 G3 X43.105 I0.3 J0.
N1030 G1 Y-7.508
N1035 Y-7.5
N1040 X42.805 Y2.989
N1045 G3 X42.509 Y3.28 I-0.3 J-0.009
N1050 G1 X41.909 Y3.288
N1055 G3 X41.605 Y2.988 I-0.004 J-0.3
N1060 G1 Y-17.989
N1065 G3 X42.205 I0.3 J0.
N1070 G1 Y-7.509
N1075 Y-7.5
N1080 X41.905 Y2.988
N1085 G3 X41.61 Y3.28 I-0.3 J-0.009
N1090 G1 X41.01 Y3.29
N1095 G3 X40.705 Y2.99 I-0.005 J-0.3
N1100 G1 Y-17.99
N1105 G3 X41.305 I0.3 J0.
N1110 G1 Y-7.509
N1115 Y-7.5
N1120 X41.005 Y2.99
N1125 G3 X40.709 Y3.281 I-0.3 J-0.009
N1130 G1 X40.109 Y3.289
N1135 G3 X39.805 Y2.989 I-0.004 J-0.3
N1140 G1 Y-17.988
N1145 G3 X40.405 I0.3 J0.
N1150 G1 Y-7.508
N1155 Y-7.5
N1160 X40.105 Y2.989
N1165 G3 X39.809 Y3.28 I-0.3 J-0.009
N1170 G1 X39.209 Y3.288
N1175 G3 X38.905 Y2.988 I-0.004 J-0.3
N1180 G1 Y-17.989
N1185 G3 X39.505 I0.3 J0.
N1190 G1 Y-7.509
N1195 Y-7.5
N1200 X39.205 Y2.988
N1205 G3 X38.91 Y3.28 I-0.3 J-0.009
N1210 G1 X38.304 Y3.289
N1215 G3 X38. Y2.989 I-0.004 J-0.3
N1220 G1 Y-15.
N1225 Y-17.989
N1230 G3 X38.007 Y-18.082 I0.6 J0.
N1235 G1 X38.477 Y-21.045
N1240 X38.491 Y-21.138 Z-13.993
N1245 X38.506 Y-21.229 Z-13.971
N1250 X38.519 Y-21.315 Z-13.935
N1255 X38.532 Y-21.394 Z-13.885
N1260 X38.543 Y-21.465 Z-13.824
N1265 X38.553 Y-21.525 Z-13.753
N1270 X38.56 Y-21.574 Z-13.672
N1275 X38.566 Y-21.609 Z-13.585
N1280 X38.569 Y-21.631 Z-13.494
N1285 X38.571 Y-21.638 Z-13.4
N1290 G0 Z8.
N1295 X-2.805 Y-25.609
N1300 G1 Z-6.4 F1000.
N1305 G19 G3 Y-25.009 Z-7. J0.6 K0.
N1310 G1 Y-16.016
N1315 Y1.017
N1320 G17 G3 X-3.405 I-0.3 J0.
N1325 G1 Y-7.489
N1330 G3 Y-7.499 I0.3 J0.
N1335 G1 X-3.105 Y-16.016
N1340 G3 X-3.077 Y-16.132 I0.3 J0.011
N1345 G1 X-2.477 Y-17.419
N1350 G3 X-1.905 Y-17.292 I0.272 J0.127
N1355 G1 Y2.293
N1360 G3 X-2.505 I-0.3 J0.
N1365 G1 Y-7.491
N1370 Y-7.5
N1375 X-2.205 Y-17.292
N1380 G3 X-2.103 Y-17.509 I0.3 J0.009
N1385 G1 X-1.503 Y-18.035
N1390 G3 X-1.005 Y-17.81 I0.198 J0.225
N1395 G1 Y2.81
N1400 G3 X-1.605 I-0.3 J0.
N1405 G1 Y-7.491
N1410 Y-7.5
N1415 X-1.305 Y-17.81
N1420 G3 X-1.091 Y-18.089 I0.3 J0.009
N1425 G1 X-0.491 Y-18.269
N1430 G3 X-0.105 Y-17.982 I0.086 J0.287
N1435 G1 Y2.98
N1440 G3 X-0.705 I-0.3 J0.
N1445 G1 Y-7.492
N1450 Y-7.501
N1455 X-0.405 Y-17.982
N1460 G3 X-0.113 Y-18.273 I0.3 J0.009
N1465 G1 X0.487 Y-18.288
N1470 G3 X0.795 Y-17.989 I0.008 J0.3
N1475 G1 Y2.989
N1480 G3 X0.495 Y3.289 I-0.3 J0.
N1485 X0.195 Y2.989 I0. J-0.3
N1490 G1 Y-7.491
N1495 Y-7.5
N1500 X0.495 Y-17.989
N1505 G3 X0.79 Y-18.28 I0.3 J0.009
N1510 G1 X1.39 Y-18.29
N1515 G3 X1.695 Y-17.99 I0.005 J0.3
N1520 G1 Y2.989
N1525 G3 X1.095 I-0.3 J0.
N1530 G1 Y-7.492
N1535 Y-7.5
N1540 X1.395 Y-17.99
N1545 G3 X1.691 Y-18.281 I0.3 J0.009
N1550 G1 X2.291 Y-18.289
N1555 G3 X2.595 Y-17.989 I0.004 J0.3
N1560 G1 Y2.99
N1565 G3 X2.295 Y3.29 I-0.3 J0.
N1570 X1.995 Y2.99 I0. J-0.3
N1575 G1 Y-7.491
N1580 Y-7.5
N1585 X2.295 Y-17.989
N1590 G3 X2.591 Y-18.281 I0.3 J0.009
N1595 G1 X3.191 Y-18.289
N1600 G3 X3.495 Y-17.989 I0.004 J0.3
N1605 G1 Y2.989
N1610 G3 X3.195 Y3.289 I-0.3 J0.
N1615 X2.895 Y2.989 I0. J-0.3
N1620 G1 Y-7.492
N1625 Y-7.5
N1630 X3.195 Y-17.989
N1635 G3 X3.491 Y-18.28 I0.3 J0.009
N1640 G1 X4.091 Y-18.288
N1645 G3 X4.395 Y-17.988 I0.004 J0.3
N1650 G1 Y2.989
N1655 G3 X3.795 I-0.3 J0.
N1660 G1 Y-7.491
N1665 Y-7.5
N1670 X4.095 Y-17.988
N1675 G3 X4.39 Y-18.28 I0.3 J0.009
N1680 G1 X4.99 Y-18.289
N1685 G3 X5.295 Y-17.989 I0.005 J0.3
N1690 G1 Y2.99
N1695 G3 X4.995 Y3.29 I-0.3 J0.
N1700 X4.695 Y2.99 I0. J-0.3
N1705 G1 Y-7.491
N1710 Y-7.5
N1715 X4.995 Y-17.989
N1720 G3 X5.291 Y-18.281 I0.3 J0.009
N1725 G1 X5.891 Y-18.289
N1730 G3 X6.195 Y-17.989 I0.004 J0.3
N1735 G1 Y2.988
N1740 G3 X5.595 I-0.3 J0.
N1745 G1 Y-7.492
N1750 Y-7.5
N1755 X5.895 Y-17.989
N1760 G3 X6.191 Y-18.28 I0.3 J0.009
N1765 G1 X6.791 Y-18.288
N1770 G3 X7.095 Y-17.988 I0.004 J0.3
N1775 G1 Y2.989
N1780 G3 X6.495 I-0.3 J0.
N1785 G1 Y-7.491
N1790 Y-7.5
N1795 X6.795 Y-17.988
N1800 G3 X7.09 Y-18.28 I0.3 J0.009
N1805 G1 X7.695 Y-18.289
N1810 G3 X8. Y-17.989 I0.005 J0.3
N1815 G1 Y0.
N1820 Y2.989
N1825 G3 X7.429 Y3.117 I-0.3 J0.
N1830 G1 X-2.234 Y-17.367
N1835 G2 X-2.805 Y-17.239 I-0.271 J0.128
N1840 G19 G2 Y-16.639 Z-7.6 J0. K-0.6
N1845 G1 Z-13.4
N1850 G3 Y-16.039 Z-14. J0.6 K0.
N1855 G1 Y-16.016
N1860 Y1.017
N1865 G17 G3 X-3.405 I-0.3 J0.
N1870 G1 Y-7.489
N1875 G3 Y-7.499 I0.3 J0.
N1880 G1 X-3.105 Y-16.016
N1885 G3 X-3.077 Y-16.132 I0.3 J0.011
N1890 G1 X-2.477 Y-17.419
N1895 G3 X-1.905 Y-17.292 I0.272 J0.127
N1900 G1 Y2.293
N1905 G3 X-2.505 I-0.3 J0.
N1910 G1 Y-7.491
N1915 Y-7.5
N1920 X-2.205 Y-17.292
N1925 G3 X-2.103 Y-17.509 I0.3 J0.009
N1930 G1 X-1.503 Y-18.035
N1935 G3 X-1.005 Y-17.81 I0.198 J0.225
N1940 G1 Y2.81
N1945 G3 X-1.605 I-0.3 J0.
N1950 G1 Y-7.491
N1955 Y-7.5
N1960 X-1.305 Y-17.81
N1965 G3 X-1.091 Y-18.089 I0.3 J0.009
N1970 G1 X-0.491 Y-18.269
N1975 G3 X-0.105 Y-17.982 I0.086 J0.287
N1980 G1 Y2.98
N1985 G3 X-0.705 I-0.3 J0.
N1990 G1 Y-7.492
N1995 Y-7.501
N2000 X-0.405 Y-17.982
N2005 G3 X-0.113 Y-18.273 I0.3 J0.009
N2010 G1 X0.487 Y-18.288
N2015 G3 X0.795 Y-17.989 I0.008 J0.3
N2020 G1 Y2.989
N2025 G3 X0.495 Y3.289 I-0.3 J0.
N2030 X0.195 Y2.989 I0. J-0.3
N2035 G1 Y-7.491
N2040 Y-7.5
N2045 X0.495 Y-17.989
N2050 G3 X0.79 Y-18.28 I0.3 J0.009
N2055 G1 X1.39 Y-18.29
N2060 G3 X1.695 Y-17.99 I0.005 J0.3
N2065 G1 Y2.989
N2070 G3 X1.095 I-0.3 J0.
N2075 G1 Y-7.492
N2080 Y-7.5
N2085 X1.395 Y-17.99
N2090 G3 X1.691 Y-18.281 I0.3 J0.009
N2095 G1 X2.291 Y-18.289
N2100 G3 X2.595 Y-17.989 I0.004 J0.3
N2105 G1 Y2.99
N2110 G3 X2.295 Y3.29 I-0.3 J0.
N2115 X1.995 Y2.99 I0. J-0.3
N2120 G1 Y-7.491
N2125 Y-7.5
N2130 X2.295 Y-17.989
N2135 G3 X2.591 Y-18.281 I0.3 J0.009
N2140 G1 X3.191 Y-18.289
N2145 G3 X3.495 Y-17.989 I0.004 J0.3
N2150 G1 Y2.989
N2155 G3 X3.195 Y3.289 I-0.3 J0.
N2160 X2.895 Y2.989 I0. J-0.3
N2165 G1 Y-7.492
N2170 Y-7.5
N2175 X3.195 Y-17.989
N2180 G3 X3.491 Y-18.28 I0.3 J0.009
N2185 G1 X4.091 Y-18.288
N2190 G3 X4.395 Y-17.988 I0.004 J0.3
N2195 G1 Y2.989
N2200 G3 X3.795 I-0.3 J0.
N2205 G1 Y-7.491
N2210 Y-7.5
N2215 X4.095 Y-17.988
N2220 G3 X4.39 Y-18.28 I0.3 J0.009
N2225 G1 X4.99 Y-18.289
N2230 G3 X5.295 Y-17.989 I0.005 J0.3
N2235 G1 Y2.99
N2240 G3 X4.995 Y3.29 I-0.3 J0.
N2245 X4.695 Y2.99 I0. J-0.3
N2250 G1 Y-7.491
N2255 Y-7.5
N2260 X4.995 Y-17.989
N2265 G3 X5.291 Y-18.281 I0.3 J0.009
N2270 G1 X5.891 Y-18.289
N2275 G3 X6.195 Y-17.989 I0.004 J0.3
N2280 G1 Y2.988
N2285 G3 X5.595 I-0.3 J0.
N2290 G1 Y-7.492
N2295 Y-7.5
N2300 X5.895 Y-17.989
N2305 G3 X6.191 Y-18.28 I0.3 J0.009
N2310 G1 X6.791 Y-18.288
N2315 G3 X7.095 Y-17.988 I0.004 J0.3
N2320 G1 Y2.989
N2325 G3 X6.495 I-0.3 J0.
N2330 G1 Y-7.491
N2335 Y-7.5
N2340 X6.795 Y-17.988
N2345 G3 X7.09 Y-18.28 I0.3 J0.009
N2350 G1 X7.695 Y-18.289
N2355 G3 X8. Y-17.989 I0.005 J0.3
N2360 G1 Y0.
N2365 Y2.989
N2370 G3 X7.993 Y3.082 I-0.6 J0.
N2375 G1 X7.523 Y6.045
N2380 X7.509 Y6.138 Z-13.993
N2385 X7.494 Y6.229 Z-13.971
N2390 X7.481 Y6.315 Z-13.935
N2395 X7.468 Y6.394 Z-13.885
N2400 X7.457 Y6.465 Z-13.824
N2405 X7.447 Y6.525 Z-13.753
N2410 X7.44 Y6.574 Z-13.672
N2415 X7.434 Y6.609 Z-13.585
N2420 X7.431 Y6.631 Z-13.494
N2425 X7.429 Y6.638 Z-13.4
N2430 G0 Z10.
(PARALLEL2)
N2440 M8
N2445 G0 X38.263 Y-16.997
N2450 Z10.
N2455 Z-3.907
N2460 G1 Z-5.576 F1000.
N2465 G18 G3 X37.238 Z-6. I-0.6 K0.
N2470 G1 X32.239 Z-1.
N2475 G3 X32.063 Z-0.576 I0.424 K0.424
N2480 G0 Z5.
N2485 X38.854 Y-15.998
N2490 Z-4.139
N2495 G1 Z-5.576 F1000.
N2500 G3 X37.829 Z-6. I-0.6 K0.
N2505 G1 X32.829 Z-1.
N2510 G3 X32.654 Z-0.576 I0.424 K0.424
N2515 G0 Z5.
N2520 X39.024 Y-14.998
N2525 Z-4.196
N2530 G1 Z-5.576 F1000.
N2535 G3 X38. Z-6. I-0.6 K0.
N2540 G1 X33. Z-1.
N2545 G3 X32.824 Z-0.576 I0.424 K0.424
N2550 G0 Z5.
N2555 X39.024 Y-13.998
N2560 Z-4.196
N2565 G1 Z-5.576 F1000.
N2570 G3 X38. Z-6. I-0.6 K0.
N2575 G1 X33. Z-1.
N2580 G3 X32.824 Z-0.576 I0.424 K0.424
N2585 G0 Z5.
N2590 X39.024 Y-12.998
N2595 Z-4.196
N2600 G1 Z-5.576 F1000.
N2605 G3 X38. Z-6. I-0.6 K0.
N2610 G1 X33. Z-1.
N2615 G3 X32.824 Z-0.576 I0.424 K0.424
N2620 G0 Z5.
N2625 X39.024 Y-11.999
N2630 Z-4.196
N2635 G1 Z-5.576 F1000.
N2640 G3 X38. Z-6. I-0.6 K0.
N2645 G1 X33. Z-1.
N2650 G3 X32.824 Z-0.576 I0.424 K0.424
N2655 G0 Z5.
N2660 X39.024 Y-10.999
N2665 Z-4.196
N2670 G1 Z-5.576 F1000.
N2675 G3 X38. Z-6. I-0.6 K0.
N2680 G1 X33. Z-1.
N2685 G3 X32.824 Z-0.576 I0.424 K0.424
N2690 G0 Z5.
N2695 X39.024 Y-9.999
N2700 Z-4.196
N2705 G1 Z-5.576 F1000.
N2710 G3 X38. Z-6. I-0.6 K0.
N2715 G1 X33. Z-1.
N2720 G3 X32.824 Z-0.576 I0.424 K0.424
N2725 G0 Z5.
N2730 X39.024 Y-9.
N2735 Z-4.196
N2740 G1 Z-5.576 F1000.
N2745 G3 X38. Z-6. I-0.6 K0.
N2750 G1 X33. Z-1.
N2755 G3 X32.824 Z-0.576 I0.424 K0.424
N2760 G0 Z5.
N2765 X39.024 Y-8.
N2770 Z-4.196
N2775 G1 Z-5.576 F1000.
N2780 G3 X38. Z-6. I-0.6 K0.
N2785 G1 X33. Z-1.
N2790 G3 X32.824 Z-0.576 I0.424 K0.424
N2795 G0 Z5.
N2800 X39.024 Y-7.
N2805 Z-4.196
N2810 G1 Z-5.576 F1000.
N2815 G3 X38. Z-6. I-0.6 K0.
N2820 G1 X33. Z-1.
N2825 G3 X32.824 Z-0.576 I0.424 K0.424
N2830 G0 Z5.
N2835 X39.024 Y-6.
N2840 Z-4.196
N2845 G1 Z-5.576 F1000.
N2850 G3 X38. Z-6. I-0.6 K0.
N2855 G1 X33. Z-1.
N2860 G3 X32.824 Z-0.576 I0.424 K0.424
N2865 G0 Z5.
N2870 X39.024 Y-5.001
N2875 Z-4.196
N2880 G1 Z-5.576 F1000.
N2885 G3 X38. Z-6. I-0.6 K0.
N2890 G1 X33. Z-1.
N2895 G3 X32.824 Z-0.576 I0.424 K0.424
N2900 G0 Z5.
N2905 X39.024 Y-4.001
N2910 Z-4.196
N2915 G1 Z-5.576 F1000.
N2920 G3 X38. Z-6. I-0.6 K0.
N2925 G1 X33. Z-1.
N2930 G3 X32.824 Z-0.576 I0.424 K0.424
N2935 G0 Z5.
N2940 X39.024 Y-3.001
N2945 Z-4.196
N2950 G1 Z-5.576 F1000.
N2955 G3 X38. Z-6. I-0.6 K0.
N2960 G1 X33. Z-1.
N2965 G3 X32.824 Z-0.576 I0.424 K0.424
N2970 G0 Z5.
N2975 X39.024 Y-2.002
N2980 Z-4.196
N2985 G1 Z-5.576 F1000.
N2990 G3 X38. Z-6. I-0.6 K0.
N2995 G1 X33. Z-1.
N3000 G3 X32.824 Z-0.576 I0.424 K0.424
N3005 G0 Z5.
N3010 X39.024 Y-1.002
N3015 Z-4.196
N3020 G1 Z-5.576 F1000.
N3025 G3 X38. Z-6. I-0.6 K0.
N3030 G1 X33. Z-1.
N3035 G3 X32.824 Z-0.576 I0.424 K0.424
N3040 G0 Z5.
N3045 X39.024 Y-0.002
N3050 Z-4.196
N3055 G1 Z-5.576 F1000.
N3060 G3 X38. Z-6. I-0.6 K0.
N3065 G1 X33. Z-1.
N3070 G3 X32.824 Z-0.576 I0.424 K0.424
N3075 G0 Z5.
N3080 X38.854 Y0.998
N3085 Z-4.139
N3090 G1 Z-5.576 F1000.
N3095 G3 X37.829 Z-6. I-0.6 K0.
N3100 G1 X32.829 Z-1.
N3105 G3 X32.654 Z-0.576 I0.424 K0.424
N3110 G0 Z5.
N3115 X38.263 Y1.997
N3120 Z-3.907
N3125 G1 Z-5.576 F1000.
N3130 G3 X37.238 Z-6. I-0.6 K0.
N3135 G1 X32.238 Z-1.
N3140 G3 X32.063 Z-0.576 I0.424 K0.424
N3145 G0 Z5.
N3150 X7.737 Y-16.997
N3155 Z-3.907
N3160 G1 Z-5.576 F1000.
N3165 G2 X8.762 Z-6. I0.6 K0.
N3170 G1 X13.762 Z-1.
N3175 G2 X13.937 Z-0.576 I-0.424 K0.424
N3180 G0 Z5.
N3185 X7.146 Y-15.998
N3190 Z-4.139
N3195 G1 Z-5.576 F1000.
N3200 G2 X8.171 Z-6. I0.6 K0.
N3205 G1 X13.17 Z-1.001
N3210 G2 X13.346 Z-0.576 I-0.424 K0.424
N3215 G0 Z5.
N3220 X6.976 Y-14.998
N3225 Z-4.196
N3230 G1 Z-5.576 F1000.
N3235 G2 X8. Z-6. I0.6 K0.
N3240 G1 X12.999 Z-1.001
N3245 G2 X13.175 Z-0.577 I-0.424 K0.424
N3250 G0 Z5.
N3255 X6.976 Y-13.998
N3260 Z-4.196
N3265 G1 Z-5.576 F1000.
N3270 G2 X8. Z-6. I0.6 K0.
N3275 G1 X12.999 Z-1.001
N3280 G2 X13.175 Z-0.577 I-0.424 K0.424
N3285 G0 Z5.
N3290 X6.976 Y-12.998
N3295 Z-4.196
N3300 G1 Z-5.576 F1000.
N3305 G2 X8. Z-6. I0.6 K0.
N3310 G1 X12.999 Z-1.001
N3315 G2 X13.175 Z-0.577 I-0.424 K0.424
N3320 G0 Z5.
N3325 X6.976 Y-11.999
N3330 Z-4.196
N3335 G1 Z-5.576 F1000.
N3340 G2 X8. Z-6. I0.6 K0.
N3345 G1 X12.999 Z-1.001
N3350 G2 X13.175 Z-0.577 I-0.424 K0.424
N3355 G0 Z5.
N3360 X6.976 Y-10.999
N3365 Z-4.196
N3370 G1 Z-5.576 F1000.
N3375 G2 X8. Z-6. I0.6 K0.
N3380 G1 X12.999 Z-1.001
N3385 G2 X13.175 Z-0.577 I-0.424 K0.424
N3390 G0 Z5.
N3395 X6.976 Y-9.999
N3400 Z-4.196
N3405 G1 Z-5.576 F1000.
N3410 G2 X8. Z-6. I0.6 K0.
N3415 G1 X12.999 Z-1.001
N3420 G2 X13.175 Z-0.577 I-0.424 K0.424
N3425 G0 Z5.
N3430 X6.976 Y-9.
N3435 Z-4.196
N3440 G1 Z-5.576 F1000.
N3445 G2 X8. Z-6. I0.6 K0.
N3450 G1 X12.999 Z-1.001
N3455 G2 X13.175 Z-0.577 I-0.424 K0.424
N3460 G0 Z5.
N3465 X6.976 Y-8.
N3470 Z-4.196
N3475 G1 Z-5.576 F1000.
N3480 G2 X8. Z-6. I0.6 K0.
N3485 G1 X12.999 Z-1.001
N3490 G2 X13.175 Z-0.577 I-0.424 K0.424
N3495 G0 Z5.
N3500 X6.976 Y-7.
N3505 Z-4.196
N3510 G1 Z-5.576 F1000.
N3515 G2 X8. Z-6. I0.6 K0.
N3520 G1 X12.999 Z-1.001
N3525 G2 X13.175 Z-0.577 I-0.424 K0.424
N3530 G0 Z5.
N3535 X6.976 Y-6.
N3540 Z-4.196
N3545 G1 Z-5.576 F1000.
N3550 G2 X8. Z-6. I0.6 K0.
N3555 G1 X12.999 Z-1.001
N3560 G2 X13.175 Z-0.577 I-0.424 K0.424
N3565 G0 Z5.
N3570 X6.976 Y-5.001
N3575 Z-4.196
N3580 G1 Z-5.576 F1000.
N3585 G2 X8. Z-6. I0.6 K0.
N3590 G1 X12.999 Z-1.001
N3595 G2 X13.175 Z-0.577 I-0.424 K0.424
N3600 G0 Z5.
N3605 X6.976 Y-4.001
N3610 Z-4.196
N3615 G1 Z-5.576 F1000.
N3620 G2 X8. Z-6. I0.6 K0.
N3625 G1 X12.999 Z-1.001
N3630 G2 X13.175 Z-0.577 I-0.424 K0.424
N3635 G0 Z5.
N3640 X6.976 Y-3.001
N3645 Z-4.196
N3650 G1 Z-5.576 F1000.
N3655 G2 X8. Z-6. I0.6 K0.
N3660 G1 X12.999 Z-1.001
N3665 G2 X13.175 Z-0.577 I-0.424 K0.424
N3670 G0 Z5.
N3675 X6.976 Y-2.002
N3680 Z-4.196
N3685 G1 Z-5.576 F1000.
N3690 G2 X8. Z-6. I0.6 K0.
N3695 G1 X12.999 Z-1.001
N3700 G2 X13.175 Z-0.577 I-0.424 K0.424
N3705 G0 Z5.
N3710 X6.976 Y-1.002
N3715 Z-4.196
N3720 G1 Z-5.576 F1000.
N3725 G2 X8. Z-6. I0.6 K0.
N3730 G1 X12.999 Z-1.001
N3735 G2 X13.175 Z-0.577 I-0.424 K0.424
N3740 G0 Z5.
N3745 X6.976 Y-0.002
N3750 Z-4.196
N3755 G1 Z-5.576 F1000.
N3760 G2 X8. Z-6. I0.6 K0.
N3765 G1 X12.999 Z-1.001
N3770 G2 X13.175 Z-0.577 I-0.424 K0.424
N3775 G0 Z5.
N3780 X7.146 Y0.998
N3785 Z-4.139
N3790 G1 Z-5.576 F1000.
N3795 G2 X8.171 Z-6. I0.6 K0.
N3800 G1 X13.17 Z-1.001
N3805 G2 X13.346 Z-0.577 I-0.424 K0.424
N3810 G0 Z5.
N3815 X7.737 Y1.997
N3820 Z-3.907
N3825 G1 Z-5.576 F1000.
N3830 G2 X8.762 Z-6. I0.6 K0.
N3835 G1 X13.761 Z-1.
N3840 G2 X13.937 Z-0.576 I-0.424 K0.424
N3845 G0 Z10.
N3850 G17
N3855 M9
N3860 G53 G0 Z0.
N3865 M30
%
