%
(T13 FRONT POCKETS)
(T13  D=6. CR=0. - ZMIN=-10.1 - FLAT END MILL)
N10 G90 G94 G17 G91.1
N15 G21
N20 G53 G0 Z0.
(FACE1)
N25 M9
N30 T13 M6
N35 S3200 M3
N40 G54
N45 M8
N55 G0 X43.447 Y14.588
N60 G43 Z10. H13
N65 #100=1000. (CUTTING)
N70 #102=1000. (FINISH)
N75 #103=1000. (ENTRY)
N80 #104=1000. (EXIT)
N85 G0 Z5.
N90 G1 Z0.5 F#103
N95 G19 G2 Y13.988 Z-0.1 J-0.6 K0.
N100 G1 Y-40.188 F#102
N105 Y-40.2 F#100
N110 G17 G2 X39.734 I-1.857 J0.
N115 G1 Y14. F#102
N120 G3 X36.021 I-1.857 J0. F#100
N125 G1 Y-40.2 F#102
N130 G2 X32.308 I-1.857 J0. F#100
N135 G1 Y14. F#102
N140 G3 X28.595 I-1.857 J0. F#100
N145 G1 Y-40.2 F#102
N150 G2 X24.882 I-1.857 J0. F#100
N155 G1 Y14. F#102
N160 G3 X21.168 I-1.857 J0. F#100
N165 G1 Y-40.2 F#102
N170 G2 X17.455 I-1.857 J0. F#100
N175 G1 Y14. F#102
N180 G3 X13.742 I-1.857 J0. F#100
N185 G1 Y-40.2 F#102
N190 G2 X10.029 I-1.857 J0. F#100
N195 G1 Y14. F#102
N200 G3 X6.316 I-1.857 J0. F#100
N205 G1 Y-40.2 F#102
N210 G2 X2.603 I-1.857 J0. F#100
N215 G1 Y14. F#102
N220 G3 X-1.11 I-1.857 J0. F#100
N225 G1 Y-40.2 F#102
N230 G19 G2 Y-40.8 Z0.5 J0. K0.6 F#104
N235 G0 Z10.
N240 G17
(2D POCKET3)
N245 M8
N250 G0 X20.155 Y-14.234
N255 #100=1000. (CUTTING)
N260 #103=1000. (ENTRY)
N265 #104=1000. (EXIT)
N270 #107=333.33 (RAMPING)
N275 Z10.
N280 Z2.6
N285 G1 X20.152 Y-14.231 Z2.534 F#107
N290 G3 X20.145 Y-14.223 Z2.469 I-2.151 J-1.869
N295 X20.133 Y-14.21 Z2.406 I-2.144 J-1.877
N300 X20.117 Y-14.191 Z2.345 I-2.133 J-1.891
N305 X20.096 Y-14.168 Z2.287 I-2.116 J-1.909
N310 X20.07 Y-14.141 Z2.233 I-2.095 J-1.932
N315 X20.041 Y-14.11 Z2.183 I-2.07 J-1.959
N320 X20.007 Y-14.076 Z2.138 I-2.04 J-1.99
N325 X19.969 Y-14.039 Z2.099 I-2.006 J-2.025
N330 X19.927 Y-14. Z2.066 I-1.968 J-2.061
N335 X19.883 Y-13.96 Z2.039 I-1.927 J-2.1
N340 X19.835 Y-13.919 Z2.019 I-1.882 J-2.14
N345 X19.785 Y-13.878 Z2.006 I-1.834 J-2.181
N350 X19.734 Y-13.838 Z2. I-1.785 J-2.222
N355 X16.268 Y-18.363 Z1.687 I-1.733 J-2.263
N360 X19.734 Y-13.838 Z1.375 I1.733 J2.263
N365 X16.268 Y-18.363 Z1.062 I-1.733 J-2.263
N370 X19.734 Y-13.838 Z0.749 I1.733 J2.263
N375 X16.268 Y-18.363 Z0.437 I-1.733 J-2.263
N380 X19.734 Y-13.838 Z0.124 I1.733 J2.263
N385 X16.268 Y-18.363 Z-0.189 I-1.733 J-2.263
N390 X19.734 Y-13.838 Z-0.501 I1.733 J2.263
N395 X16.268 Y-18.363 Z-0.814 I-1.733 J-2.263
N400 X19.734 Y-13.838 Z-1.127 I1.733 J2.263
N405 X16.268 Y-18.363 Z-1.439 I-1.733 J-2.263
N410 X19.734 Y-13.838 Z-1.752 I1.733 J2.263
N415 X16.268 Y-18.363 Z-2.065 I-1.733 J-2.263
N420 X19.734 Y-13.838 Z-2.377 I1.733 J2.263
N425 X16.268 Y-18.363 Z-2.69 I-1.733 J-2.263
N430 X19.734 Y-13.838 Z-3.003 I1.733 J2.263
N435 X16.268 Y-18.363 Z-3.315 I-1.733 J-2.263
N440 X19.734 Y-13.838 Z-3.628 I1.733 J2.263
N445 X16.268 Y-18.363 Z-3.941 I-1.733 J-2.263
N450 X19.734 Y-13.838 Z-4.253 I1.733 J2.263
N455 X16.268 Y-18.363 Z-4.566 I-1.733 J-2.263
N460 X19.734 Y-13.838 Z-4.879 I1.733 J2.263
N465 X15.151 Y-16.1 Z-5.1 I-1.733 J-2.263
N470 X20.25 I2.549 J0.
N475 X19.95 I-0.15 J0. F#100
N480 X20.65 I0.35 J0.
N485 X19.55 I-0.55 J0.
N490 X21.05 I0.75 J0.
N495 X19.15 I-0.95 J0.
N500 X21.45 I1.15 J0.
N505 X18.75 I-1.35 J0.
N510 X21.85 I1.55 J0.
N515 X18.35 I-1.75 J0.
N520 X22.25 I1.95 J0.
N525 X17.95 I-2.15 J0.
N530 X22.65 I2.35 J0.
N535 X17.55 I-2.55 J0.
N540 X23.05 I2.75 J0.
N545 X17.15 I-2.95 J0.
N550 X23.45 I3.15 J0.
N555 X16.75 I-3.35 J0.
N560 X23.85 I3.55 J0.
N565 X16.35 I-3.75 J0.
N570 X24.25 I3.95 J0.
N575 X15.95 I-4.15 J0.
N580 X24.65 I4.35 J0.
N585 X15.55 I-4.55 J0.
N590 X25.05 I4.75 J0.
N595 X15.15 I-4.95 J0.
N600 X25.05 I4.95 J0.
N605 X25.046 Y-16.033 Z-5.096 I-0.6 J0. F#104
N610 X25.035 Y-15.968 Z-5.085 I-0.596 J-0.067
N615 X25.017 Y-15.906 Z-5.066 I-0.585 J-0.132
N620 X24.994 Y-15.848 Z-5.041 I-0.568 J-0.195
N625 X24.967 Y-15.796 Z-5.008 I-0.544 J-0.252
N630 X24.937 Y-15.75 Z-4.969 I-0.517 J-0.304
N635 X24.906 Y-15.711 Z-4.924 I-0.487 J-0.35
N640 X24.875 Y-15.678 Z-4.874 I-0.456 J-0.39
N645 X24.847 Y-15.651 Z-4.819 I-0.426 J-0.423
N650 X24.822 Y-15.63 Z-4.76 I-0.397 J-0.449
N655 X24.802 Y-15.614 Z-4.698 I-0.373 J-0.47
N660 X24.786 Y-15.604 Z-4.634 I-0.352 J-0.486
N665 X24.777 Y-15.597 Z-4.567 I-0.337 J-0.497
N670 G1 X24.774 Y-15.595 Z-4.5
N675 G0 Z10.
(2D POCKET3 3)
N685 M8
N690 G0 X21.128 Y-16.811
N695 #100=1000. (CUTTING)
N700 #103=1000. (ENTRY)
N705 #104=1000. (EXIT)
N710 #107=333.33 (RAMPING)
N715 Z10.
N720 Z-2.5
N725 G1 X21.13 Y-16.808 Z-2.566 F#107
N730 G3 X21.136 Y-16.799 Z-2.631 I-1.03 J0.708
N735 X21.146 Y-16.785 Z-2.694 I-1.036 J0.699
N740 X21.159 Y-16.764 Z-2.755 I-1.046 J0.684
N745 X21.175 Y-16.737 Z-2.813 I-1.059 J0.664
N750 X21.194 Y-16.705 Z-2.867 I-1.076 J0.637
N755 X21.214 Y-16.667 Z-2.917 I-1.094 J0.604
N760 X21.235 Y-16.623 Z-2.962 I-1.114 J0.566
N765 X21.256 Y-16.575 Z-3.001 I-1.135 J0.523
N770 X21.276 Y-16.522 Z-3.034 I-1.156 J0.475
N775 X21.295 Y-16.465 Z-3.061 I-1.177 J0.422
N780 X21.312 Y-16.404 Z-3.081 I-1.196 J0.365
N785 X21.326 Y-16.342 Z-3.094 I-1.212 J0.304
N790 X21.337 Y-16.277 Z-3.1 I-1.226 J0.241
N795 X18.862 Y-15.924 Z-3.237 I-1.237 J0.177
N800 X21.337 Y-16.277 Z-3.374 I1.237 J-0.177
N805 X18.862 Y-15.924 Z-3.511 I-1.237 J0.177
N810 X21.337 Y-16.277 Z-3.649 I1.237 J-0.177
N815 X18.862 Y-15.924 Z-3.786 I-1.237 J0.177
N820 X21.337 Y-16.277 Z-3.923 I1.237 J-0.177
N825 X18.862 Y-15.924 Z-4.06 I-1.237 J0.177
N830 X21.337 Y-16.277 Z-4.197 I1.237 J-0.177
N835 X18.862 Y-15.924 Z-4.334 I-1.237 J0.177
N840 X21.337 Y-16.277 Z-4.471 I1.237 J-0.177
N845 X18.862 Y-15.924 Z-4.608 I-1.237 J0.177
N850 X21.337 Y-16.277 Z-4.746 I1.237 J-0.177
N855 X18.862 Y-15.924 Z-4.883 I-1.237 J0.177
N860 X21.337 Y-16.277 Z-5.02 I1.237 J-0.177
N865 X18.862 Y-15.924 Z-5.157 I-1.237 J0.177
N870 X21.337 Y-16.277 Z-5.294 I1.237 J-0.177
N875 X18.862 Y-15.924 Z-5.431 I-1.237 J0.177
N880 X21.337 Y-16.277 Z-5.568 I1.237 J-0.177
N885 X18.862 Y-15.924 Z-5.706 I-1.237 J0.177
N890 X21.337 Y-16.277 Z-5.843 I1.237 J-0.177
N895 X18.862 Y-15.924 Z-5.98 I-1.237 J0.177
N900 X21.337 Y-16.277 Z-6.117 I1.237 J-0.177
N905 X18.862 Y-15.924 Z-6.254 I-1.237 J0.177
N910 X21.337 Y-16.277 Z-6.391 I1.237 J-0.177
N915 X18.862 Y-15.924 Z-6.528 I-1.237 J0.177
N920 X21.337 Y-16.277 Z-6.665 I1.237 J-0.177
N925 X18.862 Y-15.924 Z-6.803 I-1.237 J0.177
N930 X21.337 Y-16.277 Z-6.94 I1.237 J-0.177
N935 X18.862 Y-15.924 Z-7.077 I-1.237 J0.177
N940 X21.337 Y-16.277 Z-7.214 I1.237 J-0.177
N945 X18.862 Y-15.924 Z-7.351 I-1.237 J0.177
N950 X21.337 Y-16.277 Z-7.488 I1.237 J-0.177
N955 X18.862 Y-15.924 Z-7.625 I-1.237 J0.177
N960 X21.337 Y-16.277 Z-7.763 I1.237 J-0.177
N965 X18.862 Y-15.924 Z-7.9 I-1.237 J0.177
N970 X21.337 Y-16.277 Z-8.037 I1.237 J-0.177
N975 X18.862 Y-15.924 Z-8.174 I-1.237 J0.177
N980 X21.337 Y-16.277 Z-8.311 I1.237 J-0.177
N985 X18.862 Y-15.924 Z-8.448 I-1.237 J0.177
N990 X21.337 Y-16.277 Z-8.585 I1.237 J-0.177
N995 X18.862 Y-15.924 Z-8.722 I-1.237 J0.177
N1000 X21.337 Y-16.277 Z-8.86 I1.237 J-0.177
N1005 X18.862 Y-15.924 Z-8.997 I-1.237 J0.177
N1010 X21.337 Y-16.277 Z-9.134 I1.237 J-0.177
N1015 X18.862 Y-15.924 Z-9.271 I-1.237 J0.177
N1020 X21.337 Y-16.277 Z-9.408 I1.237 J-0.177
N1025 X18.862 Y-15.924 Z-9.545 I-1.237 J0.177
N1030 X21.337 Y-16.277 Z-9.682 I1.237 J-0.177
N1035 X18.862 Y-15.924 Z-9.82 I-1.237 J0.177
N1040 X21.337 Y-16.277 Z-9.957 I1.237 J-0.177
N1045 X20.188 Y-14.853 Z-10.028 I-1.237 J0.177
N1050 X18.85 Y-16.1 Z-10.1 I-0.089 J-1.247
N1055 X20.15 I0.65 J0.
N1060 X20.05 I-0.05 J0. F#100
N1065 X20.55 I0.25 J0.
N1070 X19.65 I-0.45 J0.
N1075 X20.95 I0.65 J0.
N1080 X19.25 I-0.85 J0.
N1085 X21.35 I1.05 J0.
N1090 X18.85 I-1.25 J0.
N1095 X21.35 I1.25 J0.
N1100 X21.346 Y-16.033 Z-10.096 I-0.6 J0. F#104
N1105 X21.335 Y-15.968 Z-10.085 I-0.596 J-0.067
N1110 X21.317 Y-15.906 Z-10.066 I-0.585 J-0.132
N1115 X21.294 Y-15.848 Z-10.041 I-0.568 J-0.195
N1120 X21.267 Y-15.796 Z-10.008 I-0.544 J-0.252
N1125 X21.237 Y-15.75 Z-9.969 I-0.517 J-0.304
N1130 X21.206 Y-15.711 Z-9.924 I-0.487 J-0.35
N1135 X21.175 Y-15.678 Z-9.874 I-0.456 J-0.39
N1140 X21.147 Y-15.651 Z-9.819 I-0.426 J-0.423
N1145 X21.122 Y-15.63 Z-9.76 I-0.397 J-0.449
N1150 X21.102 Y-15.614 Z-9.698 I-0.373 J-0.47
N1155 X21.086 Y-15.604 Z-9.634 I-0.352 J-0.486
N1160 X21.077 Y-15.597 Z-9.567 I-0.337 J-0.497
N1165 G1 X21.074 Y-15.595 Z-9.5
N1170 G0 Z10.
(2D CONTOUR3)
N1180 M8
N1185 G0 X19.55 Y-16.7
N1190 #102=1000. (FINISH)
N1195 #103=1000. (ENTRY)
N1200 #104=1000. (EXIT)
N1205 #108=333.33 (PLUNGE)
N1210 Z10.
N1215 Z-8.1
N1220 G1 Z-9.1 F#103
N1225 Z-9.5 F#108
N1230 G18 G2 X20.15 Z-10.1 I0.6 K0.
N1235 G1 X20.75 F#103
N1240 G17 G3 X21.35 Y-16.1 I0. J0.6
N1245 X18.85 I-1.25 J0. F#102
N1250 X21.35 I1.25 J0.
N1255 X20.75 Y-15.5 I-0.6 J0. F#104
N1260 G1 X20.15
N1265 G18 G3 X19.55 Z-9.5 I0. K0.6
N1270 G0 Z10.
N1275 G17
(2D CONTOUR3 2)
N1280 M8
N1285 G0 X23.35 Y-16.7
N1290 #102=1000. (FINISH)
N1295 #103=1000. (ENTRY)
N1300 #104=1000. (EXIT)
N1305 #108=333.33 (PLUNGE)
N1310 Z10.
N1315 Z-3.1
N1320 G1 Z-4.1 F#103
N1325 Z-4.5 F#108
N1330 G18 G2 X23.95 Z-5.1 I0.6 K0.
N1335 G1 X24.55 F#103
N1340 G17 G3 X25.15 Y-16.1 I0. J0.6
N1345 X15.05 I-5.05 J0. F#102
N1350 X25.15 I5.05 J0.
N1355 X24.55 Y-15.5 I-0.6 J0. F#104
N1360 G1 X23.95
N1365 G18 G3 X23.35 Z-4.5 I0. K0.6
N1370 G0 Z10.
N1375 G17
(2D CONTOUR3 3)
N1380 M8
N1385 G0 X23.55 Y-16.7
N1390 #102=1000. (FINISH)
N1395 #103=1000. (ENTRY)
N1400 #104=1000. (EXIT)
N1405 #108=333.33 (PLUNGE)
N1410 Z10.
N1415 Z-1.3
N1420 G1 Z-2.3 F#103
N1425 Z-2.7 F#108
N1430 G18 G2 X24.15 Z-3.3 I0.6 K0.
N1435 G1 X24.75 F#103
N1440 G17 G3 X25.35 Y-16.1 I0. J0.6
N1445 X14.85 I-5.25 J0. F#102
N1450 X25.35 I5.25 J0.
N1455 X24.75 Y-15.5 I-0.6 J0. F#104
N1460 G1 X24.15
N1465 G18 G3 X23.55 Z-2.7 I0. K0.6
N1470 G0 Z10.
N1475 G17
N1480 M9
N1485 G53 G0 Z0.
N1490 M30
%
