%
(1)
(T13  D=6. CR=0. - ZMIN=-14. - FLAT END MILL)
N10 G90 G94 G17 G91.1
N15 G21
N20 G53 G0 Z0.
(2D POCKET3 4)
N25 M9
N30 T13 M6
N35 S3200 M3
N40 G54
N45 M8
N55 G0 X48.805 Y10.613
N60 G43 Z10. H13
N65 G1 Z8. F90000.
N70 Z-6.4 F1000.
N75 G19 G2 Y10.013 Z-7. J-0.6 K0.
N80 G1 Y1.016
N85 Y-16.017
N90 G17 G3 X49.105 Y-16.317 I0.3 J0.
N95 X49.405 Y-16.017 I0. J0.3
N100 G1 Y-7.511
N105 G3 Y-7.5 I-0.3 J0.
N110 G1 X49.105 Y1.016
N115 G3 X49.077 Y1.132 I-0.3 J-0.011
N120 G1 X48.477 Y2.419
N125 G3 X47.905 Y2.293 I-0.272 J-0.127
N130 G1 Y-17.293
N135 G3 X48.505 I0.3 J0.
N140 G1 Y-7.509
N145 Y-7.5
N150 X48.205 Y2.293
N155 G3 X48.103 Y2.509 I-0.3 J-0.009
N160 G1 X47.502 Y3.034
N165 G3 X47.005 Y2.808 I-0.197 J-0.226
N170 G1 Y-17.81
N175 G3 X47.605 I0.3 J0.
N180 G1 Y-7.509
N185 Y-7.501
N190 X47.305 Y2.808
N195 G3 X47.092 Y3.087 I-0.3 J-0.009
N200 G1 X46.492 Y3.269
N205 G3 X46.105 Y2.982 I-0.087 J-0.287
N210 G1 Y-17.98
N215 G3 X46.705 I0.3 J0.
N220 G1 Y-7.508
N225 Y-7.499
N230 X46.405 Y2.982
N235 G3 X46.113 Y3.273 I-0.3 J-0.009
N240 G1 X45.513 Y3.289
N245 G3 X45.205 Y2.989 I-0.008 J-0.3
N250 G1 Y-17.989
N255 G3 X45.805 I0.3 J0.
N260 G1 Y-7.508
N265 Y-7.5
N270 X45.505 Y2.989
N275 G3 X45.209 Y3.28 I-0.3 J-0.009
N280 G1 X44.609 Y3.288
N285 G3 X44.305 Y2.988 I-0.004 J-0.3
N290 G1 Y-17.989
N295 G3 X44.905 I0.3 J0.
N300 G1 Y-7.509
N305 Y-7.5
N310 X44.605 Y2.988
N315 G3 X44.31 Y3.28 I-0.3 J-0.009
N320 G1 X43.71 Y3.289
N325 G3 X43.405 Y2.989 I-0.005 J-0.3
N330 G1 Y-17.99
N335 G3 X43.705 Y-18.29 I0.3 J0.
N340 X44.005 Y-17.99 I0. J0.3
N345 G1 Y-7.509
N350 Y-7.5
N355 X43.705 Y2.989
N360 G3 X43.409 Y3.281 I-0.3 J-0.009
N365 G1 X42.809 Y3.289
N370 G3 X42.505 Y2.989 I-0.004 J-0.3
N375 G1 Y-17.988
N380 G3 X43.105 I0.3 J0.
N385 G1 Y-7.508
N390 Y-7.5
N395 X42.805 Y2.989
N400 G3 X42.509 Y3.28 I-0.3 J-0.009
N405 G1 X41.909 Y3.288
N410 G3 X41.605 Y2.988 I-0.004 J-0.3
N415 G1 Y-17.989
N420 G3 X42.205 I0.3 J0.
N425 G1 Y-7.509
N430 Y-7.5
N435 X41.905 Y2.988
N440 G3 X41.61 Y3.28 I-0.3 J-0.009
N445 G1 X41.01 Y3.29
N450 G3 X40.705 Y2.99 I-0.005 J-0.3
N455 G1 Y-17.99
N460 G3 X41.305 I0.3 J0.
N465 G1 Y-7.509
N470 Y-7.5
N475 X41.005 Y2.99
N480 G3 X40.709 Y3.281 I-0.3 J-0.009
N485 G1 X40.109 Y3.289
N490 G3 X39.805 Y2.989 I-0.004 J-0.3
N495 G1 Y-17.988
N500 G3 X40.405 I0.3 J0.
N505 G1 Y-7.508
N510 Y-7.5
N515 X40.105 Y2.989
N520 G3 X39.809 Y3.28 I-0.3 J-0.009
N525 G1 X39.209 Y3.288
N530 G3 X38.905 Y2.988 I-0.004 J-0.3
N535 G1 Y-17.989
N540 G3 X39.505 I0.3 J0.
N545 G1 Y-7.509
N550 Y-7.5
N555 X39.205 Y2.988
N560 G3 X38.91 Y3.28 I-0.3 J-0.009
N565 G1 X38.304 Y3.289
N570 G3 X38. Y2.989 I-0.004 J-0.3
N575 G1 Y-15.
N580 Y-17.989
N585 G3 X38.571 Y-18.117 I0.3 J0.
N590 G1 X48.234 Y2.367
N595 G2 X48.805 Y2.239 I0.271 J-0.128
N600 G19 G3 Y1.639 Z-7.6 J0. K-0.6
N605 G1 Z-13.4
N610 G2 Y1.039 Z-14. J-0.6 K0.
N615 G1 Y1.016
N620 Y-16.017
N625 G17 G3 X49.105 Y-16.317 I0.3 J0.
N630 X49.405 Y-16.017 I0. J0.3
N635 G1 Y-7.511
N640 G3 Y-7.5 I-0.3 J0.
N645 G1 X49.105 Y1.016
N650 G3 X49.077 Y1.132 I-0.3 J-0.011
N655 G1 X48.477 Y2.419
N660 G3 X47.905 Y2.293 I-0.272 J-0.127
N665 G1 Y-17.293
N670 G3 X48.505 I0.3 J0.
N675 G1 Y-7.509
N680 Y-7.5
N685 X48.205 Y2.293
N690 G3 X48.103 Y2.509 I-0.3 J-0.009
N695 G1 X47.502 Y3.034
N700 G3 X47.005 Y2.808 I-0.197 J-0.226
N705 G1 Y-17.81
N710 G3 X47.605 I0.3 J0.
N715 G1 Y-7.509
N720 Y-7.501
N725 X47.305 Y2.808
N730 G3 X47.092 Y3.087 I-0.3 J-0.009
N735 G1 X46.492 Y3.269
N740 G3 X46.105 Y2.982 I-0.087 J-0.287
N745 G1 Y-17.98
N750 G3 X46.705 I0.3 J0.
N755 G1 Y-7.508
N760 Y-7.499
N765 X46.405 Y2.982
N770 G3 X46.113 Y3.273 I-0.3 J-0.009
N775 G1 X45.513 Y3.289
N780 G3 X45.205 Y2.989 I-0.008 J-0.3
N785 G1 Y-17.989
N790 G3 X45.805 I0.3 J0.
N795 G1 Y-7.508
N800 Y-7.5
N805 X45.505 Y2.989
N810 G3 X45.209 Y3.28 I-0.3 J-0.009
N815 G1 X44.609 Y3.288
N820 G3 X44.305 Y2.988 I-0.004 J-0.3
N825 G1 Y-17.989
N830 G3 X44.905 I0.3 J0.
N835 G1 Y-7.509
N840 Y-7.5
N845 X44.605 Y2.988
N850 G3 X44.31 Y3.28 I-0.3 J-0.009
N855 G1 X43.71 Y3.289
N860 G3 X43.405 Y2.989 I-0.005 J-0.3
N865 G1 Y-17.99
N870 G3 X43.705 Y-18.29 I0.3 J0.
N875 X44.005 Y-17.99 I0. J0.3
N880 G1 Y-7.509
N885 Y-7.5
N890 X43.705 Y2.989
N895 G3 X43.409 Y3.281 I-0.3 J-0.009
N900 G1 X42.809 Y3.289
N905 G3 X42.505 Y2.989 I-0.004 J-0.3
N910 G1 Y-17.988
N915 G3 X43.105 I0.3 J0.
N920 G1 Y-7.508
N925 Y-7.5
N930 X42.805 Y2.989
N935 G3 X42.509 Y3.28 I-0.3 J-0.009
N940 G1 X41.909 Y3.288
N945 G3 X41.605 Y2.988 I-0.004 J-0.3
N950 G1 Y-17.989
N955 G3 X42.205 I0.3 J0.
N960 G1 Y-7.509
N965 Y-7.5
N970 X41.905 Y2.988
N975 G3 X41.61 Y3.28 I-0.3 J-0.009
N980 G1 X41.01 Y3.29
N985 G3 X40.705 Y2.99 I-0.005 J-0.3
N990 G1 Y-17.99
N995 G3 X41.305 I0.3 J0.
N1000 G1 Y-7.509
N1005 Y-7.5
N1010 X41.005 Y2.99
N1015 G3 X40.709 Y3.281 I-0.3 J-0.009
N1020 G1 X40.109 Y3.289
N1025 G3 X39.805 Y2.989 I-0.004 J-0.3
N1030 G1 Y-17.988
N1035 G3 X40.405 I0.3 J0.
N1040 G1 Y-7.508
N1045 Y-7.5
N1050 X40.105 Y2.989
N1055 G3 X39.809 Y3.28 I-0.3 J-0.009
N1060 G1 X39.209 Y3.288
N1065 G3 X38.905 Y2.988 I-0.004 J-0.3
N1070 G1 Y-17.989
N1075 G3 X39.505 I0.3 J0.
N1080 G1 Y-7.509
N1085 Y-7.5
N1090 X39.205 Y2.988
N1095 G3 X38.91 Y3.28 I-0.3 J-0.009
N1100 G1 X38.304 Y3.289
N1105 G3 X38. Y2.989 I-0.004 J-0.3
N1110 G1 Y-15.
N1115 Y-17.989
N1120 G3 X38.007 Y-18.082 I0.6 J0.
N1125 G1 X38.477 Y-21.045
N1130 X38.491 Y-21.138 Z-13.993
N1135 X38.506 Y-21.229 Z-13.971
N1140 X38.519 Y-21.315 Z-13.935
N1145 X38.532 Y-21.394 Z-13.885
N1150 X38.543 Y-21.465 Z-13.824
N1155 X38.553 Y-21.525 Z-13.753
N1160 X38.56 Y-21.574 Z-13.672
N1165 X38.566 Y-21.609 Z-13.585
N1170 X38.569 Y-21.631 Z-13.494
N1175 X38.571 Y-21.638 Z-13.4
N1180 Z8. F90000.
N1185 X-2.805 Y-25.609
N1190 Z-6.4 F1000.
N1195 G19 G3 Y-25.009 Z-7. J0.6 K0.
N1200 G1 Y-16.016
N1205 Y1.017
N1210 G17 G3 X-3.405 I-0.3 J0.
N1215 G1 Y-7.489
N1220 G3 Y-7.499 I0.3 J0.
N1225 G1 X-3.105 Y-16.016
N1230 G3 X-3.077 Y-16.132 I0.3 J0.011
N1235 G1 X-2.477 Y-17.419
N1240 G3 X-1.905 Y-17.292 I0.272 J0.127
N1245 G1 Y2.293
N1250 G3 X-2.505 I-0.3 J0.
N1255 G1 Y-7.491
N1260 Y-7.5
N1265 X-2.205 Y-17.292
N1270 G3 X-2.103 Y-17.509 I0.3 J0.009
N1275 G1 X-1.503 Y-18.035
N1280 G3 X-1.005 Y-17.81 I0.198 J0.225
N1285 G1 Y2.81
N1290 G3 X-1.605 I-0.3 J0.
N1295 G1 Y-7.491
N1300 Y-7.5
N1305 X-1.305 Y-17.81
N1310 G3 X-1.091 Y-18.089 I0.3 J0.009
N1315 G1 X-0.491 Y-18.269
N1320 G3 X-0.105 Y-17.982 I0.086 J0.287
N1325 G1 Y2.98
N1330 G3 X-0.705 I-0.3 J0.
N1335 G1 Y-7.492
N1340 Y-7.501
N1345 X-0.405 Y-17.982
N1350 G3 X-0.113 Y-18.273 I0.3 J0.009
N1355 G1 X0.487 Y-18.288
N1360 G3 X0.795 Y-17.989 I0.008 J0.3
N1365 G1 Y2.989
N1370 G3 X0.495 Y3.289 I-0.3 J0.
N1375 X0.195 Y2.989 I0. J-0.3
N1380 G1 Y-7.491
N1385 Y-7.5
N1390 X0.495 Y-17.989
N1395 G3 X0.79 Y-18.28 I0.3 J0.009
N1400 G1 X1.39 Y-18.29
N1405 G3 X1.695 Y-17.99 I0.005 J0.3
N1410 G1 Y2.989
N1415 G3 X1.095 I-0.3 J0.
N1420 G1 Y-7.492
N1425 Y-7.5
N1430 X1.395 Y-17.99
N1435 G3 X1.691 Y-18.281 I0.3 J0.009
N1440 G1 X2.291 Y-18.289
N1445 G3 X2.595 Y-17.989 I0.004 J0.3
N1450 G1 Y2.99
N1455 G3 X2.295 Y3.29 I-0.3 J0.
N1460 X1.995 Y2.99 I0. J-0.3
N1465 G1 Y-7.491
N1470 Y-7.5
N1475 X2.295 Y-17.989
N1480 G3 X2.591 Y-18.281 I0.3 J0.009
N1485 G1 X3.191 Y-18.289
N1490 G3 X3.495 Y-17.989 I0.004 J0.3
N1495 G1 Y2.989
N1500 G3 X3.195 Y3.289 I-0.3 J0.
N1505 X2.895 Y2.989 I0. J-0.3
N1510 G1 Y-7.492
N1515 Y-7.5
N1520 X3.195 Y-17.989
N1525 G3 X3.491 Y-18.28 I0.3 J0.009
N1530 G1 X4.091 Y-18.288
N1535 G3 X4.395 Y-17.988 I0.004 J0.3
N1540 G1 Y2.989
N1545 G3 X3.795 I-0.3 J0.
N1550 G1 Y-7.491
N1555 Y-7.5
N1560 X4.095 Y-17.988
N1565 G3 X4.39 Y-18.28 I0.3 J0.009
N1570 G1 X4.99 Y-18.289
N1575 G3 X5.295 Y-17.989 I0.005 J0.3
N1580 G1 Y2.99
N1585 G3 X4.995 Y3.29 I-0.3 J0.
N1590 X4.695 Y2.99 I0. J-0.3
N1595 G1 Y-7.491
N1600 Y-7.5
N1605 X4.995 Y-17.989
N1610 G3 X5.291 Y-18.281 I0.3 J0.009
N1615 G1 X5.891 Y-18.289
N1620 G3 X6.195 Y-17.989 I0.004 J0.3
N1625 G1 Y2.988
N1630 G3 X5.595 I-0.3 J0.
N1635 G1 Y-7.492
N1640 Y-7.5
N1645 X5.895 Y-17.989
N1650 G3 X6.191 Y-18.28 I0.3 J0.009
N1655 G1 X6.791 Y-18.288
N1660 G3 X7.095 Y-17.988 I0.004 J0.3
N1665 G1 Y2.989
N1670 G3 X6.495 I-0.3 J0.
N1675 G1 Y-7.491
N1680 Y-7.5
N1685 X6.795 Y-17.988
N1690 G3 X7.09 Y-18.28 I0.3 J0.009
N1695 G1 X7.695 Y-18.289
N1700 G3 X8. Y-17.989 I0.005 J0.3
N1705 G1 Y0.
N1710 Y2.989
N1715 G3 X7.429 Y3.117 I-0.3 J0.
N1720 G1 X-2.234 Y-17.367
N1725 G2 X-2.805 Y-17.239 I-0.271 J0.128
N1730 G19 G2 Y-16.639 Z-7.6 J0. K-0.6
N1735 G1 Z-13.4
N1740 G3 Y-16.039 Z-14. J0.6 K0.
N1745 G1 Y-16.016
N1750 Y1.017
N1755 G17 G3 X-3.405 I-0.3 J0.
N1760 G1 Y-7.489
N1765 G3 Y-7.499 I0.3 J0.
N1770 G1 X-3.105 Y-16.016
N1775 G3 X-3.077 Y-16.132 I0.3 J0.011
N1780 G1 X-2.477 Y-17.419
N1785 G3 X-1.905 Y-17.292 I0.272 J0.127
N1790 G1 Y2.293
N1795 G3 X-2.505 I-0.3 J0.
N1800 G1 Y-7.491
N1805 Y-7.5
N1810 X-2.205 Y-17.292
N1815 G3 X-2.103 Y-17.509 I0.3 J0.009
N1820 G1 X-1.503 Y-18.035
N1825 G3 X-1.005 Y-17.81 I0.198 J0.225
N1830 G1 Y2.81
N1835 G3 X-1.605 I-0.3 J0.
N1840 G1 Y-7.491
N1845 Y-7.5
N1850 X-1.305 Y-17.81
N1855 G3 X-1.091 Y-18.089 I0.3 J0.009
N1860 G1 X-0.491 Y-18.269
N1865 G3 X-0.105 Y-17.982 I0.086 J0.287
N1870 G1 Y2.98
N1875 G3 X-0.705 I-0.3 J0.
N1880 G1 Y-7.492
N1885 Y-7.501
N1890 X-0.405 Y-17.982
N1895 G3 X-0.113 Y-18.273 I0.3 J0.009
N1900 G1 X0.487 Y-18.288
N1905 G3 X0.795 Y-17.989 I0.008 J0.3
N1910 G1 Y2.989
N1915 G3 X0.495 Y3.289 I-0.3 J0.
N1920 X0.195 Y2.989 I0. J-0.3
N1925 G1 Y-7.491
N1930 Y-7.5
N1935 X0.495 Y-17.989
N1940 G3 X0.79 Y-18.28 I0.3 J0.009
N1945 G1 X1.39 Y-18.29
N1950 G3 X1.695 Y-17.99 I0.005 J0.3
N1955 G1 Y2.989
N1960 G3 X1.095 I-0.3 J0.
N1965 G1 Y-7.492
N1970 Y-7.5
N1975 X1.395 Y-17.99
N1980 G3 X1.691 Y-18.281 I0.3 J0.009
N1985 G1 X2.291 Y-18.289
N1990 G3 X2.595 Y-17.989 I0.004 J0.3
N1995 G1 Y2.99
N2000 G3 X2.295 Y3.29 I-0.3 J0.
N2005 X1.995 Y2.99 I0. J-0.3
N2010 G1 Y-7.491
N2015 Y-7.5
N2020 X2.295 Y-17.989
N2025 G3 X2.591 Y-18.281 I0.3 J0.009
N2030 G1 X3.191 Y-18.289
N2035 G3 X3.495 Y-17.989 I0.004 J0.3
N2040 G1 Y2.989
N2045 G3 X3.195 Y3.289 I-0.3 J0.
N2050 X2.895 Y2.989 I0. J-0.3
N2055 G1 Y-7.492
N2060 Y-7.5
N2065 X3.195 Y-17.989
N2070 G3 X3.491 Y-18.28 I0.3 J0.009
N2075 G1 X4.091 Y-18.288
N2080 G3 X4.395 Y-17.988 I0.004 J0.3
N2085 G1 Y2.989
N2090 G3 X3.795 I-0.3 J0.
N2095 G1 Y-7.491
N2100 Y-7.5
N2105 X4.095 Y-17.988
N2110 G3 X4.39 Y-18.28 I0.3 J0.009
N2115 G1 X4.99 Y-18.289
N2120 G3 X5.295 Y-17.989 I0.005 J0.3
N2125 G1 Y2.99
N2130 G3 X4.995 Y3.29 I-0.3 J0.
N2135 X4.695 Y2.99 I0. J-0.3
N2140 G1 Y-7.491
N2145 Y-7.5
N2150 X4.995 Y-17.989
N2155 G3 X5.291 Y-18.281 I0.3 J0.009
N2160 G1 X5.891 Y-18.289
N2165 G3 X6.195 Y-17.989 I0.004 J0.3
N2170 G1 Y2.988
N2175 G3 X5.595 I-0.3 J0.
N2180 G1 Y-7.492
N2185 Y-7.5
N2190 X5.895 Y-17.989
N2195 G3 X6.191 Y-18.28 I0.3 J0.009
N2200 G1 X6.791 Y-18.288
N2205 G3 X7.095 Y-17.988 I0.004 J0.3
N2210 G1 Y2.989
N2215 G3 X6.495 I-0.3 J0.
N2220 G1 Y-7.491
N2225 Y-7.5
N2230 X6.795 Y-17.988
N2235 G3 X7.09 Y-18.28 I0.3 J0.009
N2240 G1 X7.695 Y-18.289
N2245 G3 X8. Y-17.989 I0.005 J0.3
N2250 G1 Y0.
N2255 Y2.989
N2260 G3 X7.993 Y3.082 I-0.6 J0.
N2265 G1 X7.523 Y6.045
N2270 X7.509 Y6.138 Z-13.993
N2275 X7.494 Y6.229 Z-13.971
N2280 X7.481 Y6.315 Z-13.935
N2285 X7.468 Y6.394 Z-13.885
N2290 X7.457 Y6.465 Z-13.824
N2295 X7.447 Y6.525 Z-13.753
N2300 X7.44 Y6.574 Z-13.672
N2305 X7.434 Y6.609 Z-13.585
N2310 X7.431 Y6.631 Z-13.494
N2315 X7.429 Y6.638 Z-13.4
N2320 Z10. F90000.
(PARALLEL2)
N2330 M8
N2335 G0 X38.263 Y-16.997
N2340 G1 Z10. F90000.
N2345 Z-3.907
N2350 Z-5.576 F1000.
N2355 G18 G3 X37.238 Z-6. I-0.6 K0.
N2360 G1 X32.239 Z-1.
N2365 G3 X32.063 Z-0.576 I0.424 K0.424
N2370 G1 Z5. F90000.
N2375 X38.854 Y-15.998
N2380 Z-4.139
N2385 Z-5.576 F1000.
N2390 G3 X37.829 Z-6. I-0.6 K0.
N2395 G1 X32.829 Z-1.
N2400 G3 X32.654 Z-0.576 I0.424 K0.424
N2405 G1 Z5. F90000.
N2410 X39.024 Y-14.998
N2415 Z-4.196
N2420 Z-5.576 F1000.
N2425 G3 X38. Z-6. I-0.6 K0.
N2430 G1 X33. Z-1.
N2435 G3 X32.824 Z-0.576 I0.424 K0.424
N2440 G1 Z5. F90000.
N2445 X39.024 Y-13.998
N2450 Z-4.196
N2455 Z-5.576 F1000.
N2460 G3 X38. Z-6. I-0.6 K0.
N2465 G1 X33. Z-1.
N2470 G3 X32.824 Z-0.576 I0.424 K0.424
N2475 G1 Z5. F90000.
N2480 X39.024 Y-12.998
N2485 Z-4.196
N2490 Z-5.576 F1000.
N2495 G3 X38. Z-6. I-0.6 K0.
N2500 G1 X33. Z-1.
N2505 G3 X32.824 Z-0.576 I0.424 K0.424
N2510 G1 Z5. F90000.
N2515 X39.024 Y-11.999
N2520 Z-4.196
N2525 Z-5.576 F1000.
N2530 G3 X38. Z-6. I-0.6 K0.
N2535 G1 X33. Z-1.
N2540 G3 X32.824 Z-0.576 I0.424 K0.424
N2545 G1 Z5. F90000.
N2550 X39.024 Y-10.999
N2555 Z-4.196
N2560 Z-5.576 F1000.
N2565 G3 X38. Z-6. I-0.6 K0.
N2570 G1 X33. Z-1.
N2575 G3 X32.824 Z-0.576 I0.424 K0.424
N2580 G1 Z5. F90000.
N2585 X39.024 Y-9.999
N2590 Z-4.196
N2595 Z-5.576 F1000.
N2600 G3 X38. Z-6. I-0.6 K0.
N2605 G1 X33. Z-1.
N2610 G3 X32.824 Z-0.576 I0.424 K0.424
N2615 G1 Z5. F90000.
N2620 X39.024 Y-9.
N2625 Z-4.196
N2630 Z-5.576 F1000.
N2635 G3 X38. Z-6. I-0.6 K0.
N2640 G1 X33. Z-1.
N2645 G3 X32.824 Z-0.576 I0.424 K0.424
N2650 G1 Z5. F90000.
N2655 X39.024 Y-8.
N2660 Z-4.196
N2665 Z-5.576 F1000.
N2670 G3 X38. Z-6. I-0.6 K0.
N2675 G1 X33. Z-1.
N2680 G3 X32.824 Z-0.576 I0.424 K0.424
N2685 G1 Z5. F90000.
N2690 X39.024 Y-7.
N2695 Z-4.196
N2700 Z-5.576 F1000.
N2705 G3 X38. Z-6. I-0.6 K0.
N2710 G1 X33. Z-1.
N2715 G3 X32.824 Z-0.576 I0.424 K0.424
N2720 G1 Z5. F90000.
N2725 X39.024 Y-6.
N2730 Z-4.196
N2735 Z-5.576 F1000.
N2740 G3 X38. Z-6. I-0.6 K0.
N2745 G1 X33. Z-1.
N2750 G3 X32.824 Z-0.576 I0.424 K0.424
N2755 G1 Z5. F90000.
N2760 X39.024 Y-5.001
N2765 Z-4.196
N2770 Z-5.576 F1000.
N2775 G3 X38. Z-6. I-0.6 K0.
N2780 G1 X33. Z-1.
N2785 G3 X32.824 Z-0.576 I0.424 K0.424
N2790 G1 Z5. F90000.
N2795 X39.024 Y-4.001
N2800 Z-4.196
N2805 Z-5.576 F1000.
N2810 G3 X38. Z-6. I-0.6 K0.
N2815 G1 X33. Z-1.
N2820 G3 X32.824 Z-0.576 I0.424 K0.424
N2825 G1 Z5. F90000.
N2830 X39.024 Y-3.001
N2835 Z-4.196
N2840 Z-5.576 F1000.
N2845 G3 X38. Z-6. I-0.6 K0.
N2850 G1 X33. Z-1.
N2855 G3 X32.824 Z-0.576 I0.424 K0.424
N2860 G1 Z5. F90000.
N2865 X39.024 Y-2.002
N2870 Z-4.196
N2875 Z-5.576 F1000.
N2880 G3 X38. Z-6. I-0.6 K0.
N2885 G1 X33. Z-1.
N2890 G3 X32.824 Z-0.576 I0.424 K0.424
N2895 G1 Z5. F90000.
N2900 X39.024 Y-1.002
N2905 Z-4.196
N2910 Z-5.576 F1000.
N2915 G3 X38. Z-6. I-0.6 K0.
N2920 G1 X33. Z-1.
N2925 G3 X32.824 Z-0.576 I0.424 K0.424
N2930 G1 Z5. F90000.
N2935 X39.024 Y-0.002
N2940 Z-4.196
N2945 Z-5.576 F1000.
N2950 G3 X38. Z-6. I-0.6 K0.
N2955 G1 X33. Z-1.
N2960 G3 X32.824 Z-0.576 I0.424 K0.424
N2965 G1 Z5. F90000.
N2970 X38.854 Y0.998
N2975 Z-4.139
N2980 Z-5.576 F1000.
N2985 G3 X37.829 Z-6. I-0.6 K0.
N2990 G1 X32.829 Z-1.
N2995 G3 X32.654 Z-0.576 I0.424 K0.424
N3000 G1 Z5. F90000.
N3005 X38.263 Y1.997
N3010 Z-3.907
N3015 Z-5.576 F1000.
N3020 G3 X37.238 Z-6. I-0.6 K0.
N3025 G1 X32.238 Z-1.
N3030 G3 X32.063 Z-0.576 I0.424 K0.424
N3035 G1 Z5. F90000.
N3040 X7.737 Y-16.997
N3045 Z-3.907
N3050 Z-5.576 F1000.
N3055 G2 X8.762 Z-6. I0.6 K0.
N3060 G1 X13.762 Z-1.
N3065 G2 X13.937 Z-0.576 I-0.424 K0.424
N3070 G1 Z5. F90000.
N3075 X7.146 Y-15.998
N3080 Z-4.139
N3085 Z-5.576 F1000.
N3090 G2 X8.171 Z-6. I0.6 K0.
N3095 G1 X13.17 Z-1.001
N3100 G2 X13.346 Z-0.576 I-0.424 K0.424
N3105 G1 Z5. F90000.
N3110 X6.976 Y-14.998
N3115 Z-4.196
N3120 Z-5.576 F1000.
N3125 G2 X8. Z-6. I0.6 K0.
N3130 G1 X12.999 Z-1.001
N3135 G2 X13.175 Z-0.577 I-0.424 K0.424
N3140 G1 Z5. F90000.
N3145 X6.976 Y-13.998
N3150 Z-4.196
N3155 Z-5.576 F1000.
N3160 G2 X8. Z-6. I0.6 K0.
N3165 G1 X12.999 Z-1.001
N3170 G2 X13.175 Z-0.577 I-0.424 K0.424
N3175 G1 Z5. F90000.
N3180 X6.976 Y-12.998
N3185 Z-4.196
N3190 Z-5.576 F1000.
N3195 G2 X8. Z-6. I0.6 K0.
N3200 G1 X12.999 Z-1.001
N3205 G2 X13.175 Z-0.577 I-0.424 K0.424
N3210 G1 Z5. F90000.
N3215 X6.976 Y-11.999
N3220 Z-4.196
N3225 Z-5.576 F1000.
N3230 G2 X8. Z-6. I0.6 K0.
N3235 G1 X12.999 Z-1.001
N3240 G2 X13.175 Z-0.577 I-0.424 K0.424
N3245 G1 Z5. F90000.
N3250 X6.976 Y-10.999
N3255 Z-4.196
N3260 Z-5.576 F1000.
N3265 G2 X8. Z-6. I0.6 K0.
N3270 G1 X12.999 Z-1.001
N3275 G2 X13.175 Z-0.577 I-0.424 K0.424
N3280 G1 Z5. F90000.
N3285 X6.976 Y-9.999
N3290 Z-4.196
N3295 Z-5.576 F1000.
N3300 G2 X8. Z-6. I0.6 K0.
N3305 G1 X12.999 Z-1.001
N3310 G2 X13.175 Z-0.577 I-0.424 K0.424
N3315 G1 Z5. F90000.
N3320 X6.976 Y-9.
N3325 Z-4.196
N3330 Z-5.576 F1000.
N3335 G2 X8. Z-6. I0.6 K0.
N3340 G1 X12.999 Z-1.001
N3345 G2 X13.175 Z-0.577 I-0.424 K0.424
N3350 G1 Z5. F90000.
N3355 X6.976 Y-8.
N3360 Z-4.196
N3365 Z-5.576 F1000.
N3370 G2 X8. Z-6. I0.6 K0.
N3375 G1 X12.999 Z-1.001
N3380 G2 X13.175 Z-0.577 I-0.424 K0.424
N3385 G1 Z5. F90000.
N3390 X6.976 Y-7.
N3395 Z-4.196
N3400 Z-5.576 F1000.
N3405 G2 X8. Z-6. I0.6 K0.
N3410 G1 X12.999 Z-1.001
N3415 G2 X13.175 Z-0.577 I-0.424 K0.424
N3420 G1 Z5. F90000.
N3425 X6.976 Y-6.
N3430 Z-4.196
N3435 Z-5.576 F1000.
N3440 G2 X8. Z-6. I0.6 K0.
N3445 G1 X12.999 Z-1.001
N3450 G2 X13.175 Z-0.577 I-0.424 K0.424
N3455 G1 Z5. F90000.
N3460 X6.976 Y-5.001
N3465 Z-4.196
N3470 Z-5.576 F1000.
N3475 G2 X8. Z-6. I0.6 K0.
N3480 G1 X12.999 Z-1.001
N3485 G2 X13.175 Z-0.577 I-0.424 K0.424
N3490 G1 Z5. F90000.
N3495 X6.976 Y-4.001
N3500 Z-4.196
N3505 Z-5.576 F1000.
N3510 G2 X8. Z-6. I0.6 K0.
N3515 G1 X12.999 Z-1.001
N3520 G2 X13.175 Z-0.577 I-0.424 K0.424
N3525 G1 Z5. F90000.
N3530 X6.976 Y-3.001
N3535 Z-4.196
N3540 Z-5.576 F1000.
N3545 G2 X8. Z-6. I0.6 K0.
N3550 G1 X12.999 Z-1.001
N3555 G2 X13.175 Z-0.577 I-0.424 K0.424
N3560 G1 Z5. F90000.
N3565 X6.976 Y-2.002
N3570 Z-4.196
N3575 Z-5.576 F1000.
N3580 G2 X8. Z-6. I0.6 K0.
N3585 G1 X12.999 Z-1.001
N3590 G2 X13.175 Z-0.577 I-0.424 K0.424
N3595 G1 Z5. F90000.
N3600 X6.976 Y-1.002
N3605 Z-4.196
N3610 Z-5.576 F1000.
N3615 G2 X8. Z-6. I0.6 K0.
N3620 G1 X12.999 Z-1.001
N3625 G2 X13.175 Z-0.577 I-0.424 K0.424
N3630 G1 Z5. F90000.
N3635 X6.976 Y-0.002
N3640 Z-4.196
N3645 Z-5.576 F1000.
N3650 G2 X8. Z-6. I0.6 K0.
N3655 G1 X12.999 Z-1.001
N3660 G2 X13.175 Z-0.577 I-0.424 K0.424
N3665 G1 Z5. F90000.
N3670 X7.146 Y0.998
N3675 Z-4.139
N3680 Z-5.576 F1000.
N3685 G2 X8.171 Z-6. I0.6 K0.
N3690 G1 X13.17 Z-1.001
N3695 G2 X13.346 Z-0.577 I-0.424 K0.424
N3700 G1 Z5. F90000.
N3705 X7.737 Y1.997
N3710 Z-3.907
N3715 Z-5.576 F1000.
N3720 G2 X8.762 Z-6. I0.6 K0.
N3725 G1 X13.761 Z-1.
N3730 G2 X13.937 Z-0.576 I-0.424 K0.424
N3735 G1 Z10. F90000.
N3740 G17
N3745 M9
N3750 G53 G0 Z0.
N3755 M30
%
