%
(1)
(T13  D=5.95 CR=0. - ZMIN=-10. - FLAT END MILL)
N10 G90 G94 G17 G91.1
N15 G21
N20 G53 G0 Z0.
(2D CONTOUR3)
N25 M9
N30 T13 M6
N35 S3200 M3
N40 G54
N45 M8
N55 G0 X11.49 Y2.405
N60 G43 Z10.1 H13
N65 #102=1000. (FINISH)
N70 #103=1000. (ENTRY)
N75 #104=1000. (EXIT)
N80 #108=333.33 (PLUNGE)
N85 G0 Z-8.
N90 G1 Z-9. F#103
N95 Z-9.405 F#108
N100 G18 G2 X12.085 Z-10. I0.595 K0.
N105 G1 X12.68 F#103
N110 G17 G3 X13.275 Y3. I0. J0.595
N115 X10.725 I-1.275 J0. F#102
N120 X13.275 I1.275 J0.
N125 X12.68 Y3.595 I-0.595 J0. F#104
N130 G1 X12.085
N135 G18 G3 X11.49 Z-9.405 I0. K0.595
N140 G0 Z10.1
N145 G17
(2D CONTOUR3 2)
N150 M8
N155 G0 X15.29 Y2.405
N160 #102=1000. (FINISH)
N165 #103=1000. (ENTRY)
N170 #104=1000. (EXIT)
N175 #108=333.33 (PLUNGE)
N180 Z10.1
N185 Z-3.
N190 G1 Z-4. F#103
N195 Z-4.405 F#108
N200 G18 G2 X15.885 Z-5. I0.595 K0.
N205 G1 X16.48 F#103
N210 G17 G3 X17.075 Y3. I0. J0.595
N215 X6.925 I-5.075 J0. F#102
N220 X17.075 I5.075 J0.
N225 X16.48 Y3.595 I-0.595 J0. F#104
N230 G1 X15.885
N235 G18 G3 X15.29 Z-4.405 I0. K0.595
N240 G0 Z10.1
N245 G17
(2D CONTOUR3 3)
N250 M8
N255 G0 X15.49 Y2.405
N260 #102=1000. (FINISH)
N265 #103=1000. (ENTRY)
N270 #104=1000. (EXIT)
N275 #108=333.33 (PLUNGE)
N280 Z10.1
N285 Z-1.2
N290 G1 Z-2.2 F#103
N295 Z-2.605 F#108
N300 G18 G2 X16.085 Z-3.2 I0.595 K0.
N305 G1 X16.68 F#103
N310 G17 G3 X17.275 Y3. I0. J0.595
N315 X6.725 I-5.275 J0. F#102
N320 X17.275 I5.275 J0.
N325 X16.68 Y3.595 I-0.595 J0. F#104
N330 G1 X16.085
N335 G18 G3 X15.49 Z-2.605 I0. K0.595
N340 G0 Z10.1
N345 G17
N350 M9
N355 G53 G0 Z0.
N360 M30
%
