%
(T13 BOTTOM FACE)
(T13  D=5.95 CR=0. - ZMIN=13. - FLAT END MILL)
N10 G90 G94 G17 G91.1
N15 G21
N20 G53 G0 Z0.
(FACE4)
N25 M9
N30 T13 M6
N35 S3200 M3
N40 G54
N45 M8
N55 G0 X33.868 Y-30.475
N60 G43 Z19. H13
N65 #100=1000. (CUTTING)
N70 #102=1000. (FINISH)
N75 #103=1000. (ENTRY)
N80 #104=1000. (EXIT)
N85 G0 Z16.
N90 G1 Z13.595 F#103
N95 G18 G3 X33.272 Z13. I-0.595 K0.
N100 G1 X30.
N105 X0. F#102
N110 G17 G2 Y-26.025 I0. J2.225 F#100
N115 G1 X30. F#102
N120 G3 Y-21.575 I0. J2.225 F#100
N125 G1 X0. F#102
N130 G2 Y-17.126 I0. J2.225 F#100
N135 G1 X30. F#102
N140 G3 Y-12.676 I0. J2.225 F#100
N145 G1 X0. F#102
N150 G2 Y-8.226 I0. J2.225 F#100
N155 G1 X30. F#102
N160 G3 Y-3.776 I0. J2.225 F#100
N165 G1 X0. F#102
N170 G2 Y0.674 I0. J2.225 F#100
N175 G1 X30. F#102
N180 G3 Y5.124 I0. J2.225 F#100
N185 G1 X0. F#102
N190 G18 G3 X-0.595 Z13.595 I0. K0.595 F#104
N195 G0 Z19.
N200 G17
N205 M9
N210 G53 G0 Z0.
N215 M30
%
