%
(1)
(T13  D=5.95 CR=0. - ZMIN=-10. - FLAT END MILL)
N10 G90 G94 G17 G91.1
N15 G21
N20 G53 G0 Z0.
(FACE1)
N25 M9
N30 T13 M6
N35 S3200 M3
N40 G54
N45 M8
N55 G0 X35.322 Y27.683
N60 G43 Z10.1 H13
N65 #100=1000. (CUTTING)
N70 #102=1000. (FINISH)
N75 #103=1000. (ENTRY)
N80 #104=1000. (EXIT)
N85 G0 Z5.1
N90 G1 Z0.595 F#103
N95 G19 G2 Y27.088 Z0. J-0.595 K0.
N100 G1 Y-27.088 F#102
N105 Y-27.1 F#100
N110 G17 G2 X31.609 I-1.856 J0.
N115 G1 Y27.1 F#102
N120 G3 X27.896 I-1.856 J0. F#100
N125 G1 Y-27.1 F#102
N130 G2 X24.183 I-1.856 J0. F#100
N135 G1 Y27.1 F#102
N140 G3 X20.47 I-1.856 J0. F#100
N145 G1 Y-27.1 F#102
N150 G2 X16.757 I-1.856 J0. F#100
N155 G1 Y27.1 F#102
N160 G3 X13.044 I-1.856 J0. F#100
N165 G1 Y-27.1 F#102
N170 G2 X9.331 I-1.856 J0. F#100
N175 G1 Y27.1 F#102
N180 G3 X5.618 I-1.856 J0. F#100
N185 G1 Y-27.1 F#102
N190 G2 X1.905 I-1.856 J0. F#100
N195 G1 Y27.1 F#102
N200 G3 X-1.808 I-1.856 J0. F#100
N205 G1 Y-27.1 F#102
N210 G2 X-5.521 I-1.856 J0. F#100
N215 G1 Y27.1 F#102
N220 G3 X-9.234 I-1.856 J0. F#100
N225 G1 Y-27.1 F#102
N230 G19 G2 Y-27.695 Z0.595 J0. K0.595 F#104
N235 G0 Z10.1
N240 G17
(2D POCKET3)
N245 M8
N250 G0 X11.337 Y2.677
N255 #100=1000. (CUTTING)
N260 #103=1000. (ENTRY)
N265 #104=1000. (EXIT)
N270 #107=1000. (RAMPING)
N275 Z10.1
N280 Z2.695
N285 G1 Y2.674 Z2.629 F#107
N290 G3 X11.339 Y2.663 Z2.565 I2.807 J0.327
N295 X11.341 Y2.646 Z2.502 I2.806 J0.337
N300 X11.344 Y2.621 Z2.442 I2.804 J0.355
N305 X11.348 Y2.591 Z2.384 I2.801 J0.379
N310 X11.354 Y2.554 Z2.331 I2.796 J0.41
N315 X11.361 Y2.512 Z2.281 I2.791 J0.446
N320 X11.37 Y2.465 Z2.237 I2.784 J0.488
N325 X11.38 Y2.414 Z2.198 I2.775 J0.535
N330 X11.392 Y2.359 Z2.165 I2.765 J0.587
N335 X11.406 Y2.301 Z2.139 I2.752 J0.642
N340 X11.422 Y2.241 Z2.119 I2.738 J0.699
N345 X11.44 Y2.179 Z2.106 I2.722 J0.76
N350 X11.46 Y2.117 Z2.1 I2.704 J0.821
N355 X16.829 Y3.883 Z1.79 I2.685 J0.883
N360 X11.46 Y2.117 Z1.48 I-2.685 J-0.883
N365 X16.829 Y3.883 Z1.17 I2.685 J0.883
N370 X11.46 Y2.117 Z0.86 I-2.685 J-0.883
N375 X16.829 Y3.883 Z0.55 I2.685 J0.883
N380 X11.46 Y2.117 Z0.24 I-2.685 J-0.883
N385 X16.829 Y3.883 Z-0.07 I2.685 J0.883
N390 X11.46 Y2.117 Z-0.38 I-2.685 J-0.883
N395 X16.829 Y3.883 Z-0.691 I2.685 J0.883
N400 X11.46 Y2.117 Z-1.001 I-2.685 J-0.883
N405 X16.829 Y3.883 Z-1.311 I2.685 J0.883
N410 X11.46 Y2.117 Z-1.621 I-2.685 J-0.883
N415 X16.829 Y3.883 Z-1.931 I2.685 J0.883
N420 X11.46 Y2.117 Z-2.241 I-2.685 J-0.883
N425 X16.829 Y3.883 Z-2.551 I2.685 J0.883
N430 X11.46 Y2.117 Z-2.861 I-2.685 J-0.883
N435 X16.829 Y3.883 Z-3.171 I2.685 J0.883
N440 X11.46 Y2.117 Z-3.481 I-2.685 J-0.883
N445 X16.829 Y3.883 Z-3.791 I2.685 J0.883
N450 X11.46 Y2.117 Z-4.101 I-2.685 J-0.883
N455 X16.829 Y3.883 Z-4.411 I2.685 J0.883
N460 X11.46 Y2.117 Z-4.721 I-2.685 J-0.883
N465 X16.971 Y3. Z-5. I2.685 J0.883
N470 X12.125 I-2.423 J0.
N475 X12.175 I0.025 J0. F#100
N480 X11.825 I-0.175 J0.
N485 X12.475 I0.325 J0.
N490 X11.525 I-0.475 J0.
N495 X12.775 I0.625 J0.
N500 X11.225 I-0.775 J0.
N505 X13.075 I0.925 J0.
N510 X10.925 I-1.075 J0.
N515 X13.375 I1.225 J0.
N520 X10.625 I-1.375 J0.
N525 X13.675 I1.525 J0.
N530 X10.325 I-1.675 J0.
N535 X13.975 I1.825 J0.
N540 X10.025 I-1.975 J0.
N545 X14.275 I2.125 J0.
N550 X9.725 I-2.275 J0.
N555 X14.575 I2.425 J0.
N560 X9.425 I-2.575 J0.
N565 X14.875 I2.725 J0.
N570 X9.125 I-2.875 J0.
N575 X15.175 I3.025 J0.
N580 X8.825 I-3.175 J0.
N585 X15.475 I3.325 J0.
N590 X8.525 I-3.475 J0.
N595 X15.775 I3.625 J0.
N600 X8.225 I-3.775 J0.
N605 X16.075 I3.925 J0.
N610 X7.925 I-4.075 J0.
N615 X16.375 I4.225 J0.
N620 X7.625 I-4.375 J0.
N625 X16.675 I4.525 J0.
N630 X7.325 I-4.675 J0.
N635 X16.975 I4.825 J0.
N640 X7.025 I-4.975 J0.
N645 X16.975 I4.975 J0.
N650 X16.972 Y3.067 Z-4.996 I-0.595 J0. F#104
N655 X16.961 Y3.132 Z-4.985 I-0.591 J-0.066
N660 X16.943 Y3.193 Z-4.967 I-0.58 J-0.131
N665 X16.92 Y3.25 Z-4.941 I-0.563 J-0.193
N670 X16.893 Y3.302 Z-4.909 I-0.54 J-0.25
N675 X16.863 Y3.348 Z-4.87 I-0.513 J-0.302
N680 X16.833 Y3.387 Z-4.826 I-0.483 J-0.347
N685 X16.803 Y3.419 Z-4.776 I-0.452 J-0.387
N690 X16.775 Y3.446 Z-4.722 I-0.422 J-0.419
N695 X16.75 Y3.467 Z-4.663 I-0.394 J-0.446
N700 X16.729 Y3.482 Z-4.602 I-0.369 J-0.466
N705 X16.714 Y3.493 Z-4.537 I-0.349 J-0.482
N710 X16.705 Y3.499 Z-4.472 I-0.334 J-0.492
N715 G1 X16.702 Y3.501 Z-4.405
N720 G0 Z10.1
(2D POCKET3 3)
N730 M8
N735 G0 X10.94 Y3.708
N740 #100=1000. (CUTTING)
N745 #103=1000. (ENTRY)
N750 #104=1000. (EXIT)
N755 #107=1000. (RAMPING)
N760 Z10.1
N765 Z-2.405
N770 G1 X10.938 Y3.705 Z-2.471 F#107
N775 G3 X10.932 Y3.696 Z-2.535 I1.063 J-0.704
N780 X10.922 Y3.681 Z-2.598 I1.069 J-0.695
N785 X10.909 Y3.66 Z-2.658 I1.078 J-0.681
N790 X10.894 Y3.633 Z-2.716 I1.091 J-0.66
N795 X10.876 Y3.601 Z-2.769 I1.107 J-0.633
N800 X10.856 Y3.563 Z-2.819 I1.125 J-0.601
N805 X10.836 Y3.52 Z-2.863 I1.144 J-0.563
N810 X10.816 Y3.471 Z-2.902 I1.164 J-0.52
N815 X10.796 Y3.419 Z-2.935 I1.185 J-0.471
N820 X10.778 Y3.362 Z-2.961 I1.204 J-0.418
N825 X10.762 Y3.302 Z-2.981 I1.223 J-0.362
N830 X10.748 Y3.239 Z-2.994 I1.239 J-0.302
N835 X10.737 Y3.175 Z-3. I1.252 J-0.239
N840 X13.263 Y2.825 Z-3.14 I1.263 J-0.175
N845 X10.737 Y3.175 Z-3.28 I-1.263 J0.175
N850 X13.263 Y2.825 Z-3.42 I1.263 J-0.175
N855 X10.737 Y3.175 Z-3.56 I-1.263 J0.175
N860 X13.263 Y2.825 Z-3.699 I1.263 J-0.175
N865 X10.737 Y3.175 Z-3.839 I-1.263 J0.175
N870 X13.263 Y2.825 Z-3.979 I1.263 J-0.175
N875 X10.737 Y3.175 Z-4.119 I-1.263 J0.175
N880 X13.263 Y2.825 Z-4.259 I1.263 J-0.175
N885 X10.737 Y3.175 Z-4.399 I-1.263 J0.175
N890 X13.263 Y2.825 Z-4.539 I1.263 J-0.175
N895 X10.737 Y3.175 Z-4.679 I-1.263 J0.175
N900 X13.263 Y2.825 Z-4.818 I1.263 J-0.175
N905 X10.737 Y3.175 Z-4.958 I-1.263 J0.175
N910 X13.263 Y2.825 Z-5.098 I1.263 J-0.175
N915 X10.737 Y3.175 Z-5.238 I-1.263 J0.175
N920 X13.263 Y2.825 Z-5.378 I1.263 J-0.175
N925 X10.737 Y3.175 Z-5.518 I-1.263 J0.175
N930 X13.263 Y2.825 Z-5.658 I1.263 J-0.175
N935 X10.737 Y3.175 Z-5.798 I-1.263 J0.175
N940 X13.263 Y2.825 Z-5.937 I1.263 J-0.175
N945 X10.737 Y3.175 Z-6.077 I-1.263 J0.175
N950 X13.263 Y2.825 Z-6.217 I1.263 J-0.175
N955 X10.737 Y3.175 Z-6.357 I-1.263 J0.175
N960 X13.263 Y2.825 Z-6.497 I1.263 J-0.175
N965 X10.737 Y3.175 Z-6.637 I-1.263 J0.175
N970 X13.263 Y2.825 Z-6.777 I1.263 J-0.175
N975 X10.737 Y3.175 Z-6.917 I-1.263 J0.175
N980 X13.263 Y2.825 Z-7.056 I1.263 J-0.175
N985 X10.737 Y3.175 Z-7.196 I-1.263 J0.175
N990 X13.263 Y2.825 Z-7.336 I1.263 J-0.175
N995 X10.737 Y3.175 Z-7.476 I-1.263 J0.175
N1000 X13.263 Y2.825 Z-7.616 I1.263 J-0.175
N1005 X10.737 Y3.175 Z-7.756 I-1.263 J0.175
N1010 X13.263 Y2.825 Z-7.896 I1.263 J-0.175
N1015 X10.737 Y3.175 Z-8.036 I-1.263 J0.175
N1020 X13.263 Y2.825 Z-8.175 I1.263 J-0.175
N1025 X10.737 Y3.175 Z-8.315 I-1.263 J0.175
N1030 X13.263 Y2.825 Z-8.455 I1.263 J-0.175
N1035 X10.737 Y3.175 Z-8.595 I-1.263 J0.175
N1040 X13.263 Y2.825 Z-8.735 I1.263 J-0.175
N1045 X10.737 Y3.175 Z-8.875 I-1.263 J0.175
N1050 X13.263 Y2.825 Z-9.015 I1.263 J-0.175
N1055 X10.737 Y3.175 Z-9.155 I-1.263 J0.175
N1060 X13.263 Y2.825 Z-9.294 I1.263 J-0.175
N1065 X10.737 Y3.175 Z-9.434 I-1.263 J0.175
N1070 X13.263 Y2.825 Z-9.574 I1.263 J-0.175
N1075 X10.737 Y3.175 Z-9.714 I-1.263 J0.175
N1080 X13.263 Y2.825 Z-9.854 I1.263 J-0.175
N1085 X12.088 Y4.272 Z-9.927 I-1.263 J0.175
N1090 X10.725 Y3. Z-10. I-0.088 J-1.272
N1095 X12.075 I0.675 J0.
N1100 X11.925 I-0.075 J0. F#100
N1105 X12.375 I0.225 J0.
N1110 X11.625 I-0.375 J0.
N1115 X12.675 I0.525 J0.
N1120 X11.325 I-0.675 J0.
N1125 X12.975 I0.825 J0.
N1130 X11.025 I-0.975 J0.
N1135 X13.275 I1.125 J0.
N1140 X10.725 I-1.275 J0.
N1145 X13.275 I1.275 J0.
N1150 X13.272 Y3.067 Z-9.996 I-0.595 J0. F#104
N1155 X13.261 Y3.132 Z-9.985 I-0.591 J-0.066
N1160 X13.243 Y3.193 Z-9.967 I-0.58 J-0.131
N1165 X13.22 Y3.25 Z-9.941 I-0.563 J-0.193
N1170 X13.193 Y3.302 Z-9.909 I-0.54 J-0.25
N1175 X13.163 Y3.348 Z-9.87 I-0.513 J-0.302
N1180 X13.133 Y3.387 Z-9.826 I-0.483 J-0.347
N1185 X13.103 Y3.419 Z-9.776 I-0.452 J-0.387
N1190 X13.075 Y3.446 Z-9.722 I-0.422 J-0.419
N1195 X13.05 Y3.467 Z-9.663 I-0.394 J-0.446
N1200 X13.029 Y3.482 Z-9.602 I-0.369 J-0.466
N1205 X13.014 Y3.493 Z-9.537 I-0.349 J-0.482
N1210 X13.005 Y3.499 Z-9.472 I-0.334 J-0.492
N1215 G1 X13.002 Y3.501 Z-9.405
N1220 G0 Z10.1
(2D CONTOUR3)
N1230 M8
N1235 G0 X11.49 Y2.405
N1240 #102=1000. (FINISH)
N1245 #103=1000. (ENTRY)
N1250 #104=1000. (EXIT)
N1255 #108=333.33 (PLUNGE)
N1260 Z10.1
N1265 Z-8.
N1270 G1 Z-9. F#103
N1275 Z-9.405 F#108
N1280 G18 G2 X12.085 Z-10. I0.595 K0.
N1285 G1 X12.68 F#103
N1290 G17 G3 X13.275 Y3. I0. J0.595
N1295 X10.725 I-1.275 J0. F#102
N1300 X13.275 I1.275 J0.
N1305 X12.68 Y3.595 I-0.595 J0. F#104
N1310 G1 X12.085
N1315 G18 G3 X11.49 Z-9.405 I0. K0.595
N1320 G0 Z10.1
N1325 G17
(2D CONTOUR3 2)
N1330 M8
N1335 G0 X15.29 Y2.405
N1340 #102=1000. (FINISH)
N1345 #103=1000. (ENTRY)
N1350 #104=1000. (EXIT)
N1355 #108=333.33 (PLUNGE)
N1360 Z10.1
N1365 Z-3.
N1370 G1 Z-4. F#103
N1375 Z-4.405 F#108
N1380 G18 G2 X15.885 Z-5. I0.595 K0.
N1385 G1 X16.48 F#103
N1390 G17 G3 X17.075 Y3. I0. J0.595
N1395 X6.925 I-5.075 J0. F#102
N1400 X17.075 I5.075 J0.
N1405 X16.48 Y3.595 I-0.595 J0. F#104
N1410 G1 X15.885
N1415 G18 G3 X15.29 Z-4.405 I0. K0.595
N1420 G0 Z10.1
N1425 G17
(2D CONTOUR3 3)
N1430 M8
N1435 G0 X15.49 Y2.405
N1440 #102=1000. (FINISH)
N1445 #103=1000. (ENTRY)
N1450 #104=1000. (EXIT)
N1455 #108=333.33 (PLUNGE)
N1460 Z10.1
N1465 Z-1.2
N1470 G1 Z-2.2 F#103
N1475 Z-2.605 F#108
N1480 G18 G2 X16.085 Z-3.2 I0.595 K0.
N1485 G1 X16.68 F#103
N1490 G17 G3 X17.275 Y3. I0. J0.595
N1495 X6.725 I-5.275 J0. F#102
N1500 X17.275 I5.275 J0.
N1505 X16.68 Y3.595 I-0.595 J0. F#104
N1510 G1 X16.085
N1515 G18 G3 X15.49 Z-2.605 I0. K0.595
N1520 G0 Z10.1
N1525 G17
N1530 M9
N1535 G53 G0 Z0.
N1540 M30
%
