%
(1001)
(T13  D=6. CR=0. - ZMIN=-13. - FLAT END MILL)
N10 G90 G94 G17 G91.1
N15 G21
N20 G53 G0 Z0.
(FACE3)
N25 M9
N30 T13 M6
N35 S3200 M3
N40 G54
N45 M8
N55 G0 X44.206 Y3.9
N60 G43 Z6. H13
N65 #100=1000. (CUTTING)
N70 #102=1000. (FINISH)
N75 #103=1000. (ENTRY)
N80 #104=1000. (EXIT)
N85 G0 Z3.
N90 G1 Z0.6 F#103
N95 G19 G2 Y3.3 Z0. J-0.6 K0.
N100 G1 Y0.
N105 Y-32. F#102
N110 G17 G2 X40.45 I-1.878 J0. F#100
N115 G1 Y0. F#102
N120 G3 X36.694 I-1.878 J0. F#100
N125 G1 Y-32. F#102
N130 G2 X32.937 I-1.878 J0. F#100
N135 G1 Y0. F#102
N140 G3 X29.181 I-1.878 J0. F#100
N145 G1 Y-32. F#102
N150 G2 X25.425 I-1.878 J0. F#100
N155 G1 Y0. F#102
N160 G3 X21.669 I-1.878 J0. F#100
N165 G1 Y-32. F#102
N170 G2 X17.913 I-1.878 J0. F#100
N175 G1 Y0. F#102
N180 G3 X14.156 I-1.878 J0. F#100
N185 G1 Y-32. F#102
N190 G2 X10.4 I-1.878 J0. F#100
N195 G1 Y0. F#102
N200 G3 X6.644 I-1.878 J0. F#100
N205 G1 Y-32. F#102
N210 G2 X2.888 I-1.878 J0. F#100
N215 G1 Y0. F#102
N220 G19 G3 Y0.6 Z0.6 J0. K0.6 F#104
N225 G0 Z6.
N230 G17
(2D ADAPTIVE3 2)
N235 M8
N240 G0 X-0.589 Y-38.819
N245 #100=1000. (CUTTING)
N250 #103=1000. (ENTRY)
N255 #104=1000. (EXIT)
N260 #106=450. (REDUCED)
N265 Z4.
N270 Z-11.8
N275 G1 Z-12.4 F#103
N280 X-0.587 Y-38.812 Z-12.494
N285 X-0.581 Y-38.79 Z-12.585
N290 X-0.572 Y-38.755 Z-12.672
N295 X-0.56 Y-38.708 Z-12.753
N300 X-0.545 Y-38.649 Z-12.824
N305 X-0.527 Y-38.579 Z-12.885
N310 X-0.507 Y-38.501 Z-12.935
N315 X-0.486 Y-38.417 Z-12.971
N320 X-0.463 Y-38.329 Z-12.993
N325 X-0.44 Y-38.238 Z-13.
N330 G3 X0.03 Y-34.971 I-14.839 J3.801
N335 G1 Y-34.962 F#106
N340 G2 X-1.056 Y-33.008 I4.382 J3.714 F#100
N345 X-1.594 Y-30.54 I10.722 J3.628
N350 X-1.814 Y-27.173 I32.137 J3.79
N355 X-1.871 Y-21.548 I180.115 J4.644
N360 G1 X-1.882 Y-15.782
N365 X-1.88 Y-10.016
N370 Y-2.14
N375 G2 X-1.578 Y-1.066 I2.491 J-0.12
N380 X-0.472 Y0.19 I3.311 J-1.8
N385 X1.543 Y1.165 I3.681 J-5.041
N390 X3.292 Y1.544 I3.205 J-10.561
N395 G3 X5. Y3.517 I-0.287 J1.974
N400 X4.946 Y3.745 I-0.6 J-0.021 F#104
N405 G1 X4.907 Y3.83 Z-12.993
N410 X4.869 Y3.913 Z-12.971
N415 X4.833 Y3.993 Z-12.935
N420 X4.8 Y4.066 Z-12.885
N425 X4.77 Y4.131 Z-12.824
N430 X4.745 Y4.186 Z-12.753
N435 X4.725 Y4.231 Z-12.672
N440 X4.71 Y4.264 Z-12.585
N445 X4.701 Y4.284 Z-12.494
N450 X4.698 Y4.291 Z-12.4
N455 G0 Z2.51
N460 X4.381 Y-38.82
N465 Z-11.8
N470 G1 Z-12.4 F#103
N475 X4.383 Y-38.813 Z-12.494
N480 X4.389 Y-38.791 Z-12.585
N485 X4.398 Y-38.756 Z-12.672
N490 X4.41 Y-38.709 Z-12.753
N495 X4.425 Y-38.65 Z-12.824
N500 X4.443 Y-38.58 Z-12.885
N505 X4.463 Y-38.502 Z-12.935
N510 X4.484 Y-38.418 Z-12.971
N515 X4.507 Y-38.329 Z-12.993
N520 X4.53 Y-38.239 Z-13.
N525 G3 X5. Y-34.972 I-14.839 J3.801
N530 G1 Y-34.926 F#106
N535 G3 X4.35 Y-34.579 I-1.227 J-1.514 F#100
N540 X3.606 Y-34.354 I-1.652 J-4.132
N545 G2 X1.652 Y-33.304 I0.758 J3.751
N550 X0.396 Y-31.454 I4.003 J4.07
N555 X-0.318 Y-29.033 I9.185 J4.026
N560 X-0.663 Y-25.678 I23.747 J4.14
N565 X-0.766 Y-21.461 I86.385 J4.208
N570 G1 X-0.786 Y-17.71
N575 X-0.794 Y-13.96
N580 X-0.79 Y-10.21
N585 Y-4.584
N590 G2 X0.165 Y-2.002 I3.932 J0.014
N595 X1.671 Y-0.749 I4.282 J-3.617
N600 X3.001 Y0.003 I16.951 J-28.422
N605 G3 X4.056 Y0.658 I-10.68 J18.377
N610 X5. Y2.532 I-1.385 J1.872
N615 X4.946 Y2.76 I-0.6 J-0.021 F#104
N620 G1 X4.907 Y2.845 Z-12.993
N625 X4.869 Y2.929 Z-12.971
N630 X4.833 Y3.008 Z-12.935
N635 X4.8 Y3.081 Z-12.885
N640 X4.77 Y3.146 Z-12.824
N645 X4.745 Y3.202 Z-12.753
N650 X4.725 Y3.246 Z-12.672
N655 X4.71 Y3.279 Z-12.585
N660 X4.701 Y3.299 Z-12.494
N665 X4.698 Y3.306 Z-12.4
N670 G0 Z2.51
N675 X4.255 Y-35.21
N680 Z-11.8
N685 G1 Z-12.4 F#103
N690 X4.262 Y-35.209 Z-12.494
N695 X4.284 Y-35.205 Z-12.585
N700 X4.319 Y-35.198 Z-12.672
N705 X4.368 Y-35.19 Z-12.753
N710 X4.428 Y-35.179 Z-12.824
N715 X4.499 Y-35.166 Z-12.885
N720 X4.578 Y-35.152 Z-12.935
N725 X4.663 Y-35.137 Z-12.971
N730 X4.753 Y-35.121 Z-12.993
N735 X4.846 Y-35.104 Z-13.
N740 G3 X5. Y-34.926 I-0.033 J0.185
N745 G1 Y-34.685 F#106
N750 G3 X4.544 Y-34.239 I-1.516 J-1.094 F#100
N755 G2 X3.472 Y-33.329 I10.804 J13.817
N760 X1.499 Y-30.286 I5.745 J5.887
N765 X0.742 Y-27.293 I12.556 J4.766
N770 X0.434 Y-23.934 I29.527 J4.401
N775 X0.321 Y-18.591 I113.824 J5.079
N780 G1 X0.303 Y-14.466
N785 X0.297 Y-10.341
N790 X0.305 Y-6.215
N795 G2 X1.367 Y-3.361 I4.991 J-0.232
N800 X2.716 Y-1.932 I7.29 J-5.534
N805 G3 X3.914 Y-0.886 I-67.767 J78.764
N810 X4.54 Y-0.231 I-5.096 J5.495
N815 X5.001 Y1.166 I-1.92 J1.408
N820 G1 X4.992 Y1.244 F#104
N825 X4.974 Y1.321
N830 X4.946 Y1.394
N835 X4.907 Y1.48 Z-12.993
N840 X4.869 Y1.563 Z-12.971
N845 X4.833 Y1.642 Z-12.935
N850 X4.8 Y1.715 Z-12.885
N855 X4.77 Y1.78 Z-12.824
N860 X4.745 Y1.836 Z-12.753
N865 X4.725 Y1.881 Z-12.672
N870 X4.71 Y1.913 Z-12.585
N875 X4.701 Y1.933 Z-12.494
N880 X4.698 Y1.94 Z-12.4
N885 G0 Z2.51
N890 X4.255 Y-34.969
N895 Z-11.8
N900 G1 Z-12.4 F#103
N905 X4.262 Y-34.967 Z-12.494
N910 X4.284 Y-34.964 Z-12.585
N915 X4.319 Y-34.957 Z-12.672
N920 X4.368 Y-34.949 Z-12.753
N925 X4.428 Y-34.938 Z-12.824
N930 X4.499 Y-34.925 Z-12.885
N935 X4.578 Y-34.911 Z-12.935
N940 X4.663 Y-34.896 Z-12.971
N945 X4.753 Y-34.879 Z-12.993
N950 X4.846 Y-34.863 Z-13.
N955 G3 X5. Y-34.685 I-0.033 J0.185
N960 G1 Y-34.294 F#100
N965 X4.999 Y-34.279
N970 G3 X4.187 Y-32.952 I-9.876 J-5.129
N975 G2 X2.955 Y-30.743 I13.868 J9.185
N980 X1.813 Y-26.695 I14.47 J6.266
N985 X1.473 Y-23.338 I29.94 J4.734
N990 X1.328 Y-17.715 I103.77 J5.492
N995 X1.306 Y-7.871 I746.714 J6.553
N1000 X2.404 Y-4.431 I6.628 J-0.221
N1005 X3.78 Y-2.654 I11.656 J-7.601
N1010 G3 X4.531 Y-1.746 I-25.216 J21.608
N1015 X5. Y-0.34 I-1.879 J1.409
N1020 G1 Y-0.081
N1025 G3 X4.946 Y0.147 I-0.6 J-0.021 F#104
N1030 G1 X4.907 Y0.233 Z-12.993
N1035 X4.869 Y0.316 Z-12.971
N1040 X4.833 Y0.395 Z-12.935
N1045 X4.8 Y0.468 Z-12.885
N1050 X4.77 Y0.533 Z-12.824
N1055 X4.745 Y0.589 Z-12.753
N1060 X4.725 Y0.634 Z-12.672
N1065 X4.71 Y0.666 Z-12.585
N1070 X4.701 Y0.686 Z-12.494
N1075 X4.698 Y0.693 Z-12.4
N1080 G0 Z2.51
N1085 X4.255 Y-34.578
N1090 Z-11.8
N1095 G1 Z-12.4 F#103
N1100 X4.262 Y-34.577 Z-12.494
N1105 X4.284 Y-34.573 Z-12.585
N1110 X4.319 Y-34.566 Z-12.672
N1115 X4.368 Y-34.558 Z-12.753
N1120 X4.428 Y-34.547 Z-12.824
N1125 X4.499 Y-34.534 Z-12.885
N1130 X4.578 Y-34.52 Z-12.935
N1135 X4.663 Y-34.505 Z-12.971
N1140 X4.753 Y-34.489 Z-12.993
N1145 X4.846 Y-34.472 Z-13.
N1150 G3 X5. Y-34.294 I-0.033 J0.185
N1155 G1 Y-33.575 F#100
N1160 G3 X4.507 Y-32.032 I-8.557 J-1.886
N1165 G2 X3.643 Y-29.652 I43.963 J17.306
N1170 X2.661 Y-24.695 I23.475 J7.227
N1175 X2.391 Y-20.204 I52.859 J5.426
N1180 X2.313 Y-13.454 I220.344 J5.917
N1185 Y-9.235 I191.103 J2.113
N1190 X2.685 Y-7.021 I8.898 J-0.357
N1195 X3.918 Y-4.502 I9.868 J-3.268
N1200 X4.633 Y-3.4 I308.589 J-199.247
N1205 G3 X5. Y-2.143 I-1.966 J1.257
N1210 G1 Y-0.34
N1215 G3 X4.946 Y-0.112 I-0.6 J-0.021 F#104
N1220 G1 X4.907 Y-0.027 Z-12.993
N1225 X4.869 Y0.056 Z-12.971
N1230 X4.833 Y0.135 Z-12.935
N1235 X4.8 Y0.208 Z-12.885
N1240 X4.77 Y0.274 Z-12.824
N1245 X4.745 Y0.329 Z-12.753
N1250 X4.725 Y0.374 Z-12.672
N1255 X4.71 Y0.407 Z-12.585
N1260 X4.701 Y0.427 Z-12.494
N1265 X4.698 Y0.433 Z-12.4
N1270 G0 Z2.51
N1275 X4.255 Y-33.858
N1280 Z-11.8
N1285 G1 Z-12.4 F#103
N1290 X4.262 Y-33.857 Z-12.494
N1295 X4.284 Y-33.853 Z-12.585
N1300 X4.319 Y-33.847 Z-12.672
N1305 X4.368 Y-33.838 Z-12.753
N1310 X4.428 Y-33.827 Z-12.824
N1315 X4.499 Y-33.815 Z-12.885
N1320 X4.578 Y-33.801 Z-12.935
N1325 X4.663 Y-33.785 Z-12.971
N1330 X4.753 Y-33.769 Z-12.993
N1335 X4.846 Y-33.753 Z-13.
N1340 G3 X5. Y-33.575 I-0.033 J0.185
N1345 G1 Y-32.279 F#100
N1350 G3 X4.723 Y-30.333 I-10.194 J-0.46
N1355 G2 X4.146 Y-27.58 I156.63 J34.239
N1360 X3.476 Y-21.433 I43.652 J7.87
N1365 X3.336 Y-16.091 I114.776 J5.674
N1370 X3.314 Y-10.747 I277.432 J3.841
N1375 X3.569 Y-8.515 I12.25 J-0.268
N1380 X4.536 Y-5.881 I11.349 J-2.675
N1385 G1 X4.657 Y-5.627
N1390 X4.756 Y-5.428
N1395 G3 X5. Y-4.39 I-2.089 J1.039
N1400 G1 Y-2.143
N1405 G3 X4.946 Y-1.915 I-0.6 J-0.021 F#104
N1410 G1 X4.907 Y-1.83 Z-12.993
N1415 X4.869 Y-1.746 Z-12.971
N1420 X4.833 Y-1.667 Z-12.935
N1425 X4.8 Y-1.594 Z-12.885
N1430 X4.77 Y-1.529 Z-12.824
N1435 X4.745 Y-1.473 Z-12.753
N1440 X4.725 Y-1.429 Z-12.672
N1445 X4.71 Y-1.396 Z-12.585
N1450 X4.701 Y-1.376 Z-12.494
N1455 X4.698 Y-1.369 Z-12.4
N1460 G0 Z2.51
N1465 X4.255 Y-32.563
N1470 Z-11.8
N1475 G1 Z-12.4 F#103
N1480 X4.262 Y-32.562 Z-12.494
N1485 X4.284 Y-32.558 Z-12.585
N1490 X4.319 Y-32.551 Z-12.672
N1495 X4.368 Y-32.543 Z-12.753
N1500 X4.428 Y-32.532 Z-12.824
N1505 X4.499 Y-32.519 Z-12.885
N1510 X4.578 Y-32.505 Z-12.935
N1515 X4.663 Y-32.49 Z-12.971
N1520 X4.753 Y-32.474 Z-12.993
N1525 X4.846 Y-32.457 Z-13.
N1530 G3 X5. Y-32.279 I-0.033 J0.185
N1535 G1 Y-28.681 F#100
N1540 G3 X4.767 Y-25.315 I-44.598 J-1.396
N1545 G2 X4.356 Y-16.608 I109.946 J9.555
N1550 X4.326 Y-11.826 I162.52 J3.405
N1555 X4.607 Y-9.313 I14.759 J-0.381
N1560 X4.955 Y-7.998 I22.248 J-5.179
N1565 G1 X4.988 Y-7.764
N1570 X5. Y-7.529
N1575 Y-4.39
N1580 G3 X4.946 Y-4.162 I-0.6 J-0.021 F#104
N1585 G1 X4.907 Y-4.076 Z-12.993
N1590 X4.869 Y-3.993 Z-12.971
N1595 X4.833 Y-3.914 Z-12.935
N1600 X4.8 Y-3.841 Z-12.885
N1605 X4.77 Y-3.776 Z-12.824
N1610 X4.745 Y-3.72 Z-12.753
N1615 X4.725 Y-3.675 Z-12.672
N1620 X4.71 Y-3.643 Z-12.585
N1625 X4.701 Y-3.623 Z-12.494
N1630 X4.698 Y-3.616 Z-12.4
N1635 G0 Z2.51
N1640 X4.255 Y-28.965
N1645 Z-11.8
N1650 G1 Z-12.4 F#103
N1655 X4.262 Y-28.964 Z-12.494
N1660 X4.284 Y-28.96 Z-12.585
N1665 X4.319 Y-28.954 Z-12.672
N1670 X4.368 Y-28.945 Z-12.753
N1675 X4.428 Y-28.934 Z-12.824
N1680 X4.499 Y-28.922 Z-12.885
N1685 X4.578 Y-28.908 Z-12.935
N1690 X4.663 Y-28.892 Z-12.971
N1695 X4.753 Y-28.876 Z-12.993
N1700 X4.846 Y-28.859 Z-13.
N1705 G3 X5. Y-28.681 I-0.033 J0.185
N1710 G1 Y-7.529 F#100
N1715 X4.988 Y-7.476 Z-12.993 F#104
N1720 X4.977 Y-7.425 Z-12.974
N1725 X4.967 Y-7.38 Z-12.943
N1730 X4.959 Y-7.344 Z-12.902
N1735 X4.953 Y-7.317 Z-12.853
N1740 X4.948 Y-7.305 Z-12.81
N1745 X4.946 Y-7.301 Z-12.764
N1750 G0 Z2.51
N1755 X45.589 Y6.819
N1760 Z-11.8
N1765 G1 Z-12.4 F#103
N1770 X45.587 Y6.812 Z-12.494
N1775 X45.581 Y6.79 Z-12.585
N1780 X45.572 Y6.755 Z-12.672
N1785 X45.56 Y6.708 Z-12.753
N1790 X45.545 Y6.649 Z-12.824
N1795 X45.527 Y6.579 Z-12.885
N1800 X45.507 Y6.501 Z-12.935
N1805 X45.486 Y6.417 Z-12.971
N1810 X45.463 Y6.329 Z-12.993
N1815 X45.44 Y6.238 Z-13.
N1820 G3 X44.97 Y2.971 I14.839 J-3.801
N1825 G1 Y2.962 F#106
N1830 G2 X46.056 Y1.008 I-4.382 J-3.714 F#100
N1835 X46.594 Y-1.46 I-10.722 J-3.628
N1840 X46.814 Y-4.827 I-32.137 J-3.79
N1845 X46.871 Y-10.452 I-180.112 J-4.644
N1850 G1 X46.882 Y-16.218
N1855 X46.88 Y-21.984
N1860 Y-29.86
N1865 G2 X46.578 Y-30.934 I-2.491 J0.12
N1870 X45.472 Y-32.19 I-3.311 J1.8
N1875 X43.457 Y-33.165 I-3.681 J5.041
N1880 X40.974 Y-33.634 I-3.587 J12.17
N1885 X37.324 Y-33.829 I-3.914 J39.057
N1890 G1 X37.043 Y-33.839
N1895 X36.762 Y-33.844
N1900 X36.485 Y-33.87
N1905 X36.215 Y-33.938
N1910 X35.96 Y-34.048
N1915 X35.724 Y-34.195
N1920 X35.514 Y-34.378
N1925 X35.335 Y-34.59
N1930 X35.191 Y-34.828
N1935 X35.086 Y-35.086
N1940 X35.022 Y-35.356
N1945 X35. Y-35.633
N1950 G3 X35.054 Y-35.861 I0.6 J0.021 F#104
N1955 G1 X35.093 Y-35.947 Z-12.993
N1960 X35.131 Y-36.03 Z-12.971
N1965 X35.167 Y-36.109 Z-12.935
N1970 X35.2 Y-36.182 Z-12.885
N1975 X35.23 Y-36.247 Z-12.824
N1980 X35.255 Y-36.303 Z-12.753
N1985 X35.275 Y-36.348 Z-12.672
N1990 X35.29 Y-36.38 Z-12.585
N1995 X35.299 Y-36.4 Z-12.494
N2000 X35.302 Y-36.407 Z-12.4
N2005 G0 Z2.51
N2010 X35.619 Y6.82
N2015 Z-11.8
N2020 G1 Z-12.4 F#103
N2025 X35.617 Y6.813 Z-12.494
N2030 X35.611 Y6.791 Z-12.585
N2035 X35.602 Y6.756 Z-12.672
N2040 X35.59 Y6.709 Z-12.753
N2045 X35.575 Y6.65 Z-12.824
N2050 X35.557 Y6.58 Z-12.885
N2055 X35.537 Y6.502 Z-12.935
N2060 X35.516 Y6.418 Z-12.971
N2065 X35.493 Y6.329 Z-12.993
N2070 X35.47 Y6.239 Z-13.
N2075 G3 X35. Y2.972 I14.839 J-3.801
N2080 G1 Y2.926 F#106
N2085 G3 X35.65 Y2.579 I1.227 J1.514 F#100
N2090 X37.041 Y2.23 I2.237 J5.976
N2095 X39.261 Y2.008 I2.886 J17.662
N2100 X41.303 Y1.926 I2.963 J48.399
N2105 G2 X43.089 Y1.163 I-0.393 J-3.394
N2110 X44.47 Y-0.591 I-3.243 J-3.972
N2115 X45.265 Y-2.985 I-8.035 J-3.999
N2120 X45.617 Y-5.773 I-19.221 J-3.841
N2125 X45.76 Y-10.271 I-69.856 J-4.468
N2130 X45.785 Y-18.99 I-593.827 J-6.095
N2135 G1 X45.792 Y-21.896
N2140 Y-24.803
N2145 X45.785 Y-27.709
N2150 G2 X44.64 Y-30.218 I-4.039 J0.327
N2155 X42.814 Y-31.509 I-4.191 J3.993
N2160 X40.13 Y-32.317 I-4.252 J9.256
N2165 X38.156 Y-32.583 I-4.234 J24.006
N2170 G3 X36.562 Y-32.936 I0.972 J-8.172
N2175 G1 X36.3 Y-33.038
N2180 X36.033 Y-33.128
N2185 X35.764 Y-33.209
N2190 X35.553 Y-33.301
N2195 X35.366 Y-33.434
N2200 X35.212 Y-33.604
N2205 X35.096 Y-33.803
N2210 X35.024 Y-34.021
N2215 X35. Y-34.25
N2220 G3 X35.054 Y-34.478 I0.6 J0.021 F#104
N2225 G1 X35.093 Y-34.563 Z-12.993
N2230 X35.131 Y-34.646 Z-12.971
N2235 X35.167 Y-34.726 Z-12.935
N2240 X35.2 Y-34.799 Z-12.885
N2245 X35.23 Y-34.864 Z-12.824
N2250 X35.255 Y-34.919 Z-12.753
N2255 X35.275 Y-34.964 Z-12.672
N2260 X35.29 Y-34.997 Z-12.585
N2265 X35.299 Y-35.017 Z-12.494
N2270 X35.302 Y-35.024 Z-12.4
N2275 G0 Z2.51
N2280 X35.745 Y3.21
N2285 Z-11.8
N2290 G1 Z-12.4 F#103
N2295 X35.738 Y3.209 Z-12.494
N2300 X35.716 Y3.205 Z-12.585
N2305 X35.681 Y3.198 Z-12.672
N2310 X35.632 Y3.19 Z-12.753
N2315 X35.572 Y3.179 Z-12.824
N2320 X35.501 Y3.166 Z-12.885
N2325 X35.422 Y3.152 Z-12.935
N2330 X35.337 Y3.137 Z-12.971
N2335 X35.247 Y3.121 Z-12.993
N2340 X35.154 Y3.104 Z-13.
N2345 G3 X35. Y2.926 I0.033 J-0.185
N2350 G1 Y2.685 F#106
N2355 G3 X35.701 Y2.079 I1.716 J1.279 F#100
N2360 X37.064 Y1.509 I2.633 J4.381
N2365 X38.932 Y1.135 I3.099 J10.616
N2370 G2 X40.035 Y0.917 I-0.812 J-7.016
N2375 X42.519 Y-0.844 I-1.503 J-4.752
N2380 X43.696 Y-3.07 I-5.807 J-4.496
N2385 X44.32 Y-5.808 I-12.665 J-4.323
N2390 X44.6 Y-9.451 I-33.269 J-4.397
N2395 X44.685 Y-14.795 I-141.768 J-4.907
N2400 G1 X44.698 Y-18.451
N2405 X44.701 Y-22.108
N2410 X44.696 Y-25.764
N2415 G2 X44.23 Y-27.664 I-4.878 J0.19
N2420 X42.377 Y-29.737 I-4.773 J2.401
N2425 X40.093 Y-30.806 I-4.607 J6.875
N2430 X38.253 Y-31.331 I-10.342 J32.729
N2435 G3 X36.519 Y-31.878 I6.692 J-24.214
N2440 X35.735 Y-32.36 I0.961 J-2.445
N2445 X35. Y-34.046 I1.574 J-1.689
N2450 X35.054 Y-34.274 I0.6 J0.021 F#104
N2455 G1 X35.093 Y-34.359 Z-12.993
N2460 X35.131 Y-34.443 Z-12.971
N2465 X35.167 Y-34.522 Z-12.935
N2470 X35.2 Y-34.595 Z-12.885
N2475 X35.23 Y-34.66 Z-12.824
N2480 X35.255 Y-34.715 Z-12.753
N2485 X35.275 Y-34.76 Z-12.672
N2490 X35.29 Y-34.793 Z-12.585
N2495 X35.299 Y-34.813 Z-12.494
N2500 X35.302 Y-34.82 Z-12.4
N2505 G0 Z2.51
N2510 X35.745 Y2.969
N2515 Z-11.8
N2520 G1 Z-12.4 F#103
N2525 X35.738 Y2.967 Z-12.494
N2530 X35.716 Y2.964 Z-12.585
N2535 X35.681 Y2.957 Z-12.672
N2540 X35.632 Y2.949 Z-12.753
N2545 X35.572 Y2.938 Z-12.824
N2550 X35.501 Y2.925 Z-12.885
N2555 X35.422 Y2.911 Z-12.935
N2560 X35.337 Y2.896 Z-12.971
N2565 X35.247 Y2.879 Z-12.993
N2570 X35.154 Y2.863 Z-13.
N2575 G3 X35. Y2.685 I0.033 J-0.185
N2580 G1 Y2.362 F#100
N2585 G3 X35.216 Y2.006 I1.196 J0.481
N2590 X36.21 Y1.186 I2.51 J2.032
N2595 X37.471 Y0.632 I3.032 J5.189
N2600 G2 X38.79 Y0.144 I-5.719 J-17.476
N2605 X41.68 Y-2.44 I-2.642 J-5.863
N2610 X42.764 Y-5.024 I-8.073 J-4.906
N2615 X43.303 Y-8.067 I-17.149 J-4.606
N2620 X43.538 Y-12.278 I-47.999 J-4.793
N2625 X43.6 Y-18.747 I-234.876 J-5.458
N2630 X43.603 Y-24.091 I-413.544 J-2.926
N2635 X43.309 Y-25.748 I-6.116 J0.229
N2640 X41.523 Y-28.224 I-5.136 J1.824
N2645 X39.611 Y-29.399 I-5.622 J7.
N2650 X37.579 Y-30.271 I-13.231 J28.027
N2655 G3 X36.078 Y-31.064 I3.576 J-8.59
N2660 X35.379 Y-31.762 I1.628 J-2.329
N2665 X35. Y-33.042 I1.992 J-1.287
N2670 X35.054 Y-33.269 I0.6 J0.021 F#104
N2675 G1 X35.093 Y-33.355 Z-12.993
N2680 X35.131 Y-33.438 Z-12.971
N2685 X35.167 Y-33.517 Z-12.935
N2690 X35.2 Y-33.59 Z-12.885
N2695 X35.23 Y-33.655 Z-12.824
N2700 X35.255 Y-33.711 Z-12.753
N2705 X35.275 Y-33.756 Z-12.672
N2710 X35.29 Y-33.789 Z-12.585
N2715 X35.299 Y-33.809 Z-12.494
N2720 X35.302 Y-33.815 Z-12.4
N2725 G0 Z2.51
N2730 X35.745 Y2.646
N2735 Z-11.8
N2740 G1 Z-12.4 F#103
N2745 X35.738 Y2.645 Z-12.494
N2750 X35.716 Y2.641 Z-12.585
N2755 X35.681 Y2.635 Z-12.672
N2760 X35.632 Y2.626 Z-12.753
N2765 X35.572 Y2.615 Z-12.824
N2770 X35.501 Y2.603 Z-12.885
N2775 X35.422 Y2.588 Z-12.935
N2780 X35.337 Y2.573 Z-12.971
N2785 X35.247 Y2.557 Z-12.993
N2790 X35.154 Y2.54 Z-13.
N2795 G3 X35. Y2.362 I0.033 J-0.185
N2800 G1 Y1.954 F#100
N2805 G3 X35.463 Y1.159 I1.854 J0.547
N2810 X36.432 Y0.358 I2.952 J2.585
N2815 X37.28 Y-0.165 I7.635 J11.422
N2820 G2 X39.086 Y-1.502 I-5.314 J-9.068
N2825 X41.207 Y-4.78 I-6.144 J-6.301
N2830 X41.942 Y-7.49 I-12.78 J-4.924
N2835 X42.355 Y-11.403 I-29.394 J-5.074
N2840 X42.486 Y-16.183 I-94.34 J-4.982
N2845 X42.512 Y-22.371 I-374.158 J-4.649
N2850 X42.3 Y-24.042 I-7.586 J0.111
N2855 X40.756 Y-26.682 I-5.66 J1.539
N2860 X38.994 Y-28.072 I-6.523 J6.454
N2865 X37.147 Y-29.17 I-29.386 J47.356
N2870 G3 X35.774 Y-30.144 I5.207 J-8.788
N2875 X34.999 Y-31.886 I1.592 J-1.752
N2880 G1 X35.007 Y-31.964 F#104
N2885 X35.026 Y-32.04
N2890 X35.054 Y-32.113
N2895 X35.093 Y-32.199 Z-12.993
N2900 X35.131 Y-32.282 Z-12.971
N2905 X35.167 Y-32.361 Z-12.935
N2910 X35.2 Y-32.434 Z-12.885
N2915 X35.23 Y-32.5 Z-12.824
N2920 X35.255 Y-32.555 Z-12.753
N2925 X35.275 Y-32.6 Z-12.672
N2930 X35.29 Y-32.633 Z-12.585
N2935 X35.299 Y-32.653 Z-12.494
N2940 X35.302 Y-32.659 Z-12.4
N2945 G0 Z2.51
N2950 X35.745 Y2.238
N2955 Z-11.8
N2960 G1 Z-12.4 F#103
N2965 X35.738 Y2.237 Z-12.494
N2970 X35.716 Y2.233 Z-12.585
N2975 X35.681 Y2.227 Z-12.672
N2980 X35.632 Y2.218 Z-12.753
N2985 X35.572 Y2.207 Z-12.824
N2990 X35.501 Y2.195 Z-12.885
N2995 X35.422 Y2.18 Z-12.935
N3000 X35.337 Y2.165 Z-12.971
N3005 X35.247 Y2.149 Z-12.993
N3010 X35.154 Y2.132 Z-13.
N3015 G3 X35. Y1.954 I0.033 J-0.185
N3020 G1 Y1.484 F#100
N3025 G3 X35.366 Y0.639 I1.892 J0.318
N3030 X36.093 Y-0.193 I3.891 J2.666
N3035 X37.156 Y-1.198 I22.689 J22.927
N3040 G2 X38.808 Y-3.11 I-8.799 J-9.276
N3045 X40.425 Y-6.681 I-9.859 J-6.616
N3050 X41.077 Y-10.274 I-19.749 J-5.436
N3055 X41.335 Y-14.484 I-49.343 J-5.134
N3060 X41.411 Y-20.953 I-185.776 J-5.424
N3065 X41.148 Y-22.899 I-8.152 J0.108
N3070 X39.446 Y-25.774 I-6.512 J1.916
N3075 X37.977 Y-27.082 I-8.629 J8.204
N3080 G3 X36.35 Y-28.337 I92.53 J-121.664
N3085 X35.672 Y-28.952 I7.092 J-8.502
N3090 X35. Y-30.592 I1.673 J-1.644
N3095 G1 Y-31.739
N3100 G3 X35.054 Y-31.967 I0.6 J0.021 F#104
N3105 G1 X35.093 Y-32.053 Z-12.993
N3110 X35.131 Y-32.136 Z-12.971
N3115 X35.167 Y-32.215 Z-12.935
N3120 X35.2 Y-32.288 Z-12.885
N3125 X35.23 Y-32.353 Z-12.824
N3130 X35.255 Y-32.409 Z-12.753
N3135 X35.275 Y-32.454 Z-12.672
N3140 X35.29 Y-32.486 Z-12.585
N3145 X35.299 Y-32.506 Z-12.494
N3150 X35.302 Y-32.513 Z-12.4
N3155 G0 Z2.51
N3160 X35.745 Y1.768
N3165 Z-11.8
N3170 G1 Z-12.4 F#103
N3175 X35.738 Y1.766 Z-12.494
N3180 X35.716 Y1.762 Z-12.585
N3185 X35.681 Y1.756 Z-12.672
N3190 X35.632 Y1.747 Z-12.753
N3195 X35.572 Y1.737 Z-12.824
N3200 X35.501 Y1.724 Z-12.885
N3205 X35.422 Y1.71 Z-12.935
N3210 X35.337 Y1.694 Z-12.971
N3215 X35.247 Y1.678 Z-12.993
N3220 X35.154 Y1.662 Z-13.
N3225 G3 X35. Y1.484 I0.033 J-0.185
N3230 G1 Y0.9 F#100
N3235 G3 X35.315 Y-0.036 I2.401 J0.289
N3240 X36.058 Y-1.157 I6.511 J3.502
N3245 G2 X37.402 Y-2.961 I-37.328 J-29.216
N3250 X39.516 Y-7.837 I-12.015 J-8.106
N3255 X40.12 Y-11.724 I-24.081 J-5.735
N3260 X40.349 Y-16.217 I-60.917 J-5.357
N3265 X40.388 Y-19.873 I-84.252 J-2.725
N3270 X40.109 Y-21.819 I-9.026 J0.304
N3275 X38.511 Y-24.762 I-7.472 J2.151
N3280 X36.948 Y-26.378 I-12.004 J10.046
N3285 G3 X35.605 Y-27.694 I18.493 J-20.223
N3290 X34.999 Y-29.266 I1.765 J-1.582
N3295 G1 X35. Y-30.48
N3300 G3 X35.054 Y-30.708 I0.6 J0.021 F#104
N3305 G1 X35.093 Y-30.793 Z-12.993
N3310 X35.131 Y-30.877 Z-12.971
N3315 X35.167 Y-30.956 Z-12.935
N3320 X35.2 Y-31.029 Z-12.885
N3325 X35.23 Y-31.094 Z-12.824
N3330 X35.255 Y-31.15 Z-12.753
N3335 X35.275 Y-31.195 Z-12.672
N3340 X35.29 Y-31.227 Z-12.585
N3345 X35.299 Y-31.247 Z-12.494
N3350 X35.302 Y-31.254 Z-12.4
N3355 G0 Z2.51
N3360 X35.745 Y1.183
N3365 Z-11.8
N3370 G1 Z-12.4 F#103
N3375 X35.738 Y1.182 Z-12.494
N3380 X35.716 Y1.178 Z-12.585
N3385 X35.681 Y1.172 Z-12.672
N3390 X35.632 Y1.163 Z-12.753
N3395 X35.572 Y1.152 Z-12.824
N3400 X35.501 Y1.14 Z-12.885
N3405 X35.422 Y1.126 Z-12.935
N3410 X35.337 Y1.11 Z-12.971
N3415 X35.247 Y1.094 Z-12.993
N3420 X35.154 Y1.078 Z-13.
N3425 G3 X35. Y0.9 I0.033 J-0.185
N3430 G1 Y0.18 F#100
N3435 G3 X35.264 Y-0.938 I3.115 J0.144
N3440 X36.022 Y-2.444 I10.597 J4.393
N3445 G2 X37.327 Y-4.935 I-29.644 J-17.117
N3450 X38.81 Y-10.053 I-18.042 J-8.002
N3455 X39.218 Y-13.967 I-35.188 J-5.648
N3460 X39.361 Y-18.465 I-71.944 J-4.528
N3465 X39.098 Y-20.695 I-10.456 J0.102
N3470 X37.653 Y-23.723 I-8.51 J2.201
N3475 X36.232 Y-25.466 I-15.111 J10.876
N3480 G3 X35.477 Y-26.363 I20.856 J-18.315
N3485 X35. Y-27.778 I1.87 J-1.418
N3490 G1 Y-29.266
N3495 G3 X35.054 Y-29.494 I0.6 J0.021 F#104
N3500 G1 X35.093 Y-29.579 Z-12.993
N3505 X35.131 Y-29.663 Z-12.971
N3510 X35.167 Y-29.742 Z-12.935
N3515 X35.2 Y-29.815 Z-12.885
N3520 X35.23 Y-29.88 Z-12.824
N3525 X35.255 Y-29.935 Z-12.753
N3530 X35.275 Y-29.98 Z-12.672
N3535 X35.29 Y-30.013 Z-12.585
N3540 X35.299 Y-30.033 Z-12.494
N3545 X35.302 Y-30.04 Z-12.4
N3550 G0 Z2.51
N3555 X35.745 Y0.464
N3560 Z-11.8
N3565 G1 Z-12.4 F#103
N3570 X35.738 Y0.463 Z-12.494
N3575 X35.716 Y0.459 Z-12.585
N3580 X35.681 Y0.452 Z-12.672
N3585 X35.632 Y0.444 Z-12.753
N3590 X35.572 Y0.433 Z-12.824
N3595 X35.501 Y0.42 Z-12.885
N3600 X35.422 Y0.406 Z-12.935
N3605 X35.337 Y0.391 Z-12.971
N3610 X35.247 Y0.375 Z-12.993
N3615 X35.154 Y0.358 Z-13.
N3620 G3 X35. Y0.18 I0.033 J-0.185
N3625 G1 Y-0.98 F#100
N3630 G3 X35.215 Y-2.209 I4.524 J0.157
N3635 X35.798 Y-3.792 I15.806 J4.921
N3640 G2 X36.971 Y-6.956 I-37.023 J-15.534
N3645 X38.031 Y-12.471 I-26.976 J-8.045
N3650 X38.306 Y-17.524 I-49.685 J-5.237
N3655 X38.049 Y-19.756 I-11.392 J0.183
N3660 X36.719 Y-22.841 I-9.716 J2.361
N3665 X35.605 Y-24.464 I-21.144 J13.32
N3670 G3 X35.143 Y-25.263 I2.989 J-2.261
N3675 G1 X35.065 Y-25.527
N3680 X35.016 Y-25.798
N3685 X35. Y-26.073
N3690 Y-27.778
N3695 G3 X35.054 Y-28.006 I0.6 J0.021 F#104
N3700 G1 X35.093 Y-28.092 Z-12.993
N3705 X35.131 Y-28.175 Z-12.971
N3710 X35.167 Y-28.254 Z-12.935
N3715 X35.2 Y-28.327 Z-12.885
N3720 X35.23 Y-28.392 Z-12.824
N3725 X35.255 Y-28.448 Z-12.753
N3730 X35.275 Y-28.493 Z-12.672
N3735 X35.29 Y-28.525 Z-12.585
N3740 X35.299 Y-28.545 Z-12.494
N3745 X35.302 Y-28.552 Z-12.4
N3750 G0 Z2.51
N3755 X35.745 Y-0.696
N3760 Z-11.8
N3765 G1 Z-12.4 F#103
N3770 X35.738 Y-0.698 Z-12.494
N3775 X35.716 Y-0.701 Z-12.585
N3780 X35.681 Y-0.708 Z-12.672
N3785 X35.632 Y-0.716 Z-12.753
N3790 X35.572 Y-0.727 Z-12.824
N3795 X35.501 Y-0.74 Z-12.885
N3800 X35.422 Y-0.754 Z-12.935
N3805 X35.337 Y-0.769 Z-12.971
N3810 X35.247 Y-0.786 Z-12.993
N3815 X35.154 Y-0.802 Z-13.
N3820 G3 X35. Y-0.98 I0.033 J-0.185
N3825 G1 Y-2.779 F#100
N3830 G3 X35.315 Y-4.663 I8.193 J0.399
N3835 X35.976 Y-7.107 I156.692 J41.126
N3840 G2 X37.112 Y-14.036 I-36.384 J-9.522
N3845 X37.216 Y-17.126 I-25.315 J-2.394
N3850 X35.951 Y-21.697 I-10.667 J0.492
N3855 X35.298 Y-22.896 I-21.652 J11.019
N3860 G3 X35. Y-24.037 I2.049 J-1.144
N3865 G1 Y-26.073
N3870 G3 X35.054 Y-26.3 I0.6 J0.021 F#104
N3875 G1 X35.093 Y-26.386 Z-12.993
N3880 X35.131 Y-26.469 Z-12.971
N3885 X35.167 Y-26.548 Z-12.935
N3890 X35.2 Y-26.621 Z-12.885
N3895 X35.23 Y-26.687 Z-12.824
N3900 X35.255 Y-26.742 Z-12.753
N3905 X35.275 Y-26.787 Z-12.672
N3910 X35.29 Y-26.82 Z-12.585
N3915 X35.299 Y-26.84 Z-12.494
N3920 X35.302 Y-26.846 Z-12.4
N3925 G0 Z2.51
N3930 X35.745 Y-2.495
N3935 Z-11.8
N3940 G1 Z-12.4 F#103
N3945 X35.738 Y-2.496 Z-12.494
N3950 X35.716 Y-2.5 Z-12.585
N3955 X35.681 Y-2.507 Z-12.672
N3960 X35.632 Y-2.515 Z-12.753
N3965 X35.572 Y-2.526 Z-12.824
N3970 X35.501 Y-2.539 Z-12.885
N3975 X35.422 Y-2.553 Z-12.935
N3980 X35.337 Y-2.568 Z-12.971
N3985 X35.247 Y-2.584 Z-12.993
N3990 X35.154 Y-2.601 Z-13.
N3995 G3 X35. Y-2.779 I0.033 J-0.185
N4000 G1 Y-5.477 F#100
N4005 G3 X35.282 Y-7.991 I17.797 J0.725
N4010 G2 X35.826 Y-11.606 I-120.917 J-20.038
N4015 X36.136 Y-15.249 I-44.307 J-5.603
N4020 X35.981 Y-17.772 I-14.195 J-0.396
N4025 X35.17 Y-20.524 I-12.429 J2.169
N4030 G3 X35. Y-21.403 I2.223 J-0.887
N4035 G1 Y-24.037
N4040 G3 X35.054 Y-24.265 I0.6 J0.021 F#104
N4045 G1 X35.093 Y-24.35 Z-12.993
N4050 X35.131 Y-24.434 Z-12.971
N4055 X35.167 Y-24.513 Z-12.935
N4060 X35.2 Y-24.586 Z-12.885
N4065 X35.23 Y-24.651 Z-12.824
N4070 X35.255 Y-24.707 Z-12.753
N4075 X35.275 Y-24.751 Z-12.672
N4080 X35.29 Y-24.784 Z-12.585
N4085 X35.299 Y-24.804 Z-12.494
N4090 X35.302 Y-24.811 Z-12.4
N4095 G0 Z2.51
N4100 X35.745 Y-5.193
N4105 Z-11.8
N4110 G1 Z-12.4 F#103
N4115 X35.738 Y-5.195 Z-12.494
N4120 X35.716 Y-5.198 Z-12.585
N4125 X35.681 Y-5.205 Z-12.672
N4130 X35.632 Y-5.213 Z-12.753
N4135 X35.572 Y-5.224 Z-12.824
N4140 X35.501 Y-5.237 Z-12.885
N4145 X35.422 Y-5.251 Z-12.935
N4150 X35.337 Y-5.266 Z-12.971
N4155 X35.247 Y-5.283 Z-12.993
N4160 X35.154 Y-5.299 Z-13.
N4165 G3 X35. Y-5.477 I0.033 J-0.185
N4170 G1 Y-11.233 F#100
N4175 G2 X35.029 Y-12.358 I-41.131 J-1.626
N4180 X35.088 Y-15.17 I-54.355 J-2.544
N4185 X35. Y-16.477 I-25.837 J1.08
N4190 G1 Y-16.562
N4195 G3 X36.2 Y-16.541 I0.6 J0.021 F#104
N4200 G1 Y-11.254 F#100
N4205 G3 X35. Y-11.233 I-0.6 J0.
N4210 G1 Y-21.403
N4215 G3 X35.054 Y-21.631 I0.6 J0.021 F#104
N4220 G1 X35.093 Y-21.716 Z-12.993
N4225 X35.131 Y-21.799 Z-12.971
N4230 X35.167 Y-21.879 Z-12.935
N4235 X35.2 Y-21.952 Z-12.885
N4240 X35.23 Y-22.017 Z-12.824
N4245 X35.255 Y-22.072 Z-12.753
N4250 X35.275 Y-22.117 Z-12.672
N4255 X35.29 Y-22.15 Z-12.585
N4260 X35.299 Y-22.17 Z-12.494
N4265 X35.302 Y-22.177 Z-12.4
N4270 G0 Z4.
(PARALLEL2 3)
N4280 M8
N4285 G0 Z10.
N4290 X33.152 Y-33.995
N4295 #100=1000. (CUTTING)
N4300 #103=1000. (ENTRY)
N4305 #104=1000. (EXIT)
N4310 #109=0. (HIGH FEED)
N4315 G1 Z-0.323 F90000.
N4320 Z-1.703 F#103
N4325 G18 G3 X32.127 Z-2.127 I-0.6 K0.
N4330 G1 X30.001 Z-0.001 F#100
N4335 G3 X29.825 Z0.424 I0.424 K0.424 F#104
N4340 G1 Z5. F90000.
N4345 X35.067 Y-32.995
N4350 Z-2.239
N4355 Z-3.684 F#103
N4360 G3 X34.238 Z-4.238 I-0.6 K0.
N4365 G1 X30. Z0. F#100
N4370 G3 X29.824 Z0.424 I0.424 K0.424 F#104
N4375 G1 Z5. F90000.
N4380 X35.852 Y-31.996
N4385 Z-3.024
N4390 Z-4.404 F#103
N4395 G3 X34.828 Z-4.828 I-0.6 K0.
N4400 G1 X30.001 Z-0.001 F#100
N4405 G3 X29.825 Z0.424 I0.424 K0.424 F#104
N4410 G1 Z5. F90000.
N4415 X36.024 Y-30.996
N4420 Z-3.196
N4425 Z-4.576 F#103
N4430 G3 X35. Z-5. I-0.6 K0.
N4435 G1 X30.001 Z-0.001 F#100
N4440 G3 X29.825 Z0.424 I0.424 K0.424 F#104
N4445 G1 Z5. F90000.
N4450 X36.024 Y-29.996
N4455 Z-3.196
N4460 Z-4.576 F#103
N4465 G3 X35. Z-5. I-0.6 K0.
N4470 G1 X30.001 Z-0.001 F#100
N4475 G3 X29.825 Z0.424 I0.424 K0.424 F#104
N4480 G1 Z5. F90000.
N4485 X36.024 Y-28.996
N4490 Z-3.196
N4495 Z-4.576 F#103
N4500 G3 X35. Z-5. I-0.6 K0.
N4505 G1 X30.001 Z-0.001 F#100
N4510 G3 X29.825 Z0.424 I0.424 K0.424 F#104
N4515 G1 Z5. F90000.
N4520 X36.024 Y-27.997
N4525 Z-3.196
N4530 Z-4.576 F#103
N4535 G3 X35. Z-5. I-0.6 K0.
N4540 G1 X30.001 Z-0.001 F#100
N4545 G3 X29.825 Z0.424 I0.424 K0.424 F#104
N4550 G1 Z5. F90000.
N4555 X36.024 Y-26.997
N4560 Z-3.196
N4565 Z-4.576 F#103
N4570 G3 X35. Z-5. I-0.6 K0.
N4575 G1 X30.001 Z-0.001 F#100
N4580 G3 X29.825 Z0.424 I0.424 K0.424 F#104
N4585 G1 Z5. F90000.
N4590 X36.024 Y-25.997
N4595 Z-3.196
N4600 Z-4.576 F#103
N4605 G3 X35. Z-5. I-0.6 K0.
N4610 G1 X30.001 Z-0.001 F#100
N4615 G3 X29.825 Z0.424 I0.424 K0.424 F#104
N4620 G1 Z5. F90000.
N4625 X36.024 Y-24.997
N4630 Z-3.196
N4635 Z-4.576 F#103
N4640 G3 X35. Z-5. I-0.6 K0.
N4645 G1 X30.001 Z-0.001 F#100
N4650 G3 X29.825 Z0.424 I0.424 K0.424 F#104
N4655 G1 Z5. F90000.
N4660 X36.024 Y-23.998
N4665 Z-3.196
N4670 Z-4.576 F#103
N4675 G3 X35. Z-5. I-0.6 K0.
N4680 G1 X30. Z0. F#100
N4685 G3 X29.825 Z0.424 I0.424 K0.424 F#104
N4690 G1 Z5. F90000.
N4695 X36.024 Y-22.998
N4700 Z-3.196
N4705 Z-4.576 F#103
N4710 G3 X35. Z-5. I-0.6 K0.
N4715 G1 X30.001 Z-0.001 F#100
N4720 G3 X29.825 Z0.424 I0.424 K0.424 F#104
N4725 G1 Z5. F90000.
N4730 X36.024 Y-21.998
N4735 Z-3.196
N4740 Z-4.576 F#103
N4745 G3 X35. Z-5. I-0.6 K0.
N4750 G1 X30.001 Z-0.001 F#100
N4755 G3 X29.825 Z0.424 I0.424 K0.424 F#104
N4760 G1 Z5. F90000.
N4765 X36.024 Y-20.999
N4770 Z-3.196
N4775 Z-4.576 F#103
N4780 G3 X35. Z-5. I-0.6 K0.
N4785 G1 X30.001 Z-0.001 F#100
N4790 G3 X29.825 Z0.424 I0.424 K0.424 F#104
N4795 G1 Z5. F90000.
N4800 X36.024 Y-19.999
N4805 Z-3.196
N4810 Z-4.576 F#103
N4815 G3 X35. Z-5. I-0.6 K0.
N4820 G1 X30.001 Z-0.001 F#100
N4825 G3 X29.825 Z0.424 I0.424 K0.424 F#104
N4830 G1 Z5. F90000.
N4835 X36.024 Y-18.999
N4840 Z-3.196
N4845 Z-4.576 F#103
N4850 G3 X35. Z-5. I-0.6 K0.
N4855 G1 X30. Z0. F#100
N4860 G3 X29.825 Z0.424 I0.424 K0.424 F#104
N4865 G1 Z5. F90000.
N4870 X36.024 Y-17.999
N4875 Z-3.196
N4880 Z-4.576 F#103
N4885 G3 X35. Z-5. I-0.6 K0.
N4890 G1 X30.001 Z-0.001 F#100
N4895 G3 X29.825 Z0.424 I0.424 K0.424 F#104
N4900 G1 Z5. F90000.
N4905 X36.024 Y-17.
N4910 Z-3.196
N4915 Z-4.576 F#103
N4920 G3 X35. Z-5. I-0.6 K0.
N4925 G1 X30.001 Z-0.001 F#100
N4930 G3 X29.825 Z0.424 I0.424 K0.424 F#104
N4935 G1 Z5. F90000.
N4940 X36.024 Y-16.
N4945 Z-3.196
N4950 Z-4.576 F#103
N4955 G3 X35. Z-5. I-0.6 K0.
N4960 G1 X30.001 Z-0.001 F#100
N4965 G3 X29.825 Z0.424 I0.424 K0.424 F#104
N4970 G1 Z5. F90000.
N4975 X36.024 Y-15.
N4980 Z-3.196
N4985 Z-4.576 F#103
N4990 G3 X35. Z-5. I-0.6 K0.
N4995 G1 X30. Z0. F#100
N5000 G3 X29.825 Z0.424 I0.424 K0.424 F#104
N5005 G1 Z5. F90000.
N5010 X36.024 Y-14.001
N5015 Z-3.196
N5020 Z-4.576 F#103
N5025 G3 X35. Z-5. I-0.6 K0.
N5030 G1 X30.001 Z-0.001 F#100
N5035 G3 X29.825 Z0.424 I0.424 K0.424 F#104
N5040 G1 Z5. F90000.
N5045 X36.024 Y-13.001
N5050 Z-3.196
N5055 Z-4.576 F#103
N5060 G3 X35. Z-5. I-0.6 K0.
N5065 G1 X30.001 Z-0.001 F#100
N5070 G3 X29.825 Z0.424 I0.424 K0.424 F#104
N5075 G1 Z5. F90000.
N5080 X36.024 Y-12.001
N5085 Z-3.196
N5090 Z-4.576 F#103
N5095 G3 X35. Z-5. I-0.6 K0.
N5100 G1 X30.001 Z-0.001 F#100
N5105 G3 X29.825 Z0.424 I0.424 K0.424 F#104
N5110 G1 Z5. F90000.
N5115 X36.024 Y-11.001
N5120 Z-3.196
N5125 Z-4.576 F#103
N5130 G3 X35. Z-5. I-0.6 K0.
N5135 G1 X30.001 Z-0.001 F#100
N5140 G3 X29.825 Z0.424 I0.424 K0.424 F#104
N5145 G1 Z5. F90000.
N5150 X36.024 Y-10.002
N5155 Z-3.196
N5160 Z-4.576 F#103
N5165 G3 X35. Z-5. I-0.6 K0.
N5170 G1 X30.001 Z-0.001 F#100
N5175 G3 X29.825 Z0.424 I0.424 K0.424 F#104
N5180 G1 Z5. F90000.
N5185 X36.024 Y-9.002
N5190 Z-3.196
N5195 Z-4.576 F#103
N5200 G3 X35. Z-5. I-0.6 K0.
N5205 G1 X30.001 Z-0.001 F#100
N5210 G3 X29.825 Z0.424 I0.424 K0.424 F#104
N5215 G1 Z5. F90000.
N5220 X36.024 Y-8.002
N5225 Z-3.196
N5230 Z-4.576 F#103
N5235 G3 X35. Z-5. I-0.6 K0.
N5240 G1 X30.001 Z-0.001 F#100
N5245 G3 X29.825 Z0.424 I0.424 K0.424 F#104
N5250 G1 Z5. F90000.
N5255 X36.024 Y-7.003
N5260 Z-3.196
N5265 Z-4.576 F#103
N5270 G3 X35. Z-5. I-0.6 K0.
N5275 G1 X30.001 Z-0.001 F#100
N5280 G3 X29.825 Z0.424 I0.424 K0.424 F#104
N5285 G1 Z5. F90000.
N5290 X36.024 Y-6.003
N5295 Z-3.196
N5300 Z-4.576 F#103
N5305 G3 X35. Z-5. I-0.6 K0.
N5310 G1 X30.001 Z-0.001 F#100
N5315 G3 X29.825 Z0.424 I0.424 K0.424 F#104
N5320 G1 Z5. F90000.
N5325 X36.024 Y-5.003
N5330 Z-3.196
N5335 Z-4.576 F#103
N5340 G3 X35. Z-5. I-0.6 K0.
N5345 G1 X30.001 Z-0.001 F#100
N5350 G3 X29.825 Z0.424 I0.424 K0.424 F#104
N5355 G1 Z5. F90000.
N5360 X36.024 Y-4.003
N5365 Z-3.196
N5370 Z-4.576 F#103
N5375 G3 X35. Z-5. I-0.6 K0.
N5380 G1 X30.001 Z-0.001 F#100
N5385 G3 X29.825 Z0.424 I0.424 K0.424 F#104
N5390 G1 Z5. F90000.
N5395 X36.024 Y-3.004
N5400 Z-3.196
N5405 Z-4.576 F#103
N5410 G3 X35. Z-5. I-0.6 K0.
N5415 G1 X30.001 Z-0.001 F#100
N5420 G3 X29.825 Z0.424 I0.424 K0.424 F#104
N5425 G1 Z5. F90000.
N5430 X36.024 Y-2.004
N5435 Z-3.196
N5440 Z-4.576 F#103
N5445 G3 X35. Z-5. I-0.6 K0.
N5450 G1 X30.001 Z-0.001 F#100
N5455 G3 X29.825 Z0.424 I0.424 K0.424 F#104
N5460 G1 Z5. F90000.
N5465 X36.024 Y-1.004
N5470 Z-3.196
N5475 Z-4.576 F#103
N5480 G3 X35. Z-5. I-0.6 K0.
N5485 G1 X30.001 Z-0.001 F#100
N5490 G3 X29.825 Z0.424 I0.424 K0.424 F#104
N5495 G1 Z5. F90000.
N5500 X35.852 Y-0.004
N5505 Z-3.137
N5510 Z-4.574 F#103
N5515 G3 X34.828 Z-4.998 I-0.6 K0.
N5520 G1 X29.83 Z0. F#100
N5525 G3 X29.655 Z0.424 I0.424 K0.424 F#104
N5530 G1 Z5. F90000.
N5535 X35.262 Y0.995
N5540 Z-2.906
N5545 Z-4.573 F#103
N5550 G3 X34.238 Z-4.998 I-0.6 K0.
N5555 G1 X29.24 Z0. F#100
N5560 G3 X29.065 Z0.424 I0.424 K0.424 F#104
N5565 G1 Z5. F90000.
N5570 X6.848 Y-33.995
N5575 Z-0.323
N5580 Z-1.703 F#103
N5585 G2 X7.873 Z-2.127 I0.6 K0.
N5590 G1 X9.999 Z-0.001 F#100
N5595 G2 X10.175 Z0.424 I-0.424 K0.424 F#104
N5600 G1 Z5. F90000.
N5605 X4.738 Y-32.995
N5610 Z-2.434
N5615 Z-3.814 F#103
N5620 G2 X5.762 Z-4.238 I0.6 K0.
N5625 G1 X10. Z0. F#100
N5630 G2 X10.176 Z0.424 I-0.424 K0.424 F#104
N5635 G1 Z5. F90000.
N5640 X4.572 Y-31.996
N5645 Z-2.599
N5650 Z-4.228 F#103
N5655 G2 X5.172 Z-4.828 I0.6 K0.
N5660 G1 X10. Z0. F#100
N5665 G2 X10.175 Z0.424 I-0.424 K0.424 F#104
N5670 G1 Z5. F90000.
N5675 X3.976 Y-30.996
N5680 Z-3.196
N5685 Z-4.576 F#103
N5690 G2 X5. Z-5. I0.6 K0.
N5695 G1 X9.999 Z-0.001 F#100
N5700 G2 X10.175 Z0.424 I-0.424 K0.424 F#104
N5705 G1 Z5. F90000.
N5710 X3.976 Y-29.996
N5715 Z-3.196
N5720 Z-4.576 F#103
N5725 G2 X5. Z-5. I0.6 K0.
N5730 G1 X9.999 Z-0.001 F#100
N5735 G2 X10.175 Z0.424 I-0.424 K0.424 F#104
N5740 G1 Z5. F90000.
N5745 X3.976 Y-28.996
N5750 Z-3.196
N5755 Z-4.576 F#103
N5760 G2 X5. Z-5. I0.6 K0.
N5765 G1 X9.999 Z-0.001 F#100
N5770 G2 X10.175 Z0.424 I-0.424 K0.424 F#104
N5775 G1 Z5. F90000.
N5780 X3.976 Y-27.997
N5785 Z-3.196
N5790 Z-4.576 F#103
N5795 G2 X5. Z-5. I0.6 K0.
N5800 G1 X10. Z0. F#100
N5805 G2 X10.175 Z0.424 I-0.424 K0.424 F#104
N5810 G1 Z5. F90000.
N5815 X3.976 Y-26.997
N5820 Z-3.196
N5825 Z-4.576 F#103
N5830 G2 X5. Z-5. I0.6 K0.
N5835 G1 X10. Z0. F#100
N5840 G2 X10.175 Z0.424 I-0.424 K0.424 F#104
N5845 G1 Z5. F90000.
N5850 X3.976 Y-25.997
N5855 Z-3.196
N5860 Z-4.576 F#103
N5865 G2 X5. Z-5. I0.6 K0.
N5870 G1 X10. Z0. F#100
N5875 G2 X10.175 Z0.424 I-0.424 K0.424 F#104
N5880 G1 Z5. F90000.
N5885 X3.976 Y-24.997
N5890 Z-3.196
N5895 Z-4.576 F#103
N5900 G2 X5. Z-5. I0.6 K0.
N5905 G1 X10. Z0. F#100
N5910 G2 X10.175 Z0.424 I-0.424 K0.424 F#104
N5915 G1 Z5. F90000.
N5920 X3.976 Y-23.998
N5925 Z-3.196
N5930 Z-4.576 F#103
N5935 G2 X5. Z-5. I0.6 K0.
N5940 G1 X10. Z0. F#100
N5945 G2 X10.175 Z0.424 I-0.424 K0.424 F#104
N5950 G1 Z5. F90000.
N5955 X3.976 Y-22.998
N5960 Z-3.196
N5965 Z-4.576 F#103
N5970 G2 X5. Z-5. I0.6 K0.
N5975 G1 X10. Z0. F#100
N5980 G2 X10.175 Z0.424 I-0.424 K0.424 F#104
N5985 G1 Z5. F90000.
N5990 X3.976 Y-21.998
N5995 Z-3.196
N6000 Z-4.576 F#103
N6005 G2 X5. Z-5. I0.6 K0.
N6010 G1 X10. Z0. F#100
N6015 G2 X10.175 Z0.424 I-0.424 K0.424 F#104
N6020 G1 Z5. F90000.
N6025 X3.976 Y-20.999
N6030 Z-3.196
N6035 Z-4.576 F#103
N6040 G2 X5. Z-5. I0.6 K0.
N6045 G1 X10. Z0. F#100
N6050 G2 X10.175 Z0.424 I-0.424 K0.424 F#104
N6055 G1 Z5. F90000.
N6060 X3.976 Y-19.999
N6065 Z-3.196
N6070 Z-4.576 F#103
N6075 G2 X5. Z-5. I0.6 K0.
N6080 G1 X10. Z0. F#100
N6085 G2 X10.175 Z0.424 I-0.424 K0.424 F#104
N6090 G1 Z5. F90000.
N6095 X3.976 Y-18.999
N6100 Z-3.196
N6105 Z-4.576 F#103
N6110 G2 X5. Z-5. I0.6 K0.
N6115 G1 X9.999 Z-0.001 F#100
N6120 G2 X10.175 Z0.423 I-0.424 K0.424 F#104
N6125 G1 Z5. F90000.
N6130 X3.976 Y-17.999
N6135 Z-3.196
N6140 Z-4.576 F#103
N6145 G2 X5. Z-5. I0.6 K0.
N6150 G1 X9.999 Z-0.001 F#100
N6155 G2 X10.175 Z0.424 I-0.424 K0.424 F#104
N6160 G1 Z5. F90000.
N6165 X3.976 Y-17.
N6170 Z-3.196
N6175 Z-4.576 F#103
N6180 G2 X5. Z-5. I0.6 K0.
N6185 G1 X9.999 Z-0.001 F#100
N6190 G2 X10.175 Z0.424 I-0.424 K0.424 F#104
N6195 G1 Z5. F90000.
N6200 X3.976 Y-16.
N6205 Z-3.196
N6210 Z-4.576 F#103
N6215 G2 X5. Z-5. I0.6 K0.
N6220 G1 X10. Z0. F#100
N6225 G2 X10.175 Z0.424 I-0.424 K0.424 F#104
N6230 G1 Z5. F90000.
N6235 X3.976 Y-15.
N6240 Z-3.196
N6245 Z-4.576 F#103
N6250 G2 X5. Z-5. I0.6 K0.
N6255 G1 X9.999 Z-0.001 F#100
N6260 G2 X10.175 Z0.423 I-0.424 K0.424 F#104
N6265 G1 Z5. F90000.
N6270 X3.976 Y-14.001
N6275 Z-3.196
N6280 Z-4.576 F#103
N6285 G2 X5. Z-5. I0.6 K0.
N6290 G1 X9.999 Z-0.001 F#100
N6295 G2 X10.175 Z0.424 I-0.424 K0.424 F#104
N6300 G1 Z5. F90000.
N6305 X3.976 Y-13.001
N6310 Z-3.196
N6315 Z-4.576 F#103
N6320 G2 X5. Z-5. I0.6 K0.
N6325 G1 X9.999 Z-0.001 F#100
N6330 G2 X10.175 Z0.424 I-0.424 K0.424 F#104
N6335 G1 Z5. F90000.
N6340 X3.976 Y-12.001
N6345 Z-3.196
N6350 Z-4.576 F#103
N6355 G2 X5. Z-5. I0.6 K0.
N6360 G1 X10. Z0. F#100
N6365 G2 X10.175 Z0.424 I-0.424 K0.424 F#104
N6370 G1 Z5. F90000.
N6375 X3.976 Y-11.001
N6380 Z-3.196
N6385 Z-4.576 F#103
N6390 G2 X5. Z-5. I0.6 K0.
N6395 G1 X10. Z0. F#100
N6400 G2 X10.175 Z0.424 I-0.424 K0.424 F#104
N6405 G1 Z5. F90000.
N6410 X3.976 Y-10.002
N6415 Z-3.196
N6420 Z-4.576 F#103
N6425 G2 X5. Z-5. I0.6 K0.
N6430 G1 X10. Z0. F#100
N6435 G2 X10.175 Z0.424 I-0.424 K0.424 F#104
N6440 G1 Z5. F90000.
N6445 X3.976 Y-9.002
N6450 Z-3.196
N6455 Z-4.576 F#103
N6460 G2 X5. Z-5. I0.6 K0.
N6465 G1 X10. Z0. F#100
N6470 G2 X10.175 Z0.424 I-0.424 K0.424 F#104
N6475 G1 Z5. F90000.
N6480 X3.976 Y-8.002
N6485 Z-3.196
N6490 Z-4.576 F#103
N6495 G2 X5. Z-5. I0.6 K0.
N6500 G1 X10. Z0. F#100
N6505 G2 X10.175 Z0.424 I-0.424 K0.424 F#104
N6510 G1 Z5. F90000.
N6515 X3.976 Y-7.003
N6520 Z-3.196
N6525 Z-4.576 F#103
N6530 G2 X5. Z-5. I0.6 K0.
N6535 G1 X10. Z0. F#100
N6540 G2 X10.175 Z0.424 I-0.424 K0.424 F#104
N6545 G1 Z5. F90000.
N6550 X3.976 Y-6.003
N6555 Z-3.196
N6560 Z-4.576 F#103
N6565 G2 X5. Z-5. I0.6 K0.
N6570 G1 X10. Z0. F#100
N6575 G2 X10.175 Z0.424 I-0.424 K0.424 F#104
N6580 G1 Z5. F90000.
N6585 X3.976 Y-5.003
N6590 Z-3.196
N6595 Z-4.576 F#103
N6600 G2 X5. Z-5. I0.6 K0.
N6605 G1 X10. Z0. F#100
N6610 G2 X10.175 Z0.424 I-0.424 K0.424 F#104
N6615 G1 Z5. F90000.
N6620 X3.976 Y-4.003
N6625 Z-3.196
N6630 Z-4.576 F#103
N6635 G2 X5. Z-5. I0.6 K0.
N6640 G1 X10. Z0. F#100
N6645 G2 X10.175 Z0.424 I-0.424 K0.424 F#104
N6650 G1 Z5. F90000.
N6655 X3.976 Y-3.004
N6660 Z-3.196
N6665 Z-4.576 F#103
N6670 G2 X5. Z-5. I0.6 K0.
N6675 G1 X9.999 Z-0.001 F#100
N6680 G2 X10.175 Z0.424 I-0.424 K0.424 F#104
N6685 G1 Z5. F90000.
N6690 X3.976 Y-2.004
N6695 Z-3.196
N6700 Z-4.576 F#103
N6705 G2 X5. Z-5. I0.6 K0.
N6710 G1 X9.999 Z-0.001 F#100
N6715 G2 X10.175 Z0.424 I-0.424 K0.424 F#104
N6720 G1 Z5. F90000.
N6725 X3.976 Y-1.004
N6730 Z-3.196
N6735 Z-4.576 F#103
N6740 G2 X5. Z-5. I0.6 K0.
N6745 G1 X9.999 Z-0.001 F#100
N6750 G2 X10.175 Z0.424 I-0.424 K0.424 F#104
N6755 G1 Z5. F90000.
N6760 X4.148 Y-0.004
N6765 Z-3.137
N6770 Z-4.574 F#103
N6775 G2 X5.172 Z-4.998 I0.6 K0.
N6780 G1 X10.169 Z-0.001 F#100
N6785 G2 X10.345 Z0.424 I-0.424 K0.424 F#104
N6790 G1 Z5. F90000.
N6795 X4.738 Y0.995
N6800 Z-2.906
N6805 Z-4.573 F#103
N6810 G2 X5.762 Z-4.998 I0.6 K0.
N6815 G1 X10.759 Z-0.001 F#100
N6820 G2 X10.935 Z0.423 I-0.424 K0.424 F#104
N6825 G1 Z10. F90000.
N6830 G17
N6835 M9
N6845 M30
%
