%
(T13 6MM STUB - BEARING HOLDER TOP )
(T13  D=6. CR=0. - ZMIN=-13. - FLAT END MILL)
N10 G90 G94 G17 G91.1
N15 G21
N20 G53 G0 Z0.
(FACE1 3)
N25 M9
N30 T13 M6
N35 S3200 M3
N40 G54
N45 M8
N55 G0 X49.149 Y-19.442
N60 G43 Z10.2 H13
N65 G0 Z5.2
N70 G1 Z0.6 F1000.
N75 G18 G3 X48.549 Z0. I-0.6 K0.
N80 G1 X45.98
N85 X-5.98
N90 X-6.
N95 G17 G2 Y-14.933 I0. J2.254
N100 G1 X46.
N105 G3 Y-10.425 I0. J2.254
N110 G1 X-6.
N115 G2 Y-5.917 I0. J2.254
N120 G1 X46.
N125 G3 Y-1.408 I0. J2.254
N130 G1 X-6.
N135 G2 Y3.1 I0. J2.254
N140 G1 X46.
N145 G18 G2 X46.6 Z0.6 I0. K0.6
N150 G0 Z10.2
N155 G17
(2D POCKET3 4)
N160 M8
N165 G0 X43.105 Y11.774
N170 Z10.2
N175 Z8.2
N180 G1 Z-6.2 F1000.
N185 G19 G2 Y11.174 Z-6.8 J-0.6 K0.
N190 G1 Y3.121
N195 Y-18.122
N200 G17 G3 X43.705 I0.3 J0.
N205 G1 Y-7.509
N210 Y-7.5
N215 X43.405 Y3.121
N220 G3 X43.32 Y3.323 I-0.3 J-0.008
N225 G1 X42.72 Y3.937
N230 G3 X42.205 Y3.727 I-0.215 J-0.21
N235 G1 Y-18.727
N240 G3 X42.805 I0.3 J0.
N245 G1 Y-7.508
N250 Y-7.5
N255 X42.505 Y3.727
N260 G3 X42.319 Y3.996 I-0.3 J-0.008
N265 G1 X41.719 Y4.243
N270 G3 X41.305 Y3.965 I-0.114 J-0.278
N275 G1 Y-18.964
N280 G3 X41.905 I0.3 J0.
N285 G1 Y-7.507
N290 Y-7.499
N295 X41.605 Y3.965
N300 G3 X41.321 Y4.257 I-0.3 J-0.008
N305 G1 X40.721 Y4.289
N310 G3 X40.405 Y3.99 I-0.016 J-0.3
N315 G1 Y-18.99
N320 G3 X40.705 Y-19.29 I0.3 J0.
N325 X41.005 Y-18.99 I0. J0.3
N330 G1 Y-7.508
N335 Y-7.5
N340 X40.705 Y3.99
N345 G3 X40.409 Y4.282 I-0.3 J-0.008
N350 G1 X39.809 Y4.289
N355 G3 X39.505 Y3.989 I-0.004 J-0.3
N360 G1 Y-18.988
N365 G3 X40.105 I0.3 J0.
N370 G1 Y-7.507
N375 Y-7.5
N380 X39.805 Y3.989
N385 G3 X39.509 Y4.281 I-0.3 J-0.008
N390 G1 X38.909 Y4.288
N395 G3 X38.605 Y3.988 I-0.004 J-0.3
N400 G1 Y-18.989
N405 G3 X38.905 Y-19.289 I0.3 J0.
N410 X39.205 Y-18.989 I0. J0.3
N415 G1 Y-7.508
N420 Y-7.5
N425 X38.905 Y3.988
N430 G3 X38.61 Y4.281 I-0.3 J-0.008
N435 G1 X38.01 Y4.29
N440 G3 X37.705 Y3.99 I-0.005 J-0.3
N445 G1 Y-18.989
N450 G3 X38.305 I0.3 J0.
N455 G1 Y-7.508
N460 Y-7.5
N465 X38.005 Y3.99
N470 G3 X37.709 Y4.282 I-0.3 J-0.008
N475 G1 X37.109 Y4.289
N480 G3 X36.805 Y3.989 I-0.004 J-0.3
N485 G1 Y-18.988
N490 G3 X37.405 I0.3 J0.
N495 G1 Y-7.507
N500 Y-7.499
N505 X37.105 Y3.989
N510 G3 X36.809 Y4.281 I-0.3 J-0.008
N515 G1 X36.209 Y4.289
N520 G3 X35.905 Y3.989 I-0.004 J-0.3
N525 G1 Y-18.989
N530 G3 X36.505 I0.3 J0.
N535 G1 Y-7.508
N540 Y-7.5
N545 X36.205 Y3.989
N550 G3 X35.909 Y4.281 I-0.3 J-0.008
N555 G1 X35.304 Y4.289
N560 G3 X35. Y3.989 I-0.004 J-0.3
N565 G1 Y-15.
N570 Y-18.989
N575 G3 X35.588 Y-19.073 I0.3 J0.
N580 G1 X42.517 Y4.43
N585 G2 X43.105 Y4.345 I0.288 J-0.085
N590 G19 G3 Y3.745 Z-7.4 J0. K-0.6
N595 G1 Z-12.4
N600 G2 Y3.145 Z-13. J-0.6 K0.
N605 G1 Y3.121
N610 Y-18.122
N615 G17 G3 X43.705 I0.3 J0.
N620 G1 Y-7.509
N625 Y-7.5
N630 X43.405 Y3.121
N635 G3 X43.32 Y3.323 I-0.3 J-0.008
N640 G1 X42.72 Y3.937
N645 G3 X42.205 Y3.727 I-0.215 J-0.21
N650 G1 Y-18.727
N655 G3 X42.805 I0.3 J0.
N660 G1 Y-7.508
N665 Y-7.5
N670 X42.505 Y3.727
N675 G3 X42.319 Y3.996 I-0.3 J-0.008
N680 G1 X41.719 Y4.243
N685 G3 X41.305 Y3.965 I-0.114 J-0.278
N690 G1 Y-18.964
N695 G3 X41.905 I0.3 J0.
N700 G1 Y-7.507
N705 Y-7.499
N710 X41.605 Y3.965
N715 G3 X41.321 Y4.257 I-0.3 J-0.008
N720 G1 X40.721 Y4.289
N725 G3 X40.405 Y3.99 I-0.016 J-0.3
N730 G1 Y-18.99
N735 G3 X40.705 Y-19.29 I0.3 J0.
N740 X41.005 Y-18.99 I0. J0.3
N745 G1 Y-7.508
N750 Y-7.5
N755 X40.705 Y3.99
N760 G3 X40.409 Y4.282 I-0.3 J-0.008
N765 G1 X39.809 Y4.289
N770 G3 X39.505 Y3.989 I-0.004 J-0.3
N775 G1 Y-18.988
N780 G3 X40.105 I0.3 J0.
N785 G1 Y-7.507
N790 Y-7.5
N795 X39.805 Y3.989
N800 G3 X39.509 Y4.281 I-0.3 J-0.008
N805 G1 X38.909 Y4.288
N810 G3 X38.605 Y3.988 I-0.004 J-0.3
N815 G1 Y-18.989
N820 G3 X38.905 Y-19.289 I0.3 J0.
N825 X39.205 Y-18.989 I0. J0.3
N830 G1 Y-7.508
N835 Y-7.5
N840 X38.905 Y3.988
N845 G3 X38.61 Y4.281 I-0.3 J-0.008
N850 G1 X38.01 Y4.29
N855 G3 X37.705 Y3.99 I-0.005 J-0.3
N860 G1 Y-18.989
N865 G3 X38.305 I0.3 J0.
N870 G1 Y-7.508
N875 Y-7.5
N880 X38.005 Y3.99
N885 G3 X37.709 Y4.282 I-0.3 J-0.008
N890 G1 X37.109 Y4.289
N895 G3 X36.805 Y3.989 I-0.004 J-0.3
N900 G1 Y-18.988
N905 G3 X37.405 I0.3 J0.
N910 G1 Y-7.507
N915 Y-7.499
N920 X37.105 Y3.989
N925 G3 X36.809 Y4.281 I-0.3 J-0.008
N930 G1 X36.209 Y4.289
N935 G3 X35.905 Y3.989 I-0.004 J-0.3
N940 G1 Y-18.989
N945 G3 X36.505 I0.3 J0.
N950 G1 Y-7.508
N955 Y-7.5
N960 X36.205 Y3.989
N965 G3 X35.909 Y4.281 I-0.3 J-0.008
N970 G1 X35.304 Y4.289
N975 G3 X35. Y3.989 I-0.004 J-0.3
N980 G1 Y-15.
N985 Y-18.989
N990 G3 X35.007 Y-19.082 I0.6 J0.
N995 G1 X35.477 Y-22.045
N1000 X35.491 Y-22.138 Z-12.993
N1005 X35.506 Y-22.229 Z-12.971
N1010 X35.519 Y-22.315 Z-12.935
N1015 X35.532 Y-22.394 Z-12.885
N1020 X35.543 Y-22.465 Z-12.824
N1025 X35.553 Y-22.525 Z-12.753
N1030 X35.56 Y-22.574 Z-12.672
N1035 X35.566 Y-22.609 Z-12.585
N1040 X35.569 Y-22.631 Z-12.494
N1045 X35.571 Y-22.638 Z-12.4
N1050 G0 Z8.2
N1055 X-3.105 Y-26.766
N1060 G1 Z-6.2 F1000.
N1065 G19 G3 Y-26.166 Z-6.8 J0.6 K0.
N1070 G1 Y-18.121
N1075 Y3.122
N1080 G17 G3 X-3.705 I-0.3 J0.
N1085 G1 Y-7.491
N1090 Y-7.5
N1095 X-3.405 Y-18.121
N1100 G3 X-3.32 Y-18.323 I0.3 J0.008
N1105 G1 X-2.72 Y-18.937
N1110 G3 X-2.205 Y-18.727 I0.215 J0.21
N1115 G1 Y3.727
N1120 G3 X-2.805 I-0.3 J0.
N1125 G1 Y-7.492
N1130 Y-7.5
N1135 X-2.505 Y-18.727
N1140 G3 X-2.319 Y-18.996 I0.3 J0.008
N1145 G1 X-1.719 Y-19.243
N1150 G3 X-1.305 Y-18.965 I0.114 J0.278
N1155 G1 Y3.964
N1160 G3 X-1.605 Y4.264 I-0.3 J0.
N1165 X-1.905 Y3.964 I0. J-0.3
N1170 G1 Y-7.493
N1175 Y-7.501
N1180 X-1.605 Y-18.965
N1185 G3 X-1.321 Y-19.257 I0.3 J0.008
N1190 G1 X-0.721 Y-19.289
N1195 G3 X-0.405 Y-18.99 I0.016 J0.3
N1200 G1 Y3.99
N1205 G3 X-0.705 Y4.29 I-0.3 J0.
N1210 X-1.005 Y3.99 I0. J-0.3
N1215 G1 Y-7.492
N1220 Y-7.5
N1225 X-0.705 Y-18.99
N1230 G3 X-0.409 Y-19.282 I0.3 J0.008
N1235 G1 X0.191 Y-19.289
N1240 G3 X0.495 Y-18.989 I0.004 J0.3
N1245 G1 Y3.988
N1250 G3 X-0.105 I-0.3 J0.
N1255 G1 Y-7.493
N1260 Y-7.5
N1265 X0.195 Y-18.989
N1270 G3 X0.491 Y-19.281 I0.3 J0.008
N1275 G1 X1.061 Y-19.289
N1280 G3 X1.365 Y-18.988 I0.004 J0.3
N1285 G1 X1.35 Y0.
N1290 X1.354 Y3.989
N1295 G3 X1.054 Y4.289 I-0.3 J0.
N1300 X0.754 Y3.989 I0. J-0.3
N1305 G1 X0.756 Y-7.492
N1310 Y-7.5
N1315 X1.065 Y-18.989
N1320 G3 X1.36 Y-19.281 I0.3 J0.008
N1325 G1 X1.991 Y-19.29
N1330 G3 X2.295 Y-18.99 I0.004 J0.3
N1335 G1 Y3.989
N1340 G3 X1.995 Y4.289 I-0.3 J0.
N1345 X1.695 Y3.989 I0. J-0.3
N1350 G1 Y-7.492
N1355 Y-7.5
N1360 X1.995 Y-18.99
N1365 G3 X2.291 Y-19.282 I0.3 J0.008
N1370 G1 X2.891 Y-19.289
N1375 G3 X3.195 Y-18.989 I0.004 J0.3
N1380 G1 Y3.988
N1385 G3 X2.595 I-0.3 J0.
N1390 G1 Y-7.493
N1395 Y-7.501
N1400 X2.895 Y-18.989
N1405 G3 X3.191 Y-19.281 I0.3 J0.008
N1410 G1 X3.791 Y-19.289
N1415 G3 X4.095 Y-18.989 I0.004 J0.3
N1420 G1 Y3.989
N1425 G3 X3.795 Y4.289 I-0.3 J0.
N1430 X3.495 Y3.989 I0. J-0.3
N1435 G1 Y-7.492
N1440 Y-7.5
N1445 X3.795 Y-18.989
N1450 G3 X4.091 Y-19.281 I0.3 J0.008
N1455 G1 X4.696 Y-19.289
N1460 G3 X5. Y-18.989 I0.004 J0.3
N1465 G1 Y0.
N1470 Y3.989
N1475 G3 X4.412 Y4.073 I-0.3 J0.
N1480 G1 X-2.517 Y-19.43
N1485 G2 X-3.105 Y-19.345 I-0.288 J0.085
N1490 G19 G2 Y-18.745 Z-7.4 J0. K-0.6
N1495 G1 Z-12.4
N1500 G3 Y-18.145 Z-13. J0.6 K0.
N1505 G1 Y-18.121
N1510 Y3.122
N1515 G17 G3 X-3.705 I-0.3 J0.
N1520 G1 Y-7.491
N1525 Y-7.5
N1530 X-3.405 Y-18.121
N1535 G3 X-3.32 Y-18.323 I0.3 J0.008
N1540 G1 X-2.72 Y-18.937
N1545 G3 X-2.205 Y-18.727 I0.215 J0.21
N1550 G1 Y3.727
N1555 G3 X-2.805 I-0.3 J0.
N1560 G1 Y-7.492
N1565 Y-7.5
N1570 X-2.505 Y-18.727
N1575 G3 X-2.319 Y-18.996 I0.3 J0.008
N1580 G1 X-1.719 Y-19.243
N1585 G3 X-1.305 Y-18.965 I0.114 J0.278
N1590 G1 Y3.964
N1595 G3 X-1.605 Y4.264 I-0.3 J0.
N1600 X-1.905 Y3.964 I0. J-0.3
N1605 G1 Y-7.493
N1610 Y-7.501
N1615 X-1.605 Y-18.965
N1620 G3 X-1.321 Y-19.257 I0.3 J0.008
N1625 G1 X-0.721 Y-19.289
N1630 G3 X-0.405 Y-18.99 I0.016 J0.3
N1635 G1 Y3.99
N1640 G3 X-0.705 Y4.29 I-0.3 J0.
N1645 X-1.005 Y3.99 I0. J-0.3
N1650 G1 Y-7.492
N1655 Y-7.5
N1660 X-0.705 Y-18.99
N1665 G3 X-0.409 Y-19.282 I0.3 J0.008
N1670 G1 X0.191 Y-19.289
N1675 G3 X0.495 Y-18.989 I0.004 J0.3
N1680 G1 Y3.988
N1685 G3 X-0.105 I-0.3 J0.
N1690 G1 Y-7.493
N1695 Y-7.5
N1700 X0.195 Y-18.989
N1705 G3 X0.491 Y-19.281 I0.3 J0.008
N1710 G1 X1.061 Y-19.289
N1715 G3 X1.365 Y-18.988 I0.004 J0.3
N1720 G1 X1.35 Y0.
N1725 X1.354 Y3.989
N1730 G3 X1.054 Y4.289 I-0.3 J0.
N1735 X0.754 Y3.989 I0. J-0.3
N1740 G1 X0.756 Y-7.492
N1745 Y-7.5
N1750 X1.065 Y-18.989
N1755 G3 X1.36 Y-19.281 I0.3 J0.008
N1760 G1 X1.991 Y-19.29
N1765 G3 X2.295 Y-18.99 I0.004 J0.3
N1770 G1 Y3.989
N1775 G3 X1.995 Y4.289 I-0.3 J0.
N1780 X1.695 Y3.989 I0. J-0.3
N1785 G1 Y-7.492
N1790 Y-7.5
N1795 X1.995 Y-18.99
N1800 G3 X2.291 Y-19.282 I0.3 J0.008
N1805 G1 X2.891 Y-19.289
N1810 G3 X3.195 Y-18.989 I0.004 J0.3
N1815 G1 Y3.988
N1820 G3 X2.595 I-0.3 J0.
N1825 G1 Y-7.493
N1830 Y-7.501
N1835 X2.895 Y-18.989
N1840 G3 X3.191 Y-19.281 I0.3 J0.008
N1845 G1 X3.791 Y-19.289
N1850 G3 X4.095 Y-18.989 I0.004 J0.3
N1855 G1 Y3.989
N1860 G3 X3.795 Y4.289 I-0.3 J0.
N1865 X3.495 Y3.989 I0. J-0.3
N1870 G1 Y-7.492
N1875 Y-7.5
N1880 X3.795 Y-18.989
N1885 G3 X4.091 Y-19.281 I0.3 J0.008
N1890 G1 X4.696 Y-19.289
N1895 G3 X5. Y-18.989 I0.004 J0.3
N1900 G1 Y0.
N1905 Y3.989
N1910 G3 X4.993 Y4.082 I-0.6 J0.
N1915 G1 X4.523 Y7.046
N1920 X4.509 Y7.138 Z-12.993
N1925 X4.494 Y7.229 Z-12.971
N1930 X4.481 Y7.315 Z-12.935
N1935 X4.468 Y7.394 Z-12.885
N1940 X4.457 Y7.465 Z-12.824
N1945 X4.447 Y7.525 Z-12.753
N1950 X4.44 Y7.574 Z-12.672
N1955 X4.434 Y7.609 Z-12.585
N1960 X4.431 Y7.631 Z-12.494
N1965 X4.429 Y7.638 Z-12.4
N1970 G0 Z10.2
(PARALLEL2)
N1980 M8
N1985 G0 X35.263 Y-16.997
N1990 Z10.2
N1995 Z-2.907
N2000 G1 Z-4.576 F1000.
N2005 G18 G3 X34.238 Z-5. I-0.6 K0.
N2010 G1 X29.239 Z0.
N2015 G3 X29.063 Z0.424 I0.424 K0.424
N2020 G0 Z5.2
N2025 X35.854 Y-15.998
N2030 Z-3.139
N2035 G1 Z-4.576 F1000.
N2040 G3 X34.829 Z-5. I-0.6 K0.
N2045 G1 X29.829 Z0.
N2050 G3 X29.654 Z0.424 I0.424 K0.424
N2055 G0 Z5.2
N2060 X36.024 Y-14.998
N2065 Z-3.196
N2070 G1 Z-4.576 F1000.
N2075 G3 X35. Z-5. I-0.6 K0.
N2080 G1 X30. Z0.
N2085 G3 X29.824 Z0.424 I0.424 K0.424
N2090 G0 Z5.2
N2095 X36.024 Y-13.998
N2100 Z-3.196
N2105 G1 Z-4.576 F1000.
N2110 G3 X35. Z-5. I-0.6 K0.
N2115 G1 X30. Z0.
N2120 G3 X29.824 Z0.424 I0.424 K0.424
N2125 G0 Z5.2
N2130 X36.024 Y-12.998
N2135 Z-3.196
N2140 G1 Z-4.576 F1000.
N2145 G3 X35. Z-5. I-0.6 K0.
N2150 G1 X30. Z0.
N2155 G3 X29.824 Z0.424 I0.424 K0.424
N2160 G0 Z5.2
N2165 X36.024 Y-11.999
N2170 Z-3.196
N2175 G1 Z-4.576 F1000.
N2180 G3 X35. Z-5. I-0.6 K0.
N2185 G1 X30. Z0.
N2190 G3 X29.824 Z0.424 I0.424 K0.424
N2195 G0 Z5.2
N2200 X36.024 Y-10.999
N2205 Z-3.196
N2210 G1 Z-4.576 F1000.
N2215 G3 X35. Z-5. I-0.6 K0.
N2220 G1 X30. Z0.
N2225 G3 X29.824 Z0.424 I0.424 K0.424
N2230 G0 Z5.2
N2235 X36.024 Y-9.999
N2240 Z-3.196
N2245 G1 Z-4.576 F1000.
N2250 G3 X35. Z-5. I-0.6 K0.
N2255 G1 X30. Z0.
N2260 G3 X29.824 Z0.424 I0.424 K0.424
N2265 G0 Z5.2
N2270 X36.024 Y-9.
N2275 Z-3.196
N2280 G1 Z-4.576 F1000.
N2285 G3 X35. Z-5. I-0.6 K0.
N2290 G1 X30. Z0.
N2295 G3 X29.824 Z0.424 I0.424 K0.424
N2300 G0 Z5.2
N2305 X36.024 Y-8.
N2310 Z-3.196
N2315 G1 Z-4.576 F1000.
N2320 G3 X35. Z-5. I-0.6 K0.
N2325 G1 X30. Z0.
N2330 G3 X29.824 Z0.424 I0.424 K0.424
N2335 G0 Z5.2
N2340 X36.024 Y-7.
N2345 Z-3.196
N2350 G1 Z-4.576 F1000.
N2355 G3 X35. Z-5. I-0.6 K0.
N2360 G1 X30. Z0.
N2365 G3 X29.824 Z0.424 I0.424 K0.424
N2370 G0 Z5.2
N2375 X36.024 Y-6.
N2380 Z-3.196
N2385 G1 Z-4.576 F1000.
N2390 G3 X35. Z-5. I-0.6 K0.
N2395 G1 X30. Z0.
N2400 G3 X29.824 Z0.424 I0.424 K0.424
N2405 G0 Z5.2
N2410 X36.024 Y-5.001
N2415 Z-3.196
N2420 G1 Z-4.576 F1000.
N2425 G3 X35. Z-5. I-0.6 K0.
N2430 G1 X30. Z0.
N2435 G3 X29.824 Z0.424 I0.424 K0.424
N2440 G0 Z5.2
N2445 X36.024 Y-4.001
N2450 Z-3.196
N2455 G1 Z-4.576 F1000.
N2460 G3 X35. Z-5. I-0.6 K0.
N2465 G1 X30. Z0.
N2470 G3 X29.824 Z0.424 I0.424 K0.424
N2475 G0 Z5.2
N2480 X36.024 Y-3.001
N2485 Z-3.196
N2490 G1 Z-4.576 F1000.
N2495 G3 X35. Z-5. I-0.6 K0.
N2500 G1 X30. Z0.
N2505 G3 X29.824 Z0.424 I0.424 K0.424
N2510 G0 Z5.2
N2515 X36.024 Y-2.002
N2520 Z-3.196
N2525 G1 Z-4.576 F1000.
N2530 G3 X35. Z-5. I-0.6 K0.
N2535 G1 X30. Z0.
N2540 G3 X29.824 Z0.424 I0.424 K0.424
N2545 G0 Z5.2
N2550 X36.024 Y-1.002
N2555 Z-3.196
N2560 G1 Z-4.576 F1000.
N2565 G3 X35. Z-5. I-0.6 K0.
N2570 G1 X30. Z0.
N2575 G3 X29.824 Z0.424 I0.424 K0.424
N2580 G0 Z5.2
N2585 X36.024 Y-0.002
N2590 Z-3.196
N2595 G1 Z-4.576 F1000.
N2600 G3 X35. Z-5. I-0.6 K0.
N2605 G1 X30. Z0.
N2610 G3 X29.824 Z0.424 I0.424 K0.424
N2615 G0 Z5.2
N2620 X35.854 Y0.998
N2625 Z-3.139
N2630 G1 Z-4.576 F1000.
N2635 G3 X34.829 Z-5. I-0.6 K0.
N2640 G1 X29.829 Z0.
N2645 G3 X29.654 Z0.424 I0.424 K0.424
N2650 G0 Z5.2
N2655 X35.263 Y1.997
N2660 Z-2.907
N2665 G1 Z-4.576 F1000.
N2670 G3 X34.238 Z-5. I-0.6 K0.
N2675 G1 X29.239 Z0.
N2680 G3 X29.063 Z0.424 I0.424 K0.424
N2685 G0 Z5.2
N2690 X4.737 Y-16.997
N2695 Z-2.907
N2700 G1 Z-4.576 F1000.
N2705 G2 X5.762 Z-5. I0.6 K0.
N2710 G1 X10.761 Z0.
N2715 G2 X10.937 Z0.424 I-0.424 K0.424
N2720 G0 Z5.2
N2725 X4.146 Y-15.998
N2730 Z-3.139
N2735 G1 Z-4.576 F1000.
N2740 G2 X5.171 Z-5. I0.6 K0.
N2745 G1 X10.17 Z-0.001
N2750 G2 X10.346 Z0.424 I-0.424 K0.424
N2755 G0 Z5.2
N2760 X3.976 Y-14.998
N2765 Z-3.196
N2770 G1 Z-4.576 F1000.
N2775 G2 X5. Z-5. I0.6 K0.
N2780 G1 X9.999 Z-0.001
N2785 G2 X10.175 Z0.423 I-0.424 K0.424
N2790 G0 Z5.2
N2795 X3.976 Y-13.998
N2800 Z-3.196
N2805 G1 Z-4.576 F1000.
N2810 G2 X5. Z-5. I0.6 K0.
N2815 G1 X9.999 Z-0.001
N2820 G2 X10.175 Z0.423 I-0.424 K0.424
N2825 G0 Z5.2
N2830 X3.976 Y-12.998
N2835 Z-3.196
N2840 G1 Z-4.576 F1000.
N2845 G2 X5. Z-5. I0.6 K0.
N2850 G1 X9.999 Z-0.001
N2855 G2 X10.175 Z0.423 I-0.424 K0.424
N2860 G0 Z5.2
N2865 X3.976 Y-11.999
N2870 Z-3.196
N2875 G1 Z-4.576 F1000.
N2880 G2 X5. Z-5. I0.6 K0.
N2885 G1 X9.999 Z-0.001
N2890 G2 X10.175 Z0.423 I-0.424 K0.424
N2895 G0 Z5.2
N2900 X3.976 Y-10.999
N2905 Z-3.196
N2910 G1 Z-4.576 F1000.
N2915 G2 X5. Z-5. I0.6 K0.
N2920 G1 X9.999 Z-0.001
N2925 G2 X10.175 Z0.423 I-0.424 K0.424
N2930 G0 Z5.2
N2935 X3.976 Y-9.999
N2940 Z-3.196
N2945 G1 Z-4.576 F1000.
N2950 G2 X5. Z-5. I0.6 K0.
N2955 G1 X9.999 Z-0.001
N2960 G2 X10.175 Z0.423 I-0.424 K0.424
N2965 G0 Z5.2
N2970 X3.976 Y-9.
N2975 Z-3.196
N2980 G1 Z-4.576 F1000.
N2985 G2 X5. Z-5. I0.6 K0.
N2990 G1 X9.999 Z-0.001
N2995 G2 X10.175 Z0.423 I-0.424 K0.424
N3000 G0 Z5.2
N3005 X3.976 Y-8.
N3010 Z-3.196
N3015 G1 Z-4.576 F1000.
N3020 G2 X5. Z-5. I0.6 K0.
N3025 G1 X9.999 Z-0.001
N3030 G2 X10.175 Z0.423 I-0.424 K0.424
N3035 G0 Z5.2
N3040 X3.976 Y-7.
N3045 Z-3.196
N3050 G1 Z-4.576 F1000.
N3055 G2 X5. Z-5. I0.6 K0.
N3060 G1 X9.999 Z-0.001
N3065 G2 X10.175 Z0.423 I-0.424 K0.424
N3070 G0 Z5.2
N3075 X3.976 Y-6.
N3080 Z-3.196
N3085 G1 Z-4.576 F1000.
N3090 G2 X5. Z-5. I0.6 K0.
N3095 G1 X9.999 Z-0.001
N3100 G2 X10.175 Z0.423 I-0.424 K0.424
N3105 G0 Z5.2
N3110 X3.976 Y-5.001
N3115 Z-3.196
N3120 G1 Z-4.576 F1000.
N3125 G2 X5. Z-5. I0.6 K0.
N3130 G1 X9.999 Z-0.001
N3135 G2 X10.175 Z0.423 I-0.424 K0.424
N3140 G0 Z5.2
N3145 X3.976 Y-4.001
N3150 Z-3.196
N3155 G1 Z-4.576 F1000.
N3160 G2 X5. Z-5. I0.6 K0.
N3165 G1 X9.999 Z-0.001
N3170 G2 X10.175 Z0.423 I-0.424 K0.424
N3175 G0 Z5.2
N3180 X3.976 Y-3.001
N3185 Z-3.196
N3190 G1 Z-4.576 F1000.
N3195 G2 X5. Z-5. I0.6 K0.
N3200 G1 X9.999 Z-0.001
N3205 G2 X10.175 Z0.423 I-0.424 K0.424
N3210 G0 Z5.2
N3215 X3.976 Y-2.002
N3220 Z-3.196
N3225 G1 Z-4.576 F1000.
N3230 G2 X5. Z-5. I0.6 K0.
N3235 G1 X9.999 Z-0.001
N3240 G2 X10.175 Z0.423 I-0.424 K0.424
N3245 G0 Z5.2
N3250 X3.976 Y-1.002
N3255 Z-3.196
N3260 G1 Z-4.576 F1000.
N3265 G2 X5. Z-5. I0.6 K0.
N3270 G1 X9.999 Z-0.001
N3275 G2 X10.175 Z0.423 I-0.424 K0.424
N3280 G0 Z5.2
N3285 X3.976 Y-0.002
N3290 Z-3.196
N3295 G1 Z-4.576 F1000.
N3300 G2 X5. Z-5. I0.6 K0.
N3305 G1 X9.999 Z-0.001
N3310 G2 X10.175 Z0.423 I-0.424 K0.424
N3315 G0 Z5.2
N3320 X4.146 Y0.998
N3325 Z-3.139
N3330 G1 Z-4.576 F1000.
N3335 G2 X5.171 Z-5. I0.6 K0.
N3340 G1 X10.17 Z-0.001
N3345 G2 X10.346 Z0.423 I-0.424 K0.424
N3350 G0 Z5.2
N3355 X4.737 Y1.997
N3360 Z-2.907
N3365 G1 Z-4.576 F1000.
N3370 G2 X5.762 Z-5. I0.6 K0.
N3375 G1 X10.762 Z0.
N3380 G2 X10.849 Z0.212 I-0.212 K0.212
N3385 G1 X10.845 Y2.003 Z0.309
N3390 X10.831 Y2.019 Z0.404
N3395 X10.807 Y2.046 Z0.495
N3400 X10.776 Y2.083 Z0.579
N3405 X10.736 Y2.129 Z0.655
N3410 X10.69 Y2.183 Z0.721
N3415 X10.638 Y2.244 Z0.776
N3420 X10.581 Y2.311 Z0.818
N3425 X10.52 Y2.381 Z0.847
N3430 X10.457 Y2.455 Z0.861
N3435 X10.394 Y2.528
N3440 X10.332 Y2.601 Z0.847
N3445 X10.271 Y2.672 Z0.818
N3450 X10.214 Y2.739 Z0.776
N3455 X10.162 Y2.8 Z0.721
N3460 X10.115 Y2.854 Z0.655
N3465 X10.076 Y2.9 Z0.579
N3470 X10.044 Y2.937 Z0.495
N3475 X10.021 Y2.964 Z0.404
N3480 X10.007 Y2.98 Z0.309
N3485 X10.002 Y2.986 Z0.212
N3490 Z-1.081
N3495 G19 G2 Y2.449 Z-1.265 J-0.3 K0.
N3500 G1 Y2.27 Z-1.036
N3505 Y2.071 Z-0.827
N3510 Y1.853 Z-0.639
N3515 Y1.617 Z-0.471
N3520 Y1.367 Z-0.327
N3525 Y1.103 Z-0.208
N3530 Y0.831 Z-0.115
N3535 Y0.553 Z-0.049
N3540 Y0.271 Z-0.01
N3545 Y0.118 Z0.
N3550 G2 Y-0.163 Z0.299 J0.019 K0.299
N3555 G1 X10. Y-0.156 Z0.417
N3560 X9.993 Y-0.134 Z0.532
N3565 X9.982 Y-0.098 Z0.644
N3570 X9.966 Y-0.048 Z0.749
N3575 X9.946 Y0.014 Z0.847
N3580 X9.922 Y0.088 Z0.936
N3585 X9.896 Y0.173 Z1.013
N3590 X9.866 Y0.266 Z1.079
N3595 X9.834 Y0.367 Z1.131
N3600 X9.8 Y0.473 Z1.169
N3605 X9.765 Y0.583 Z1.192
N3610 X9.73 Y0.695 Z1.199
N3615 X9.275 Y2.128
N3620 X9.239 Y2.24 Z1.192
N3625 X9.204 Y2.35 Z1.169
N3630 X9.171 Y2.456 Z1.131
N3635 X9.139 Y2.557 Z1.079
N3640 X9.109 Y2.65 Z1.013
N3645 X9.082 Y2.734 Z0.936
N3650 X9.059 Y2.808 Z0.847
N3655 X9.039 Y2.871 Z0.749
N3660 X9.023 Y2.92 Z0.644
N3665 X9.012 Y2.956 Z0.532
N3670 X9.005 Y2.978 Z0.417
N3675 X9.003 Y2.986 Z0.299
N3680 Z-2.08
N3685 G2 Y2.449 Z-2.265 J-0.3 K0.
N3690 G1 Y2.27 Z-2.036
N3695 Y2.071 Z-1.827
N3700 Y1.853 Z-1.638
N3705 Y1.617 Z-1.471
N3710 Y1.367 Z-1.327
N3715 Y1.103 Z-1.208
N3720 Y0.831 Z-1.115
N3725 Y0.553 Z-1.049
N3730 Y0.271 Z-1.01
N3735 Y-0.017 Z-0.997
N3740 G2 Y-0.591 Z-0.398 J0.026 K0.599
N3745 G0 Z5.2
N3750 X10.002 Y-18.534
N3755 Z1.153
N3760 G1 Z-0.912 F1000.
N3765 G3 Y-17.449 Z-1.266 J0.6 K0.
N3770 G1 Y-17.397 Z-1.194
N3775 Y-17.208 Z-0.967
N3780 Y-16.997 Z-0.759
N3785 Y-16.767 Z-0.573
N3790 Y-16.521 Z-0.412
N3795 Y-16.258 Z-0.274
N3800 Y-15.986 Z-0.164
N3805 Y-15.702 Z-0.081
N3810 Y-15.415 Z-0.027
N3815 Y-15.118 Z0.
N3820 G3 Y-14.844 Z0.299 J-0.027 K0.299
N3825 G1 X10. Y-14.852 Z0.416
N3830 X9.993 Y-14.873 Z0.532
N3835 X9.982 Y-14.91 Z0.643
N3840 X9.966 Y-14.959 Z0.749
N3845 X9.946 Y-15.021 Z0.847
N3850 X9.922 Y-15.095 Z0.935
N3855 X9.896 Y-15.18 Z1.013
N3860 X9.866 Y-15.273 Z1.078
N3865 X9.834 Y-15.374 Z1.13
N3870 X9.8 Y-15.48 Z1.168
N3875 X9.765 Y-15.59 Z1.191
N3880 X9.73 Y-15.702 Z1.199
N3885 X9.275 Y-17.134
N3890 X9.239 Y-17.246 Z1.191
N3895 X9.204 Y-17.356 Z1.168
N3900 X9.171 Y-17.463 Z1.13
N3905 X9.139 Y-17.563 Z1.078
N3910 X9.109 Y-17.656 Z1.013
N3915 X9.082 Y-17.741 Z0.935
N3920 X9.059 Y-17.815 Z0.847
N3925 X9.039 Y-17.877 Z0.749
N3930 X9.023 Y-17.927 Z0.643
N3935 X9.012 Y-17.963 Z0.532
N3940 X9.005 Y-17.985 Z0.416
N3945 X9.003 Y-17.992 Z0.299
N3950 Z-2.089
N3955 G3 Y-17.449 Z-2.265 J0.3 K0.
N3960 G1 Y-17.415 Z-2.218
N3965 Y-17.229 Z-1.99
N3970 Y-17.021 Z-1.78
N3975 Y-16.792 Z-1.591
N3980 Y-16.547 Z-1.427
N3985 Y-16.287 Z-1.287
N3990 Y-16.014 Z-1.174
N3995 Y-15.731 Z-1.088
N4000 Y-15.445 Z-1.031
N4005 Y-15.156 Z-1.002
N4010 Y-0.017 Z-0.997
N4015 G3 Y0.283 Z-0.697 J0. K0.3
N4020 G1 X9. Y0.291 Z-0.58
N4025 X8.992 Y0.312 Z-0.465
N4030 X8.979 Y0.348 Z-0.353
N4035 X8.961 Y0.397 Z-0.247
N4040 X8.938 Y0.458 Z-0.15
N4045 X8.911 Y0.531 Z-0.061
N4050 X8.88 Y0.614 Z0.017
N4055 X8.846 Y0.705 Z0.082
N4060 X8.81 Y0.804 Z0.134
N4065 X8.771 Y0.909 Z0.172
N4070 X8.731 Y1.017 Z0.195
N4075 X8.69 Y1.127 Z0.203
N4080 X8.315 Y2.142
N4085 X8.274 Y2.252 Z0.195
N4090 X8.234 Y2.36 Z0.172
N4095 X8.196 Y2.465 Z0.134
N4100 X8.159 Y2.564 Z0.082
N4105 X8.125 Y2.655 Z0.017
N4110 X8.094 Y2.738 Z-0.061
N4115 X8.067 Y2.811 Z-0.15
N4120 X8.045 Y2.872 Z-0.247
N4125 X8.027 Y2.921 Z-0.353
N4130 X8.013 Y2.957 Z-0.465
N4135 X8.005 Y2.978 Z-0.58
N4140 X8.003 Y2.986 Z-0.697
N4145 Z-3.08
N4150 G2 Y2.449 Z-3.265 J-0.3 K0.
N4155 G1 Y2.27 Z-3.036
N4160 Y2.071 Z-2.827
N4165 Y1.853 Z-2.638
N4170 Y1.617 Z-2.471
N4175 Y1.367 Z-2.327
N4180 Y1.103 Z-2.207
N4185 Y0.831 Z-2.115
N4190 Y0.553 Z-2.049
N4195 Y0.271 Z-2.01
N4200 Y-0.017 Z-1.997
N4205 G2 Y-0.304 Z-1.698 J0.013 K0.3
N4210 G1 X8. Y-0.296 Z-1.58
N4215 X7.994 Y-0.274 Z-1.465
N4220 X7.983 Y-0.238 Z-1.353
N4225 X7.968 Y-0.188 Z-1.248
N4230 X7.949 Y-0.126 Z-1.15
N4235 X7.926 Y-0.051 Z-1.061
N4240 X7.9 Y0.033 Z-0.984
N4245 X7.872 Y0.127 Z-0.918
N4250 X7.841 Y0.228 Z-0.866
N4255 X7.809 Y0.335 Z-0.828
N4260 X7.775 Y0.445 Z-0.805
N4265 X7.741 Y0.557 Z-0.798
N4270 X7.265 Y2.124
N4275 X7.231 Y2.236 Z-0.805
N4280 X7.197 Y2.347 Z-0.828
N4285 X7.165 Y2.453 Z-0.866
N4290 X7.134 Y2.554 Z-0.918
N4295 X7.105 Y2.648 Z-0.984
N4300 X7.08 Y2.733 Z-1.061
N4305 X7.057 Y2.807 Z-1.15
N4310 X7.038 Y2.869 Z-1.248
N4315 X7.023 Y2.919 Z-1.353
N4320 X7.012 Y2.955 Z-1.465
N4325 X7.005 Y2.977 Z-1.58
N4330 X7.003 Y2.985 Z-1.698
N4335 Z-4.079
N4340 G2 Y2.449 Z-4.264 J-0.3 K0.
N4345 G1 Y2.269 Z-4.035
N4350 Y2.07 Z-3.826
N4355 Y1.852 Z-3.637
N4360 Y1.616 Z-3.47
N4365 Y1.365 Z-3.326
N4370 Y1.102 Z-3.207
N4375 Y0.829 Z-3.114
N4380 Y0.55 Z-3.048
N4385 Y0.265 Z-3.009
N4390 Y-0.01 Z-2.997
N4395 G2 Y-0.584 Z-2.398 J0.026 K0.599
N4400 G0 Z5.2
N4405 X8.003 Y-18.535
N4410 Z-0.845
N4415 G1 Z-2.913 F1000.
N4420 G3 Y-17.449 Z-3.264 J0.6 K0.
N4425 G1 Y-17.415 Z-3.218
N4430 Y-17.229 Z-2.99
N4435 Y-17.021 Z-2.78
N4440 Y-16.792 Z-2.591
N4445 Y-16.547 Z-2.427
N4450 Y-16.287 Z-2.287
N4455 Y-16.014 Z-2.174
N4460 Y-15.731 Z-2.088
N4465 Y-15.445 Z-2.03
N4470 Y-15.156 Z-2.001
N4475 Y-0.017 Z-1.997
N4480 G3 Y0.583 Z-1.397 J0. K0.6
N4485 G0 Z5.2
N4490 X7.003 Y-18.534
N4495 Z-1.843
N4500 G1 Z-3.911 F1000.
N4505 G3 Y-17.449 Z-4.265 J0.6 K0.
N4510 G1 Y-17.396 Z-4.192
N4515 Y-17.207 Z-3.965
N4520 Y-16.995 Z-3.757
N4525 Y-16.766 Z-3.572
N4530 Y-16.519 Z-3.41
N4535 Y-16.256 Z-3.273
N4540 Y-15.983 Z-3.163
N4545 Y-15.699 Z-3.08
N4550 Y-15.409 Z-3.025
N4555 Y-15.124 Z-3.
N4560 Y-0.01 Z-2.997
N4565 G3 Y0.29 Z-2.697 J0. K0.3
N4570 G1 X7. Y0.297 Z-2.58
N4575 X6.991 Y0.319 Z-2.464
N4580 X6.977 Y0.354 Z-2.353
N4585 X6.958 Y0.402 Z-2.247
N4590 X6.933 Y0.463 Z-2.149
N4595 X6.904 Y0.534 Z-2.061
N4600 X6.87 Y0.616 Z-1.983
N4605 X6.834 Y0.707 Z-1.918
N4610 X6.794 Y0.805 Z-1.866
N4615 X6.752 Y0.908 Z-1.828
N4620 X6.709 Y1.015 Z-1.805
N4625 X6.664 Y1.124 Z-1.797
N4630 X6.342 Y1.919
N4635 X6.298 Y2.028 Z-1.805
N4640 X6.254 Y2.134 Z-1.828
N4645 X6.212 Y2.238 Z-1.866
N4650 X6.172 Y2.336 Z-1.918
N4655 X6.136 Y2.426 Z-1.983
N4660 X6.102 Y2.508 Z-2.061
N4665 X6.073 Y2.58 Z-2.149
N4670 X6.049 Y2.641 Z-2.247
N4675 X6.029 Y2.689 Z-2.353
N4680 X6.015 Y2.724 Z-2.464
N4685 X6.006 Y2.745 Z-2.58
N4690 X6.003 Y2.753 Z-2.697
N4695 Z-4.789
N4700 G2 Y2.239 Z-5. J-0.3 K0.
N4705 G1 Y2.029 Z-4.787
N4710 Y1.805 Z-4.601
N4715 Y1.565 Z-4.437
N4720 Y1.31 Z-4.298
N4725 Y1.046 Z-4.185
N4730 Y0.77 Z-4.097
N4735 Y0.494 Z-4.038
N4740 Y0.219 Z-4.005
N4745 Y-0.123 Z-3.997
N4750 G2 Y-0.709 Z-3.397 J0.014 K0.6
N4755 G0 Z5.2
N4760 Y-18.285
N4765 Z-2.575
N4770 G1 Z-4.598 F1000.
N4775 G3 Y-17.239 Z-5. J0.6 K0.
N4780 G1 Y-17.218 Z-4.977
N4785 Y-17.008 Z-4.768
N4790 Y-16.779 Z-4.582
N4795 Y-16.533 Z-4.418
N4800 Y-16.272 Z-4.28
N4805 Y-16. Z-4.168
N4810 Y-15.717 Z-4.084
N4815 Y-15.43 Z-4.028
N4820 Y-15.146 Z-4.
N4825 Y-0.123 Z-3.997
N4830 G3 Y0.009 Z-3.966 J0. K0.3
N4835 G2 Y0.141 Z-3.936 J0.132 K-0.269
N4840 G1 Y0.407
N4845 X6.002 Y0.46 Z-3.937
N4850 X5.998 Y0.513 Z-3.941
N4855 X5.991 Y0.565 Z-3.948
N4860 X5.981 Y0.616 Z-3.958
N4865 X5.969 Y0.666 Z-3.97
N4870 X5.954 Y0.714 Z-3.985
N4875 X5.936 Y0.761 Z-4.003
N4880 X5.916 Y0.806 Z-4.023
N4885 X5.894 Y0.849 Z-4.045
N4890 X5.87 Y0.889 Z-4.069
N4895 X5.843 Y0.926 Z-4.096
N4900 X5.815 Y0.961 Z-4.124
N4905 X5.785 Y0.992 Z-4.155
N4910 X5.753 Y1.02 Z-4.186
N4915 X5.72 Y1.045 Z-4.22
N4920 X5.686 Y1.066 Z-4.254
N4925 X5.651 Y1.084 Z-4.289
N4930 X5.615 Y1.097 Z-4.326
N4935 X5.578 Y1.107 Z-4.362
N4940 X5.541 Y1.113 Z-4.4
N4945 X5.503 Y1.115 Z-4.437
N4950 X5.466 Y1.113 Z-4.475
N4955 X5.429 Y1.107 Z-4.512
N4960 X5.392 Y1.097 Z-4.549
N4965 X5.356 Y1.084 Z-4.585
N4970 X5.321 Y1.066 Z-4.62
N4975 X5.286 Y1.045 Z-4.655
N4980 X5.253 Y1.02 Z-4.688
N4985 X5.222 Y0.992 Z-4.72
N4990 X5.192 Y0.961 Z-4.75
N4995 X5.163 Y0.926 Z-4.778
N5000 X5.137 Y0.889 Z-4.805
N5005 X5.112 Y0.849 Z-4.829
N5010 X5.09 Y0.806 Z-4.852
N5015 X5.07 Y0.761 Z-4.872
N5020 X5.053 Y0.714 Z-4.889
N5025 X5.038 Y0.666 Z-4.904
N5030 X5.026 Y0.616 Z-4.916
N5035 X5.016 Y0.565 Z-4.926
N5040 X5.009 Y0.513 Z-4.933
N5045 X5.005 Y0.46 Z-4.937
N5050 X5.003 Y0.407 Z-4.939
N5055 G3 Y0.275 Z-4.969 J0. K-0.3
N5060 G2 Y0.143 Z-5. J-0.132 K0.269
N5065 G1 Y-15.143
N5070 G2 Y-15.743 Z-4.4 J0. K0.6
N5075 G0 Z5.2
N5080 X34.997
N5085 Z-2.231
N5090 G1 Z-4.4 F1000.
N5095 G3 Y-15.143 Z-5. J0.6 K0.
N5100 G1 Y0.143
N5105 G3 Y0.443 Z-4.7 J0. K0.3
N5110 G1 X34.994 Y0.45 Z-4.583
N5115 X34.984 Y0.471 Z-4.467
N5120 X34.969 Y0.506 Z-4.356
N5125 X34.949 Y0.554 Z-4.25
N5130 X34.923 Y0.614 Z-4.152
N5135 X34.892 Y0.685 Z-4.064
N5140 X34.857 Y0.766 Z-3.986
N5145 X34.818 Y0.856 Z-3.921
N5150 X34.776 Y0.953 Z-3.869
N5155 X34.732 Y1.055 Z-3.831
N5160 X34.686 Y1.161 Z-3.808
N5165 X34.639 Y1.269 Z-3.8
N5170 X34.354 Y1.927
N5175 X34.308 Y2.034 Z-3.808
N5180 X34.262 Y2.14 Z-3.831
N5185 X34.218 Y2.243 Z-3.869
N5190 X34.176 Y2.34 Z-3.921
N5195 X34.137 Y2.429 Z-3.986
N5200 X34.102 Y2.511 Z-4.064
N5205 X34.071 Y2.582 Z-4.152
N5210 X34.045 Y2.642 Z-4.25
N5215 X34.024 Y2.69 Z-4.356
N5220 X34.009 Y2.724 Z-4.467
N5225 X34. Y2.745 Z-4.583
N5230 X33.997 Y2.753 Z-4.7
N5235 Z-4.789
N5240 G2 Y2.239 Z-5. J-0.3 K0.
N5245 G1 Y2.029 Z-4.787
N5250 Y1.805 Z-4.601
N5255 Y1.565 Z-4.437
N5260 Y1.31 Z-4.298
N5265 Y1.046 Z-4.185
N5270 Y0.77 Z-4.097
N5275 Y0.494 Z-4.038
N5280 Y0.219 Z-4.005
N5285 Y-0.123 Z-3.997
N5290 G2 Y-0.416 Z-3.697 J0.007 K0.3
N5295 G1 X33.995 Y-0.409 Z-3.63
N5300 X33.988 Y-0.388 Z-3.567
N5305 X33.978 Y-0.354 Z-3.51
N5310 X33.965 Y-0.308 Z-3.462
N5315 X33.949 Y-0.253 Z-3.427
N5320 X33.931 Y-0.193 Z-3.404
N5325 X33.912 Y-0.129 Z-3.397
N5330 X33.082 Y2.697
N5335 X33.063 Y2.761 Z-3.404
N5340 X33.045 Y2.822 Z-3.427
N5345 X33.029 Y2.876 Z-3.462
N5350 X33.016 Y2.922 Z-3.51
N5355 X33.005 Y2.956 Z-3.567
N5360 X32.999 Y2.978 Z-3.63
N5365 X32.997 Y2.985 Z-3.697
N5370 Z-4.079
N5375 G2 Y2.449 Z-4.264 J-0.3 K0.
N5380 G1 Y2.269 Z-4.035
N5385 Y2.07 Z-3.826
N5390 Y1.852 Z-3.637
N5395 Y1.616 Z-3.47
N5400 Y1.365 Z-3.326
N5405 Y1.102 Z-3.207
N5410 Y0.829 Z-3.114
N5415 Y0.55 Z-3.048
N5420 Y0.265 Z-3.009
N5425 Y-0.01 Z-2.997
N5430 G2 Y-0.584 Z-2.398 J0.026 K0.599
N5435 G0 Z5.2
N5440 X33.997 Y-18.285
N5445 Z-2.575
N5450 G1 Z-4.598 F1000.
N5455 G3 Y-17.239 Z-5. J0.6 K0.
N5460 G1 Y-17.218 Z-4.977
N5465 Y-17.008 Z-4.768
N5470 Y-16.779 Z-4.582
N5475 Y-16.533 Z-4.418
N5480 Y-16.272 Z-4.28
N5485 Y-16. Z-4.168
N5490 Y-15.717 Z-4.084
N5495 Y-15.43 Z-4.028
N5500 Y-15.146 Z-4.
N5505 Y-0.123 Z-3.997
N5510 G3 Y0.476 Z-3.397 J0. K0.6
N5515 G0 Z5.2
N5520 X32.997 Y-18.534
N5525 Z-1.843
N5530 G1 Z-3.911 F1000.
N5535 G3 Y-17.449 Z-4.265 J0.6 K0.
N5540 G1 Y-17.396 Z-4.192
N5545 Y-17.207 Z-3.965
N5550 Y-16.995 Z-3.757
N5555 Y-16.766 Z-3.572
N5560 Y-16.519 Z-3.41
N5565 Y-16.256 Z-3.273
N5570 Y-15.983 Z-3.163
N5575 Y-15.699 Z-3.08
N5580 Y-15.409 Z-3.025
N5585 Y-15.124 Z-3.
N5590 Y-0.01 Z-2.997
N5595 G3 Y0.29 Z-2.697 J0. K0.3
N5600 G1 X32.994 Y0.297 Z-2.58
N5605 X32.986 Y0.319 Z-2.464
N5610 X32.973 Y0.354 Z-2.353
N5615 X32.955 Y0.403 Z-2.247
N5620 X32.932 Y0.465 Z-2.149
N5625 X32.905 Y0.537 Z-2.061
N5630 X32.875 Y0.62 Z-1.983
N5635 X32.841 Y0.712 Z-1.918
N5640 X32.804 Y0.811 Z-1.866
N5645 X32.765 Y0.916 Z-1.828
N5650 X32.725 Y1.024 Z-1.805
N5655 X32.684 Y1.134 Z-1.797
N5660 X32.31 Y2.142
N5665 X32.269 Y2.252 Z-1.805
N5670 X32.229 Y2.36 Z-1.828
N5675 X32.19 Y2.465 Z-1.866
N5680 X32.154 Y2.564 Z-1.918
N5685 X32.12 Y2.655 Z-1.983
N5690 X32.089 Y2.738 Z-2.061
N5695 X32.062 Y2.811 Z-2.149
N5700 X32.039 Y2.873 Z-2.247
N5705 X32.021 Y2.921 Z-2.353
N5710 X32.008 Y2.957 Z-2.464
N5715 X32. Y2.978 Z-2.58
N5720 X31.997 Y2.986 Z-2.697
N5725 Z-3.08
N5730 G2 Y2.449 Z-3.265 J-0.3 K0.
N5735 G1 Y2.27 Z-3.036
N5740 Y2.071 Z-2.827
N5745 Y1.853 Z-2.638
N5750 Y1.617 Z-2.471
N5755 Y1.367 Z-2.327
N5760 Y1.103 Z-2.207
N5765 Y0.831 Z-2.115
N5770 Y0.553 Z-2.049
N5775 Y0.271 Z-2.01
N5780 Y-0.017 Z-1.997
N5785 G2 Y-0.591 Z-1.398 J0.026 K0.599
N5790 G0 Z5.2
N5795 Y-18.535
N5800 Z-0.845
N5805 G1 Z-2.913 F1000.
N5810 G3 Y-17.449 Z-3.264 J0.6 K0.
N5815 G1 Y-17.415 Z-3.218
N5820 Y-17.229 Z-2.99
N5825 Y-17.021 Z-2.78
N5830 Y-16.792 Z-2.591
N5835 Y-16.547 Z-2.427
N5840 Y-16.287 Z-2.287
N5845 Y-16.014 Z-2.174
N5850 Y-15.731 Z-2.088
N5855 Y-15.445 Z-2.03
N5860 Y-15.156 Z-2.001
N5865 Y-0.017 Z-1.997
N5870 G3 Y0.283 Z-1.697 J0. K0.3
N5875 G1 X31.995 Y0.291 Z-1.58
N5880 X31.987 Y0.312 Z-1.464
N5885 X31.974 Y0.348 Z-1.353
N5890 X31.955 Y0.397 Z-1.247
N5895 X31.933 Y0.458 Z-1.149
N5900 X31.906 Y0.531 Z-1.061
N5905 X31.875 Y0.614 Z-0.983
N5910 X31.841 Y0.705 Z-0.918
N5915 X31.804 Y0.804 Z-0.866
N5920 X31.766 Y0.909 Z-0.828
N5925 X31.726 Y1.017 Z-0.805
N5930 X31.685 Y1.127 Z-0.797
N5935 X31.31 Y2.142
N5940 X31.269 Y2.252 Z-0.805
N5945 X31.229 Y2.36 Z-0.828
N5950 X31.19 Y2.465 Z-0.866
N5955 X31.154 Y2.564 Z-0.918
N5960 X31.12 Y2.655 Z-0.983
N5965 X31.089 Y2.738 Z-1.061
N5970 X31.062 Y2.811 Z-1.149
N5975 X31.039 Y2.872 Z-1.247
N5980 X31.021 Y2.921 Z-1.353
N5985 X31.008 Y2.957 Z-1.464
N5990 X31. Y2.978 Z-1.58
N5995 X30.997 Y2.986 Z-1.697
N6000 Z-2.08
N6005 G2 Y2.449 Z-2.265 J-0.3 K0.
N6010 G1 Y2.27 Z-2.036
N6015 Y2.071 Z-1.827
N6020 Y1.853 Z-1.638
N6025 Y1.617 Z-1.471
N6030 Y1.367 Z-1.327
N6035 Y1.103 Z-1.208
N6040 Y0.831 Z-1.115
N6045 Y0.553 Z-1.049
N6050 Y0.271 Z-1.01
N6055 Y-0.017 Z-0.998
N6060 G2 Y-0.304 Z-0.698 J0.013 K0.3
N6065 G1 X30.995 Y-0.296 Z-0.58
N6070 X30.989 Y-0.274 Z-0.465
N6075 X30.978 Y-0.238 Z-0.353
N6080 X30.962 Y-0.188 Z-0.248
N6085 X30.943 Y-0.126 Z-0.15
N6090 X30.921 Y-0.051 Z-0.061
N6095 X30.895 Y0.033 Z0.016
N6100 X30.867 Y0.127 Z0.082
N6105 X30.836 Y0.228 Z0.134
N6110 X30.804 Y0.335 Z0.172
N6115 X30.77 Y0.445 Z0.195
N6120 X30.736 Y0.557 Z0.202
N6125 X30.259 Y2.124
N6130 X30.225 Y2.237 Z0.195
N6135 X30.192 Y2.347 Z0.172
N6140 X30.159 Y2.454 Z0.134
N6145 X30.129 Y2.555 Z0.082
N6150 X30.1 Y2.649 Z0.016
N6155 X30.074 Y2.733 Z-0.061
N6160 X30.052 Y2.808 Z-0.15
N6165 X30.033 Y2.87 Z-0.248
N6170 X30.018 Y2.92 Z-0.353
N6175 X30.007 Y2.956 Z-0.465
N6180 X30. Y2.978 Z-0.58
N6185 X29.998 Y2.986 Z-0.698
N6190 Z-1.081
N6195 G2 Y2.449 Z-1.265 J-0.3 K0.
N6200 G1 Y2.27 Z-1.036
N6205 Y2.071 Z-0.827
N6210 Y1.853 Z-0.639
N6215 Y1.617 Z-0.471
N6220 Y1.367 Z-0.327
N6225 Y1.103 Z-0.208
N6230 Y0.831 Z-0.115
N6235 Y0.553 Z-0.049
N6240 Y0.271 Z-0.01
N6245 Y0.118 Z0.
N6250 G2 Y-0.443 Z0.599 J0.039 K0.599
N6255 G0 Z5.2
N6260 X30.997 Y-18.535
N6265 Z0.154
N6270 G1 Z-1.913 F1000.
N6275 G3 Y-17.449 Z-2.265 J0.6 K0.
N6280 G1 Y-17.415 Z-2.218
N6285 Y-17.229 Z-1.99
N6290 Y-17.021 Z-1.78
N6295 Y-16.792 Z-1.591
N6300 Y-16.547 Z-1.427
N6305 Y-16.287 Z-1.287
N6310 Y-16.014 Z-1.174
N6315 Y-15.731 Z-1.088
N6320 Y-15.445 Z-1.031
N6325 Y-15.156 Z-1.002
N6330 Y-0.017 Z-0.998
N6335 G3 Y0.583 Z-0.398 J0. K0.6
N6340 G0 Z5.2
N6345 X29.998 Y-18.534
N6350 Z1.153
N6355 G1 Z-0.912 F1000.
N6360 G3 Y-17.449 Z-1.266 J0.6 K0.
N6365 G1 Y-17.397 Z-1.194
N6370 Y-17.208 Z-0.967
N6375 Y-16.997 Z-0.759
N6380 Y-16.767 Z-0.573
N6385 Y-16.521 Z-0.412
N6390 Y-16.258 Z-0.274
N6395 Y-15.986 Z-0.164
N6400 Y-15.702 Z-0.081
N6405 Y-15.415 Z-0.027
N6410 Y-15.118 Z0.
N6415 G3 Y-14.571 Z0.598 J-0.053 K0.598
N6420 G0 Z10.2
N6425 G17
N6430 M9
N6435 G53 G0 Z0.
N6440 M30
%
