%
(1001)
(T16  D=3.175 CR=0. - ZMIN=-11. - FLAT END MILL)
N10 G90 G94 G17 G91.1
N15 G21
N20 G53 G0 Z0.
(FACE1 2)
N25 M9
N30 T16 M6
N35 S3000 M3
N40 G54
N45 M8
N55 G0 X45.522 Y-19.287
N60 G43 Z10. H16
N65 G0 Z5.
N70 G1 Z-0.683 F600.
N75 G18 G3 X45.205 Z-1. I-0.318 K0.
N80 G1 X44.203
N85 X-4.203
N90 X-4.981
N95 G17 G2 Y-17.012 I0. J1.138
N100 G1 X44.981
N105 X45.
N110 G3 Y-14.736 I0. J1.138
N115 G1 X-5.
N120 G2 Y-12.461 I0. J1.138
N125 G1 X45.
N130 G3 Y-10.186 I0. J1.138
N135 G1 X-5.
N140 G2 Y-7.91 I0. J1.138
N145 G1 X45.
N150 G3 Y-5.635 I0. J1.138
N155 G1 X-5.
N160 G2 Y-3.359 I0. J1.138
N165 G1 X45.
N170 G3 Y-1.084 I0. J1.138
N175 G1 X-5.
N180 G2 Y1.191 I0. J1.138
N185 G1 X45.
N190 G3 Y3.467 I0. J1.138
N195 G1 X44.628
N200 X-4.628
N205 G18 G3 X-4.946 Z-0.683 I0. K0.317
N210 G0 Z10.
N215 G17
(2D POCKET3 2)
N220 M8
N225 G0 X12.15 Y-3.49
N230 Z10.
N235 Z2.318
N240 G1 Z2.317 F600.
N245 X12.153 Y-3.489 Z2.273 F500.
N250 X12.162 Y-3.486 Z2.23
N255 G3 X12.176 Y-3.481 Z2.189 I-0.162 J0.486
N260 X12.195 Y-3.474 Z2.15 I-0.176 J0.481
N265 X12.219 Y-3.463 Z2.114 I-0.195 J0.474
N270 X12.246 Y-3.449 Z2.082 I-0.219 J0.463
N275 X12.276 Y-3.432 Z2.055 I-0.246 J0.449
N280 X12.307 Y-3.41 Z2.033 I-0.276 J0.432
N285 X12.34 Y-3.384 Z2.016 I-0.307 J0.41
N290 X12.371 Y-3.354 Z2.005 I-0.34 J0.384
N295 X12.4 Y-3.32 Z2. I-0.371 J0.354
N300 X11.6 Y-2.68 Z1.944 I-0.4 J0.32
N305 X12.4 Y-3.32 Z1.888 I0.4 J-0.32
N310 X11.6 Y-2.68 Z1.831 I-0.4 J0.32
N315 X12.4 Y-3.32 Z1.775 I0.4 J-0.32
N320 X11.6 Y-2.68 Z1.719 I-0.4 J0.32
N325 X12.4 Y-3.32 Z1.663 I0.4 J-0.32
N330 X11.6 Y-2.68 Z1.606 I-0.4 J0.32
N335 X12.4 Y-3.32 Z1.55 I0.4 J-0.32
N340 X11.6 Y-2.68 Z1.494 I-0.4 J0.32
N345 X12.4 Y-3.32 Z1.438 I0.4 J-0.32
N350 X11.6 Y-2.68 Z1.382 I-0.4 J0.32
N355 X12.4 Y-3.32 Z1.325 I0.4 J-0.32
N360 X11.6 Y-2.68 Z1.269 I-0.4 J0.32
N365 X12.4 Y-3.32 Z1.213 I0.4 J-0.32
N370 X11.6 Y-2.68 Z1.157 I-0.4 J0.32
N375 X12.4 Y-3.32 Z1.1 I0.4 J-0.32
N380 X11.6 Y-2.68 Z1.044 I-0.4 J0.32
N385 X12.4 Y-3.32 Z0.988 I0.4 J-0.32
N390 X11.6 Y-2.68 Z0.932 I-0.4 J0.32
N395 X12.4 Y-3.32 Z0.876 I0.4 J-0.32
N400 X11.6 Y-2.68 Z0.819 I-0.4 J0.32
N405 X12.4 Y-3.32 Z0.763 I0.4 J-0.32
N410 X11.6 Y-2.68 Z0.707 I-0.4 J0.32
N415 X12.4 Y-3.32 Z0.651 I0.4 J-0.32
N420 X11.6 Y-2.68 Z0.594 I-0.4 J0.32
N425 X12.4 Y-3.32 Z0.538 I0.4 J-0.32
N430 X11.6 Y-2.68 Z0.482 I-0.4 J0.32
N435 X12.4 Y-3.32 Z0.426 I0.4 J-0.32
N440 X11.6 Y-2.68 Z0.369 I-0.4 J0.32
N445 X12.4 Y-3.32 Z0.313 I0.4 J-0.32
N450 X11.6 Y-2.68 Z0.257 I-0.4 J0.32
N455 X12.4 Y-3.32 Z0.201 I0.4 J-0.32
N460 X11.6 Y-2.68 Z0.145 I-0.4 J0.32
N465 X12.4 Y-3.32 Z0.088 I0.4 J-0.32
N470 X11.6 Y-2.68 Z0.032 I-0.4 J0.32
N475 X12.4 Y-3.32 Z-0.024 I0.4 J-0.32
N480 X11.6 Y-2.68 Z-0.08 I-0.4 J0.32
N485 X12.4 Y-3.32 Z-0.137 I0.4 J-0.32
N490 X11.6 Y-2.68 Z-0.193 I-0.4 J0.32
N495 X12.4 Y-3.32 Z-0.249 I0.4 J-0.32
N500 X11.6 Y-2.68 Z-0.305 I-0.4 J0.32
N505 X12.4 Y-3.32 Z-0.361 I0.4 J-0.32
N510 X11.6 Y-2.68 Z-0.418 I-0.4 J0.32
N515 X12.4 Y-3.32 Z-0.474 I0.4 J-0.32
N520 X11.6 Y-2.68 Z-0.53 I-0.4 J0.32
N525 X12.4 Y-3.32 Z-0.586 I0.4 J-0.32
N530 X11.6 Y-2.68 Z-0.643 I-0.4 J0.32
N535 X12.4 Y-3.32 Z-0.699 I0.4 J-0.32
N540 X11.6 Y-2.68 Z-0.755 I-0.4 J0.32
N545 X12.4 Y-3.32 Z-0.811 I0.4 J-0.32
N550 X11.6 Y-2.68 Z-0.867 I-0.4 J0.32
N555 X12.4 Y-3.32 Z-0.924 I0.4 J-0.32
N560 X11.6 Y-2.68 Z-0.98 I-0.4 J0.32
N565 X12.4 Y-3.32 Z-1.036 I0.4 J-0.32
N570 X11.6 Y-2.68 Z-1.092 I-0.4 J0.32
N575 X12.4 Y-3.32 Z-1.149 I0.4 J-0.32
N580 X11.6 Y-2.68 Z-1.205 I-0.4 J0.32
N585 X12.4 Y-3.32 Z-1.261 I0.4 J-0.32
N590 X11.6 Y-2.68 Z-1.317 I-0.4 J0.32
N595 X12.4 Y-3.32 Z-1.373 I0.4 J-0.32
N600 X11.6 Y-2.68 Z-1.43 I-0.4 J0.32
N605 X12.4 Y-3.32 Z-1.486 I0.4 J-0.32
N610 X11.6 Y-2.68 Z-1.542 I-0.4 J0.32
N615 X12.4 Y-3.32 Z-1.598 I0.4 J-0.32
N620 X11.6 Y-2.68 Z-1.655 I-0.4 J0.32
N625 X12.4 Y-3.32 Z-1.711 I0.4 J-0.32
N630 X11.6 Y-2.68 Z-1.767 I-0.4 J0.32
N635 X12.4 Y-3.32 Z-1.823 I0.4 J-0.32
N640 X11.6 Y-2.68 Z-1.88 I-0.4 J0.32
N645 X12.4 Y-3.32 Z-1.936 I0.4 J-0.32
N650 X11.6 Y-2.68 Z-1.992 I-0.4 J0.32
N655 X12.4 Y-3.32 Z-2.048 I0.4 J-0.32
N660 X11.6 Y-2.68 Z-2.104 I-0.4 J0.32
N665 X12.4 Y-3.32 Z-2.161 I0.4 J-0.32
N670 X11.6 Y-2.68 Z-2.217 I-0.4 J0.32
N675 X12.4 Y-3.32 Z-2.273 I0.4 J-0.32
N680 X11.6 Y-2.68 Z-2.329 I-0.4 J0.32
N685 X12.4 Y-3.32 Z-2.386 I0.4 J-0.32
N690 X11.6 Y-2.68 Z-2.442 I-0.4 J0.32
N695 X12.4 Y-3.32 Z-2.498 I0.4 J-0.32
N700 X11.6 Y-2.68 Z-2.554 I-0.4 J0.32
N705 X12.4 Y-3.32 Z-2.61 I0.4 J-0.32
N710 X11.6 Y-2.68 Z-2.667 I-0.4 J0.32
N715 X12.4 Y-3.32 Z-2.723 I0.4 J-0.32
N720 X11.6 Y-2.68 Z-2.779 I-0.4 J0.32
N725 X12.4 Y-3.32 Z-2.835 I0.4 J-0.32
N730 X11.6 Y-2.68 Z-2.892 I-0.4 J0.32
N735 X12.4 Y-3.32 Z-2.948 I0.4 J-0.32
N740 X11.6 Y-2.68 Z-3.004 I-0.4 J0.32
N745 X12.4 Y-3.32 Z-3.06 I0.4 J-0.32
N750 X11.6 Y-2.68 Z-3.116 I-0.4 J0.32
N755 X12.4 Y-3.32 Z-3.173 I0.4 J-0.32
N760 X11.6 Y-2.68 Z-3.229 I-0.4 J0.32
N765 X12.4 Y-3.32 Z-3.285 I0.4 J-0.32
N770 X11.6 Y-2.68 Z-3.341 I-0.4 J0.32
N775 X12.4 Y-3.32 Z-3.398 I0.4 J-0.32
N780 X11.6 Y-2.68 Z-3.454 I-0.4 J0.32
N785 X12.4 Y-3.32 Z-3.51 I0.4 J-0.32
N790 X11.6 Y-2.68 Z-3.566 I-0.4 J0.32
N795 X12.4 Y-3.32 Z-3.622 I0.4 J-0.32
N800 X11.6 Y-2.68 Z-3.679 I-0.4 J0.32
N805 X12.4 Y-3.32 Z-3.735 I0.4 J-0.32
N810 X11.6 Y-2.68 Z-3.791 I-0.4 J0.32
N815 X12.4 Y-3.32 Z-3.847 I0.4 J-0.32
N820 X11.6 Y-2.68 Z-3.904 I-0.4 J0.32
N825 X12.4 Y-3.32 Z-3.96 I0.4 J-0.32
N830 X11.6 Y-2.68 Z-4.016 I-0.4 J0.32
N835 X12.4 Y-3.32 Z-4.072 I0.4 J-0.32
N840 X11.6 Y-2.68 Z-4.128 I-0.4 J0.32
N845 X12.4 Y-3.32 Z-4.185 I0.4 J-0.32
N850 X11.6 Y-2.68 Z-4.241 I-0.4 J0.32
N855 X12.4 Y-3.32 Z-4.297 I0.4 J-0.32
N860 X11.6 Y-2.68 Z-4.353 I-0.4 J0.32
N865 X12.4 Y-3.32 Z-4.41 I0.4 J-0.32
N870 X11.6 Y-2.68 Z-4.466 I-0.4 J0.32
N875 X12.4 Y-3.32 Z-4.522 I0.4 J-0.32
N880 X11.6 Y-2.68 Z-4.578 I-0.4 J0.32
N885 X12.4 Y-3.32 Z-4.635 I0.4 J-0.32
N890 X11.6 Y-2.68 Z-4.691 I-0.4 J0.32
N895 X12.4 Y-3.32 Z-4.747 I0.4 J-0.32
N900 X11.6 Y-2.68 Z-4.803 I-0.4 J0.32
N905 X12.4 Y-3.32 Z-4.859 I0.4 J-0.32
N910 X11.6 Y-2.68 Z-4.916 I-0.4 J0.32
N915 X12.4 Y-3.32 Z-4.972 I0.4 J-0.32
N920 X11.6 Y-2.68 Z-5.028 I-0.4 J0.32
N925 X12.4 Y-3.32 Z-5.084 I0.4 J-0.32
N930 X11.6 Y-2.68 Z-5.141 I-0.4 J0.32
N935 X12.4 Y-3.32 Z-5.197 I0.4 J-0.32
N940 X11.6 Y-2.68 Z-5.253 I-0.4 J0.32
N945 X12.4 Y-3.32 Z-5.309 I0.4 J-0.32
N950 X11.6 Y-2.68 Z-5.365 I-0.4 J0.32
N955 X12.4 Y-3.32 Z-5.422 I0.4 J-0.32
N960 X11.6 Y-2.68 Z-5.478 I-0.4 J0.32
N965 X12.4 Y-3.32 Z-5.534 I0.4 J-0.32
N970 X11.6 Y-2.68 Z-5.59 I-0.4 J0.32
N975 X12.4 Y-3.32 Z-5.647 I0.4 J-0.32
N980 X11.6 Y-2.68 Z-5.703 I-0.4 J0.32
N985 X12.4 Y-3.32 Z-5.759 I0.4 J-0.32
N990 X11.6 Y-2.68 Z-5.815 I-0.4 J0.32
N995 X12.4 Y-3.32 Z-5.871 I0.4 J-0.32
N1000 X11.6 Y-2.68 Z-5.928 I-0.4 J0.32
N1005 X12.4 Y-3.32 Z-5.984 I0.4 J-0.32
N1010 X11.6 Y-2.68 Z-6.04 I-0.4 J0.32
N1015 X12.4 Y-3.32 Z-6.096 I0.4 J-0.32
N1020 X11.6 Y-2.68 Z-6.153 I-0.4 J0.32
N1025 X12.4 Y-3.32 Z-6.209 I0.4 J-0.32
N1030 X11.6 Y-2.68 Z-6.265 I-0.4 J0.32
N1035 X12.4 Y-3.32 Z-6.321 I0.4 J-0.32
N1040 X11.6 Y-2.68 Z-6.377 I-0.4 J0.32
N1045 X12.4 Y-3.32 Z-6.434 I0.4 J-0.32
N1050 X11.6 Y-2.68 Z-6.49 I-0.4 J0.32
N1055 X12.4 Y-3.32 Z-6.546 I0.4 J-0.32
N1060 X11.6 Y-2.68 Z-6.602 I-0.4 J0.32
N1065 X12.4 Y-3.32 Z-6.659 I0.4 J-0.32
N1070 X11.6 Y-2.68 Z-6.715 I-0.4 J0.32
N1075 X12.4 Y-3.32 Z-6.771 I0.4 J-0.32
N1080 X11.6 Y-2.68 Z-6.827 I-0.4 J0.32
N1085 X12.4 Y-3.32 Z-6.884 I0.4 J-0.32
N1090 X11.6 Y-2.68 Z-6.94 I-0.4 J0.32
N1095 X12.4 Y-3.32 Z-6.996 I0.4 J-0.32
N1100 X11.6 Y-2.68 Z-7.052 I-0.4 J0.32
N1105 X12.4 Y-3.32 Z-7.108 I0.4 J-0.32
N1110 X11.6 Y-2.68 Z-7.165 I-0.4 J0.32
N1115 X12.4 Y-3.32 Z-7.221 I0.4 J-0.32
N1120 X11.6 Y-2.68 Z-7.277 I-0.4 J0.32
N1125 X12.4 Y-3.32 Z-7.333 I0.4 J-0.32
N1130 X11.6 Y-2.68 Z-7.39 I-0.4 J0.32
N1135 X12.4 Y-3.32 Z-7.446 I0.4 J-0.32
N1140 X11.6 Y-2.68 Z-7.502 I-0.4 J0.32
N1145 X12.4 Y-3.32 Z-7.558 I0.4 J-0.32
N1150 X11.6 Y-2.68 Z-7.614 I-0.4 J0.32
N1155 X12.4 Y-3.32 Z-7.671 I0.4 J-0.32
N1160 X11.6 Y-2.68 Z-7.727 I-0.4 J0.32
N1165 X12.4 Y-3.32 Z-7.783 I0.4 J-0.32
N1170 X11.6 Y-2.68 Z-7.839 I-0.4 J0.32
N1175 X12.4 Y-3.32 Z-7.896 I0.4 J-0.32
N1180 X11.6 Y-2.68 Z-7.952 I-0.4 J0.32
N1185 X12.4 Y-3.32 Z-8.008 I0.4 J-0.32
N1190 X11.6 Y-2.68 Z-8.064 I-0.4 J0.32
N1195 X12.4 Y-3.32 Z-8.12 I0.4 J-0.32
N1200 X11.6 Y-2.68 Z-8.177 I-0.4 J0.32
N1205 X12.4 Y-3.32 Z-8.233 I0.4 J-0.32
N1210 X11.6 Y-2.68 Z-8.289 I-0.4 J0.32
N1215 X12.4 Y-3.32 Z-8.345 I0.4 J-0.32
N1220 X11.6 Y-2.68 Z-8.402 I-0.4 J0.32
N1225 X12.4 Y-3.32 Z-8.458 I0.4 J-0.32
N1230 X11.6 Y-2.68 Z-8.514 I-0.4 J0.32
N1235 X12.4 Y-3.32 Z-8.57 I0.4 J-0.32
N1240 X11.6 Y-2.68 Z-8.626 I-0.4 J0.32
N1245 X12.4 Y-3.32 Z-8.683 I0.4 J-0.32
N1250 X11.6 Y-2.68 Z-8.739 I-0.4 J0.32
N1255 X12.4 Y-3.32 Z-8.795 I0.4 J-0.32
N1260 X11.6 Y-2.68 Z-8.851 I-0.4 J0.32
N1265 X12.4 Y-3.32 Z-8.908 I0.4 J-0.32
N1270 X11.6 Y-2.68 Z-8.964 I-0.4 J0.32
N1275 X12.4 Y-3.32 Z-9.02 I0.4 J-0.32
N1280 X11.6 Y-2.68 Z-9.076 I-0.4 J0.32
N1285 X12.4 Y-3.32 Z-9.133 I0.4 J-0.32
N1290 X11.6 Y-2.68 Z-9.189 I-0.4 J0.32
N1295 X12.4 Y-3.32 Z-9.245 I0.4 J-0.32
N1300 X11.6 Y-2.68 Z-9.301 I-0.4 J0.32
N1305 X12.4 Y-3.32 Z-9.357 I0.4 J-0.32
N1310 X11.6 Y-2.68 Z-9.414 I-0.4 J0.32
N1315 X12.4 Y-3.32 Z-9.47 I0.4 J-0.32
N1320 X11.6 Y-2.68 Z-9.526 I-0.4 J0.32
N1325 X12.4 Y-3.32 Z-9.582 I0.4 J-0.32
N1330 X11.6 Y-2.68 Z-9.639 I-0.4 J0.32
N1335 X12.4 Y-3.32 Z-9.695 I0.4 J-0.32
N1340 X11.6 Y-2.68 Z-9.751 I-0.4 J0.32
N1345 X12.4 Y-3.32 Z-9.807 I0.4 J-0.32
N1350 X11.6 Y-2.68 Z-9.863 I-0.4 J0.32
N1355 X12.4 Y-3.32 Z-9.92 I0.4 J-0.32
N1360 X11.6 Y-2.68 Z-9.976 I-0.4 J0.32
N1365 X12.4 Y-3.32 Z-10.032 I0.4 J-0.32
N1370 X11.6 Y-2.68 Z-10.088 I-0.4 J0.32
N1375 X12.4 Y-3.32 Z-10.145 I0.4 J-0.32
N1380 X11.6 Y-2.68 Z-10.201 I-0.4 J0.32
N1385 X12.4 Y-3.32 Z-10.257 I0.4 J-0.32
N1390 X11.6 Y-2.68 Z-10.313 I-0.4 J0.32
N1395 X12.4 Y-3.32 Z-10.369 I0.4 J-0.32
N1400 X11.6 Y-2.68 Z-10.426 I-0.4 J0.32
N1405 X12.4 Y-3.32 Z-10.482 I0.4 J-0.32
N1410 X11.6 Y-2.68 Z-10.538 I-0.4 J0.32
N1415 X12.4 Y-3.32 Z-10.594 I0.4 J-0.32
N1420 X11.6 Y-2.68 Z-10.651 I-0.4 J0.32
N1425 X12.4 Y-3.32 Z-10.707 I0.4 J-0.32
N1430 X11.6 Y-2.68 Z-10.763 I-0.4 J0.32
N1435 X12.4 Y-3.32 Z-10.819 I0.4 J-0.32
N1440 X11.6 Y-2.68 Z-10.875 I-0.4 J0.32
N1445 X12.4 Y-3.32 Z-10.932 I0.4 J-0.32
N1450 X11.6 Y-2.68 Z-10.988 I-0.4 J0.32
N1455 X11.488 Y-3. Z-11. I0.4 J-0.32
N1460 X12.012 I0.262 J0.
N1465 X11.988 I-0.012 J0. F600.
N1470 X12.113 I0.063 J0.
N1475 X11.887 I-0.113 J0.
N1480 X12.212 I0.163 J0.
N1485 X11.788 I-0.212 J0.
N1490 X12.313 I0.262 J0.
N1495 X11.688 I-0.313 J0.
N1500 X12.413 I0.363 J0.
N1505 X11.587 I-0.413 J0.
N1510 X12.512 I0.463 J0.
N1515 X11.488 I-0.512 J0.
N1520 X12.512 I0.512 J0.
N1525 X12.509 Y-2.951 Z-10.996 I-0.318 J0.
N1530 X12.497 Y-2.903 Z-10.984 I-0.314 J-0.049
N1535 X12.48 Y-2.861 Z-10.965 I-0.302 J-0.097
N1540 X12.459 Y-2.824 Z-10.939 I-0.285 J-0.139
N1545 X12.436 Y-2.794 Z-10.907 I-0.264 J-0.176
N1550 X12.414 Y-2.77 Z-10.869 I-0.241 J-0.206
N1555 X12.395 Y-2.753 Z-10.827 I-0.219 J-0.23
N1560 X12.379 Y-2.742 Z-10.781 I-0.2 J-0.247
N1565 X12.37 Y-2.735 Z-10.732 I-0.184 J-0.258
N1570 G1 X12.367 Y-2.733 Z-10.682
N1575 G0 Z5.
N1580 X4.15 Y-3.49
N1585 Z2.318
N1590 G1 Z2.317 F600.
N1595 X4.153 Y-3.489 Z2.273 F500.
N1600 X4.162 Y-3.486 Z2.23
N1605 G3 X4.176 Y-3.481 Z2.189 I-0.162 J0.486
N1610 X4.195 Y-3.474 Z2.15 I-0.176 J0.481
N1615 X4.219 Y-3.463 Z2.114 I-0.195 J0.474
N1620 X4.246 Y-3.449 Z2.082 I-0.219 J0.463
N1625 X4.276 Y-3.432 Z2.055 I-0.246 J0.449
N1630 X4.307 Y-3.41 Z2.033 I-0.276 J0.432
N1635 X4.34 Y-3.384 Z2.016 I-0.307 J0.41
N1640 X4.371 Y-3.354 Z2.005 I-0.34 J0.384
N1645 X4.4 Y-3.32 Z2. I-0.371 J0.354
N1650 X3.6 Y-2.68 Z1.944 I-0.4 J0.32
N1655 X4.4 Y-3.32 Z1.888 I0.4 J-0.32
N1660 X3.6 Y-2.68 Z1.831 I-0.4 J0.32
N1665 X4.4 Y-3.32 Z1.775 I0.4 J-0.32
N1670 X3.6 Y-2.68 Z1.719 I-0.4 J0.32
N1675 X4.4 Y-3.32 Z1.663 I0.4 J-0.32
N1680 X3.6 Y-2.68 Z1.606 I-0.4 J0.32
N1685 X4.4 Y-3.32 Z1.55 I0.4 J-0.32
N1690 X3.6 Y-2.68 Z1.494 I-0.4 J0.32
N1695 X4.4 Y-3.32 Z1.438 I0.4 J-0.32
N1700 X3.6 Y-2.68 Z1.382 I-0.4 J0.32
N1705 X4.4 Y-3.32 Z1.325 I0.4 J-0.32
N1710 X3.6 Y-2.68 Z1.269 I-0.4 J0.32
N1715 X4.4 Y-3.32 Z1.213 I0.4 J-0.32
N1720 X3.6 Y-2.68 Z1.157 I-0.4 J0.32
N1725 X4.4 Y-3.32 Z1.1 I0.4 J-0.32
N1730 X3.6 Y-2.68 Z1.044 I-0.4 J0.32
N1735 X4.4 Y-3.32 Z0.988 I0.4 J-0.32
N1740 X3.6 Y-2.68 Z0.932 I-0.4 J0.32
N1745 X4.4 Y-3.32 Z0.876 I0.4 J-0.32
N1750 X3.6 Y-2.68 Z0.819 I-0.4 J0.32
N1755 X4.4 Y-3.32 Z0.763 I0.4 J-0.32
N1760 X3.6 Y-2.68 Z0.707 I-0.4 J0.32
N1765 X4.4 Y-3.32 Z0.651 I0.4 J-0.32
N1770 X3.6 Y-2.68 Z0.594 I-0.4 J0.32
N1775 X4.4 Y-3.32 Z0.538 I0.4 J-0.32
N1780 X3.6 Y-2.68 Z0.482 I-0.4 J0.32
N1785 X4.4 Y-3.32 Z0.426 I0.4 J-0.32
N1790 X3.6 Y-2.68 Z0.369 I-0.4 J0.32
N1795 X4.4 Y-3.32 Z0.313 I0.4 J-0.32
N1800 X3.6 Y-2.68 Z0.257 I-0.4 J0.32
N1805 X4.4 Y-3.32 Z0.201 I0.4 J-0.32
N1810 X3.6 Y-2.68 Z0.145 I-0.4 J0.32
N1815 X4.4 Y-3.32 Z0.088 I0.4 J-0.32
N1820 X3.6 Y-2.68 Z0.032 I-0.4 J0.32
N1825 X4.4 Y-3.32 Z-0.024 I0.4 J-0.32
N1830 X3.6 Y-2.68 Z-0.08 I-0.4 J0.32
N1835 X4.4 Y-3.32 Z-0.137 I0.4 J-0.32
N1840 X3.6 Y-2.68 Z-0.193 I-0.4 J0.32
N1845 X4.4 Y-3.32 Z-0.249 I0.4 J-0.32
N1850 X3.6 Y-2.68 Z-0.305 I-0.4 J0.32
N1855 X4.4 Y-3.32 Z-0.361 I0.4 J-0.32
N1860 X3.6 Y-2.68 Z-0.418 I-0.4 J0.32
N1865 X4.4 Y-3.32 Z-0.474 I0.4 J-0.32
N1870 X3.6 Y-2.68 Z-0.53 I-0.4 J0.32
N1875 X4.4 Y-3.32 Z-0.586 I0.4 J-0.32
N1880 X3.6 Y-2.68 Z-0.643 I-0.4 J0.32
N1885 X4.4 Y-3.32 Z-0.699 I0.4 J-0.32
N1890 X3.6 Y-2.68 Z-0.755 I-0.4 J0.32
N1895 X4.4 Y-3.32 Z-0.811 I0.4 J-0.32
N1900 X3.6 Y-2.68 Z-0.867 I-0.4 J0.32
N1905 X4.4 Y-3.32 Z-0.924 I0.4 J-0.32
N1910 X3.6 Y-2.68 Z-0.98 I-0.4 J0.32
N1915 X4.4 Y-3.32 Z-1.036 I0.4 J-0.32
N1920 X3.6 Y-2.68 Z-1.092 I-0.4 J0.32
N1925 X4.4 Y-3.32 Z-1.149 I0.4 J-0.32
N1930 X3.6 Y-2.68 Z-1.205 I-0.4 J0.32
N1935 X4.4 Y-3.32 Z-1.261 I0.4 J-0.32
N1940 X3.6 Y-2.68 Z-1.317 I-0.4 J0.32
N1945 X4.4 Y-3.32 Z-1.373 I0.4 J-0.32
N1950 X3.6 Y-2.68 Z-1.43 I-0.4 J0.32
N1955 X4.4 Y-3.32 Z-1.486 I0.4 J-0.32
N1960 X3.6 Y-2.68 Z-1.542 I-0.4 J0.32
N1965 X4.4 Y-3.32 Z-1.598 I0.4 J-0.32
N1970 X3.6 Y-2.68 Z-1.655 I-0.4 J0.32
N1975 X4.4 Y-3.32 Z-1.711 I0.4 J-0.32
N1980 X3.6 Y-2.68 Z-1.767 I-0.4 J0.32
N1985 X4.4 Y-3.32 Z-1.823 I0.4 J-0.32
N1990 X3.6 Y-2.68 Z-1.88 I-0.4 J0.32
N1995 X4.4 Y-3.32 Z-1.936 I0.4 J-0.32
N2000 X3.6 Y-2.68 Z-1.992 I-0.4 J0.32
N2005 X4.4 Y-3.32 Z-2.048 I0.4 J-0.32
N2010 X3.6 Y-2.68 Z-2.104 I-0.4 J0.32
N2015 X4.4 Y-3.32 Z-2.161 I0.4 J-0.32
N2020 X3.6 Y-2.68 Z-2.217 I-0.4 J0.32
N2025 X4.4 Y-3.32 Z-2.273 I0.4 J-0.32
N2030 X3.6 Y-2.68 Z-2.329 I-0.4 J0.32
N2035 X4.4 Y-3.32 Z-2.386 I0.4 J-0.32
N2040 X3.6 Y-2.68 Z-2.442 I-0.4 J0.32
N2045 X4.4 Y-3.32 Z-2.498 I0.4 J-0.32
N2050 X3.6 Y-2.68 Z-2.554 I-0.4 J0.32
N2055 X4.4 Y-3.32 Z-2.61 I0.4 J-0.32
N2060 X3.6 Y-2.68 Z-2.667 I-0.4 J0.32
N2065 X4.4 Y-3.32 Z-2.723 I0.4 J-0.32
N2070 X3.6 Y-2.68 Z-2.779 I-0.4 J0.32
N2075 X4.4 Y-3.32 Z-2.835 I0.4 J-0.32
N2080 X3.6 Y-2.68 Z-2.892 I-0.4 J0.32
N2085 X4.4 Y-3.32 Z-2.948 I0.4 J-0.32
N2090 X3.6 Y-2.68 Z-3.004 I-0.4 J0.32
N2095 X4.4 Y-3.32 Z-3.06 I0.4 J-0.32
N2100 X3.6 Y-2.68 Z-3.116 I-0.4 J0.32
N2105 X4.4 Y-3.32 Z-3.173 I0.4 J-0.32
N2110 X3.6 Y-2.68 Z-3.229 I-0.4 J0.32
N2115 X4.4 Y-3.32 Z-3.285 I0.4 J-0.32
N2120 X3.6 Y-2.68 Z-3.341 I-0.4 J0.32
N2125 X4.4 Y-3.32 Z-3.398 I0.4 J-0.32
N2130 X3.6 Y-2.68 Z-3.454 I-0.4 J0.32
N2135 X4.4 Y-3.32 Z-3.51 I0.4 J-0.32
N2140 X3.6 Y-2.68 Z-3.566 I-0.4 J0.32
N2145 X4.4 Y-3.32 Z-3.622 I0.4 J-0.32
N2150 X3.6 Y-2.68 Z-3.679 I-0.4 J0.32
N2155 X4.4 Y-3.32 Z-3.735 I0.4 J-0.32
N2160 X3.6 Y-2.68 Z-3.791 I-0.4 J0.32
N2165 X4.4 Y-3.32 Z-3.847 I0.4 J-0.32
N2170 X3.6 Y-2.68 Z-3.904 I-0.4 J0.32
N2175 X4.4 Y-3.32 Z-3.96 I0.4 J-0.32
N2180 X3.6 Y-2.68 Z-4.016 I-0.4 J0.32
N2185 X4.4 Y-3.32 Z-4.072 I0.4 J-0.32
N2190 X3.6 Y-2.68 Z-4.128 I-0.4 J0.32
N2195 X4.4 Y-3.32 Z-4.185 I0.4 J-0.32
N2200 X3.6 Y-2.68 Z-4.241 I-0.4 J0.32
N2205 X4.4 Y-3.32 Z-4.297 I0.4 J-0.32
N2210 X3.6 Y-2.68 Z-4.353 I-0.4 J0.32
N2215 X4.4 Y-3.32 Z-4.41 I0.4 J-0.32
N2220 X3.6 Y-2.68 Z-4.466 I-0.4 J0.32
N2225 X4.4 Y-3.32 Z-4.522 I0.4 J-0.32
N2230 X3.6 Y-2.68 Z-4.578 I-0.4 J0.32
N2235 X4.4 Y-3.32 Z-4.635 I0.4 J-0.32
N2240 X3.6 Y-2.68 Z-4.691 I-0.4 J0.32
N2245 X4.4 Y-3.32 Z-4.747 I0.4 J-0.32
N2250 X3.6 Y-2.68 Z-4.803 I-0.4 J0.32
N2255 X4.4 Y-3.32 Z-4.859 I0.4 J-0.32
N2260 X3.6 Y-2.68 Z-4.916 I-0.4 J0.32
N2265 X4.4 Y-3.32 Z-4.972 I0.4 J-0.32
N2270 X3.6 Y-2.68 Z-5.028 I-0.4 J0.32
N2275 X4.4 Y-3.32 Z-5.084 I0.4 J-0.32
N2280 X3.6 Y-2.68 Z-5.141 I-0.4 J0.32
N2285 X4.4 Y-3.32 Z-5.197 I0.4 J-0.32
N2290 X3.6 Y-2.68 Z-5.253 I-0.4 J0.32
N2295 X4.4 Y-3.32 Z-5.309 I0.4 J-0.32
N2300 X3.6 Y-2.68 Z-5.365 I-0.4 J0.32
N2305 X4.4 Y-3.32 Z-5.422 I0.4 J-0.32
N2310 X3.6 Y-2.68 Z-5.478 I-0.4 J0.32
N2315 X4.4 Y-3.32 Z-5.534 I0.4 J-0.32
N2320 X3.6 Y-2.68 Z-5.59 I-0.4 J0.32
N2325 X4.4 Y-3.32 Z-5.647 I0.4 J-0.32
N2330 X3.6 Y-2.68 Z-5.703 I-0.4 J0.32
N2335 X4.4 Y-3.32 Z-5.759 I0.4 J-0.32
N2340 X3.6 Y-2.68 Z-5.815 I-0.4 J0.32
N2345 X4.4 Y-3.32 Z-5.871 I0.4 J-0.32
N2350 X3.6 Y-2.68 Z-5.928 I-0.4 J0.32
N2355 X4.4 Y-3.32 Z-5.984 I0.4 J-0.32
N2360 X3.6 Y-2.68 Z-6.04 I-0.4 J0.32
N2365 X4.4 Y-3.32 Z-6.096 I0.4 J-0.32
N2370 X3.6 Y-2.68 Z-6.153 I-0.4 J0.32
N2375 X4.4 Y-3.32 Z-6.209 I0.4 J-0.32
N2380 X3.6 Y-2.68 Z-6.265 I-0.4 J0.32
N2385 X4.4 Y-3.32 Z-6.321 I0.4 J-0.32
N2390 X3.6 Y-2.68 Z-6.377 I-0.4 J0.32
N2395 X4.4 Y-3.32 Z-6.434 I0.4 J-0.32
N2400 X3.6 Y-2.68 Z-6.49 I-0.4 J0.32
N2405 X4.4 Y-3.32 Z-6.546 I0.4 J-0.32
N2410 X3.6 Y-2.68 Z-6.602 I-0.4 J0.32
N2415 X4.4 Y-3.32 Z-6.659 I0.4 J-0.32
N2420 X3.6 Y-2.68 Z-6.715 I-0.4 J0.32
N2425 X4.4 Y-3.32 Z-6.771 I0.4 J-0.32
N2430 X3.6 Y-2.68 Z-6.827 I-0.4 J0.32
N2435 X4.4 Y-3.32 Z-6.884 I0.4 J-0.32
N2440 X3.6 Y-2.68 Z-6.94 I-0.4 J0.32
N2445 X4.4 Y-3.32 Z-6.996 I0.4 J-0.32
N2450 X3.6 Y-2.68 Z-7.052 I-0.4 J0.32
N2455 X4.4 Y-3.32 Z-7.108 I0.4 J-0.32
N2460 X3.6 Y-2.68 Z-7.165 I-0.4 J0.32
N2465 X4.4 Y-3.32 Z-7.221 I0.4 J-0.32
N2470 X3.6 Y-2.68 Z-7.277 I-0.4 J0.32
N2475 X4.4 Y-3.32 Z-7.333 I0.4 J-0.32
N2480 X3.6 Y-2.68 Z-7.39 I-0.4 J0.32
N2485 X4.4 Y-3.32 Z-7.446 I0.4 J-0.32
N2490 X3.6 Y-2.68 Z-7.502 I-0.4 J0.32
N2495 X4.4 Y-3.32 Z-7.558 I0.4 J-0.32
N2500 X3.6 Y-2.68 Z-7.614 I-0.4 J0.32
N2505 X4.4 Y-3.32 Z-7.671 I0.4 J-0.32
N2510 X3.6 Y-2.68 Z-7.727 I-0.4 J0.32
N2515 X4.4 Y-3.32 Z-7.783 I0.4 J-0.32
N2520 X3.6 Y-2.68 Z-7.839 I-0.4 J0.32
N2525 X4.4 Y-3.32 Z-7.896 I0.4 J-0.32
N2530 X3.6 Y-2.68 Z-7.952 I-0.4 J0.32
N2535 X4.4 Y-3.32 Z-8.008 I0.4 J-0.32
N2540 X3.6 Y-2.68 Z-8.064 I-0.4 J0.32
N2545 X4.4 Y-3.32 Z-8.12 I0.4 J-0.32
N2550 X3.6 Y-2.68 Z-8.177 I-0.4 J0.32
N2555 X4.4 Y-3.32 Z-8.233 I0.4 J-0.32
N2560 X3.6 Y-2.68 Z-8.289 I-0.4 J0.32
N2565 X4.4 Y-3.32 Z-8.345 I0.4 J-0.32
N2570 X3.6 Y-2.68 Z-8.402 I-0.4 J0.32
N2575 X4.4 Y-3.32 Z-8.458 I0.4 J-0.32
N2580 X3.6 Y-2.68 Z-8.514 I-0.4 J0.32
N2585 X4.4 Y-3.32 Z-8.57 I0.4 J-0.32
N2590 X3.6 Y-2.68 Z-8.626 I-0.4 J0.32
N2595 X4.4 Y-3.32 Z-8.683 I0.4 J-0.32
N2600 X3.6 Y-2.68 Z-8.739 I-0.4 J0.32
N2605 X4.4 Y-3.32 Z-8.795 I0.4 J-0.32
N2610 X3.6 Y-2.68 Z-8.851 I-0.4 J0.32
N2615 X4.4 Y-3.32 Z-8.908 I0.4 J-0.32
N2620 X3.6 Y-2.68 Z-8.964 I-0.4 J0.32
N2625 X4.4 Y-3.32 Z-9.02 I0.4 J-0.32
N2630 X3.6 Y-2.68 Z-9.076 I-0.4 J0.32
N2635 X4.4 Y-3.32 Z-9.133 I0.4 J-0.32
N2640 X3.6 Y-2.68 Z-9.189 I-0.4 J0.32
N2645 X4.4 Y-3.32 Z-9.245 I0.4 J-0.32
N2650 X3.6 Y-2.68 Z-9.301 I-0.4 J0.32
N2655 X4.4 Y-3.32 Z-9.357 I0.4 J-0.32
N2660 X3.6 Y-2.68 Z-9.414 I-0.4 J0.32
N2665 X4.4 Y-3.32 Z-9.47 I0.4 J-0.32
N2670 X3.6 Y-2.68 Z-9.526 I-0.4 J0.32
N2675 X4.4 Y-3.32 Z-9.582 I0.4 J-0.32
N2680 X3.6 Y-2.68 Z-9.639 I-0.4 J0.32
N2685 X4.4 Y-3.32 Z-9.695 I0.4 J-0.32
N2690 X3.6 Y-2.68 Z-9.751 I-0.4 J0.32
N2695 X4.4 Y-3.32 Z-9.807 I0.4 J-0.32
N2700 X3.6 Y-2.68 Z-9.863 I-0.4 J0.32
N2705 X4.4 Y-3.32 Z-9.92 I0.4 J-0.32
N2710 X3.6 Y-2.68 Z-9.976 I-0.4 J0.32
N2715 X4.4 Y-3.32 Z-10.032 I0.4 J-0.32
N2720 X3.6 Y-2.68 Z-10.088 I-0.4 J0.32
N2725 X4.4 Y-3.32 Z-10.145 I0.4 J-0.32
N2730 X3.6 Y-2.68 Z-10.201 I-0.4 J0.32
N2735 X4.4 Y-3.32 Z-10.257 I0.4 J-0.32
N2740 X3.6 Y-2.68 Z-10.313 I-0.4 J0.32
N2745 X4.4 Y-3.32 Z-10.369 I0.4 J-0.32
N2750 X3.6 Y-2.68 Z-10.426 I-0.4 J0.32
N2755 X4.4 Y-3.32 Z-10.482 I0.4 J-0.32
N2760 X3.6 Y-2.68 Z-10.538 I-0.4 J0.32
N2765 X4.4 Y-3.32 Z-10.594 I0.4 J-0.32
N2770 X3.6 Y-2.68 Z-10.651 I-0.4 J0.32
N2775 X4.4 Y-3.32 Z-10.707 I0.4 J-0.32
N2780 X3.6 Y-2.68 Z-10.763 I-0.4 J0.32
N2785 X4.4 Y-3.32 Z-10.819 I0.4 J-0.32
N2790 X3.6 Y-2.68 Z-10.875 I-0.4 J0.32
N2795 X4.4 Y-3.32 Z-10.932 I0.4 J-0.32
N2800 X3.6 Y-2.68 Z-10.988 I-0.4 J0.32
N2805 X3.487 Y-3. Z-11. I0.4 J-0.32
N2810 X4.012 I0.263 J0.
N2815 X3.987 I-0.012 J0. F600.
N2820 X4.113 I0.063 J0.
N2825 X3.888 I-0.113 J0.
N2830 X4.213 I0.163 J0.
N2835 X3.787 I-0.213 J0.
N2840 X4.313 I0.263 J0.
N2845 X3.688 I-0.313 J0.
N2850 X4.412 I0.363 J0.
N2855 X3.588 I-0.412 J0.
N2860 X4.512 I0.463 J0.
N2865 X3.488 I-0.512 J0.
N2870 X4.512 I0.512 J0.
N2875 X4.509 Y-2.951 Z-10.996 I-0.317 J0.
N2880 X4.497 Y-2.903 Z-10.984 I-0.314 J-0.049
N2885 X4.48 Y-2.861 Z-10.965 I-0.302 J-0.097
N2890 X4.459 Y-2.824 Z-10.939 I-0.285 J-0.139
N2895 X4.436 Y-2.794 Z-10.907 I-0.264 J-0.176
N2900 X4.414 Y-2.77 Z-10.869 I-0.241 J-0.206
N2905 X4.395 Y-2.753 Z-10.827 I-0.219 J-0.23
N2910 X4.379 Y-2.742 Z-10.781 I-0.2 J-0.247
N2915 X4.37 Y-2.735 Z-10.732 I-0.184 J-0.258
N2920 G1 X4.367 Y-2.733 Z-10.682
N2925 G0 Z5.
N2930 X4.15 Y-12.49
N2935 Z2.318
N2940 G1 Z2.317 F600.
N2945 X4.153 Y-12.489 Z2.273 F500.
N2950 X4.162 Y-12.486 Z2.23
N2955 G3 X4.176 Y-12.481 Z2.189 I-0.162 J0.486
N2960 X4.195 Y-12.474 Z2.15 I-0.176 J0.481
N2965 X4.219 Y-12.463 Z2.114 I-0.195 J0.474
N2970 X4.246 Y-12.449 Z2.082 I-0.219 J0.463
N2975 X4.276 Y-12.432 Z2.055 I-0.246 J0.449
N2980 X4.307 Y-12.41 Z2.033 I-0.276 J0.432
N2985 X4.34 Y-12.384 Z2.016 I-0.307 J0.41
N2990 X4.371 Y-12.354 Z2.005 I-0.34 J0.384
N2995 X4.4 Y-12.32 Z2. I-0.371 J0.354
N3000 X3.6 Y-11.68 Z1.944 I-0.4 J0.32
N3005 X4.4 Y-12.32 Z1.888 I0.4 J-0.32
N3010 X3.6 Y-11.68 Z1.831 I-0.4 J0.32
N3015 X4.4 Y-12.32 Z1.775 I0.4 J-0.32
N3020 X3.6 Y-11.68 Z1.719 I-0.4 J0.32
N3025 X4.4 Y-12.32 Z1.663 I0.4 J-0.32
N3030 X3.6 Y-11.68 Z1.606 I-0.4 J0.32
N3035 X4.4 Y-12.32 Z1.55 I0.4 J-0.32
N3040 X3.6 Y-11.68 Z1.494 I-0.4 J0.32
N3045 X4.4 Y-12.32 Z1.438 I0.4 J-0.32
N3050 X3.6 Y-11.68 Z1.382 I-0.4 J0.32
N3055 X4.4 Y-12.32 Z1.325 I0.4 J-0.32
N3060 X3.6 Y-11.68 Z1.269 I-0.4 J0.32
N3065 X4.4 Y-12.32 Z1.213 I0.4 J-0.32
N3070 X3.6 Y-11.68 Z1.157 I-0.4 J0.32
N3075 X4.4 Y-12.32 Z1.1 I0.4 J-0.32
N3080 X3.6 Y-11.68 Z1.044 I-0.4 J0.32
N3085 X4.4 Y-12.32 Z0.988 I0.4 J-0.32
N3090 X3.6 Y-11.68 Z0.932 I-0.4 J0.32
N3095 X4.4 Y-12.32 Z0.876 I0.4 J-0.32
N3100 X3.6 Y-11.68 Z0.819 I-0.4 J0.32
N3105 X4.4 Y-12.32 Z0.763 I0.4 J-0.32
N3110 X3.6 Y-11.68 Z0.707 I-0.4 J0.32
N3115 X4.4 Y-12.32 Z0.651 I0.4 J-0.32
N3120 X3.6 Y-11.68 Z0.594 I-0.4 J0.32
N3125 X4.4 Y-12.32 Z0.538 I0.4 J-0.32
N3130 X3.6 Y-11.68 Z0.482 I-0.4 J0.32
N3135 X4.4 Y-12.32 Z0.426 I0.4 J-0.32
N3140 X3.6 Y-11.68 Z0.369 I-0.4 J0.32
N3145 X4.4 Y-12.32 Z0.313 I0.4 J-0.32
N3150 X3.6 Y-11.68 Z0.257 I-0.4 J0.32
N3155 X4.4 Y-12.32 Z0.201 I0.4 J-0.32
N3160 X3.6 Y-11.68 Z0.145 I-0.4 J0.32
N3165 X4.4 Y-12.32 Z0.088 I0.4 J-0.32
N3170 X3.6 Y-11.68 Z0.032 I-0.4 J0.32
N3175 X4.4 Y-12.32 Z-0.024 I0.4 J-0.32
N3180 X3.6 Y-11.68 Z-0.08 I-0.4 J0.32
N3185 X4.4 Y-12.32 Z-0.137 I0.4 J-0.32
N3190 X3.6 Y-11.68 Z-0.193 I-0.4 J0.32
N3195 X4.4 Y-12.32 Z-0.249 I0.4 J-0.32
N3200 X3.6 Y-11.68 Z-0.305 I-0.4 J0.32
N3205 X4.4 Y-12.32 Z-0.361 I0.4 J-0.32
N3210 X3.6 Y-11.68 Z-0.418 I-0.4 J0.32
N3215 X4.4 Y-12.32 Z-0.474 I0.4 J-0.32
N3220 X3.6 Y-11.68 Z-0.53 I-0.4 J0.32
N3225 X4.4 Y-12.32 Z-0.586 I0.4 J-0.32
N3230 X3.6 Y-11.68 Z-0.643 I-0.4 J0.32
N3235 X4.4 Y-12.32 Z-0.699 I0.4 J-0.32
N3240 X3.6 Y-11.68 Z-0.755 I-0.4 J0.32
N3245 X4.4 Y-12.32 Z-0.811 I0.4 J-0.32
N3250 X3.6 Y-11.68 Z-0.867 I-0.4 J0.32
N3255 X4.4 Y-12.32 Z-0.924 I0.4 J-0.32
N3260 X3.6 Y-11.68 Z-0.98 I-0.4 J0.32
N3265 X4.4 Y-12.32 Z-1.036 I0.4 J-0.32
N3270 X3.6 Y-11.68 Z-1.092 I-0.4 J0.32
N3275 X4.4 Y-12.32 Z-1.149 I0.4 J-0.32
N3280 X3.6 Y-11.68 Z-1.205 I-0.4 J0.32
N3285 X4.4 Y-12.32 Z-1.261 I0.4 J-0.32
N3290 X3.6 Y-11.68 Z-1.317 I-0.4 J0.32
N3295 X4.4 Y-12.32 Z-1.373 I0.4 J-0.32
N3300 X3.6 Y-11.68 Z-1.43 I-0.4 J0.32
N3305 X4.4 Y-12.32 Z-1.486 I0.4 J-0.32
N3310 X3.6 Y-11.68 Z-1.542 I-0.4 J0.32
N3315 X4.4 Y-12.32 Z-1.598 I0.4 J-0.32
N3320 X3.6 Y-11.68 Z-1.655 I-0.4 J0.32
N3325 X4.4 Y-12.32 Z-1.711 I0.4 J-0.32
N3330 X3.6 Y-11.68 Z-1.767 I-0.4 J0.32
N3335 X4.4 Y-12.32 Z-1.823 I0.4 J-0.32
N3340 X3.6 Y-11.68 Z-1.88 I-0.4 J0.32
N3345 X4.4 Y-12.32 Z-1.936 I0.4 J-0.32
N3350 X3.6 Y-11.68 Z-1.992 I-0.4 J0.32
N3355 X4.4 Y-12.32 Z-2.048 I0.4 J-0.32
N3360 X3.6 Y-11.68 Z-2.104 I-0.4 J0.32
N3365 X4.4 Y-12.32 Z-2.161 I0.4 J-0.32
N3370 X3.6 Y-11.68 Z-2.217 I-0.4 J0.32
N3375 X4.4 Y-12.32 Z-2.273 I0.4 J-0.32
N3380 X3.6 Y-11.68 Z-2.329 I-0.4 J0.32
N3385 X4.4 Y-12.32 Z-2.386 I0.4 J-0.32
N3390 X3.6 Y-11.68 Z-2.442 I-0.4 J0.32
N3395 X4.4 Y-12.32 Z-2.498 I0.4 J-0.32
N3400 X3.6 Y-11.68 Z-2.554 I-0.4 J0.32
N3405 X4.4 Y-12.32 Z-2.61 I0.4 J-0.32
N3410 X3.6 Y-11.68 Z-2.667 I-0.4 J0.32
N3415 X4.4 Y-12.32 Z-2.723 I0.4 J-0.32
N3420 X3.6 Y-11.68 Z-2.779 I-0.4 J0.32
N3425 X4.4 Y-12.32 Z-2.835 I0.4 J-0.32
N3430 X3.6 Y-11.68 Z-2.892 I-0.4 J0.32
N3435 X4.4 Y-12.32 Z-2.948 I0.4 J-0.32
N3440 X3.6 Y-11.68 Z-3.004 I-0.4 J0.32
N3445 X4.4 Y-12.32 Z-3.06 I0.4 J-0.32
N3450 X3.6 Y-11.68 Z-3.116 I-0.4 J0.32
N3455 X4.4 Y-12.32 Z-3.173 I0.4 J-0.32
N3460 X3.6 Y-11.68 Z-3.229 I-0.4 J0.32
N3465 X4.4 Y-12.32 Z-3.285 I0.4 J-0.32
N3470 X3.6 Y-11.68 Z-3.341 I-0.4 J0.32
N3475 X4.4 Y-12.32 Z-3.398 I0.4 J-0.32
N3480 X3.6 Y-11.68 Z-3.454 I-0.4 J0.32
N3485 X4.4 Y-12.32 Z-3.51 I0.4 J-0.32
N3490 X3.6 Y-11.68 Z-3.566 I-0.4 J0.32
N3495 X4.4 Y-12.32 Z-3.622 I0.4 J-0.32
N3500 X3.6 Y-11.68 Z-3.679 I-0.4 J0.32
N3505 X4.4 Y-12.32 Z-3.735 I0.4 J-0.32
N3510 X3.6 Y-11.68 Z-3.791 I-0.4 J0.32
N3515 X4.4 Y-12.32 Z-3.847 I0.4 J-0.32
N3520 X3.6 Y-11.68 Z-3.904 I-0.4 J0.32
N3525 X4.4 Y-12.32 Z-3.96 I0.4 J-0.32
N3530 X3.6 Y-11.68 Z-4.016 I-0.4 J0.32
N3535 X4.4 Y-12.32 Z-4.072 I0.4 J-0.32
N3540 X3.6 Y-11.68 Z-4.128 I-0.4 J0.32
N3545 X4.4 Y-12.32 Z-4.185 I0.4 J-0.32
N3550 X3.6 Y-11.68 Z-4.241 I-0.4 J0.32
N3555 X4.4 Y-12.32 Z-4.297 I0.4 J-0.32
N3560 X3.6 Y-11.68 Z-4.353 I-0.4 J0.32
N3565 X4.4 Y-12.32 Z-4.41 I0.4 J-0.32
N3570 X3.6 Y-11.68 Z-4.466 I-0.4 J0.32
N3575 X4.4 Y-12.32 Z-4.522 I0.4 J-0.32
N3580 X3.6 Y-11.68 Z-4.578 I-0.4 J0.32
N3585 X4.4 Y-12.32 Z-4.635 I0.4 J-0.32
N3590 X3.6 Y-11.68 Z-4.691 I-0.4 J0.32
N3595 X4.4 Y-12.32 Z-4.747 I0.4 J-0.32
N3600 X3.6 Y-11.68 Z-4.803 I-0.4 J0.32
N3605 X4.4 Y-12.32 Z-4.859 I0.4 J-0.32
N3610 X3.6 Y-11.68 Z-4.916 I-0.4 J0.32
N3615 X4.4 Y-12.32 Z-4.972 I0.4 J-0.32
N3620 X3.6 Y-11.68 Z-5.028 I-0.4 J0.32
N3625 X4.4 Y-12.32 Z-5.084 I0.4 J-0.32
N3630 X3.6 Y-11.68 Z-5.141 I-0.4 J0.32
N3635 X4.4 Y-12.32 Z-5.197 I0.4 J-0.32
N3640 X3.6 Y-11.68 Z-5.253 I-0.4 J0.32
N3645 X4.4 Y-12.32 Z-5.309 I0.4 J-0.32
N3650 X3.6 Y-11.68 Z-5.365 I-0.4 J0.32
N3655 X4.4 Y-12.32 Z-5.422 I0.4 J-0.32
N3660 X3.6 Y-11.68 Z-5.478 I-0.4 J0.32
N3665 X4.4 Y-12.32 Z-5.534 I0.4 J-0.32
N3670 X3.6 Y-11.68 Z-5.59 I-0.4 J0.32
N3675 X4.4 Y-12.32 Z-5.647 I0.4 J-0.32
N3680 X3.6 Y-11.68 Z-5.703 I-0.4 J0.32
N3685 X4.4 Y-12.32 Z-5.759 I0.4 J-0.32
N3690 X3.6 Y-11.68 Z-5.815 I-0.4 J0.32
N3695 X4.4 Y-12.32 Z-5.871 I0.4 J-0.32
N3700 X3.6 Y-11.68 Z-5.928 I-0.4 J0.32
N3705 X4.4 Y-12.32 Z-5.984 I0.4 J-0.32
N3710 X3.6 Y-11.68 Z-6.04 I-0.4 J0.32
N3715 X4.4 Y-12.32 Z-6.096 I0.4 J-0.32
N3720 X3.6 Y-11.68 Z-6.153 I-0.4 J0.32
N3725 X4.4 Y-12.32 Z-6.209 I0.4 J-0.32
N3730 X3.6 Y-11.68 Z-6.265 I-0.4 J0.32
N3735 X4.4 Y-12.32 Z-6.321 I0.4 J-0.32
N3740 X3.6 Y-11.68 Z-6.377 I-0.4 J0.32
N3745 X4.4 Y-12.32 Z-6.434 I0.4 J-0.32
N3750 X3.6 Y-11.68 Z-6.49 I-0.4 J0.32
N3755 X4.4 Y-12.32 Z-6.546 I0.4 J-0.32
N3760 X3.6 Y-11.68 Z-6.602 I-0.4 J0.32
N3765 X4.4 Y-12.32 Z-6.659 I0.4 J-0.32
N3770 X3.6 Y-11.68 Z-6.715 I-0.4 J0.32
N3775 X4.4 Y-12.32 Z-6.771 I0.4 J-0.32
N3780 X3.6 Y-11.68 Z-6.827 I-0.4 J0.32
N3785 X4.4 Y-12.32 Z-6.884 I0.4 J-0.32
N3790 X3.6 Y-11.68 Z-6.94 I-0.4 J0.32
N3795 X4.4 Y-12.32 Z-6.996 I0.4 J-0.32
N3800 X3.6 Y-11.68 Z-7.052 I-0.4 J0.32
N3805 X4.4 Y-12.32 Z-7.108 I0.4 J-0.32
N3810 X3.6 Y-11.68 Z-7.165 I-0.4 J0.32
N3815 X4.4 Y-12.32 Z-7.221 I0.4 J-0.32
N3820 X3.6 Y-11.68 Z-7.277 I-0.4 J0.32
N3825 X4.4 Y-12.32 Z-7.333 I0.4 J-0.32
N3830 X3.6 Y-11.68 Z-7.39 I-0.4 J0.32
N3835 X4.4 Y-12.32 Z-7.446 I0.4 J-0.32
N3840 X3.6 Y-11.68 Z-7.502 I-0.4 J0.32
N3845 X4.4 Y-12.32 Z-7.558 I0.4 J-0.32
N3850 X3.6 Y-11.68 Z-7.614 I-0.4 J0.32
N3855 X4.4 Y-12.32 Z-7.671 I0.4 J-0.32
N3860 X3.6 Y-11.68 Z-7.727 I-0.4 J0.32
N3865 X4.4 Y-12.32 Z-7.783 I0.4 J-0.32
N3870 X3.6 Y-11.68 Z-7.839 I-0.4 J0.32
N3875 X4.4 Y-12.32 Z-7.896 I0.4 J-0.32
N3880 X3.6 Y-11.68 Z-7.952 I-0.4 J0.32
N3885 X4.4 Y-12.32 Z-8.008 I0.4 J-0.32
N3890 X3.6 Y-11.68 Z-8.064 I-0.4 J0.32
N3895 X4.4 Y-12.32 Z-8.12 I0.4 J-0.32
N3900 X3.6 Y-11.68 Z-8.177 I-0.4 J0.32
N3905 X4.4 Y-12.32 Z-8.233 I0.4 J-0.32
N3910 X3.6 Y-11.68 Z-8.289 I-0.4 J0.32
N3915 X4.4 Y-12.32 Z-8.345 I0.4 J-0.32
N3920 X3.6 Y-11.68 Z-8.402 I-0.4 J0.32
N3925 X4.4 Y-12.32 Z-8.458 I0.4 J-0.32
N3930 X3.6 Y-11.68 Z-8.514 I-0.4 J0.32
N3935 X4.4 Y-12.32 Z-8.57 I0.4 J-0.32
N3940 X3.6 Y-11.68 Z-8.626 I-0.4 J0.32
N3945 X4.4 Y-12.32 Z-8.683 I0.4 J-0.32
N3950 X3.6 Y-11.68 Z-8.739 I-0.4 J0.32
N3955 X4.4 Y-12.32 Z-8.795 I0.4 J-0.32
N3960 X3.6 Y-11.68 Z-8.851 I-0.4 J0.32
N3965 X4.4 Y-12.32 Z-8.908 I0.4 J-0.32
N3970 X3.6 Y-11.68 Z-8.964 I-0.4 J0.32
N3975 X4.4 Y-12.32 Z-9.02 I0.4 J-0.32
N3980 X3.6 Y-11.68 Z-9.076 I-0.4 J0.32
N3985 X4.4 Y-12.32 Z-9.133 I0.4 J-0.32
N3990 X3.6 Y-11.68 Z-9.189 I-0.4 J0.32
N3995 X4.4 Y-12.32 Z-9.245 I0.4 J-0.32
N4000 X3.6 Y-11.68 Z-9.301 I-0.4 J0.32
N4005 X4.4 Y-12.32 Z-9.357 I0.4 J-0.32
N4010 X3.6 Y-11.68 Z-9.414 I-0.4 J0.32
N4015 X4.4 Y-12.32 Z-9.47 I0.4 J-0.32
N4020 X3.6 Y-11.68 Z-9.526 I-0.4 J0.32
N4025 X4.4 Y-12.32 Z-9.582 I0.4 J-0.32
N4030 X3.6 Y-11.68 Z-9.639 I-0.4 J0.32
N4035 X4.4 Y-12.32 Z-9.695 I0.4 J-0.32
N4040 X3.6 Y-11.68 Z-9.751 I-0.4 J0.32
N4045 X4.4 Y-12.32 Z-9.807 I0.4 J-0.32
N4050 X3.6 Y-11.68 Z-9.863 I-0.4 J0.32
N4055 X4.4 Y-12.32 Z-9.92 I0.4 J-0.32
N4060 X3.6 Y-11.68 Z-9.976 I-0.4 J0.32
N4065 X4.4 Y-12.32 Z-10.032 I0.4 J-0.32
N4070 X3.6 Y-11.68 Z-10.088 I-0.4 J0.32
N4075 X4.4 Y-12.32 Z-10.145 I0.4 J-0.32
N4080 X3.6 Y-11.68 Z-10.201 I-0.4 J0.32
N4085 X4.4 Y-12.32 Z-10.257 I0.4 J-0.32
N4090 X3.6 Y-11.68 Z-10.313 I-0.4 J0.32
N4095 X4.4 Y-12.32 Z-10.369 I0.4 J-0.32
N4100 X3.6 Y-11.68 Z-10.426 I-0.4 J0.32
N4105 X4.4 Y-12.32 Z-10.482 I0.4 J-0.32
N4110 X3.6 Y-11.68 Z-10.538 I-0.4 J0.32
N4115 X4.4 Y-12.32 Z-10.594 I0.4 J-0.32
N4120 X3.6 Y-11.68 Z-10.651 I-0.4 J0.32
N4125 X4.4 Y-12.32 Z-10.707 I0.4 J-0.32
N4130 X3.6 Y-11.68 Z-10.763 I-0.4 J0.32
N4135 X4.4 Y-12.32 Z-10.819 I0.4 J-0.32
N4140 X3.6 Y-11.68 Z-10.875 I-0.4 J0.32
N4145 X4.4 Y-12.32 Z-10.932 I0.4 J-0.32
N4150 X3.6 Y-11.68 Z-10.988 I-0.4 J0.32
N4155 X3.487 Y-12. Z-11. I0.4 J-0.32
N4160 X4.012 I0.263 J0.
N4165 X3.987 I-0.012 J0. F600.
N4170 X4.113 I0.063 J0.
N4175 X3.888 I-0.113 J0.
N4180 X4.213 I0.163 J0.
N4185 X3.787 I-0.213 J0.
N4190 X4.313 I0.263 J0.
N4195 X3.688 I-0.313 J0.
N4200 X4.412 I0.363 J0.
N4205 X3.588 I-0.412 J0.
N4210 X4.512 I0.463 J0.
N4215 X3.488 I-0.512 J0.
N4220 X4.512 I0.512 J0.
N4225 X4.509 Y-11.951 Z-10.996 I-0.317 J0.
N4230 X4.497 Y-11.903 Z-10.984 I-0.314 J-0.049
N4235 X4.48 Y-11.861 Z-10.965 I-0.302 J-0.097
N4240 X4.459 Y-11.824 Z-10.939 I-0.285 J-0.139
N4245 X4.436 Y-11.794 Z-10.907 I-0.264 J-0.176
N4250 X4.414 Y-11.77 Z-10.869 I-0.241 J-0.206
N4255 X4.395 Y-11.753 Z-10.827 I-0.219 J-0.23
N4260 X4.379 Y-11.742 Z-10.781 I-0.2 J-0.247
N4265 X4.37 Y-11.735 Z-10.732 I-0.184 J-0.258
N4270 G1 X4.367 Y-11.733 Z-10.682
N4275 G0 Z5.
N4280 X12.15 Y-12.49
N4285 Z2.318
N4290 G1 Z2.317 F600.
N4295 X12.153 Y-12.489 Z2.273 F500.
N4300 X12.162 Y-12.486 Z2.23
N4305 G3 X12.176 Y-12.481 Z2.189 I-0.162 J0.486
N4310 X12.195 Y-12.474 Z2.15 I-0.176 J0.481
N4315 X12.219 Y-12.463 Z2.114 I-0.195 J0.474
N4320 X12.246 Y-12.449 Z2.082 I-0.219 J0.463
N4325 X12.276 Y-12.432 Z2.055 I-0.246 J0.449
N4330 X12.307 Y-12.41 Z2.033 I-0.276 J0.432
N4335 X12.34 Y-12.384 Z2.016 I-0.307 J0.41
N4340 X12.371 Y-12.354 Z2.005 I-0.34 J0.384
N4345 X12.4 Y-12.32 Z2. I-0.371 J0.354
N4350 X11.6 Y-11.68 Z1.944 I-0.4 J0.32
N4355 X12.4 Y-12.32 Z1.888 I0.4 J-0.32
N4360 X11.6 Y-11.68 Z1.831 I-0.4 J0.32
N4365 X12.4 Y-12.32 Z1.775 I0.4 J-0.32
N4370 X11.6 Y-11.68 Z1.719 I-0.4 J0.32
N4375 X12.4 Y-12.32 Z1.663 I0.4 J-0.32
N4380 X11.6 Y-11.68 Z1.606 I-0.4 J0.32
N4385 X12.4 Y-12.32 Z1.55 I0.4 J-0.32
N4390 X11.6 Y-11.68 Z1.494 I-0.4 J0.32
N4395 X12.4 Y-12.32 Z1.438 I0.4 J-0.32
N4400 X11.6 Y-11.68 Z1.382 I-0.4 J0.32
N4405 X12.4 Y-12.32 Z1.325 I0.4 J-0.32
N4410 X11.6 Y-11.68 Z1.269 I-0.4 J0.32
N4415 X12.4 Y-12.32 Z1.213 I0.4 J-0.32
N4420 X11.6 Y-11.68 Z1.157 I-0.4 J0.32
N4425 X12.4 Y-12.32 Z1.1 I0.4 J-0.32
N4430 X11.6 Y-11.68 Z1.044 I-0.4 J0.32
N4435 X12.4 Y-12.32 Z0.988 I0.4 J-0.32
N4440 X11.6 Y-11.68 Z0.932 I-0.4 J0.32
N4445 X12.4 Y-12.32 Z0.876 I0.4 J-0.32
N4450 X11.6 Y-11.68 Z0.819 I-0.4 J0.32
N4455 X12.4 Y-12.32 Z0.763 I0.4 J-0.32
N4460 X11.6 Y-11.68 Z0.707 I-0.4 J0.32
N4465 X12.4 Y-12.32 Z0.651 I0.4 J-0.32
N4470 X11.6 Y-11.68 Z0.594 I-0.4 J0.32
N4475 X12.4 Y-12.32 Z0.538 I0.4 J-0.32
N4480 X11.6 Y-11.68 Z0.482 I-0.4 J0.32
N4485 X12.4 Y-12.32 Z0.426 I0.4 J-0.32
N4490 X11.6 Y-11.68 Z0.369 I-0.4 J0.32
N4495 X12.4 Y-12.32 Z0.313 I0.4 J-0.32
N4500 X11.6 Y-11.68 Z0.257 I-0.4 J0.32
N4505 X12.4 Y-12.32 Z0.201 I0.4 J-0.32
N4510 X11.6 Y-11.68 Z0.145 I-0.4 J0.32
N4515 X12.4 Y-12.32 Z0.088 I0.4 J-0.32
N4520 X11.6 Y-11.68 Z0.032 I-0.4 J0.32
N4525 X12.4 Y-12.32 Z-0.024 I0.4 J-0.32
N4530 X11.6 Y-11.68 Z-0.08 I-0.4 J0.32
N4535 X12.4 Y-12.32 Z-0.137 I0.4 J-0.32
N4540 X11.6 Y-11.68 Z-0.193 I-0.4 J0.32
N4545 X12.4 Y-12.32 Z-0.249 I0.4 J-0.32
N4550 X11.6 Y-11.68 Z-0.305 I-0.4 J0.32
N4555 X12.4 Y-12.32 Z-0.361 I0.4 J-0.32
N4560 X11.6 Y-11.68 Z-0.418 I-0.4 J0.32
N4565 X12.4 Y-12.32 Z-0.474 I0.4 J-0.32
N4570 X11.6 Y-11.68 Z-0.53 I-0.4 J0.32
N4575 X12.4 Y-12.32 Z-0.586 I0.4 J-0.32
N4580 X11.6 Y-11.68 Z-0.643 I-0.4 J0.32
N4585 X12.4 Y-12.32 Z-0.699 I0.4 J-0.32
N4590 X11.6 Y-11.68 Z-0.755 I-0.4 J0.32
N4595 X12.4 Y-12.32 Z-0.811 I0.4 J-0.32
N4600 X11.6 Y-11.68 Z-0.867 I-0.4 J0.32
N4605 X12.4 Y-12.32 Z-0.924 I0.4 J-0.32
N4610 X11.6 Y-11.68 Z-0.98 I-0.4 J0.32
N4615 X12.4 Y-12.32 Z-1.036 I0.4 J-0.32
N4620 X11.6 Y-11.68 Z-1.092 I-0.4 J0.32
N4625 X12.4 Y-12.32 Z-1.149 I0.4 J-0.32
N4630 X11.6 Y-11.68 Z-1.205 I-0.4 J0.32
N4635 X12.4 Y-12.32 Z-1.261 I0.4 J-0.32
N4640 X11.6 Y-11.68 Z-1.317 I-0.4 J0.32
N4645 X12.4 Y-12.32 Z-1.373 I0.4 J-0.32
N4650 X11.6 Y-11.68 Z-1.43 I-0.4 J0.32
N4655 X12.4 Y-12.32 Z-1.486 I0.4 J-0.32
N4660 X11.6 Y-11.68 Z-1.542 I-0.4 J0.32
N4665 X12.4 Y-12.32 Z-1.598 I0.4 J-0.32
N4670 X11.6 Y-11.68 Z-1.655 I-0.4 J0.32
N4675 X12.4 Y-12.32 Z-1.711 I0.4 J-0.32
N4680 X11.6 Y-11.68 Z-1.767 I-0.4 J0.32
N4685 X12.4 Y-12.32 Z-1.823 I0.4 J-0.32
N4690 X11.6 Y-11.68 Z-1.88 I-0.4 J0.32
N4695 X12.4 Y-12.32 Z-1.936 I0.4 J-0.32
N4700 X11.6 Y-11.68 Z-1.992 I-0.4 J0.32
N4705 X12.4 Y-12.32 Z-2.048 I0.4 J-0.32
N4710 X11.6 Y-11.68 Z-2.104 I-0.4 J0.32
N4715 X12.4 Y-12.32 Z-2.161 I0.4 J-0.32
N4720 X11.6 Y-11.68 Z-2.217 I-0.4 J0.32
N4725 X12.4 Y-12.32 Z-2.273 I0.4 J-0.32
N4730 X11.6 Y-11.68 Z-2.329 I-0.4 J0.32
N4735 X12.4 Y-12.32 Z-2.386 I0.4 J-0.32
N4740 X11.6 Y-11.68 Z-2.442 I-0.4 J0.32
N4745 X12.4 Y-12.32 Z-2.498 I0.4 J-0.32
N4750 X11.6 Y-11.68 Z-2.554 I-0.4 J0.32
N4755 X12.4 Y-12.32 Z-2.61 I0.4 J-0.32
N4760 X11.6 Y-11.68 Z-2.667 I-0.4 J0.32
N4765 X12.4 Y-12.32 Z-2.723 I0.4 J-0.32
N4770 X11.6 Y-11.68 Z-2.779 I-0.4 J0.32
N4775 X12.4 Y-12.32 Z-2.835 I0.4 J-0.32
N4780 X11.6 Y-11.68 Z-2.892 I-0.4 J0.32
N4785 X12.4 Y-12.32 Z-2.948 I0.4 J-0.32
N4790 X11.6 Y-11.68 Z-3.004 I-0.4 J0.32
N4795 X12.4 Y-12.32 Z-3.06 I0.4 J-0.32
N4800 X11.6 Y-11.68 Z-3.116 I-0.4 J0.32
N4805 X12.4 Y-12.32 Z-3.173 I0.4 J-0.32
N4810 X11.6 Y-11.68 Z-3.229 I-0.4 J0.32
N4815 X12.4 Y-12.32 Z-3.285 I0.4 J-0.32
N4820 X11.6 Y-11.68 Z-3.341 I-0.4 J0.32
N4825 X12.4 Y-12.32 Z-3.398 I0.4 J-0.32
N4830 X11.6 Y-11.68 Z-3.454 I-0.4 J0.32
N4835 X12.4 Y-12.32 Z-3.51 I0.4 J-0.32
N4840 X11.6 Y-11.68 Z-3.566 I-0.4 J0.32
N4845 X12.4 Y-12.32 Z-3.622 I0.4 J-0.32
N4850 X11.6 Y-11.68 Z-3.679 I-0.4 J0.32
N4855 X12.4 Y-12.32 Z-3.735 I0.4 J-0.32
N4860 X11.6 Y-11.68 Z-3.791 I-0.4 J0.32
N4865 X12.4 Y-12.32 Z-3.847 I0.4 J-0.32
N4870 X11.6 Y-11.68 Z-3.904 I-0.4 J0.32
N4875 X12.4 Y-12.32 Z-3.96 I0.4 J-0.32
N4880 X11.6 Y-11.68 Z-4.016 I-0.4 J0.32
N4885 X12.4 Y-12.32 Z-4.072 I0.4 J-0.32
N4890 X11.6 Y-11.68 Z-4.128 I-0.4 J0.32
N4895 X12.4 Y-12.32 Z-4.185 I0.4 J-0.32
N4900 X11.6 Y-11.68 Z-4.241 I-0.4 J0.32
N4905 X12.4 Y-12.32 Z-4.297 I0.4 J-0.32
N4910 X11.6 Y-11.68 Z-4.353 I-0.4 J0.32
N4915 X12.4 Y-12.32 Z-4.41 I0.4 J-0.32
N4920 X11.6 Y-11.68 Z-4.466 I-0.4 J0.32
N4925 X12.4 Y-12.32 Z-4.522 I0.4 J-0.32
N4930 X11.6 Y-11.68 Z-4.578 I-0.4 J0.32
N4935 X12.4 Y-12.32 Z-4.635 I0.4 J-0.32
N4940 X11.6 Y-11.68 Z-4.691 I-0.4 J0.32
N4945 X12.4 Y-12.32 Z-4.747 I0.4 J-0.32
N4950 X11.6 Y-11.68 Z-4.803 I-0.4 J0.32
N4955 X12.4 Y-12.32 Z-4.859 I0.4 J-0.32
N4960 X11.6 Y-11.68 Z-4.916 I-0.4 J0.32
N4965 X12.4 Y-12.32 Z-4.972 I0.4 J-0.32
N4970 X11.6 Y-11.68 Z-5.028 I-0.4 J0.32
N4975 X12.4 Y-12.32 Z-5.084 I0.4 J-0.32
N4980 X11.6 Y-11.68 Z-5.141 I-0.4 J0.32
N4985 X12.4 Y-12.32 Z-5.197 I0.4 J-0.32
N4990 X11.6 Y-11.68 Z-5.253 I-0.4 J0.32
N4995 X12.4 Y-12.32 Z-5.309 I0.4 J-0.32
N5000 X11.6 Y-11.68 Z-5.365 I-0.4 J0.32
N5005 X12.4 Y-12.32 Z-5.422 I0.4 J-0.32
N5010 X11.6 Y-11.68 Z-5.478 I-0.4 J0.32
N5015 X12.4 Y-12.32 Z-5.534 I0.4 J-0.32
N5020 X11.6 Y-11.68 Z-5.59 I-0.4 J0.32
N5025 X12.4 Y-12.32 Z-5.647 I0.4 J-0.32
N5030 X11.6 Y-11.68 Z-5.703 I-0.4 J0.32
N5035 X12.4 Y-12.32 Z-5.759 I0.4 J-0.32
N5040 X11.6 Y-11.68 Z-5.815 I-0.4 J0.32
N5045 X12.4 Y-12.32 Z-5.871 I0.4 J-0.32
N5050 X11.6 Y-11.68 Z-5.928 I-0.4 J0.32
N5055 X12.4 Y-12.32 Z-5.984 I0.4 J-0.32
N5060 X11.6 Y-11.68 Z-6.04 I-0.4 J0.32
N5065 X12.4 Y-12.32 Z-6.096 I0.4 J-0.32
N5070 X11.6 Y-11.68 Z-6.153 I-0.4 J0.32
N5075 X12.4 Y-12.32 Z-6.209 I0.4 J-0.32
N5080 X11.6 Y-11.68 Z-6.265 I-0.4 J0.32
N5085 X12.4 Y-12.32 Z-6.321 I0.4 J-0.32
N5090 X11.6 Y-11.68 Z-6.377 I-0.4 J0.32
N5095 X12.4 Y-12.32 Z-6.434 I0.4 J-0.32
N5100 X11.6 Y-11.68 Z-6.49 I-0.4 J0.32
N5105 X12.4 Y-12.32 Z-6.546 I0.4 J-0.32
N5110 X11.6 Y-11.68 Z-6.602 I-0.4 J0.32
N5115 X12.4 Y-12.32 Z-6.659 I0.4 J-0.32
N5120 X11.6 Y-11.68 Z-6.715 I-0.4 J0.32
N5125 X12.4 Y-12.32 Z-6.771 I0.4 J-0.32
N5130 X11.6 Y-11.68 Z-6.827 I-0.4 J0.32
N5135 X12.4 Y-12.32 Z-6.884 I0.4 J-0.32
N5140 X11.6 Y-11.68 Z-6.94 I-0.4 J0.32
N5145 X12.4 Y-12.32 Z-6.996 I0.4 J-0.32
N5150 X11.6 Y-11.68 Z-7.052 I-0.4 J0.32
N5155 X12.4 Y-12.32 Z-7.108 I0.4 J-0.32
N5160 X11.6 Y-11.68 Z-7.165 I-0.4 J0.32
N5165 X12.4 Y-12.32 Z-7.221 I0.4 J-0.32
N5170 X11.6 Y-11.68 Z-7.277 I-0.4 J0.32
N5175 X12.4 Y-12.32 Z-7.333 I0.4 J-0.32
N5180 X11.6 Y-11.68 Z-7.39 I-0.4 J0.32
N5185 X12.4 Y-12.32 Z-7.446 I0.4 J-0.32
N5190 X11.6 Y-11.68 Z-7.502 I-0.4 J0.32
N5195 X12.4 Y-12.32 Z-7.558 I0.4 J-0.32
N5200 X11.6 Y-11.68 Z-7.614 I-0.4 J0.32
N5205 X12.4 Y-12.32 Z-7.671 I0.4 J-0.32
N5210 X11.6 Y-11.68 Z-7.727 I-0.4 J0.32
N5215 X12.4 Y-12.32 Z-7.783 I0.4 J-0.32
N5220 X11.6 Y-11.68 Z-7.839 I-0.4 J0.32
N5225 X12.4 Y-12.32 Z-7.896 I0.4 J-0.32
N5230 X11.6 Y-11.68 Z-7.952 I-0.4 J0.32
N5235 X12.4 Y-12.32 Z-8.008 I0.4 J-0.32
N5240 X11.6 Y-11.68 Z-8.064 I-0.4 J0.32
N5245 X12.4 Y-12.32 Z-8.12 I0.4 J-0.32
N5250 X11.6 Y-11.68 Z-8.177 I-0.4 J0.32
N5255 X12.4 Y-12.32 Z-8.233 I0.4 J-0.32
N5260 X11.6 Y-11.68 Z-8.289 I-0.4 J0.32
N5265 X12.4 Y-12.32 Z-8.345 I0.4 J-0.32
N5270 X11.6 Y-11.68 Z-8.402 I-0.4 J0.32
N5275 X12.4 Y-12.32 Z-8.458 I0.4 J-0.32
N5280 X11.6 Y-11.68 Z-8.514 I-0.4 J0.32
N5285 X12.4 Y-12.32 Z-8.57 I0.4 J-0.32
N5290 X11.6 Y-11.68 Z-8.626 I-0.4 J0.32
N5295 X12.4 Y-12.32 Z-8.683 I0.4 J-0.32
N5300 X11.6 Y-11.68 Z-8.739 I-0.4 J0.32
N5305 X12.4 Y-12.32 Z-8.795 I0.4 J-0.32
N5310 X11.6 Y-11.68 Z-8.851 I-0.4 J0.32
N5315 X12.4 Y-12.32 Z-8.908 I0.4 J-0.32
N5320 X11.6 Y-11.68 Z-8.964 I-0.4 J0.32
N5325 X12.4 Y-12.32 Z-9.02 I0.4 J-0.32
N5330 X11.6 Y-11.68 Z-9.076 I-0.4 J0.32
N5335 X12.4 Y-12.32 Z-9.133 I0.4 J-0.32
N5340 X11.6 Y-11.68 Z-9.189 I-0.4 J0.32
N5345 X12.4 Y-12.32 Z-9.245 I0.4 J-0.32
N5350 X11.6 Y-11.68 Z-9.301 I-0.4 J0.32
N5355 X12.4 Y-12.32 Z-9.357 I0.4 J-0.32
N5360 X11.6 Y-11.68 Z-9.414 I-0.4 J0.32
N5365 X12.4 Y-12.32 Z-9.47 I0.4 J-0.32
N5370 X11.6 Y-11.68 Z-9.526 I-0.4 J0.32
N5375 X12.4 Y-12.32 Z-9.582 I0.4 J-0.32
N5380 X11.6 Y-11.68 Z-9.639 I-0.4 J0.32
N5385 X12.4 Y-12.32 Z-9.695 I0.4 J-0.32
N5390 X11.6 Y-11.68 Z-9.751 I-0.4 J0.32
N5395 X12.4 Y-12.32 Z-9.807 I0.4 J-0.32
N5400 X11.6 Y-11.68 Z-9.863 I-0.4 J0.32
N5405 X12.4 Y-12.32 Z-9.92 I0.4 J-0.32
N5410 X11.6 Y-11.68 Z-9.976 I-0.4 J0.32
N5415 X12.4 Y-12.32 Z-10.032 I0.4 J-0.32
N5420 X11.6 Y-11.68 Z-10.088 I-0.4 J0.32
N5425 X12.4 Y-12.32 Z-10.145 I0.4 J-0.32
N5430 X11.6 Y-11.68 Z-10.201 I-0.4 J0.32
N5435 X12.4 Y-12.32 Z-10.257 I0.4 J-0.32
N5440 X11.6 Y-11.68 Z-10.313 I-0.4 J0.32
N5445 X12.4 Y-12.32 Z-10.369 I0.4 J-0.32
N5450 X11.6 Y-11.68 Z-10.426 I-0.4 J0.32
N5455 X12.4 Y-12.32 Z-10.482 I0.4 J-0.32
N5460 X11.6 Y-11.68 Z-10.538 I-0.4 J0.32
N5465 X12.4 Y-12.32 Z-10.594 I0.4 J-0.32
N5470 X11.6 Y-11.68 Z-10.651 I-0.4 J0.32
N5475 X12.4 Y-12.32 Z-10.707 I0.4 J-0.32
N5480 X11.6 Y-11.68 Z-10.763 I-0.4 J0.32
N5485 X12.4 Y-12.32 Z-10.819 I0.4 J-0.32
N5490 X11.6 Y-11.68 Z-10.875 I-0.4 J0.32
N5495 X12.4 Y-12.32 Z-10.932 I0.4 J-0.32
N5500 X11.6 Y-11.68 Z-10.988 I-0.4 J0.32
N5505 X11.488 Y-12. Z-11. I0.4 J-0.32
N5510 X12.012 I0.262 J0.
N5515 X11.988 I-0.012 J0. F600.
N5520 X12.113 I0.063 J0.
N5525 X11.887 I-0.113 J0.
N5530 X12.212 I0.163 J0.
N5535 X11.788 I-0.212 J0.
N5540 X12.313 I0.262 J0.
N5545 X11.688 I-0.313 J0.
N5550 X12.413 I0.363 J0.
N5555 X11.587 I-0.413 J0.
N5560 X12.512 I0.463 J0.
N5565 X11.488 I-0.512 J0.
N5570 X12.512 I0.512 J0.
N5575 X12.509 Y-11.951 Z-10.996 I-0.318 J0.
N5580 X12.497 Y-11.903 Z-10.984 I-0.314 J-0.049
N5585 X12.48 Y-11.861 Z-10.965 I-0.302 J-0.097
N5590 X12.459 Y-11.824 Z-10.939 I-0.285 J-0.139
N5595 X12.436 Y-11.794 Z-10.907 I-0.264 J-0.176
N5600 X12.414 Y-11.77 Z-10.869 I-0.241 J-0.206
N5605 X12.395 Y-11.753 Z-10.827 I-0.219 J-0.23
N5610 X12.379 Y-11.742 Z-10.781 I-0.2 J-0.247
N5615 X12.37 Y-11.735 Z-10.732 I-0.184 J-0.258
N5620 G1 X12.367 Y-11.733 Z-10.682
N5625 G0 Z5.
N5630 X28.15 Y-12.49
N5635 Z2.318
N5640 G1 Z2.317 F600.
N5645 X28.153 Y-12.489 Z2.273 F500.
N5650 X28.162 Y-12.486 Z2.23
N5655 G3 X28.176 Y-12.481 Z2.189 I-0.162 J0.486
N5660 X28.195 Y-12.474 Z2.15 I-0.176 J0.481
N5665 X28.219 Y-12.463 Z2.114 I-0.195 J0.474
N5670 X28.246 Y-12.449 Z2.082 I-0.219 J0.463
N5675 X28.276 Y-12.432 Z2.055 I-0.246 J0.449
N5680 X28.308 Y-12.41 Z2.033 I-0.276 J0.432
N5685 X28.34 Y-12.384 Z2.016 I-0.308 J0.41
N5690 X28.371 Y-12.354 Z2.005 I-0.34 J0.384
N5695 X28.4 Y-12.32 Z2. I-0.371 J0.354
N5700 X27.6 Y-11.68 Z1.944 I-0.4 J0.32
N5705 X28.4 Y-12.32 Z1.888 I0.4 J-0.32
N5710 X27.6 Y-11.68 Z1.831 I-0.4 J0.32
N5715 X28.4 Y-12.32 Z1.775 I0.4 J-0.32
N5720 X27.6 Y-11.68 Z1.719 I-0.4 J0.32
N5725 X28.4 Y-12.32 Z1.663 I0.4 J-0.32
N5730 X27.6 Y-11.68 Z1.606 I-0.4 J0.32
N5735 X28.4 Y-12.32 Z1.55 I0.4 J-0.32
N5740 X27.6 Y-11.68 Z1.494 I-0.4 J0.32
N5745 X28.4 Y-12.32 Z1.438 I0.4 J-0.32
N5750 X27.6 Y-11.68 Z1.382 I-0.4 J0.32
N5755 X28.4 Y-12.32 Z1.325 I0.4 J-0.32
N5760 X27.6 Y-11.68 Z1.269 I-0.4 J0.32
N5765 X28.4 Y-12.32 Z1.213 I0.4 J-0.32
N5770 X27.6 Y-11.68 Z1.157 I-0.4 J0.32
N5775 X28.4 Y-12.32 Z1.1 I0.4 J-0.32
N5780 X27.6 Y-11.68 Z1.044 I-0.4 J0.32
N5785 X28.4 Y-12.32 Z0.988 I0.4 J-0.32
N5790 X27.6 Y-11.68 Z0.932 I-0.4 J0.32
N5795 X28.4 Y-12.32 Z0.876 I0.4 J-0.32
N5800 X27.6 Y-11.68 Z0.819 I-0.4 J0.32
N5805 X28.4 Y-12.32 Z0.763 I0.4 J-0.32
N5810 X27.6 Y-11.68 Z0.707 I-0.4 J0.32
N5815 X28.4 Y-12.32 Z0.651 I0.4 J-0.32
N5820 X27.6 Y-11.68 Z0.594 I-0.4 J0.32
N5825 X28.4 Y-12.32 Z0.538 I0.4 J-0.32
N5830 X27.6 Y-11.68 Z0.482 I-0.4 J0.32
N5835 X28.4 Y-12.32 Z0.426 I0.4 J-0.32
N5840 X27.6 Y-11.68 Z0.369 I-0.4 J0.32
N5845 X28.4 Y-12.32 Z0.313 I0.4 J-0.32
N5850 X27.6 Y-11.68 Z0.257 I-0.4 J0.32
N5855 X28.4 Y-12.32 Z0.201 I0.4 J-0.32
N5860 X27.6 Y-11.68 Z0.145 I-0.4 J0.32
N5865 X28.4 Y-12.32 Z0.088 I0.4 J-0.32
N5870 X27.6 Y-11.68 Z0.032 I-0.4 J0.32
N5875 X28.4 Y-12.32 Z-0.024 I0.4 J-0.32
N5880 X27.6 Y-11.68 Z-0.08 I-0.4 J0.32
N5885 X28.4 Y-12.32 Z-0.137 I0.4 J-0.32
N5890 X27.6 Y-11.68 Z-0.193 I-0.4 J0.32
N5895 X28.4 Y-12.32 Z-0.249 I0.4 J-0.32
N5900 X27.6 Y-11.68 Z-0.305 I-0.4 J0.32
N5905 X28.4 Y-12.32 Z-0.361 I0.4 J-0.32
N5910 X27.6 Y-11.68 Z-0.418 I-0.4 J0.32
N5915 X28.4 Y-12.32 Z-0.474 I0.4 J-0.32
N5920 X27.6 Y-11.68 Z-0.53 I-0.4 J0.32
N5925 X28.4 Y-12.32 Z-0.586 I0.4 J-0.32
N5930 X27.6 Y-11.68 Z-0.643 I-0.4 J0.32
N5935 X28.4 Y-12.32 Z-0.699 I0.4 J-0.32
N5940 X27.6 Y-11.68 Z-0.755 I-0.4 J0.32
N5945 X28.4 Y-12.32 Z-0.811 I0.4 J-0.32
N5950 X27.6 Y-11.68 Z-0.867 I-0.4 J0.32
N5955 X28.4 Y-12.32 Z-0.924 I0.4 J-0.32
N5960 X27.6 Y-11.68 Z-0.98 I-0.4 J0.32
N5965 X28.4 Y-12.32 Z-1.036 I0.4 J-0.32
N5970 X27.6 Y-11.68 Z-1.092 I-0.4 J0.32
N5975 X28.4 Y-12.32 Z-1.149 I0.4 J-0.32
N5980 X27.6 Y-11.68 Z-1.205 I-0.4 J0.32
N5985 X28.4 Y-12.32 Z-1.261 I0.4 J-0.32
N5990 X27.6 Y-11.68 Z-1.317 I-0.4 J0.32
N5995 X28.4 Y-12.32 Z-1.373 I0.4 J-0.32
N6000 X27.6 Y-11.68 Z-1.43 I-0.4 J0.32
N6005 X28.4 Y-12.32 Z-1.486 I0.4 J-0.32
N6010 X27.6 Y-11.68 Z-1.542 I-0.4 J0.32
N6015 X28.4 Y-12.32 Z-1.598 I0.4 J-0.32
N6020 X27.6 Y-11.68 Z-1.655 I-0.4 J0.32
N6025 X28.4 Y-12.32 Z-1.711 I0.4 J-0.32
N6030 X27.6 Y-11.68 Z-1.767 I-0.4 J0.32
N6035 X28.4 Y-12.32 Z-1.823 I0.4 J-0.32
N6040 X27.6 Y-11.68 Z-1.88 I-0.4 J0.32
N6045 X28.4 Y-12.32 Z-1.936 I0.4 J-0.32
N6050 X27.6 Y-11.68 Z-1.992 I-0.4 J0.32
N6055 X28.4 Y-12.32 Z-2.048 I0.4 J-0.32
N6060 X27.6 Y-11.68 Z-2.104 I-0.4 J0.32
N6065 X28.4 Y-12.32 Z-2.161 I0.4 J-0.32
N6070 X27.6 Y-11.68 Z-2.217 I-0.4 J0.32
N6075 X28.4 Y-12.32 Z-2.273 I0.4 J-0.32
N6080 X27.6 Y-11.68 Z-2.329 I-0.4 J0.32
N6085 X28.4 Y-12.32 Z-2.386 I0.4 J-0.32
N6090 X27.6 Y-11.68 Z-2.442 I-0.4 J0.32
N6095 X28.4 Y-12.32 Z-2.498 I0.4 J-0.32
N6100 X27.6 Y-11.68 Z-2.554 I-0.4 J0.32
N6105 X28.4 Y-12.32 Z-2.61 I0.4 J-0.32
N6110 X27.6 Y-11.68 Z-2.667 I-0.4 J0.32
N6115 X28.4 Y-12.32 Z-2.723 I0.4 J-0.32
N6120 X27.6 Y-11.68 Z-2.779 I-0.4 J0.32
N6125 X28.4 Y-12.32 Z-2.835 I0.4 J-0.32
N6130 X27.6 Y-11.68 Z-2.892 I-0.4 J0.32
N6135 X28.4 Y-12.32 Z-2.948 I0.4 J-0.32
N6140 X27.6 Y-11.68 Z-3.004 I-0.4 J0.32
N6145 X28.4 Y-12.32 Z-3.06 I0.4 J-0.32
N6150 X27.6 Y-11.68 Z-3.116 I-0.4 J0.32
N6155 X28.4 Y-12.32 Z-3.173 I0.4 J-0.32
N6160 X27.6 Y-11.68 Z-3.229 I-0.4 J0.32
N6165 X28.4 Y-12.32 Z-3.285 I0.4 J-0.32
N6170 X27.6 Y-11.68 Z-3.341 I-0.4 J0.32
N6175 X28.4 Y-12.32 Z-3.398 I0.4 J-0.32
N6180 X27.6 Y-11.68 Z-3.454 I-0.4 J0.32
N6185 X28.4 Y-12.32 Z-3.51 I0.4 J-0.32
N6190 X27.6 Y-11.68 Z-3.566 I-0.4 J0.32
N6195 X28.4 Y-12.32 Z-3.622 I0.4 J-0.32
N6200 X27.6 Y-11.68 Z-3.679 I-0.4 J0.32
N6205 X28.4 Y-12.32 Z-3.735 I0.4 J-0.32
N6210 X27.6 Y-11.68 Z-3.791 I-0.4 J0.32
N6215 X28.4 Y-12.32 Z-3.847 I0.4 J-0.32
N6220 X27.6 Y-11.68 Z-3.904 I-0.4 J0.32
N6225 X28.4 Y-12.32 Z-3.96 I0.4 J-0.32
N6230 X27.6 Y-11.68 Z-4.016 I-0.4 J0.32
N6235 X28.4 Y-12.32 Z-4.072 I0.4 J-0.32
N6240 X27.6 Y-11.68 Z-4.128 I-0.4 J0.32
N6245 X28.4 Y-12.32 Z-4.185 I0.4 J-0.32
N6250 X27.6 Y-11.68 Z-4.241 I-0.4 J0.32
N6255 X28.4 Y-12.32 Z-4.297 I0.4 J-0.32
N6260 X27.6 Y-11.68 Z-4.353 I-0.4 J0.32
N6265 X28.4 Y-12.32 Z-4.41 I0.4 J-0.32
N6270 X27.6 Y-11.68 Z-4.466 I-0.4 J0.32
N6275 X28.4 Y-12.32 Z-4.522 I0.4 J-0.32
N6280 X27.6 Y-11.68 Z-4.578 I-0.4 J0.32
N6285 X28.4 Y-12.32 Z-4.635 I0.4 J-0.32
N6290 X27.6 Y-11.68 Z-4.691 I-0.4 J0.32
N6295 X28.4 Y-12.32 Z-4.747 I0.4 J-0.32
N6300 X27.6 Y-11.68 Z-4.803 I-0.4 J0.32
N6305 X28.4 Y-12.32 Z-4.859 I0.4 J-0.32
N6310 X27.6 Y-11.68 Z-4.916 I-0.4 J0.32
N6315 X28.4 Y-12.32 Z-4.972 I0.4 J-0.32
N6320 X27.6 Y-11.68 Z-5.028 I-0.4 J0.32
N6325 X28.4 Y-12.32 Z-5.084 I0.4 J-0.32
N6330 X27.6 Y-11.68 Z-5.141 I-0.4 J0.32
N6335 X28.4 Y-12.32 Z-5.197 I0.4 J-0.32
N6340 X27.6 Y-11.68 Z-5.253 I-0.4 J0.32
N6345 X28.4 Y-12.32 Z-5.309 I0.4 J-0.32
N6350 X27.6 Y-11.68 Z-5.365 I-0.4 J0.32
N6355 X28.4 Y-12.32 Z-5.422 I0.4 J-0.32
N6360 X27.6 Y-11.68 Z-5.478 I-0.4 J0.32
N6365 X28.4 Y-12.32 Z-5.534 I0.4 J-0.32
N6370 X27.6 Y-11.68 Z-5.59 I-0.4 J0.32
N6375 X28.4 Y-12.32 Z-5.647 I0.4 J-0.32
N6380 X27.6 Y-11.68 Z-5.703 I-0.4 J0.32
N6385 X28.4 Y-12.32 Z-5.759 I0.4 J-0.32
N6390 X27.6 Y-11.68 Z-5.815 I-0.4 J0.32
N6395 X28.4 Y-12.32 Z-5.871 I0.4 J-0.32
N6400 X27.6 Y-11.68 Z-5.928 I-0.4 J0.32
N6405 X28.4 Y-12.32 Z-5.984 I0.4 J-0.32
N6410 X27.6 Y-11.68 Z-6.04 I-0.4 J0.32
N6415 X28.4 Y-12.32 Z-6.096 I0.4 J-0.32
N6420 X27.6 Y-11.68 Z-6.153 I-0.4 J0.32
N6425 X28.4 Y-12.32 Z-6.209 I0.4 J-0.32
N6430 X27.6 Y-11.68 Z-6.265 I-0.4 J0.32
N6435 X28.4 Y-12.32 Z-6.321 I0.4 J-0.32
N6440 X27.6 Y-11.68 Z-6.377 I-0.4 J0.32
N6445 X28.4 Y-12.32 Z-6.434 I0.4 J-0.32
N6450 X27.6 Y-11.68 Z-6.49 I-0.4 J0.32
N6455 X28.4 Y-12.32 Z-6.546 I0.4 J-0.32
N6460 X27.6 Y-11.68 Z-6.602 I-0.4 J0.32
N6465 X28.4 Y-12.32 Z-6.659 I0.4 J-0.32
N6470 X27.6 Y-11.68 Z-6.715 I-0.4 J0.32
N6475 X28.4 Y-12.32 Z-6.771 I0.4 J-0.32
N6480 X27.6 Y-11.68 Z-6.827 I-0.4 J0.32
N6485 X28.4 Y-12.32 Z-6.884 I0.4 J-0.32
N6490 X27.6 Y-11.68 Z-6.94 I-0.4 J0.32
N6495 X28.4 Y-12.32 Z-6.996 I0.4 J-0.32
N6500 X27.6 Y-11.68 Z-7.052 I-0.4 J0.32
N6505 X28.4 Y-12.32 Z-7.108 I0.4 J-0.32
N6510 X27.6 Y-11.68 Z-7.165 I-0.4 J0.32
N6515 X28.4 Y-12.32 Z-7.221 I0.4 J-0.32
N6520 X27.6 Y-11.68 Z-7.277 I-0.4 J0.32
N6525 X28.4 Y-12.32 Z-7.333 I0.4 J-0.32
N6530 X27.6 Y-11.68 Z-7.39 I-0.4 J0.32
N6535 X28.4 Y-12.32 Z-7.446 I0.4 J-0.32
N6540 X27.6 Y-11.68 Z-7.502 I-0.4 J0.32
N6545 X28.4 Y-12.32 Z-7.558 I0.4 J-0.32
N6550 X27.6 Y-11.68 Z-7.614 I-0.4 J0.32
N6555 X28.4 Y-12.32 Z-7.671 I0.4 J-0.32
N6560 X27.6 Y-11.68 Z-7.727 I-0.4 J0.32
N6565 X28.4 Y-12.32 Z-7.783 I0.4 J-0.32
N6570 X27.6 Y-11.68 Z-7.839 I-0.4 J0.32
N6575 X28.4 Y-12.32 Z-7.896 I0.4 J-0.32
N6580 X27.6 Y-11.68 Z-7.952 I-0.4 J0.32
N6585 X28.4 Y-12.32 Z-8.008 I0.4 J-0.32
N6590 X27.6 Y-11.68 Z-8.064 I-0.4 J0.32
N6595 X28.4 Y-12.32 Z-8.12 I0.4 J-0.32
N6600 X27.6 Y-11.68 Z-8.177 I-0.4 J0.32
N6605 X28.4 Y-12.32 Z-8.233 I0.4 J-0.32
N6610 X27.6 Y-11.68 Z-8.289 I-0.4 J0.32
N6615 X28.4 Y-12.32 Z-8.345 I0.4 J-0.32
N6620 X27.6 Y-11.68 Z-8.402 I-0.4 J0.32
N6625 X28.4 Y-12.32 Z-8.458 I0.4 J-0.32
N6630 X27.6 Y-11.68 Z-8.514 I-0.4 J0.32
N6635 X28.4 Y-12.32 Z-8.57 I0.4 J-0.32
N6640 X27.6 Y-11.68 Z-8.626 I-0.4 J0.32
N6645 X28.4 Y-12.32 Z-8.683 I0.4 J-0.32
N6650 X27.6 Y-11.68 Z-8.739 I-0.4 J0.32
N6655 X28.4 Y-12.32 Z-8.795 I0.4 J-0.32
N6660 X27.6 Y-11.68 Z-8.851 I-0.4 J0.32
N6665 X28.4 Y-12.32 Z-8.908 I0.4 J-0.32
N6670 X27.6 Y-11.68 Z-8.964 I-0.4 J0.32
N6675 X28.4 Y-12.32 Z-9.02 I0.4 J-0.32
N6680 X27.6 Y-11.68 Z-9.076 I-0.4 J0.32
N6685 X28.4 Y-12.32 Z-9.133 I0.4 J-0.32
N6690 X27.6 Y-11.68 Z-9.189 I-0.4 J0.32
N6695 X28.4 Y-12.32 Z-9.245 I0.4 J-0.32
N6700 X27.6 Y-11.68 Z-9.301 I-0.4 J0.32
N6705 X28.4 Y-12.32 Z-9.357 I0.4 J-0.32
N6710 X27.6 Y-11.68 Z-9.414 I-0.4 J0.32
N6715 X28.4 Y-12.32 Z-9.47 I0.4 J-0.32
N6720 X27.6 Y-11.68 Z-9.526 I-0.4 J0.32
N6725 X28.4 Y-12.32 Z-9.582 I0.4 J-0.32
N6730 X27.6 Y-11.68 Z-9.639 I-0.4 J0.32
N6735 X28.4 Y-12.32 Z-9.695 I0.4 J-0.32
N6740 X27.6 Y-11.68 Z-9.751 I-0.4 J0.32
N6745 X28.4 Y-12.32 Z-9.807 I0.4 J-0.32
N6750 X27.6 Y-11.68 Z-9.863 I-0.4 J0.32
N6755 X28.4 Y-12.32 Z-9.92 I0.4 J-0.32
N6760 X27.6 Y-11.68 Z-9.976 I-0.4 J0.32
N6765 X28.4 Y-12.32 Z-10.032 I0.4 J-0.32
N6770 X27.6 Y-11.68 Z-10.088 I-0.4 J0.32
N6775 X28.4 Y-12.32 Z-10.145 I0.4 J-0.32
N6780 X27.6 Y-11.68 Z-10.201 I-0.4 J0.32
N6785 X28.4 Y-12.32 Z-10.257 I0.4 J-0.32
N6790 X27.6 Y-11.68 Z-10.313 I-0.4 J0.32
N6795 X28.4 Y-12.32 Z-10.369 I0.4 J-0.32
N6800 X27.6 Y-11.68 Z-10.426 I-0.4 J0.32
N6805 X28.4 Y-12.32 Z-10.482 I0.4 J-0.32
N6810 X27.6 Y-11.68 Z-10.538 I-0.4 J0.32
N6815 X28.4 Y-12.32 Z-10.594 I0.4 J-0.32
N6820 X27.6 Y-11.68 Z-10.651 I-0.4 J0.32
N6825 X28.4 Y-12.32 Z-10.707 I0.4 J-0.32
N6830 X27.6 Y-11.68 Z-10.763 I-0.4 J0.32
N6835 X28.4 Y-12.32 Z-10.819 I0.4 J-0.32
N6840 X27.6 Y-11.68 Z-10.875 I-0.4 J0.32
N6845 X28.4 Y-12.32 Z-10.932 I0.4 J-0.32
N6850 X27.6 Y-11.68 Z-10.988 I-0.4 J0.32
N6855 X27.487 Y-12. Z-11. I0.4 J-0.32
N6860 X28.013 I0.263 J0.
N6865 X27.987 I-0.013 J0. F600.
N6870 X28.112 I0.063 J0.
N6875 X27.888 I-0.112 J0.
N6880 X28.212 I0.162 J0.
N6885 X27.788 I-0.212 J0.
N6890 X28.313 I0.262 J0.
N6895 X27.688 I-0.313 J0.
N6900 X28.413 I0.362 J0.
N6905 X27.587 I-0.413 J0.
N6910 X28.513 I0.462 J0.
N6915 X27.487 I-0.513 J0.
N6920 X28.513 I0.513 J0.
N6925 X28.509 Y-11.951 Z-10.996 I-0.318 J0.
N6930 X28.497 Y-11.903 Z-10.984 I-0.314 J-0.049
N6935 X28.48 Y-11.861 Z-10.965 I-0.302 J-0.097
N6940 X28.459 Y-11.824 Z-10.939 I-0.285 J-0.139
N6945 X28.436 Y-11.794 Z-10.907 I-0.264 J-0.176
N6950 X28.414 Y-11.77 Z-10.869 I-0.241 J-0.206
N6955 X28.395 Y-11.753 Z-10.827 I-0.219 J-0.23
N6960 X28.379 Y-11.742 Z-10.781 I-0.2 J-0.247
N6965 X28.37 Y-11.735 Z-10.732 I-0.184 J-0.258
N6970 G1 X28.367 Y-11.733 Z-10.682
N6975 G0 Z5.
N6980 X36.15 Y-12.49
N6985 Z2.318
N6990 G1 Z2.317 F600.
N6995 X36.153 Y-12.489 Z2.273 F500.
N7000 X36.162 Y-12.486 Z2.23
N7005 G3 X36.176 Y-12.481 Z2.189 I-0.162 J0.486
N7010 X36.195 Y-12.474 Z2.15 I-0.176 J0.481
N7015 X36.219 Y-12.463 Z2.114 I-0.195 J0.474
N7020 X36.246 Y-12.449 Z2.082 I-0.219 J0.463
N7025 X36.276 Y-12.432 Z2.055 I-0.246 J0.449
N7030 X36.307 Y-12.41 Z2.033 I-0.276 J0.432
N7035 X36.34 Y-12.384 Z2.016 I-0.307 J0.41
N7040 X36.371 Y-12.354 Z2.005 I-0.34 J0.384
N7045 X36.4 Y-12.32 Z2. I-0.371 J0.354
N7050 X35.6 Y-11.68 Z1.944 I-0.4 J0.32
N7055 X36.4 Y-12.32 Z1.888 I0.4 J-0.32
N7060 X35.6 Y-11.68 Z1.831 I-0.4 J0.32
N7065 X36.4 Y-12.32 Z1.775 I0.4 J-0.32
N7070 X35.6 Y-11.68 Z1.719 I-0.4 J0.32
N7075 X36.4 Y-12.32 Z1.663 I0.4 J-0.32
N7080 X35.6 Y-11.68 Z1.606 I-0.4 J0.32
N7085 X36.4 Y-12.32 Z1.55 I0.4 J-0.32
N7090 X35.6 Y-11.68 Z1.494 I-0.4 J0.32
N7095 X36.4 Y-12.32 Z1.438 I0.4 J-0.32
N7100 X35.6 Y-11.68 Z1.382 I-0.4 J0.32
N7105 X36.4 Y-12.32 Z1.325 I0.4 J-0.32
N7110 X35.6 Y-11.68 Z1.269 I-0.4 J0.32
N7115 X36.4 Y-12.32 Z1.213 I0.4 J-0.32
N7120 X35.6 Y-11.68 Z1.157 I-0.4 J0.32
N7125 X36.4 Y-12.32 Z1.1 I0.4 J-0.32
N7130 X35.6 Y-11.68 Z1.044 I-0.4 J0.32
N7135 X36.4 Y-12.32 Z0.988 I0.4 J-0.32
N7140 X35.6 Y-11.68 Z0.932 I-0.4 J0.32
N7145 X36.4 Y-12.32 Z0.876 I0.4 J-0.32
N7150 X35.6 Y-11.68 Z0.819 I-0.4 J0.32
N7155 X36.4 Y-12.32 Z0.763 I0.4 J-0.32
N7160 X35.6 Y-11.68 Z0.707 I-0.4 J0.32
N7165 X36.4 Y-12.32 Z0.651 I0.4 J-0.32
N7170 X35.6 Y-11.68 Z0.594 I-0.4 J0.32
N7175 X36.4 Y-12.32 Z0.538 I0.4 J-0.32
N7180 X35.6 Y-11.68 Z0.482 I-0.4 J0.32
N7185 X36.4 Y-12.32 Z0.426 I0.4 J-0.32
N7190 X35.6 Y-11.68 Z0.369 I-0.4 J0.32
N7195 X36.4 Y-12.32 Z0.313 I0.4 J-0.32
N7200 X35.6 Y-11.68 Z0.257 I-0.4 J0.32
N7205 X36.4 Y-12.32 Z0.201 I0.4 J-0.32
N7210 X35.6 Y-11.68 Z0.145 I-0.4 J0.32
N7215 X36.4 Y-12.32 Z0.088 I0.4 J-0.32
N7220 X35.6 Y-11.68 Z0.032 I-0.4 J0.32
N7225 X36.4 Y-12.32 Z-0.024 I0.4 J-0.32
N7230 X35.6 Y-11.68 Z-0.08 I-0.4 J0.32
N7235 X36.4 Y-12.32 Z-0.137 I0.4 J-0.32
N7240 X35.6 Y-11.68 Z-0.193 I-0.4 J0.32
N7245 X36.4 Y-12.32 Z-0.249 I0.4 J-0.32
N7250 X35.6 Y-11.68 Z-0.305 I-0.4 J0.32
N7255 X36.4 Y-12.32 Z-0.361 I0.4 J-0.32
N7260 X35.6 Y-11.68 Z-0.418 I-0.4 J0.32
N7265 X36.4 Y-12.32 Z-0.474 I0.4 J-0.32
N7270 X35.6 Y-11.68 Z-0.53 I-0.4 J0.32
N7275 X36.4 Y-12.32 Z-0.586 I0.4 J-0.32
N7280 X35.6 Y-11.68 Z-0.643 I-0.4 J0.32
N7285 X36.4 Y-12.32 Z-0.699 I0.4 J-0.32
N7290 X35.6 Y-11.68 Z-0.755 I-0.4 J0.32
N7295 X36.4 Y-12.32 Z-0.811 I0.4 J-0.32
N7300 X35.6 Y-11.68 Z-0.867 I-0.4 J0.32
N7305 X36.4 Y-12.32 Z-0.924 I0.4 J-0.32
N7310 X35.6 Y-11.68 Z-0.98 I-0.4 J0.32
N7315 X36.4 Y-12.32 Z-1.036 I0.4 J-0.32
N7320 X35.6 Y-11.68 Z-1.092 I-0.4 J0.32
N7325 X36.4 Y-12.32 Z-1.149 I0.4 J-0.32
N7330 X35.6 Y-11.68 Z-1.205 I-0.4 J0.32
N7335 X36.4 Y-12.32 Z-1.261 I0.4 J-0.32
N7340 X35.6 Y-11.68 Z-1.317 I-0.4 J0.32
N7345 X36.4 Y-12.32 Z-1.373 I0.4 J-0.32
N7350 X35.6 Y-11.68 Z-1.43 I-0.4 J0.32
N7355 X36.4 Y-12.32 Z-1.486 I0.4 J-0.32
N7360 X35.6 Y-11.68 Z-1.542 I-0.4 J0.32
N7365 X36.4 Y-12.32 Z-1.598 I0.4 J-0.32
N7370 X35.6 Y-11.68 Z-1.655 I-0.4 J0.32
N7375 X36.4 Y-12.32 Z-1.711 I0.4 J-0.32
N7380 X35.6 Y-11.68 Z-1.767 I-0.4 J0.32
N7385 X36.4 Y-12.32 Z-1.823 I0.4 J-0.32
N7390 X35.6 Y-11.68 Z-1.88 I-0.4 J0.32
N7395 X36.4 Y-12.32 Z-1.936 I0.4 J-0.32
N7400 X35.6 Y-11.68 Z-1.992 I-0.4 J0.32
N7405 X36.4 Y-12.32 Z-2.048 I0.4 J-0.32
N7410 X35.6 Y-11.68 Z-2.104 I-0.4 J0.32
N7415 X36.4 Y-12.32 Z-2.161 I0.4 J-0.32
N7420 X35.6 Y-11.68 Z-2.217 I-0.4 J0.32
N7425 X36.4 Y-12.32 Z-2.273 I0.4 J-0.32
N7430 X35.6 Y-11.68 Z-2.329 I-0.4 J0.32
N7435 X36.4 Y-12.32 Z-2.386 I0.4 J-0.32
N7440 X35.6 Y-11.68 Z-2.442 I-0.4 J0.32
N7445 X36.4 Y-12.32 Z-2.498 I0.4 J-0.32
N7450 X35.6 Y-11.68 Z-2.554 I-0.4 J0.32
N7455 X36.4 Y-12.32 Z-2.61 I0.4 J-0.32
N7460 X35.6 Y-11.68 Z-2.667 I-0.4 J0.32
N7465 X36.4 Y-12.32 Z-2.723 I0.4 J-0.32
N7470 X35.6 Y-11.68 Z-2.779 I-0.4 J0.32
N7475 X36.4 Y-12.32 Z-2.835 I0.4 J-0.32
N7480 X35.6 Y-11.68 Z-2.892 I-0.4 J0.32
N7485 X36.4 Y-12.32 Z-2.948 I0.4 J-0.32
N7490 X35.6 Y-11.68 Z-3.004 I-0.4 J0.32
N7495 X36.4 Y-12.32 Z-3.06 I0.4 J-0.32
N7500 X35.6 Y-11.68 Z-3.116 I-0.4 J0.32
N7505 X36.4 Y-12.32 Z-3.173 I0.4 J-0.32
N7510 X35.6 Y-11.68 Z-3.229 I-0.4 J0.32
N7515 X36.4 Y-12.32 Z-3.285 I0.4 J-0.32
N7520 X35.6 Y-11.68 Z-3.341 I-0.4 J0.32
N7525 X36.4 Y-12.32 Z-3.398 I0.4 J-0.32
N7530 X35.6 Y-11.68 Z-3.454 I-0.4 J0.32
N7535 X36.4 Y-12.32 Z-3.51 I0.4 J-0.32
N7540 X35.6 Y-11.68 Z-3.566 I-0.4 J0.32
N7545 X36.4 Y-12.32 Z-3.622 I0.4 J-0.32
N7550 X35.6 Y-11.68 Z-3.679 I-0.4 J0.32
N7555 X36.4 Y-12.32 Z-3.735 I0.4 J-0.32
N7560 X35.6 Y-11.68 Z-3.791 I-0.4 J0.32
N7565 X36.4 Y-12.32 Z-3.847 I0.4 J-0.32
N7570 X35.6 Y-11.68 Z-3.904 I-0.4 J0.32
N7575 X36.4 Y-12.32 Z-3.96 I0.4 J-0.32
N7580 X35.6 Y-11.68 Z-4.016 I-0.4 J0.32
N7585 X36.4 Y-12.32 Z-4.072 I0.4 J-0.32
N7590 X35.6 Y-11.68 Z-4.128 I-0.4 J0.32
N7595 X36.4 Y-12.32 Z-4.185 I0.4 J-0.32
N7600 X35.6 Y-11.68 Z-4.241 I-0.4 J0.32
N7605 X36.4 Y-12.32 Z-4.297 I0.4 J-0.32
N7610 X35.6 Y-11.68 Z-4.353 I-0.4 J0.32
N7615 X36.4 Y-12.32 Z-4.41 I0.4 J-0.32
N7620 X35.6 Y-11.68 Z-4.466 I-0.4 J0.32
N7625 X36.4 Y-12.32 Z-4.522 I0.4 J-0.32
N7630 X35.6 Y-11.68 Z-4.578 I-0.4 J0.32
N7635 X36.4 Y-12.32 Z-4.635 I0.4 J-0.32
N7640 X35.6 Y-11.68 Z-4.691 I-0.4 J0.32
N7645 X36.4 Y-12.32 Z-4.747 I0.4 J-0.32
N7650 X35.6 Y-11.68 Z-4.803 I-0.4 J0.32
N7655 X36.4 Y-12.32 Z-4.859 I0.4 J-0.32
N7660 X35.6 Y-11.68 Z-4.916 I-0.4 J0.32
N7665 X36.4 Y-12.32 Z-4.972 I0.4 J-0.32
N7670 X35.6 Y-11.68 Z-5.028 I-0.4 J0.32
N7675 X36.4 Y-12.32 Z-5.084 I0.4 J-0.32
N7680 X35.6 Y-11.68 Z-5.141 I-0.4 J0.32
N7685 X36.4 Y-12.32 Z-5.197 I0.4 J-0.32
N7690 X35.6 Y-11.68 Z-5.253 I-0.4 J0.32
N7695 X36.4 Y-12.32 Z-5.309 I0.4 J-0.32
N7700 X35.6 Y-11.68 Z-5.365 I-0.4 J0.32
N7705 X36.4 Y-12.32 Z-5.422 I0.4 J-0.32
N7710 X35.6 Y-11.68 Z-5.478 I-0.4 J0.32
N7715 X36.4 Y-12.32 Z-5.534 I0.4 J-0.32
N7720 X35.6 Y-11.68 Z-5.59 I-0.4 J0.32
N7725 X36.4 Y-12.32 Z-5.647 I0.4 J-0.32
N7730 X35.6 Y-11.68 Z-5.703 I-0.4 J0.32
N7735 X36.4 Y-12.32 Z-5.759 I0.4 J-0.32
N7740 X35.6 Y-11.68 Z-5.815 I-0.4 J0.32
N7745 X36.4 Y-12.32 Z-5.871 I0.4 J-0.32
N7750 X35.6 Y-11.68 Z-5.928 I-0.4 J0.32
N7755 X36.4 Y-12.32 Z-5.984 I0.4 J-0.32
N7760 X35.6 Y-11.68 Z-6.04 I-0.4 J0.32
N7765 X36.4 Y-12.32 Z-6.096 I0.4 J-0.32
N7770 X35.6 Y-11.68 Z-6.153 I-0.4 J0.32
N7775 X36.4 Y-12.32 Z-6.209 I0.4 J-0.32
N7780 X35.6 Y-11.68 Z-6.265 I-0.4 J0.32
N7785 X36.4 Y-12.32 Z-6.321 I0.4 J-0.32
N7790 X35.6 Y-11.68 Z-6.377 I-0.4 J0.32
N7795 X36.4 Y-12.32 Z-6.434 I0.4 J-0.32
N7800 X35.6 Y-11.68 Z-6.49 I-0.4 J0.32
N7805 X36.4 Y-12.32 Z-6.546 I0.4 J-0.32
N7810 X35.6 Y-11.68 Z-6.602 I-0.4 J0.32
N7815 X36.4 Y-12.32 Z-6.659 I0.4 J-0.32
N7820 X35.6 Y-11.68 Z-6.715 I-0.4 J0.32
N7825 X36.4 Y-12.32 Z-6.771 I0.4 J-0.32
N7830 X35.6 Y-11.68 Z-6.827 I-0.4 J0.32
N7835 X36.4 Y-12.32 Z-6.884 I0.4 J-0.32
N7840 X35.6 Y-11.68 Z-6.94 I-0.4 J0.32
N7845 X36.4 Y-12.32 Z-6.996 I0.4 J-0.32
N7850 X35.6 Y-11.68 Z-7.052 I-0.4 J0.32
N7855 X36.4 Y-12.32 Z-7.108 I0.4 J-0.32
N7860 X35.6 Y-11.68 Z-7.165 I-0.4 J0.32
N7865 X36.4 Y-12.32 Z-7.221 I0.4 J-0.32
N7870 X35.6 Y-11.68 Z-7.277 I-0.4 J0.32
N7875 X36.4 Y-12.32 Z-7.333 I0.4 J-0.32
N7880 X35.6 Y-11.68 Z-7.39 I-0.4 J0.32
N7885 X36.4 Y-12.32 Z-7.446 I0.4 J-0.32
N7890 X35.6 Y-11.68 Z-7.502 I-0.4 J0.32
N7895 X36.4 Y-12.32 Z-7.558 I0.4 J-0.32
N7900 X35.6 Y-11.68 Z-7.614 I-0.4 J0.32
N7905 X36.4 Y-12.32 Z-7.671 I0.4 J-0.32
N7910 X35.6 Y-11.68 Z-7.727 I-0.4 J0.32
N7915 X36.4 Y-12.32 Z-7.783 I0.4 J-0.32
N7920 X35.6 Y-11.68 Z-7.839 I-0.4 J0.32
N7925 X36.4 Y-12.32 Z-7.896 I0.4 J-0.32
N7930 X35.6 Y-11.68 Z-7.952 I-0.4 J0.32
N7935 X36.4 Y-12.32 Z-8.008 I0.4 J-0.32
N7940 X35.6 Y-11.68 Z-8.064 I-0.4 J0.32
N7945 X36.4 Y-12.32 Z-8.12 I0.4 J-0.32
N7950 X35.6 Y-11.68 Z-8.177 I-0.4 J0.32
N7955 X36.4 Y-12.32 Z-8.233 I0.4 J-0.32
N7960 X35.6 Y-11.68 Z-8.289 I-0.4 J0.32
N7965 X36.4 Y-12.32 Z-8.345 I0.4 J-0.32
N7970 X35.6 Y-11.68 Z-8.402 I-0.4 J0.32
N7975 X36.4 Y-12.32 Z-8.458 I0.4 J-0.32
N7980 X35.6 Y-11.68 Z-8.514 I-0.4 J0.32
N7985 X36.4 Y-12.32 Z-8.57 I0.4 J-0.32
N7990 X35.6 Y-11.68 Z-8.626 I-0.4 J0.32
N7995 X36.4 Y-12.32 Z-8.683 I0.4 J-0.32
N8000 X35.6 Y-11.68 Z-8.739 I-0.4 J0.32
N8005 X36.4 Y-12.32 Z-8.795 I0.4 J-0.32
N8010 X35.6 Y-11.68 Z-8.851 I-0.4 J0.32
N8015 X36.4 Y-12.32 Z-8.908 I0.4 J-0.32
N8020 X35.6 Y-11.68 Z-8.964 I-0.4 J0.32
N8025 X36.4 Y-12.32 Z-9.02 I0.4 J-0.32
N8030 X35.6 Y-11.68 Z-9.076 I-0.4 J0.32
N8035 X36.4 Y-12.32 Z-9.133 I0.4 J-0.32
N8040 X35.6 Y-11.68 Z-9.189 I-0.4 J0.32
N8045 X36.4 Y-12.32 Z-9.245 I0.4 J-0.32
N8050 X35.6 Y-11.68 Z-9.301 I-0.4 J0.32
N8055 X36.4 Y-12.32 Z-9.357 I0.4 J-0.32
N8060 X35.6 Y-11.68 Z-9.414 I-0.4 J0.32
N8065 X36.4 Y-12.32 Z-9.47 I0.4 J-0.32
N8070 X35.6 Y-11.68 Z-9.526 I-0.4 J0.32
N8075 X36.4 Y-12.32 Z-9.582 I0.4 J-0.32
N8080 X35.6 Y-11.68 Z-9.639 I-0.4 J0.32
N8085 X36.4 Y-12.32 Z-9.695 I0.4 J-0.32
N8090 X35.6 Y-11.68 Z-9.751 I-0.4 J0.32
N8095 X36.4 Y-12.32 Z-9.807 I0.4 J-0.32
N8100 X35.6 Y-11.68 Z-9.863 I-0.4 J0.32
N8105 X36.4 Y-12.32 Z-9.92 I0.4 J-0.32
N8110 X35.6 Y-11.68 Z-9.976 I-0.4 J0.32
N8115 X36.4 Y-12.32 Z-10.032 I0.4 J-0.32
N8120 X35.6 Y-11.68 Z-10.088 I-0.4 J0.32
N8125 X36.4 Y-12.32 Z-10.145 I0.4 J-0.32
N8130 X35.6 Y-11.68 Z-10.201 I-0.4 J0.32
N8135 X36.4 Y-12.32 Z-10.257 I0.4 J-0.32
N8140 X35.6 Y-11.68 Z-10.313 I-0.4 J0.32
N8145 X36.4 Y-12.32 Z-10.369 I0.4 J-0.32
N8150 X35.6 Y-11.68 Z-10.426 I-0.4 J0.32
N8155 X36.4 Y-12.32 Z-10.482 I0.4 J-0.32
N8160 X35.6 Y-11.68 Z-10.538 I-0.4 J0.32
N8165 X36.4 Y-12.32 Z-10.594 I0.4 J-0.32
N8170 X35.6 Y-11.68 Z-10.651 I-0.4 J0.32
N8175 X36.4 Y-12.32 Z-10.707 I0.4 J-0.32
N8180 X35.6 Y-11.68 Z-10.763 I-0.4 J0.32
N8185 X36.4 Y-12.32 Z-10.819 I0.4 J-0.32
N8190 X35.6 Y-11.68 Z-10.875 I-0.4 J0.32
N8195 X36.4 Y-12.32 Z-10.932 I0.4 J-0.32
N8200 X35.6 Y-11.68 Z-10.988 I-0.4 J0.32
N8205 X35.487 Y-12. Z-11. I0.4 J-0.32
N8210 X36.013 I0.263 J0.
N8215 X35.987 I-0.013 J0. F600.
N8220 X36.112 I0.063 J0.
N8225 X35.888 I-0.112 J0.
N8230 X36.213 I0.162 J0.
N8235 X35.787 I-0.213 J0.
N8240 X36.313 I0.263 J0.
N8245 X35.688 I-0.313 J0.
N8250 X36.412 I0.362 J0.
N8255 X35.588 I-0.412 J0.
N8260 X36.513 I0.462 J0.
N8265 X35.487 I-0.513 J0.
N8270 X36.513 I0.513 J0.
N8275 X36.509 Y-11.951 Z-10.996 I-0.318 J0.
N8280 X36.497 Y-11.903 Z-10.984 I-0.314 J-0.049
N8285 X36.48 Y-11.861 Z-10.965 I-0.302 J-0.097
N8290 X36.459 Y-11.824 Z-10.939 I-0.285 J-0.139
N8295 X36.436 Y-11.794 Z-10.907 I-0.264 J-0.176
N8300 X36.414 Y-11.77 Z-10.869 I-0.241 J-0.206
N8305 X36.395 Y-11.753 Z-10.827 I-0.219 J-0.23
N8310 X36.379 Y-11.742 Z-10.781 I-0.2 J-0.247
N8315 X36.37 Y-11.735 Z-10.732 I-0.184 J-0.258
N8320 G1 X36.367 Y-11.733 Z-10.682
N8325 G0 Z5.
N8330 X36.15 Y-3.49
N8335 Z2.318
N8340 G1 Z2.317 F600.
N8345 X36.153 Y-3.489 Z2.273 F500.
N8350 X36.162 Y-3.486 Z2.23
N8355 G3 X36.176 Y-3.481 Z2.189 I-0.162 J0.486
N8360 X36.195 Y-3.474 Z2.15 I-0.176 J0.481
N8365 X36.219 Y-3.463 Z2.114 I-0.195 J0.474
N8370 X36.246 Y-3.449 Z2.082 I-0.219 J0.463
N8375 X36.276 Y-3.432 Z2.055 I-0.246 J0.449
N8380 X36.307 Y-3.41 Z2.033 I-0.276 J0.432
N8385 X36.34 Y-3.384 Z2.016 I-0.307 J0.41
N8390 X36.371 Y-3.354 Z2.005 I-0.34 J0.384
N8395 X36.4 Y-3.32 Z2. I-0.371 J0.354
N8400 X35.6 Y-2.68 Z1.944 I-0.4 J0.32
N8405 X36.4 Y-3.32 Z1.888 I0.4 J-0.32
N8410 X35.6 Y-2.68 Z1.831 I-0.4 J0.32
N8415 X36.4 Y-3.32 Z1.775 I0.4 J-0.32
N8420 X35.6 Y-2.68 Z1.719 I-0.4 J0.32
N8425 X36.4 Y-3.32 Z1.663 I0.4 J-0.32
N8430 X35.6 Y-2.68 Z1.606 I-0.4 J0.32
N8435 X36.4 Y-3.32 Z1.55 I0.4 J-0.32
N8440 X35.6 Y-2.68 Z1.494 I-0.4 J0.32
N8445 X36.4 Y-3.32 Z1.438 I0.4 J-0.32
N8450 X35.6 Y-2.68 Z1.382 I-0.4 J0.32
N8455 X36.4 Y-3.32 Z1.325 I0.4 J-0.32
N8460 X35.6 Y-2.68 Z1.269 I-0.4 J0.32
N8465 X36.4 Y-3.32 Z1.213 I0.4 J-0.32
N8470 X35.6 Y-2.68 Z1.157 I-0.4 J0.32
N8475 X36.4 Y-3.32 Z1.1 I0.4 J-0.32
N8480 X35.6 Y-2.68 Z1.044 I-0.4 J0.32
N8485 X36.4 Y-3.32 Z0.988 I0.4 J-0.32
N8490 X35.6 Y-2.68 Z0.932 I-0.4 J0.32
N8495 X36.4 Y-3.32 Z0.876 I0.4 J-0.32
N8500 X35.6 Y-2.68 Z0.819 I-0.4 J0.32
N8505 X36.4 Y-3.32 Z0.763 I0.4 J-0.32
N8510 X35.6 Y-2.68 Z0.707 I-0.4 J0.32
N8515 X36.4 Y-3.32 Z0.651 I0.4 J-0.32
N8520 X35.6 Y-2.68 Z0.594 I-0.4 J0.32
N8525 X36.4 Y-3.32 Z0.538 I0.4 J-0.32
N8530 X35.6 Y-2.68 Z0.482 I-0.4 J0.32
N8535 X36.4 Y-3.32 Z0.426 I0.4 J-0.32
N8540 X35.6 Y-2.68 Z0.369 I-0.4 J0.32
N8545 X36.4 Y-3.32 Z0.313 I0.4 J-0.32
N8550 X35.6 Y-2.68 Z0.257 I-0.4 J0.32
N8555 X36.4 Y-3.32 Z0.201 I0.4 J-0.32
N8560 X35.6 Y-2.68 Z0.145 I-0.4 J0.32
N8565 X36.4 Y-3.32 Z0.088 I0.4 J-0.32
N8570 X35.6 Y-2.68 Z0.032 I-0.4 J0.32
N8575 X36.4 Y-3.32 Z-0.024 I0.4 J-0.32
N8580 X35.6 Y-2.68 Z-0.08 I-0.4 J0.32
N8585 X36.4 Y-3.32 Z-0.137 I0.4 J-0.32
N8590 X35.6 Y-2.68 Z-0.193 I-0.4 J0.32
N8595 X36.4 Y-3.32 Z-0.249 I0.4 J-0.32
N8600 X35.6 Y-2.68 Z-0.305 I-0.4 J0.32
N8605 X36.4 Y-3.32 Z-0.361 I0.4 J-0.32
N8610 X35.6 Y-2.68 Z-0.418 I-0.4 J0.32
N8615 X36.4 Y-3.32 Z-0.474 I0.4 J-0.32
N8620 X35.6 Y-2.68 Z-0.53 I-0.4 J0.32
N8625 X36.4 Y-3.32 Z-0.586 I0.4 J-0.32
N8630 X35.6 Y-2.68 Z-0.643 I-0.4 J0.32
N8635 X36.4 Y-3.32 Z-0.699 I0.4 J-0.32
N8640 X35.6 Y-2.68 Z-0.755 I-0.4 J0.32
N8645 X36.4 Y-3.32 Z-0.811 I0.4 J-0.32
N8650 X35.6 Y-2.68 Z-0.867 I-0.4 J0.32
N8655 X36.4 Y-3.32 Z-0.924 I0.4 J-0.32
N8660 X35.6 Y-2.68 Z-0.98 I-0.4 J0.32
N8665 X36.4 Y-3.32 Z-1.036 I0.4 J-0.32
N8670 X35.6 Y-2.68 Z-1.092 I-0.4 J0.32
N8675 X36.4 Y-3.32 Z-1.149 I0.4 J-0.32
N8680 X35.6 Y-2.68 Z-1.205 I-0.4 J0.32
N8685 X36.4 Y-3.32 Z-1.261 I0.4 J-0.32
N8690 X35.6 Y-2.68 Z-1.317 I-0.4 J0.32
N8695 X36.4 Y-3.32 Z-1.373 I0.4 J-0.32
N8700 X35.6 Y-2.68 Z-1.43 I-0.4 J0.32
N8705 X36.4 Y-3.32 Z-1.486 I0.4 J-0.32
N8710 X35.6 Y-2.68 Z-1.542 I-0.4 J0.32
N8715 X36.4 Y-3.32 Z-1.598 I0.4 J-0.32
N8720 X35.6 Y-2.68 Z-1.655 I-0.4 J0.32
N8725 X36.4 Y-3.32 Z-1.711 I0.4 J-0.32
N8730 X35.6 Y-2.68 Z-1.767 I-0.4 J0.32
N8735 X36.4 Y-3.32 Z-1.823 I0.4 J-0.32
N8740 X35.6 Y-2.68 Z-1.88 I-0.4 J0.32
N8745 X36.4 Y-3.32 Z-1.936 I0.4 J-0.32
N8750 X35.6 Y-2.68 Z-1.992 I-0.4 J0.32
N8755 X36.4 Y-3.32 Z-2.048 I0.4 J-0.32
N8760 X35.6 Y-2.68 Z-2.104 I-0.4 J0.32
N8765 X36.4 Y-3.32 Z-2.161 I0.4 J-0.32
N8770 X35.6 Y-2.68 Z-2.217 I-0.4 J0.32
N8775 X36.4 Y-3.32 Z-2.273 I0.4 J-0.32
N8780 X35.6 Y-2.68 Z-2.329 I-0.4 J0.32
N8785 X36.4 Y-3.32 Z-2.386 I0.4 J-0.32
N8790 X35.6 Y-2.68 Z-2.442 I-0.4 J0.32
N8795 X36.4 Y-3.32 Z-2.498 I0.4 J-0.32
N8800 X35.6 Y-2.68 Z-2.554 I-0.4 J0.32
N8805 X36.4 Y-3.32 Z-2.61 I0.4 J-0.32
N8810 X35.6 Y-2.68 Z-2.667 I-0.4 J0.32
N8815 X36.4 Y-3.32 Z-2.723 I0.4 J-0.32
N8820 X35.6 Y-2.68 Z-2.779 I-0.4 J0.32
N8825 X36.4 Y-3.32 Z-2.835 I0.4 J-0.32
N8830 X35.6 Y-2.68 Z-2.892 I-0.4 J0.32
N8835 X36.4 Y-3.32 Z-2.948 I0.4 J-0.32
N8840 X35.6 Y-2.68 Z-3.004 I-0.4 J0.32
N8845 X36.4 Y-3.32 Z-3.06 I0.4 J-0.32
N8850 X35.6 Y-2.68 Z-3.116 I-0.4 J0.32
N8855 X36.4 Y-3.32 Z-3.173 I0.4 J-0.32
N8860 X35.6 Y-2.68 Z-3.229 I-0.4 J0.32
N8865 X36.4 Y-3.32 Z-3.285 I0.4 J-0.32
N8870 X35.6 Y-2.68 Z-3.341 I-0.4 J0.32
N8875 X36.4 Y-3.32 Z-3.398 I0.4 J-0.32
N8880 X35.6 Y-2.68 Z-3.454 I-0.4 J0.32
N8885 X36.4 Y-3.32 Z-3.51 I0.4 J-0.32
N8890 X35.6 Y-2.68 Z-3.566 I-0.4 J0.32
N8895 X36.4 Y-3.32 Z-3.622 I0.4 J-0.32
N8900 X35.6 Y-2.68 Z-3.679 I-0.4 J0.32
N8905 X36.4 Y-3.32 Z-3.735 I0.4 J-0.32
N8910 X35.6 Y-2.68 Z-3.791 I-0.4 J0.32
N8915 X36.4 Y-3.32 Z-3.847 I0.4 J-0.32
N8920 X35.6 Y-2.68 Z-3.904 I-0.4 J0.32
N8925 X36.4 Y-3.32 Z-3.96 I0.4 J-0.32
N8930 X35.6 Y-2.68 Z-4.016 I-0.4 J0.32
N8935 X36.4 Y-3.32 Z-4.072 I0.4 J-0.32
N8940 X35.6 Y-2.68 Z-4.128 I-0.4 J0.32
N8945 X36.4 Y-3.32 Z-4.185 I0.4 J-0.32
N8950 X35.6 Y-2.68 Z-4.241 I-0.4 J0.32
N8955 X36.4 Y-3.32 Z-4.297 I0.4 J-0.32
N8960 X35.6 Y-2.68 Z-4.353 I-0.4 J0.32
N8965 X36.4 Y-3.32 Z-4.41 I0.4 J-0.32
N8970 X35.6 Y-2.68 Z-4.466 I-0.4 J0.32
N8975 X36.4 Y-3.32 Z-4.522 I0.4 J-0.32
N8980 X35.6 Y-2.68 Z-4.578 I-0.4 J0.32
N8985 X36.4 Y-3.32 Z-4.635 I0.4 J-0.32
N8990 X35.6 Y-2.68 Z-4.691 I-0.4 J0.32
N8995 X36.4 Y-3.32 Z-4.747 I0.4 J-0.32
N9000 X35.6 Y-2.68 Z-4.803 I-0.4 J0.32
N9005 X36.4 Y-3.32 Z-4.859 I0.4 J-0.32
N9010 X35.6 Y-2.68 Z-4.916 I-0.4 J0.32
N9015 X36.4 Y-3.32 Z-4.972 I0.4 J-0.32
N9020 X35.6 Y-2.68 Z-5.028 I-0.4 J0.32
N9025 X36.4 Y-3.32 Z-5.084 I0.4 J-0.32
N9030 X35.6 Y-2.68 Z-5.141 I-0.4 J0.32
N9035 X36.4 Y-3.32 Z-5.197 I0.4 J-0.32
N9040 X35.6 Y-2.68 Z-5.253 I-0.4 J0.32
N9045 X36.4 Y-3.32 Z-5.309 I0.4 J-0.32
N9050 X35.6 Y-2.68 Z-5.365 I-0.4 J0.32
N9055 X36.4 Y-3.32 Z-5.422 I0.4 J-0.32
N9060 X35.6 Y-2.68 Z-5.478 I-0.4 J0.32
N9065 X36.4 Y-3.32 Z-5.534 I0.4 J-0.32
N9070 X35.6 Y-2.68 Z-5.59 I-0.4 J0.32
N9075 X36.4 Y-3.32 Z-5.647 I0.4 J-0.32
N9080 X35.6 Y-2.68 Z-5.703 I-0.4 J0.32
N9085 X36.4 Y-3.32 Z-5.759 I0.4 J-0.32
N9090 X35.6 Y-2.68 Z-5.815 I-0.4 J0.32
N9095 X36.4 Y-3.32 Z-5.871 I0.4 J-0.32
N9100 X35.6 Y-2.68 Z-5.928 I-0.4 J0.32
N9105 X36.4 Y-3.32 Z-5.984 I0.4 J-0.32
N9110 X35.6 Y-2.68 Z-6.04 I-0.4 J0.32
N9115 X36.4 Y-3.32 Z-6.096 I0.4 J-0.32
N9120 X35.6 Y-2.68 Z-6.153 I-0.4 J0.32
N9125 X36.4 Y-3.32 Z-6.209 I0.4 J-0.32
N9130 X35.6 Y-2.68 Z-6.265 I-0.4 J0.32
N9135 X36.4 Y-3.32 Z-6.321 I0.4 J-0.32
N9140 X35.6 Y-2.68 Z-6.377 I-0.4 J0.32
N9145 X36.4 Y-3.32 Z-6.434 I0.4 J-0.32
N9150 X35.6 Y-2.68 Z-6.49 I-0.4 J0.32
N9155 X36.4 Y-3.32 Z-6.546 I0.4 J-0.32
N9160 X35.6 Y-2.68 Z-6.602 I-0.4 J0.32
N9165 X36.4 Y-3.32 Z-6.659 I0.4 J-0.32
N9170 X35.6 Y-2.68 Z-6.715 I-0.4 J0.32
N9175 X36.4 Y-3.32 Z-6.771 I0.4 J-0.32
N9180 X35.6 Y-2.68 Z-6.827 I-0.4 J0.32
N9185 X36.4 Y-3.32 Z-6.884 I0.4 J-0.32
N9190 X35.6 Y-2.68 Z-6.94 I-0.4 J0.32
N9195 X36.4 Y-3.32 Z-6.996 I0.4 J-0.32
N9200 X35.6 Y-2.68 Z-7.052 I-0.4 J0.32
N9205 X36.4 Y-3.32 Z-7.108 I0.4 J-0.32
N9210 X35.6 Y-2.68 Z-7.165 I-0.4 J0.32
N9215 X36.4 Y-3.32 Z-7.221 I0.4 J-0.32
N9220 X35.6 Y-2.68 Z-7.277 I-0.4 J0.32
N9225 X36.4 Y-3.32 Z-7.333 I0.4 J-0.32
N9230 X35.6 Y-2.68 Z-7.39 I-0.4 J0.32
N9235 X36.4 Y-3.32 Z-7.446 I0.4 J-0.32
N9240 X35.6 Y-2.68 Z-7.502 I-0.4 J0.32
N9245 X36.4 Y-3.32 Z-7.558 I0.4 J-0.32
N9250 X35.6 Y-2.68 Z-7.614 I-0.4 J0.32
N9255 X36.4 Y-3.32 Z-7.671 I0.4 J-0.32
N9260 X35.6 Y-2.68 Z-7.727 I-0.4 J0.32
N9265 X36.4 Y-3.32 Z-7.783 I0.4 J-0.32
N9270 X35.6 Y-2.68 Z-7.839 I-0.4 J0.32
N9275 X36.4 Y-3.32 Z-7.896 I0.4 J-0.32
N9280 X35.6 Y-2.68 Z-7.952 I-0.4 J0.32
N9285 X36.4 Y-3.32 Z-8.008 I0.4 J-0.32
N9290 X35.6 Y-2.68 Z-8.064 I-0.4 J0.32
N9295 X36.4 Y-3.32 Z-8.12 I0.4 J-0.32
N9300 X35.6 Y-2.68 Z-8.177 I-0.4 J0.32
N9305 X36.4 Y-3.32 Z-8.233 I0.4 J-0.32
N9310 X35.6 Y-2.68 Z-8.289 I-0.4 J0.32
N9315 X36.4 Y-3.32 Z-8.345 I0.4 J-0.32
N9320 X35.6 Y-2.68 Z-8.402 I-0.4 J0.32
N9325 X36.4 Y-3.32 Z-8.458 I0.4 J-0.32
N9330 X35.6 Y-2.68 Z-8.514 I-0.4 J0.32
N9335 X36.4 Y-3.32 Z-8.57 I0.4 J-0.32
N9340 X35.6 Y-2.68 Z-8.626 I-0.4 J0.32
N9345 X36.4 Y-3.32 Z-8.683 I0.4 J-0.32
N9350 X35.6 Y-2.68 Z-8.739 I-0.4 J0.32
N9355 X36.4 Y-3.32 Z-8.795 I0.4 J-0.32
N9360 X35.6 Y-2.68 Z-8.851 I-0.4 J0.32
N9365 X36.4 Y-3.32 Z-8.908 I0.4 J-0.32
N9370 X35.6 Y-2.68 Z-8.964 I-0.4 J0.32
N9375 X36.4 Y-3.32 Z-9.02 I0.4 J-0.32
N9380 X35.6 Y-2.68 Z-9.076 I-0.4 J0.32
N9385 X36.4 Y-3.32 Z-9.133 I0.4 J-0.32
N9390 X35.6 Y-2.68 Z-9.189 I-0.4 J0.32
N9395 X36.4 Y-3.32 Z-9.245 I0.4 J-0.32
N9400 X35.6 Y-2.68 Z-9.301 I-0.4 J0.32
N9405 X36.4 Y-3.32 Z-9.357 I0.4 J-0.32
N9410 X35.6 Y-2.68 Z-9.414 I-0.4 J0.32
N9415 X36.4 Y-3.32 Z-9.47 I0.4 J-0.32
N9420 X35.6 Y-2.68 Z-9.526 I-0.4 J0.32
N9425 X36.4 Y-3.32 Z-9.582 I0.4 J-0.32
N9430 X35.6 Y-2.68 Z-9.639 I-0.4 J0.32
N9435 X36.4 Y-3.32 Z-9.695 I0.4 J-0.32
N9440 X35.6 Y-2.68 Z-9.751 I-0.4 J0.32
N9445 X36.4 Y-3.32 Z-9.807 I0.4 J-0.32
N9450 X35.6 Y-2.68 Z-9.863 I-0.4 J0.32
N9455 X36.4 Y-3.32 Z-9.92 I0.4 J-0.32
N9460 X35.6 Y-2.68 Z-9.976 I-0.4 J0.32
N9465 X36.4 Y-3.32 Z-10.032 I0.4 J-0.32
N9470 X35.6 Y-2.68 Z-10.088 I-0.4 J0.32
N9475 X36.4 Y-3.32 Z-10.145 I0.4 J-0.32
N9480 X35.6 Y-2.68 Z-10.201 I-0.4 J0.32
N9485 X36.4 Y-3.32 Z-10.257 I0.4 J-0.32
N9490 X35.6 Y-2.68 Z-10.313 I-0.4 J0.32
N9495 X36.4 Y-3.32 Z-10.369 I0.4 J-0.32
N9500 X35.6 Y-2.68 Z-10.426 I-0.4 J0.32
N9505 X36.4 Y-3.32 Z-10.482 I0.4 J-0.32
N9510 X35.6 Y-2.68 Z-10.538 I-0.4 J0.32
N9515 X36.4 Y-3.32 Z-10.594 I0.4 J-0.32
N9520 X35.6 Y-2.68 Z-10.651 I-0.4 J0.32
N9525 X36.4 Y-3.32 Z-10.707 I0.4 J-0.32
N9530 X35.6 Y-2.68 Z-10.763 I-0.4 J0.32
N9535 X36.4 Y-3.32 Z-10.819 I0.4 J-0.32
N9540 X35.6 Y-2.68 Z-10.875 I-0.4 J0.32
N9545 X36.4 Y-3.32 Z-10.932 I0.4 J-0.32
N9550 X35.6 Y-2.68 Z-10.988 I-0.4 J0.32
N9555 X35.487 Y-3. Z-11. I0.4 J-0.32
N9560 X36.013 I0.263 J0.
N9565 X35.987 I-0.013 J0. F600.
N9570 X36.112 I0.063 J0.
N9575 X35.888 I-0.112 J0.
N9580 X36.213 I0.162 J0.
N9585 X35.787 I-0.213 J0.
N9590 X36.313 I0.263 J0.
N9595 X35.688 I-0.313 J0.
N9600 X36.412 I0.362 J0.
N9605 X35.588 I-0.412 J0.
N9610 X36.513 I0.462 J0.
N9615 X35.487 I-0.513 J0.
N9620 X36.513 I0.513 J0.
N9625 X36.509 Y-2.951 Z-10.996 I-0.318 J0.
N9630 X36.497 Y-2.903 Z-10.984 I-0.314 J-0.049
N9635 X36.48 Y-2.861 Z-10.965 I-0.302 J-0.097
N9640 X36.459 Y-2.824 Z-10.939 I-0.285 J-0.139
N9645 X36.436 Y-2.794 Z-10.907 I-0.264 J-0.176
N9650 X36.414 Y-2.77 Z-10.869 I-0.241 J-0.206
N9655 X36.395 Y-2.753 Z-10.827 I-0.219 J-0.23
N9660 X36.379 Y-2.742 Z-10.781 I-0.2 J-0.247
N9665 X36.37 Y-2.735 Z-10.732 I-0.184 J-0.258
N9670 G1 X36.367 Y-2.733 Z-10.682
N9675 G0 Z5.
N9680 X28.15 Y-3.49
N9685 Z2.318
N9690 G1 Z2.317 F600.
N9695 X28.153 Y-3.489 Z2.273 F500.
N9700 X28.162 Y-3.486 Z2.23
N9705 G3 X28.176 Y-3.481 Z2.189 I-0.162 J0.486
N9710 X28.195 Y-3.474 Z2.15 I-0.176 J0.481
N9715 X28.219 Y-3.463 Z2.114 I-0.195 J0.474
N9720 X28.246 Y-3.449 Z2.082 I-0.219 J0.463
N9725 X28.276 Y-3.432 Z2.055 I-0.246 J0.449
N9730 X28.308 Y-3.41 Z2.033 I-0.276 J0.432
N9735 X28.34 Y-3.384 Z2.016 I-0.308 J0.41
N9740 X28.371 Y-3.354 Z2.005 I-0.34 J0.384
N9745 X28.4 Y-3.32 Z2. I-0.371 J0.354
N9750 X27.6 Y-2.68 Z1.944 I-0.4 J0.32
N9755 X28.4 Y-3.32 Z1.888 I0.4 J-0.32
N9760 X27.6 Y-2.68 Z1.831 I-0.4 J0.32
N9765 X28.4 Y-3.32 Z1.775 I0.4 J-0.32
N9770 X27.6 Y-2.68 Z1.719 I-0.4 J0.32
N9775 X28.4 Y-3.32 Z1.663 I0.4 J-0.32
N9780 X27.6 Y-2.68 Z1.606 I-0.4 J0.32
N9785 X28.4 Y-3.32 Z1.55 I0.4 J-0.32
N9790 X27.6 Y-2.68 Z1.494 I-0.4 J0.32
N9795 X28.4 Y-3.32 Z1.438 I0.4 J-0.32
N9800 X27.6 Y-2.68 Z1.382 I-0.4 J0.32
N9805 X28.4 Y-3.32 Z1.325 I0.4 J-0.32
N9810 X27.6 Y-2.68 Z1.269 I-0.4 J0.32
N9815 X28.4 Y-3.32 Z1.213 I0.4 J-0.32
N9820 X27.6 Y-2.68 Z1.157 I-0.4 J0.32
N9825 X28.4 Y-3.32 Z1.1 I0.4 J-0.32
N9830 X27.6 Y-2.68 Z1.044 I-0.4 J0.32
N9835 X28.4 Y-3.32 Z0.988 I0.4 J-0.32
N9840 X27.6 Y-2.68 Z0.932 I-0.4 J0.32
N9845 X28.4 Y-3.32 Z0.876 I0.4 J-0.32
N9850 X27.6 Y-2.68 Z0.819 I-0.4 J0.32
N9855 X28.4 Y-3.32 Z0.763 I0.4 J-0.32
N9860 X27.6 Y-2.68 Z0.707 I-0.4 J0.32
N9865 X28.4 Y-3.32 Z0.651 I0.4 J-0.32
N9870 X27.6 Y-2.68 Z0.594 I-0.4 J0.32
N9875 X28.4 Y-3.32 Z0.538 I0.4 J-0.32
N9880 X27.6 Y-2.68 Z0.482 I-0.4 J0.32
N9885 X28.4 Y-3.32 Z0.426 I0.4 J-0.32
N9890 X27.6 Y-2.68 Z0.369 I-0.4 J0.32
N9895 X28.4 Y-3.32 Z0.313 I0.4 J-0.32
N9900 X27.6 Y-2.68 Z0.257 I-0.4 J0.32
N9905 X28.4 Y-3.32 Z0.201 I0.4 J-0.32
N9910 X27.6 Y-2.68 Z0.145 I-0.4 J0.32
N9915 X28.4 Y-3.32 Z0.088 I0.4 J-0.32
N9920 X27.6 Y-2.68 Z0.032 I-0.4 J0.32
N9925 X28.4 Y-3.32 Z-0.024 I0.4 J-0.32
N9930 X27.6 Y-2.68 Z-0.08 I-0.4 J0.32
N9935 X28.4 Y-3.32 Z-0.137 I0.4 J-0.32
N9940 X27.6 Y-2.68 Z-0.193 I-0.4 J0.32
N9945 X28.4 Y-3.32 Z-0.249 I0.4 J-0.32
N9950 X27.6 Y-2.68 Z-0.305 I-0.4 J0.32
N9955 X28.4 Y-3.32 Z-0.361 I0.4 J-0.32
N9960 X27.6 Y-2.68 Z-0.418 I-0.4 J0.32
N9965 X28.4 Y-3.32 Z-0.474 I0.4 J-0.32
N9970 X27.6 Y-2.68 Z-0.53 I-0.4 J0.32
N9975 X28.4 Y-3.32 Z-0.586 I0.4 J-0.32
N9980 X27.6 Y-2.68 Z-0.643 I-0.4 J0.32
N9985 X28.4 Y-3.32 Z-0.699 I0.4 J-0.32
N9990 X27.6 Y-2.68 Z-0.755 I-0.4 J0.32
N9995 X28.4 Y-3.32 Z-0.811 I0.4 J-0.32
N10000 X27.6 Y-2.68 Z-0.867 I-0.4 J0.32
N10005 X28.4 Y-3.32 Z-0.924 I0.4 J-0.32
N10010 X27.6 Y-2.68 Z-0.98 I-0.4 J0.32
N10015 X28.4 Y-3.32 Z-1.036 I0.4 J-0.32
N10020 X27.6 Y-2.68 Z-1.092 I-0.4 J0.32
N10025 X28.4 Y-3.32 Z-1.149 I0.4 J-0.32
N10030 X27.6 Y-2.68 Z-1.205 I-0.4 J0.32
N10035 X28.4 Y-3.32 Z-1.261 I0.4 J-0.32
N10040 X27.6 Y-2.68 Z-1.317 I-0.4 J0.32
N10045 X28.4 Y-3.32 Z-1.373 I0.4 J-0.32
N10050 X27.6 Y-2.68 Z-1.43 I-0.4 J0.32
N10055 X28.4 Y-3.32 Z-1.486 I0.4 J-0.32
N10060 X27.6 Y-2.68 Z-1.542 I-0.4 J0.32
N10065 X28.4 Y-3.32 Z-1.598 I0.4 J-0.32
N10070 X27.6 Y-2.68 Z-1.655 I-0.4 J0.32
N10075 X28.4 Y-3.32 Z-1.711 I0.4 J-0.32
N10080 X27.6 Y-2.68 Z-1.767 I-0.4 J0.32
N10085 X28.4 Y-3.32 Z-1.823 I0.4 J-0.32
N10090 X27.6 Y-2.68 Z-1.88 I-0.4 J0.32
N10095 X28.4 Y-3.32 Z-1.936 I0.4 J-0.32
N10100 X27.6 Y-2.68 Z-1.992 I-0.4 J0.32
N10105 X28.4 Y-3.32 Z-2.048 I0.4 J-0.32
N10110 X27.6 Y-2.68 Z-2.104 I-0.4 J0.32
N10115 X28.4 Y-3.32 Z-2.161 I0.4 J-0.32
N10120 X27.6 Y-2.68 Z-2.217 I-0.4 J0.32
N10125 X28.4 Y-3.32 Z-2.273 I0.4 J-0.32
N10130 X27.6 Y-2.68 Z-2.329 I-0.4 J0.32
N10135 X28.4 Y-3.32 Z-2.386 I0.4 J-0.32
N10140 X27.6 Y-2.68 Z-2.442 I-0.4 J0.32
N10145 X28.4 Y-3.32 Z-2.498 I0.4 J-0.32
N10150 X27.6 Y-2.68 Z-2.554 I-0.4 J0.32
N10155 X28.4 Y-3.32 Z-2.61 I0.4 J-0.32
N10160 X27.6 Y-2.68 Z-2.667 I-0.4 J0.32
N10165 X28.4 Y-3.32 Z-2.723 I0.4 J-0.32
N10170 X27.6 Y-2.68 Z-2.779 I-0.4 J0.32
N10175 X28.4 Y-3.32 Z-2.835 I0.4 J-0.32
N10180 X27.6 Y-2.68 Z-2.892 I-0.4 J0.32
N10185 X28.4 Y-3.32 Z-2.948 I0.4 J-0.32
N10190 X27.6 Y-2.68 Z-3.004 I-0.4 J0.32
N10195 X28.4 Y-3.32 Z-3.06 I0.4 J-0.32
N10200 X27.6 Y-2.68 Z-3.116 I-0.4 J0.32
N10205 X28.4 Y-3.32 Z-3.173 I0.4 J-0.32
N10210 X27.6 Y-2.68 Z-3.229 I-0.4 J0.32
N10215 X28.4 Y-3.32 Z-3.285 I0.4 J-0.32
N10220 X27.6 Y-2.68 Z-3.341 I-0.4 J0.32
N10225 X28.4 Y-3.32 Z-3.398 I0.4 J-0.32
N10230 X27.6 Y-2.68 Z-3.454 I-0.4 J0.32
N10235 X28.4 Y-3.32 Z-3.51 I0.4 J-0.32
N10240 X27.6 Y-2.68 Z-3.566 I-0.4 J0.32
N10245 X28.4 Y-3.32 Z-3.622 I0.4 J-0.32
N10250 X27.6 Y-2.68 Z-3.679 I-0.4 J0.32
N10255 X28.4 Y-3.32 Z-3.735 I0.4 J-0.32
N10260 X27.6 Y-2.68 Z-3.791 I-0.4 J0.32
N10265 X28.4 Y-3.32 Z-3.847 I0.4 J-0.32
N10270 X27.6 Y-2.68 Z-3.904 I-0.4 J0.32
N10275 X28.4 Y-3.32 Z-3.96 I0.4 J-0.32
N10280 X27.6 Y-2.68 Z-4.016 I-0.4 J0.32
N10285 X28.4 Y-3.32 Z-4.072 I0.4 J-0.32
N10290 X27.6 Y-2.68 Z-4.128 I-0.4 J0.32
N10295 X28.4 Y-3.32 Z-4.185 I0.4 J-0.32
N10300 X27.6 Y-2.68 Z-4.241 I-0.4 J0.32
N10305 X28.4 Y-3.32 Z-4.297 I0.4 J-0.32
N10310 X27.6 Y-2.68 Z-4.353 I-0.4 J0.32
N10315 X28.4 Y-3.32 Z-4.41 I0.4 J-0.32
N10320 X27.6 Y-2.68 Z-4.466 I-0.4 J0.32
N10325 X28.4 Y-3.32 Z-4.522 I0.4 J-0.32
N10330 X27.6 Y-2.68 Z-4.578 I-0.4 J0.32
N10335 X28.4 Y-3.32 Z-4.635 I0.4 J-0.32
N10340 X27.6 Y-2.68 Z-4.691 I-0.4 J0.32
N10345 X28.4 Y-3.32 Z-4.747 I0.4 J-0.32
N10350 X27.6 Y-2.68 Z-4.803 I-0.4 J0.32
N10355 X28.4 Y-3.32 Z-4.859 I0.4 J-0.32
N10360 X27.6 Y-2.68 Z-4.916 I-0.4 J0.32
N10365 X28.4 Y-3.32 Z-4.972 I0.4 J-0.32
N10370 X27.6 Y-2.68 Z-5.028 I-0.4 J0.32
N10375 X28.4 Y-3.32 Z-5.084 I0.4 J-0.32
N10380 X27.6 Y-2.68 Z-5.141 I-0.4 J0.32
N10385 X28.4 Y-3.32 Z-5.197 I0.4 J-0.32
N10390 X27.6 Y-2.68 Z-5.253 I-0.4 J0.32
N10395 X28.4 Y-3.32 Z-5.309 I0.4 J-0.32
N10400 X27.6 Y-2.68 Z-5.365 I-0.4 J0.32
N10405 X28.4 Y-3.32 Z-5.422 I0.4 J-0.32
N10410 X27.6 Y-2.68 Z-5.478 I-0.4 J0.32
N10415 X28.4 Y-3.32 Z-5.534 I0.4 J-0.32
N10420 X27.6 Y-2.68 Z-5.59 I-0.4 J0.32
N10425 X28.4 Y-3.32 Z-5.647 I0.4 J-0.32
N10430 X27.6 Y-2.68 Z-5.703 I-0.4 J0.32
N10435 X28.4 Y-3.32 Z-5.759 I0.4 J-0.32
N10440 X27.6 Y-2.68 Z-5.815 I-0.4 J0.32
N10445 X28.4 Y-3.32 Z-5.871 I0.4 J-0.32
N10450 X27.6 Y-2.68 Z-5.928 I-0.4 J0.32
N10455 X28.4 Y-3.32 Z-5.984 I0.4 J-0.32
N10460 X27.6 Y-2.68 Z-6.04 I-0.4 J0.32
N10465 X28.4 Y-3.32 Z-6.096 I0.4 J-0.32
N10470 X27.6 Y-2.68 Z-6.153 I-0.4 J0.32
N10475 X28.4 Y-3.32 Z-6.209 I0.4 J-0.32
N10480 X27.6 Y-2.68 Z-6.265 I-0.4 J0.32
N10485 X28.4 Y-3.32 Z-6.321 I0.4 J-0.32
N10490 X27.6 Y-2.68 Z-6.377 I-0.4 J0.32
N10495 X28.4 Y-3.32 Z-6.434 I0.4 J-0.32
N10500 X27.6 Y-2.68 Z-6.49 I-0.4 J0.32
N10505 X28.4 Y-3.32 Z-6.546 I0.4 J-0.32
N10510 X27.6 Y-2.68 Z-6.602 I-0.4 J0.32
N10515 X28.4 Y-3.32 Z-6.659 I0.4 J-0.32
N10520 X27.6 Y-2.68 Z-6.715 I-0.4 J0.32
N10525 X28.4 Y-3.32 Z-6.771 I0.4 J-0.32
N10530 X27.6 Y-2.68 Z-6.827 I-0.4 J0.32
N10535 X28.4 Y-3.32 Z-6.884 I0.4 J-0.32
N10540 X27.6 Y-2.68 Z-6.94 I-0.4 J0.32
N10545 X28.4 Y-3.32 Z-6.996 I0.4 J-0.32
N10550 X27.6 Y-2.68 Z-7.052 I-0.4 J0.32
N10555 X28.4 Y-3.32 Z-7.108 I0.4 J-0.32
N10560 X27.6 Y-2.68 Z-7.165 I-0.4 J0.32
N10565 X28.4 Y-3.32 Z-7.221 I0.4 J-0.32
N10570 X27.6 Y-2.68 Z-7.277 I-0.4 J0.32
N10575 X28.4 Y-3.32 Z-7.333 I0.4 J-0.32
N10580 X27.6 Y-2.68 Z-7.39 I-0.4 J0.32
N10585 X28.4 Y-3.32 Z-7.446 I0.4 J-0.32
N10590 X27.6 Y-2.68 Z-7.502 I-0.4 J0.32
N10595 X28.4 Y-3.32 Z-7.558 I0.4 J-0.32
N10600 X27.6 Y-2.68 Z-7.614 I-0.4 J0.32
N10605 X28.4 Y-3.32 Z-7.671 I0.4 J-0.32
N10610 X27.6 Y-2.68 Z-7.727 I-0.4 J0.32
N10615 X28.4 Y-3.32 Z-7.783 I0.4 J-0.32
N10620 X27.6 Y-2.68 Z-7.839 I-0.4 J0.32
N10625 X28.4 Y-3.32 Z-7.896 I0.4 J-0.32
N10630 X27.6 Y-2.68 Z-7.952 I-0.4 J0.32
N10635 X28.4 Y-3.32 Z-8.008 I0.4 J-0.32
N10640 X27.6 Y-2.68 Z-8.064 I-0.4 J0.32
N10645 X28.4 Y-3.32 Z-8.12 I0.4 J-0.32
N10650 X27.6 Y-2.68 Z-8.177 I-0.4 J0.32
N10655 X28.4 Y-3.32 Z-8.233 I0.4 J-0.32
N10660 X27.6 Y-2.68 Z-8.289 I-0.4 J0.32
N10665 X28.4 Y-3.32 Z-8.345 I0.4 J-0.32
N10670 X27.6 Y-2.68 Z-8.402 I-0.4 J0.32
N10675 X28.4 Y-3.32 Z-8.458 I0.4 J-0.32
N10680 X27.6 Y-2.68 Z-8.514 I-0.4 J0.32
N10685 X28.4 Y-3.32 Z-8.57 I0.4 J-0.32
N10690 X27.6 Y-2.68 Z-8.626 I-0.4 J0.32
N10695 X28.4 Y-3.32 Z-8.683 I0.4 J-0.32
N10700 X27.6 Y-2.68 Z-8.739 I-0.4 J0.32
N10705 X28.4 Y-3.32 Z-8.795 I0.4 J-0.32
N10710 X27.6 Y-2.68 Z-8.851 I-0.4 J0.32
N10715 X28.4 Y-3.32 Z-8.908 I0.4 J-0.32
N10720 X27.6 Y-2.68 Z-8.964 I-0.4 J0.32
N10725 X28.4 Y-3.32 Z-9.02 I0.4 J-0.32
N10730 X27.6 Y-2.68 Z-9.076 I-0.4 J0.32
N10735 X28.4 Y-3.32 Z-9.133 I0.4 J-0.32
N10740 X27.6 Y-2.68 Z-9.189 I-0.4 J0.32
N10745 X28.4 Y-3.32 Z-9.245 I0.4 J-0.32
N10750 X27.6 Y-2.68 Z-9.301 I-0.4 J0.32
N10755 X28.4 Y-3.32 Z-9.357 I0.4 J-0.32
N10760 X27.6 Y-2.68 Z-9.414 I-0.4 J0.32
N10765 X28.4 Y-3.32 Z-9.47 I0.4 J-0.32
N10770 X27.6 Y-2.68 Z-9.526 I-0.4 J0.32
N10775 X28.4 Y-3.32 Z-9.582 I0.4 J-0.32
N10780 X27.6 Y-2.68 Z-9.639 I-0.4 J0.32
N10785 X28.4 Y-3.32 Z-9.695 I0.4 J-0.32
N10790 X27.6 Y-2.68 Z-9.751 I-0.4 J0.32
N10795 X28.4 Y-3.32 Z-9.807 I0.4 J-0.32
N10800 X27.6 Y-2.68 Z-9.863 I-0.4 J0.32
N10805 X28.4 Y-3.32 Z-9.92 I0.4 J-0.32
N10810 X27.6 Y-2.68 Z-9.976 I-0.4 J0.32
N10815 X28.4 Y-3.32 Z-10.032 I0.4 J-0.32
N10820 X27.6 Y-2.68 Z-10.088 I-0.4 J0.32
N10825 X28.4 Y-3.32 Z-10.145 I0.4 J-0.32
N10830 X27.6 Y-2.68 Z-10.201 I-0.4 J0.32
N10835 X28.4 Y-3.32 Z-10.257 I0.4 J-0.32
N10840 X27.6 Y-2.68 Z-10.313 I-0.4 J0.32
N10845 X28.4 Y-3.32 Z-10.369 I0.4 J-0.32
N10850 X27.6 Y-2.68 Z-10.426 I-0.4 J0.32
N10855 X28.4 Y-3.32 Z-10.482 I0.4 J-0.32
N10860 X27.6 Y-2.68 Z-10.538 I-0.4 J0.32
N10865 X28.4 Y-3.32 Z-10.594 I0.4 J-0.32
N10870 X27.6 Y-2.68 Z-10.651 I-0.4 J0.32
N10875 X28.4 Y-3.32 Z-10.707 I0.4 J-0.32
N10880 X27.6 Y-2.68 Z-10.763 I-0.4 J0.32
N10885 X28.4 Y-3.32 Z-10.819 I0.4 J-0.32
N10890 X27.6 Y-2.68 Z-10.875 I-0.4 J0.32
N10895 X28.4 Y-3.32 Z-10.932 I0.4 J-0.32
N10900 X27.6 Y-2.68 Z-10.988 I-0.4 J0.32
N10905 X27.487 Y-3. Z-11. I0.4 J-0.32
N10910 X28.013 I0.263 J0.
N10915 X27.987 I-0.013 J0. F600.
N10920 X28.112 I0.063 J0.
N10925 X27.888 I-0.112 J0.
N10930 X28.212 I0.162 J0.
N10935 X27.788 I-0.212 J0.
N10940 X28.313 I0.262 J0.
N10945 X27.688 I-0.313 J0.
N10950 X28.413 I0.362 J0.
N10955 X27.587 I-0.413 J0.
N10960 X28.513 I0.462 J0.
N10965 X27.487 I-0.513 J0.
N10970 X28.513 I0.513 J0.
N10975 X28.509 Y-2.951 Z-10.996 I-0.318 J0.
N10980 X28.497 Y-2.903 Z-10.984 I-0.314 J-0.049
N10985 X28.48 Y-2.861 Z-10.965 I-0.302 J-0.097
N10990 X28.459 Y-2.824 Z-10.939 I-0.285 J-0.139
N10995 X28.436 Y-2.794 Z-10.907 I-0.264 J-0.176
N11000 X28.414 Y-2.77 Z-10.869 I-0.241 J-0.206
N11005 X28.395 Y-2.753 Z-10.827 I-0.219 J-0.23
N11010 X28.379 Y-2.742 Z-10.781 I-0.2 J-0.247
N11015 X28.37 Y-2.735 Z-10.732 I-0.184 J-0.258
N11020 G1 X28.367 Y-2.733 Z-10.682
N11025 G0 Z10.
N11035 M9
N11040 G53 Z0.
N11045 M30
%
