%
(T16 BEARING HOLDER BOTTOM)
(T16  D=3.175 CR=0. - ZMIN=-9. - FLAT END MILL)
N10 G90 G94 G17 G91.1
N15 G21
N20 G53 G0 Z0.
(FACE1 2)
N25 M9
N30 T16 M6
N35 S3000 M3
N40 G54
N45 M8
N55 G0 X46.579 Y-19.555
N60 G43 Z10. H16
N65 G0 Z5.
N70 G1 Z-0.683 F600.
N75 G18 G3 X46.262 Z-1. I-0.318 K0.
N80 G1 X45.21
N85 X-5.21
N90 X-6.
N95 G17 G2 Y-16.553 I0. J1.501
N100 G1 X46.
N105 G3 Y-13.551 I0. J1.501
N110 G1 X-6.
N115 G2 Y-10.549 I0. J1.501
N120 G1 X46.
N125 G3 Y-7.547 I0. J1.501
N130 G1 X-6.
N135 G2 Y-4.545 I0. J1.501
N140 G1 X46.
N145 G3 Y-1.543 I0. J1.501
N150 G1 X-6.
N155 G2 Y1.46 I0. J1.501
N160 G1 X46.
N165 G3 Y4.462 I0. J1.501
N170 G1 X45.262
N175 X-5.262
N180 G18 G3 X-5.579 Z-0.683 I0. K0.317
N185 G0 Z10.
N190 G17
(2D POCKET3 2)
N195 M8
N200 G0 X12.233 Y-3.34
N205 Z10.
N210 Z2.318
N215 G1 Z2.317 F600.
N220 X12.235 Y-3.339 Z2.282 F500.
N225 X12.24 Y-3.336 Z2.248
N230 X12.248 Y-3.33 Z2.214
N235 G3 X12.262 Y-3.318 Z2.17 I-0.248 J0.33
N240 X12.281 Y-3.302 Z2.13 I-0.262 J0.318
N245 X12.303 Y-3.28 Z2.093 I-0.281 J0.302
N250 X12.327 Y-3.252 Z2.062 I-0.303 J0.28
N255 X12.35 Y-3.219 Z2.037 I-0.327 J0.252
N260 X12.371 Y-3.181 Z2.018 I-0.35 J0.219
N265 X12.389 Y-3.138 Z2.005 I-0.371 J0.181
N270 X12.402 Y-3.093 Z2. I-0.389 J0.138
N275 X11.598 Y-2.907 Z1.955 I-0.402 J0.093
N280 X12.402 Y-3.093 Z1.909 I0.402 J-0.093
N285 X11.598 Y-2.907 Z1.864 I-0.402 J0.093
N290 X12.402 Y-3.093 Z1.819 I0.402 J-0.093
N295 X11.598 Y-2.907 Z1.774 I-0.402 J0.093
N300 X12.402 Y-3.093 Z1.728 I0.402 J-0.093
N305 X11.598 Y-2.907 Z1.683 I-0.402 J0.093
N310 X12.402 Y-3.093 Z1.638 I0.402 J-0.093
N315 X11.598 Y-2.907 Z1.593 I-0.402 J0.093
N320 X12.402 Y-3.093 Z1.547 I0.402 J-0.093
N325 X11.598 Y-2.907 Z1.502 I-0.402 J0.093
N330 X12.402 Y-3.093 Z1.457 I0.402 J-0.093
N335 X11.598 Y-2.907 Z1.412 I-0.402 J0.093
N340 X12.402 Y-3.093 Z1.366 I0.402 J-0.093
N345 X11.598 Y-2.907 Z1.321 I-0.402 J0.093
N350 X12.402 Y-3.093 Z1.276 I0.402 J-0.093
N355 X11.598 Y-2.907 Z1.231 I-0.402 J0.093
N360 X12.402 Y-3.093 Z1.185 I0.402 J-0.093
N365 X11.598 Y-2.907 Z1.14 I-0.402 J0.093
N370 X12.402 Y-3.093 Z1.095 I0.402 J-0.093
N375 X11.598 Y-2.907 Z1.05 I-0.402 J0.093
N380 X12.402 Y-3.093 Z1.004 I0.402 J-0.093
N385 X11.598 Y-2.907 Z0.959 I-0.402 J0.093
N390 X12.402 Y-3.093 Z0.914 I0.402 J-0.093
N395 X11.598 Y-2.907 Z0.869 I-0.402 J0.093
N400 X12.402 Y-3.093 Z0.823 I0.402 J-0.093
N405 X11.598 Y-2.907 Z0.778 I-0.402 J0.093
N410 X12.402 Y-3.093 Z0.733 I0.402 J-0.093
N415 X11.598 Y-2.907 Z0.688 I-0.402 J0.093
N420 X12.402 Y-3.093 Z0.642 I0.402 J-0.093
N425 X11.598 Y-2.907 Z0.597 I-0.402 J0.093
N430 X12.402 Y-3.093 Z0.552 I0.402 J-0.093
N435 X11.598 Y-2.907 Z0.507 I-0.402 J0.093
N440 X12.402 Y-3.093 Z0.461 I0.402 J-0.093
N445 X11.598 Y-2.907 Z0.416 I-0.402 J0.093
N450 X12.402 Y-3.093 Z0.371 I0.402 J-0.093
N455 X11.598 Y-2.907 Z0.326 I-0.402 J0.093
N460 X12.402 Y-3.093 Z0.28 I0.402 J-0.093
N465 X11.598 Y-2.907 Z0.235 I-0.402 J0.093
N470 X12.402 Y-3.093 Z0.19 I0.402 J-0.093
N475 X11.598 Y-2.907 Z0.145 I-0.402 J0.093
N480 X12.402 Y-3.093 Z0.099 I0.402 J-0.093
N485 X11.598 Y-2.907 Z0.054 I-0.402 J0.093
N490 X12.402 Y-3.093 Z0.009 I0.402 J-0.093
N495 X11.598 Y-2.907 Z-0.036 I-0.402 J0.093
N500 X12.402 Y-3.093 Z-0.082 I0.402 J-0.093
N505 X11.598 Y-2.907 Z-0.127 I-0.402 J0.093
N510 X12.402 Y-3.093 Z-0.172 I0.402 J-0.093
N515 X11.598 Y-2.907 Z-0.217 I-0.402 J0.093
N520 X12.402 Y-3.093 Z-0.263 I0.402 J-0.093
N525 X11.598 Y-2.907 Z-0.308 I-0.402 J0.093
N530 X12.402 Y-3.093 Z-0.353 I0.402 J-0.093
N535 X11.598 Y-2.907 Z-0.398 I-0.402 J0.093
N540 X12.402 Y-3.093 Z-0.444 I0.402 J-0.093
N545 X11.598 Y-2.907 Z-0.489 I-0.402 J0.093
N550 X12.402 Y-3.093 Z-0.534 I0.402 J-0.093
N555 X11.598 Y-2.907 Z-0.579 I-0.402 J0.093
N560 X12.402 Y-3.093 Z-0.625 I0.402 J-0.093
N565 X11.598 Y-2.907 Z-0.67 I-0.402 J0.093
N570 X12.402 Y-3.093 Z-0.715 I0.402 J-0.093
N575 X11.598 Y-2.907 Z-0.76 I-0.402 J0.093
N580 X12.402 Y-3.093 Z-0.806 I0.402 J-0.093
N585 X11.598 Y-2.907 Z-0.851 I-0.402 J0.093
N590 X12.402 Y-3.093 Z-0.896 I0.402 J-0.093
N595 X11.598 Y-2.907 Z-0.942 I-0.402 J0.093
N600 X12.402 Y-3.093 Z-0.987 I0.402 J-0.093
N605 X11.598 Y-2.907 Z-1.032 I-0.402 J0.093
N610 X12.402 Y-3.093 Z-1.077 I0.402 J-0.093
N615 X11.598 Y-2.907 Z-1.123 I-0.402 J0.093
N620 X12.402 Y-3.093 Z-1.168 I0.402 J-0.093
N625 X11.598 Y-2.907 Z-1.213 I-0.402 J0.093
N630 X12.402 Y-3.093 Z-1.258 I0.402 J-0.093
N635 X11.598 Y-2.907 Z-1.304 I-0.402 J0.093
N640 X12.402 Y-3.093 Z-1.349 I0.402 J-0.093
N645 X11.598 Y-2.907 Z-1.394 I-0.402 J0.093
N650 X12.402 Y-3.093 Z-1.439 I0.402 J-0.093
N655 X11.598 Y-2.907 Z-1.485 I-0.402 J0.093
N660 X12.402 Y-3.093 Z-1.53 I0.402 J-0.093
N665 X11.598 Y-2.907 Z-1.575 I-0.402 J0.093
N670 X12.402 Y-3.093 Z-1.62 I0.402 J-0.093
N675 X11.598 Y-2.907 Z-1.666 I-0.402 J0.093
N680 X12.402 Y-3.093 Z-1.711 I0.402 J-0.093
N685 X11.598 Y-2.907 Z-1.756 I-0.402 J0.093
N690 X12.402 Y-3.093 Z-1.801 I0.402 J-0.093
N695 X11.598 Y-2.907 Z-1.847 I-0.402 J0.093
N700 X12.402 Y-3.093 Z-1.892 I0.402 J-0.093
N705 X11.598 Y-2.907 Z-1.937 I-0.402 J0.093
N710 X12.402 Y-3.093 Z-1.982 I0.402 J-0.093
N715 X11.598 Y-2.907 Z-2.028 I-0.402 J0.093
N720 X12.402 Y-3.093 Z-2.073 I0.402 J-0.093
N725 X11.598 Y-2.907 Z-2.118 I-0.402 J0.093
N730 X12.402 Y-3.093 Z-2.163 I0.402 J-0.093
N735 X11.598 Y-2.907 Z-2.209 I-0.402 J0.093
N740 X12.402 Y-3.093 Z-2.254 I0.402 J-0.093
N745 X11.598 Y-2.907 Z-2.299 I-0.402 J0.093
N750 X12.402 Y-3.093 Z-2.344 I0.402 J-0.093
N755 X11.598 Y-2.907 Z-2.39 I-0.402 J0.093
N760 X12.402 Y-3.093 Z-2.435 I0.402 J-0.093
N765 X11.598 Y-2.907 Z-2.48 I-0.402 J0.093
N770 X12.402 Y-3.093 Z-2.525 I0.402 J-0.093
N775 X11.598 Y-2.907 Z-2.571 I-0.402 J0.093
N780 X12.402 Y-3.093 Z-2.616 I0.402 J-0.093
N785 X11.598 Y-2.907 Z-2.661 I-0.402 J0.093
N790 X12.402 Y-3.093 Z-2.706 I0.402 J-0.093
N795 X11.598 Y-2.907 Z-2.752 I-0.402 J0.093
N800 X12.402 Y-3.093 Z-2.797 I0.402 J-0.093
N805 X11.598 Y-2.907 Z-2.842 I-0.402 J0.093
N810 X12.402 Y-3.093 Z-2.887 I0.402 J-0.093
N815 X11.598 Y-2.907 Z-2.933 I-0.402 J0.093
N820 X12.402 Y-3.093 Z-2.978 I0.402 J-0.093
N825 X11.598 Y-2.907 Z-3.023 I-0.402 J0.093
N830 X12.402 Y-3.093 Z-3.068 I0.402 J-0.093
N835 X11.598 Y-2.907 Z-3.114 I-0.402 J0.093
N840 X12.402 Y-3.093 Z-3.159 I0.402 J-0.093
N845 X11.598 Y-2.907 Z-3.204 I-0.402 J0.093
N850 X12.402 Y-3.093 Z-3.249 I0.402 J-0.093
N855 X11.598 Y-2.907 Z-3.295 I-0.402 J0.093
N860 X12.402 Y-3.093 Z-3.34 I0.402 J-0.093
N865 X11.598 Y-2.907 Z-3.385 I-0.402 J0.093
N870 X12.402 Y-3.093 Z-3.43 I0.402 J-0.093
N875 X11.598 Y-2.907 Z-3.476 I-0.402 J0.093
N880 X12.402 Y-3.093 Z-3.521 I0.402 J-0.093
N885 X11.598 Y-2.907 Z-3.566 I-0.402 J0.093
N890 X12.402 Y-3.093 Z-3.612 I0.402 J-0.093
N895 X11.598 Y-2.907 Z-3.657 I-0.402 J0.093
N900 X12.402 Y-3.093 Z-3.702 I0.402 J-0.093
N905 X11.598 Y-2.907 Z-3.747 I-0.402 J0.093
N910 X12.402 Y-3.093 Z-3.793 I0.402 J-0.093
N915 X11.598 Y-2.907 Z-3.838 I-0.402 J0.093
N920 X12.402 Y-3.093 Z-3.883 I0.402 J-0.093
N925 X11.598 Y-2.907 Z-3.928 I-0.402 J0.093
N930 X12.402 Y-3.093 Z-3.974 I0.402 J-0.093
N935 X11.598 Y-2.907 Z-4.019 I-0.402 J0.093
N940 X12.402 Y-3.093 Z-4.064 I0.402 J-0.093
N945 X11.598 Y-2.907 Z-4.109 I-0.402 J0.093
N950 X12.402 Y-3.093 Z-4.155 I0.402 J-0.093
N955 X11.598 Y-2.907 Z-4.2 I-0.402 J0.093
N960 X12.402 Y-3.093 Z-4.245 I0.402 J-0.093
N965 X11.598 Y-2.907 Z-4.29 I-0.402 J0.093
N970 X12.402 Y-3.093 Z-4.336 I0.402 J-0.093
N975 X11.598 Y-2.907 Z-4.381 I-0.402 J0.093
N980 X12.402 Y-3.093 Z-4.426 I0.402 J-0.093
N985 X11.598 Y-2.907 Z-4.471 I-0.402 J0.093
N990 X12.402 Y-3.093 Z-4.517 I0.402 J-0.093
N995 X11.598 Y-2.907 Z-4.562 I-0.402 J0.093
N1000 X12.402 Y-3.093 Z-4.607 I0.402 J-0.093
N1005 X11.598 Y-2.907 Z-4.652 I-0.402 J0.093
N1010 X12.402 Y-3.093 Z-4.698 I0.402 J-0.093
N1015 X11.598 Y-2.907 Z-4.743 I-0.402 J0.093
N1020 X12.402 Y-3.093 Z-4.788 I0.402 J-0.093
N1025 X11.598 Y-2.907 Z-4.833 I-0.402 J0.093
N1030 X12.402 Y-3.093 Z-4.879 I0.402 J-0.093
N1035 X11.598 Y-2.907 Z-4.924 I-0.402 J0.093
N1040 X12.402 Y-3.093 Z-4.969 I0.402 J-0.093
N1045 X11.598 Y-2.907 Z-5.014 I-0.402 J0.093
N1050 X12.402 Y-3.093 Z-5.06 I0.402 J-0.093
N1055 X11.598 Y-2.907 Z-5.105 I-0.402 J0.093
N1060 X12.402 Y-3.093 Z-5.15 I0.402 J-0.093
N1065 X11.598 Y-2.907 Z-5.195 I-0.402 J0.093
N1070 X12.402 Y-3.093 Z-5.241 I0.402 J-0.093
N1075 X11.598 Y-2.907 Z-5.286 I-0.402 J0.093
N1080 X12.402 Y-3.093 Z-5.331 I0.402 J-0.093
N1085 X11.598 Y-2.907 Z-5.376 I-0.402 J0.093
N1090 X12.402 Y-3.093 Z-5.422 I0.402 J-0.093
N1095 X11.598 Y-2.907 Z-5.467 I-0.402 J0.093
N1100 X12.402 Y-3.093 Z-5.512 I0.402 J-0.093
N1105 X11.598 Y-2.907 Z-5.557 I-0.402 J0.093
N1110 X12.402 Y-3.093 Z-5.603 I0.402 J-0.093
N1115 X11.598 Y-2.907 Z-5.648 I-0.402 J0.093
N1120 X12.402 Y-3.093 Z-5.693 I0.402 J-0.093
N1125 X11.598 Y-2.907 Z-5.738 I-0.402 J0.093
N1130 X12.402 Y-3.093 Z-5.784 I0.402 J-0.093
N1135 X11.598 Y-2.907 Z-5.829 I-0.402 J0.093
N1140 X12.402 Y-3.093 Z-5.874 I0.402 J-0.093
N1145 X11.598 Y-2.907 Z-5.919 I-0.402 J0.093
N1150 X12.402 Y-3.093 Z-5.965 I0.402 J-0.093
N1155 X11.598 Y-2.907 Z-6.01 I-0.402 J0.093
N1160 X12.402 Y-3.093 Z-6.055 I0.402 J-0.093
N1165 X11.598 Y-2.907 Z-6.1 I-0.402 J0.093
N1170 X12.402 Y-3.093 Z-6.146 I0.402 J-0.093
N1175 X11.598 Y-2.907 Z-6.191 I-0.402 J0.093
N1180 X12.402 Y-3.093 Z-6.236 I0.402 J-0.093
N1185 X11.598 Y-2.907 Z-6.281 I-0.402 J0.093
N1190 X12.402 Y-3.093 Z-6.327 I0.402 J-0.093
N1195 X11.598 Y-2.907 Z-6.372 I-0.402 J0.093
N1200 X12.402 Y-3.093 Z-6.417 I0.402 J-0.093
N1205 X11.598 Y-2.907 Z-6.463 I-0.402 J0.093
N1210 X12.402 Y-3.093 Z-6.508 I0.402 J-0.093
N1215 X11.598 Y-2.907 Z-6.553 I-0.402 J0.093
N1220 X12.402 Y-3.093 Z-6.598 I0.402 J-0.093
N1225 X11.598 Y-2.907 Z-6.644 I-0.402 J0.093
N1230 X12.402 Y-3.093 Z-6.689 I0.402 J-0.093
N1235 X11.598 Y-2.907 Z-6.734 I-0.402 J0.093
N1240 X12.402 Y-3.093 Z-6.779 I0.402 J-0.093
N1245 X11.598 Y-2.907 Z-6.825 I-0.402 J0.093
N1250 X12.402 Y-3.093 Z-6.87 I0.402 J-0.093
N1255 X11.598 Y-2.907 Z-6.915 I-0.402 J0.093
N1260 X12.402 Y-3.093 Z-6.96 I0.402 J-0.093
N1265 X11.598 Y-2.907 Z-7.006 I-0.402 J0.093
N1270 X12.402 Y-3.093 Z-7.051 I0.402 J-0.093
N1275 X11.598 Y-2.907 Z-7.096 I-0.402 J0.093
N1280 X12.402 Y-3.093 Z-7.141 I0.402 J-0.093
N1285 X11.598 Y-2.907 Z-7.187 I-0.402 J0.093
N1290 X12.402 Y-3.093 Z-7.232 I0.402 J-0.093
N1295 X11.598 Y-2.907 Z-7.277 I-0.402 J0.093
N1300 X12.402 Y-3.093 Z-7.322 I0.402 J-0.093
N1305 X11.598 Y-2.907 Z-7.368 I-0.402 J0.093
N1310 X12.402 Y-3.093 Z-7.413 I0.402 J-0.093
N1315 X11.598 Y-2.907 Z-7.458 I-0.402 J0.093
N1320 X12.402 Y-3.093 Z-7.503 I0.402 J-0.093
N1325 X11.598 Y-2.907 Z-7.549 I-0.402 J0.093
N1330 X12.402 Y-3.093 Z-7.594 I0.402 J-0.093
N1335 X11.598 Y-2.907 Z-7.639 I-0.402 J0.093
N1340 X12.402 Y-3.093 Z-7.684 I0.402 J-0.093
N1345 X11.598 Y-2.907 Z-7.73 I-0.402 J0.093
N1350 X12.402 Y-3.093 Z-7.775 I0.402 J-0.093
N1355 X11.598 Y-2.907 Z-7.82 I-0.402 J0.093
N1360 X12.402 Y-3.093 Z-7.865 I0.402 J-0.093
N1365 X11.598 Y-2.907 Z-7.911 I-0.402 J0.093
N1370 X12.402 Y-3.093 Z-7.956 I0.402 J-0.093
N1375 X11.598 Y-2.907 Z-8.001 I-0.402 J0.093
N1380 X12.402 Y-3.093 Z-8.046 I0.402 J-0.093
N1385 X11.598 Y-2.907 Z-8.092 I-0.402 J0.093
N1390 X12.402 Y-3.093 Z-8.137 I0.402 J-0.093
N1395 X11.598 Y-2.907 Z-8.182 I-0.402 J0.093
N1400 X12.402 Y-3.093 Z-8.227 I0.402 J-0.093
N1405 X11.598 Y-2.907 Z-8.273 I-0.402 J0.093
N1410 X12.402 Y-3.093 Z-8.318 I0.402 J-0.093
N1415 X11.598 Y-2.907 Z-8.363 I-0.402 J0.093
N1420 X12.402 Y-3.093 Z-8.408 I0.402 J-0.093
N1425 X11.598 Y-2.907 Z-8.454 I-0.402 J0.093
N1430 X12.402 Y-3.093 Z-8.499 I0.402 J-0.093
N1435 X11.598 Y-2.907 Z-8.544 I-0.402 J0.093
N1440 X12.402 Y-3.093 Z-8.589 I0.402 J-0.093
N1445 X11.598 Y-2.907 Z-8.635 I-0.402 J0.093
N1450 X12.402 Y-3.093 Z-8.68 I0.402 J-0.093
N1455 X11.598 Y-2.907 Z-8.725 I-0.402 J0.093
N1460 X12.402 Y-3.093 Z-8.77 I0.402 J-0.093
N1465 X11.598 Y-2.907 Z-8.816 I-0.402 J0.093
N1470 X12.402 Y-3.093 Z-8.861 I0.402 J-0.093
N1475 X11.598 Y-2.907 Z-8.906 I-0.402 J0.093
N1480 X12.402 Y-3.093 Z-8.951 I0.402 J-0.093
N1485 X12.047 Y-2.59 Z-8.976 I-0.402 J0.093
N1490 X11.587 Y-3. Z-9. I-0.047 J-0.41
N1495 X12.012 I0.213 J0.
N1500 X11.988 I-0.012 J0. F600.
N1505 X12.113 I0.063 J0.
N1510 X11.887 I-0.113 J0.
N1515 X12.212 I0.163 J0.
N1520 X11.788 I-0.212 J0.
N1525 X12.313 I0.262 J0.
N1530 X11.688 I-0.313 J0.
N1535 X12.413 I0.363 J0.
N1540 X11.587 I-0.413 J0.
N1545 X12.413 I0.413 J0.
N1550 X12.409 Y-2.951 Z-8.996 I-0.318 J0.
N1555 X12.397 Y-2.903 Z-8.984 I-0.314 J-0.049
N1560 X12.38 Y-2.861 Z-8.965 I-0.302 J-0.097
N1565 X12.359 Y-2.824 Z-8.939 I-0.285 J-0.139
N1570 X12.336 Y-2.794 Z-8.907 I-0.264 J-0.176
N1575 X12.314 Y-2.77 Z-8.869 I-0.241 J-0.206
N1580 X12.295 Y-2.753 Z-8.827 I-0.219 J-0.23
N1585 X12.279 Y-2.742 Z-8.781 I-0.2 J-0.247
N1590 X12.27 Y-2.735 Z-8.732 I-0.184 J-0.258
N1595 G1 X12.267 Y-2.733 Z-8.682
N1600 G0 Z5.
N1605 X4.233 Y-3.34
N1610 Z2.318
N1615 G1 Z2.317 F600.
N1620 X4.235 Y-3.339 Z2.282 F500.
N1625 X4.24 Y-3.336 Z2.248
N1630 X4.247 Y-3.33 Z2.214
N1635 G3 X4.262 Y-3.318 Z2.17 I-0.247 J0.33
N1640 X4.281 Y-3.302 Z2.13 I-0.262 J0.318
N1645 X4.303 Y-3.28 Z2.093 I-0.281 J0.302
N1650 X4.327 Y-3.252 Z2.062 I-0.303 J0.28
N1655 X4.35 Y-3.219 Z2.037 I-0.327 J0.252
N1660 X4.371 Y-3.181 Z2.018 I-0.35 J0.219
N1665 X4.389 Y-3.138 Z2.005 I-0.371 J0.181
N1670 X4.402 Y-3.093 Z2. I-0.389 J0.138
N1675 X3.598 Y-2.907 Z1.955 I-0.402 J0.093
N1680 X4.402 Y-3.093 Z1.909 I0.402 J-0.093
N1685 X3.598 Y-2.907 Z1.864 I-0.402 J0.093
N1690 X4.402 Y-3.093 Z1.819 I0.402 J-0.093
N1695 X3.598 Y-2.907 Z1.774 I-0.402 J0.093
N1700 X4.402 Y-3.093 Z1.728 I0.402 J-0.093
N1705 X3.598 Y-2.907 Z1.683 I-0.402 J0.093
N1710 X4.402 Y-3.093 Z1.638 I0.402 J-0.093
N1715 X3.598 Y-2.907 Z1.593 I-0.402 J0.093
N1720 X4.402 Y-3.093 Z1.547 I0.402 J-0.093
N1725 X3.598 Y-2.907 Z1.502 I-0.402 J0.093
N1730 X4.402 Y-3.093 Z1.457 I0.402 J-0.093
N1735 X3.598 Y-2.907 Z1.412 I-0.402 J0.093
N1740 X4.402 Y-3.093 Z1.366 I0.402 J-0.093
N1745 X3.598 Y-2.907 Z1.321 I-0.402 J0.093
N1750 X4.402 Y-3.093 Z1.276 I0.402 J-0.093
N1755 X3.598 Y-2.907 Z1.231 I-0.402 J0.093
N1760 X4.402 Y-3.093 Z1.185 I0.402 J-0.093
N1765 X3.598 Y-2.907 Z1.14 I-0.402 J0.093
N1770 X4.402 Y-3.093 Z1.095 I0.402 J-0.093
N1775 X3.598 Y-2.907 Z1.05 I-0.402 J0.093
N1780 X4.402 Y-3.093 Z1.004 I0.402 J-0.093
N1785 X3.598 Y-2.907 Z0.959 I-0.402 J0.093
N1790 X4.402 Y-3.093 Z0.914 I0.402 J-0.093
N1795 X3.598 Y-2.907 Z0.869 I-0.402 J0.093
N1800 X4.402 Y-3.093 Z0.823 I0.402 J-0.093
N1805 X3.598 Y-2.907 Z0.778 I-0.402 J0.093
N1810 X4.402 Y-3.093 Z0.733 I0.402 J-0.093
N1815 X3.598 Y-2.907 Z0.688 I-0.402 J0.093
N1820 X4.402 Y-3.093 Z0.642 I0.402 J-0.093
N1825 X3.598 Y-2.907 Z0.597 I-0.402 J0.093
N1830 X4.402 Y-3.093 Z0.552 I0.402 J-0.093
N1835 X3.598 Y-2.907 Z0.507 I-0.402 J0.093
N1840 X4.402 Y-3.093 Z0.461 I0.402 J-0.093
N1845 X3.598 Y-2.907 Z0.416 I-0.402 J0.093
N1850 X4.402 Y-3.093 Z0.371 I0.402 J-0.093
N1855 X3.598 Y-2.907 Z0.326 I-0.402 J0.093
N1860 X4.402 Y-3.093 Z0.28 I0.402 J-0.093
N1865 X3.598 Y-2.907 Z0.235 I-0.402 J0.093
N1870 X4.402 Y-3.093 Z0.19 I0.402 J-0.093
N1875 X3.598 Y-2.907 Z0.145 I-0.402 J0.093
N1880 X4.402 Y-3.093 Z0.099 I0.402 J-0.093
N1885 X3.598 Y-2.907 Z0.054 I-0.402 J0.093
N1890 X4.402 Y-3.093 Z0.009 I0.402 J-0.093
N1895 X3.598 Y-2.907 Z-0.036 I-0.402 J0.093
N1900 X4.402 Y-3.093 Z-0.082 I0.402 J-0.093
N1905 X3.598 Y-2.907 Z-0.127 I-0.402 J0.093
N1910 X4.402 Y-3.093 Z-0.172 I0.402 J-0.093
N1915 X3.598 Y-2.907 Z-0.217 I-0.402 J0.093
N1920 X4.402 Y-3.093 Z-0.263 I0.402 J-0.093
N1925 X3.598 Y-2.907 Z-0.308 I-0.402 J0.093
N1930 X4.402 Y-3.093 Z-0.353 I0.402 J-0.093
N1935 X3.598 Y-2.907 Z-0.398 I-0.402 J0.093
N1940 X4.402 Y-3.093 Z-0.444 I0.402 J-0.093
N1945 X3.598 Y-2.907 Z-0.489 I-0.402 J0.093
N1950 X4.402 Y-3.093 Z-0.534 I0.402 J-0.093
N1955 X3.598 Y-2.907 Z-0.579 I-0.402 J0.093
N1960 X4.402 Y-3.093 Z-0.625 I0.402 J-0.093
N1965 X3.598 Y-2.907 Z-0.67 I-0.402 J0.093
N1970 X4.402 Y-3.093 Z-0.715 I0.402 J-0.093
N1975 X3.598 Y-2.907 Z-0.76 I-0.402 J0.093
N1980 X4.402 Y-3.093 Z-0.806 I0.402 J-0.093
N1985 X3.598 Y-2.907 Z-0.851 I-0.402 J0.093
N1990 X4.402 Y-3.093 Z-0.896 I0.402 J-0.093
N1995 X3.598 Y-2.907 Z-0.942 I-0.402 J0.093
N2000 X4.402 Y-3.093 Z-0.987 I0.402 J-0.093
N2005 X3.598 Y-2.907 Z-1.032 I-0.402 J0.093
N2010 X4.402 Y-3.093 Z-1.077 I0.402 J-0.093
N2015 X3.598 Y-2.907 Z-1.123 I-0.402 J0.093
N2020 X4.402 Y-3.093 Z-1.168 I0.402 J-0.093
N2025 X3.598 Y-2.907 Z-1.213 I-0.402 J0.093
N2030 X4.402 Y-3.093 Z-1.258 I0.402 J-0.093
N2035 X3.598 Y-2.907 Z-1.304 I-0.402 J0.093
N2040 X4.402 Y-3.093 Z-1.349 I0.402 J-0.093
N2045 X3.598 Y-2.907 Z-1.394 I-0.402 J0.093
N2050 X4.402 Y-3.093 Z-1.439 I0.402 J-0.093
N2055 X3.598 Y-2.907 Z-1.485 I-0.402 J0.093
N2060 X4.402 Y-3.093 Z-1.53 I0.402 J-0.093
N2065 X3.598 Y-2.907 Z-1.575 I-0.402 J0.093
N2070 X4.402 Y-3.093 Z-1.62 I0.402 J-0.093
N2075 X3.598 Y-2.907 Z-1.666 I-0.402 J0.093
N2080 X4.402 Y-3.093 Z-1.711 I0.402 J-0.093
N2085 X3.598 Y-2.907 Z-1.756 I-0.402 J0.093
N2090 X4.402 Y-3.093 Z-1.801 I0.402 J-0.093
N2095 X3.598 Y-2.907 Z-1.847 I-0.402 J0.093
N2100 X4.402 Y-3.093 Z-1.892 I0.402 J-0.093
N2105 X3.598 Y-2.907 Z-1.937 I-0.402 J0.093
N2110 X4.402 Y-3.093 Z-1.982 I0.402 J-0.093
N2115 X3.598 Y-2.907 Z-2.028 I-0.402 J0.093
N2120 X4.402 Y-3.093 Z-2.073 I0.402 J-0.093
N2125 X3.598 Y-2.907 Z-2.118 I-0.402 J0.093
N2130 X4.402 Y-3.093 Z-2.163 I0.402 J-0.093
N2135 X3.598 Y-2.907 Z-2.209 I-0.402 J0.093
N2140 X4.402 Y-3.093 Z-2.254 I0.402 J-0.093
N2145 X3.598 Y-2.907 Z-2.299 I-0.402 J0.093
N2150 X4.402 Y-3.093 Z-2.344 I0.402 J-0.093
N2155 X3.598 Y-2.907 Z-2.39 I-0.402 J0.093
N2160 X4.402 Y-3.093 Z-2.435 I0.402 J-0.093
N2165 X3.598 Y-2.907 Z-2.48 I-0.402 J0.093
N2170 X4.402 Y-3.093 Z-2.525 I0.402 J-0.093
N2175 X3.598 Y-2.907 Z-2.571 I-0.402 J0.093
N2180 X4.402 Y-3.093 Z-2.616 I0.402 J-0.093
N2185 X3.598 Y-2.907 Z-2.661 I-0.402 J0.093
N2190 X4.402 Y-3.093 Z-2.706 I0.402 J-0.093
N2195 X3.598 Y-2.907 Z-2.752 I-0.402 J0.093
N2200 X4.402 Y-3.093 Z-2.797 I0.402 J-0.093
N2205 X3.598 Y-2.907 Z-2.842 I-0.402 J0.093
N2210 X4.402 Y-3.093 Z-2.887 I0.402 J-0.093
N2215 X3.598 Y-2.907 Z-2.933 I-0.402 J0.093
N2220 X4.402 Y-3.093 Z-2.978 I0.402 J-0.093
N2225 X3.598 Y-2.907 Z-3.023 I-0.402 J0.093
N2230 X4.402 Y-3.093 Z-3.068 I0.402 J-0.093
N2235 X3.598 Y-2.907 Z-3.114 I-0.402 J0.093
N2240 X4.402 Y-3.093 Z-3.159 I0.402 J-0.093
N2245 X3.598 Y-2.907 Z-3.204 I-0.402 J0.093
N2250 X4.402 Y-3.093 Z-3.249 I0.402 J-0.093
N2255 X3.598 Y-2.907 Z-3.295 I-0.402 J0.093
N2260 X4.402 Y-3.093 Z-3.34 I0.402 J-0.093
N2265 X3.598 Y-2.907 Z-3.385 I-0.402 J0.093
N2270 X4.402 Y-3.093 Z-3.43 I0.402 J-0.093
N2275 X3.598 Y-2.907 Z-3.476 I-0.402 J0.093
N2280 X4.402 Y-3.093 Z-3.521 I0.402 J-0.093
N2285 X3.598 Y-2.907 Z-3.566 I-0.402 J0.093
N2290 X4.402 Y-3.093 Z-3.612 I0.402 J-0.093
N2295 X3.598 Y-2.907 Z-3.657 I-0.402 J0.093
N2300 X4.402 Y-3.093 Z-3.702 I0.402 J-0.093
N2305 X3.598 Y-2.907 Z-3.747 I-0.402 J0.093
N2310 X4.402 Y-3.093 Z-3.793 I0.402 J-0.093
N2315 X3.598 Y-2.907 Z-3.838 I-0.402 J0.093
N2320 X4.402 Y-3.093 Z-3.883 I0.402 J-0.093
N2325 X3.598 Y-2.907 Z-3.928 I-0.402 J0.093
N2330 X4.402 Y-3.093 Z-3.974 I0.402 J-0.093
N2335 X3.598 Y-2.907 Z-4.019 I-0.402 J0.093
N2340 X4.402 Y-3.093 Z-4.064 I0.402 J-0.093
N2345 X3.598 Y-2.907 Z-4.109 I-0.402 J0.093
N2350 X4.402 Y-3.093 Z-4.155 I0.402 J-0.093
N2355 X3.598 Y-2.907 Z-4.2 I-0.402 J0.093
N2360 X4.402 Y-3.093 Z-4.245 I0.402 J-0.093
N2365 X3.598 Y-2.907 Z-4.29 I-0.402 J0.093
N2370 X4.402 Y-3.093 Z-4.336 I0.402 J-0.093
N2375 X3.598 Y-2.907 Z-4.381 I-0.402 J0.093
N2380 X4.402 Y-3.093 Z-4.426 I0.402 J-0.093
N2385 X3.598 Y-2.907 Z-4.471 I-0.402 J0.093
N2390 X4.402 Y-3.093 Z-4.517 I0.402 J-0.093
N2395 X3.598 Y-2.907 Z-4.562 I-0.402 J0.093
N2400 X4.402 Y-3.093 Z-4.607 I0.402 J-0.093
N2405 X3.598 Y-2.907 Z-4.652 I-0.402 J0.093
N2410 X4.402 Y-3.093 Z-4.698 I0.402 J-0.093
N2415 X3.598 Y-2.907 Z-4.743 I-0.402 J0.093
N2420 X4.402 Y-3.093 Z-4.788 I0.402 J-0.093
N2425 X3.598 Y-2.907 Z-4.833 I-0.402 J0.093
N2430 X4.402 Y-3.093 Z-4.879 I0.402 J-0.093
N2435 X3.598 Y-2.907 Z-4.924 I-0.402 J0.093
N2440 X4.402 Y-3.093 Z-4.969 I0.402 J-0.093
N2445 X3.598 Y-2.907 Z-5.014 I-0.402 J0.093
N2450 X4.402 Y-3.093 Z-5.06 I0.402 J-0.093
N2455 X3.598 Y-2.907 Z-5.105 I-0.402 J0.093
N2460 X4.402 Y-3.093 Z-5.15 I0.402 J-0.093
N2465 X3.598 Y-2.907 Z-5.195 I-0.402 J0.093
N2470 X4.402 Y-3.093 Z-5.241 I0.402 J-0.093
N2475 X3.598 Y-2.907 Z-5.286 I-0.402 J0.093
N2480 X4.402 Y-3.093 Z-5.331 I0.402 J-0.093
N2485 X3.598 Y-2.907 Z-5.376 I-0.402 J0.093
N2490 X4.402 Y-3.093 Z-5.422 I0.402 J-0.093
N2495 X3.598 Y-2.907 Z-5.467 I-0.402 J0.093
N2500 X4.402 Y-3.093 Z-5.512 I0.402 J-0.093
N2505 X3.598 Y-2.907 Z-5.557 I-0.402 J0.093
N2510 X4.402 Y-3.093 Z-5.603 I0.402 J-0.093
N2515 X3.598 Y-2.907 Z-5.648 I-0.402 J0.093
N2520 X4.402 Y-3.093 Z-5.693 I0.402 J-0.093
N2525 X3.598 Y-2.907 Z-5.738 I-0.402 J0.093
N2530 X4.402 Y-3.093 Z-5.784 I0.402 J-0.093
N2535 X3.598 Y-2.907 Z-5.829 I-0.402 J0.093
N2540 X4.402 Y-3.093 Z-5.874 I0.402 J-0.093
N2545 X3.598 Y-2.907 Z-5.919 I-0.402 J0.093
N2550 X4.402 Y-3.093 Z-5.965 I0.402 J-0.093
N2555 X3.598 Y-2.907 Z-6.01 I-0.402 J0.093
N2560 X4.402 Y-3.093 Z-6.055 I0.402 J-0.093
N2565 X3.598 Y-2.907 Z-6.1 I-0.402 J0.093
N2570 X4.402 Y-3.093 Z-6.146 I0.402 J-0.093
N2575 X3.598 Y-2.907 Z-6.191 I-0.402 J0.093
N2580 X4.402 Y-3.093 Z-6.236 I0.402 J-0.093
N2585 X3.598 Y-2.907 Z-6.281 I-0.402 J0.093
N2590 X4.402 Y-3.093 Z-6.327 I0.402 J-0.093
N2595 X3.598 Y-2.907 Z-6.372 I-0.402 J0.093
N2600 X4.402 Y-3.093 Z-6.417 I0.402 J-0.093
N2605 X3.598 Y-2.907 Z-6.463 I-0.402 J0.093
N2610 X4.402 Y-3.093 Z-6.508 I0.402 J-0.093
N2615 X3.598 Y-2.907 Z-6.553 I-0.402 J0.093
N2620 X4.402 Y-3.093 Z-6.598 I0.402 J-0.093
N2625 X3.598 Y-2.907 Z-6.644 I-0.402 J0.093
N2630 X4.402 Y-3.093 Z-6.689 I0.402 J-0.093
N2635 X3.598 Y-2.907 Z-6.734 I-0.402 J0.093
N2640 X4.402 Y-3.093 Z-6.779 I0.402 J-0.093
N2645 X3.598 Y-2.907 Z-6.825 I-0.402 J0.093
N2650 X4.402 Y-3.093 Z-6.87 I0.402 J-0.093
N2655 X3.598 Y-2.907 Z-6.915 I-0.402 J0.093
N2660 X4.402 Y-3.093 Z-6.96 I0.402 J-0.093
N2665 X3.598 Y-2.907 Z-7.006 I-0.402 J0.093
N2670 X4.402 Y-3.093 Z-7.051 I0.402 J-0.093
N2675 X3.598 Y-2.907 Z-7.096 I-0.402 J0.093
N2680 X4.402 Y-3.093 Z-7.141 I0.402 J-0.093
N2685 X3.598 Y-2.907 Z-7.187 I-0.402 J0.093
N2690 X4.402 Y-3.093 Z-7.232 I0.402 J-0.093
N2695 X3.598 Y-2.907 Z-7.277 I-0.402 J0.093
N2700 X4.402 Y-3.093 Z-7.322 I0.402 J-0.093
N2705 X3.598 Y-2.907 Z-7.368 I-0.402 J0.093
N2710 X4.402 Y-3.093 Z-7.413 I0.402 J-0.093
N2715 X3.598 Y-2.907 Z-7.458 I-0.402 J0.093
N2720 X4.402 Y-3.093 Z-7.503 I0.402 J-0.093
N2725 X3.598 Y-2.907 Z-7.549 I-0.402 J0.093
N2730 X4.402 Y-3.093 Z-7.594 I0.402 J-0.093
N2735 X3.598 Y-2.907 Z-7.639 I-0.402 J0.093
N2740 X4.402 Y-3.093 Z-7.684 I0.402 J-0.093
N2745 X3.598 Y-2.907 Z-7.73 I-0.402 J0.093
N2750 X4.402 Y-3.093 Z-7.775 I0.402 J-0.093
N2755 X3.598 Y-2.907 Z-7.82 I-0.402 J0.093
N2760 X4.402 Y-3.093 Z-7.865 I0.402 J-0.093
N2765 X3.598 Y-2.907 Z-7.911 I-0.402 J0.093
N2770 X4.402 Y-3.093 Z-7.956 I0.402 J-0.093
N2775 X3.598 Y-2.907 Z-8.001 I-0.402 J0.093
N2780 X4.402 Y-3.093 Z-8.046 I0.402 J-0.093
N2785 X3.598 Y-2.907 Z-8.092 I-0.402 J0.093
N2790 X4.402 Y-3.093 Z-8.137 I0.402 J-0.093
N2795 X3.598 Y-2.907 Z-8.182 I-0.402 J0.093
N2800 X4.402 Y-3.093 Z-8.227 I0.402 J-0.093
N2805 X3.598 Y-2.907 Z-8.273 I-0.402 J0.093
N2810 X4.402 Y-3.093 Z-8.318 I0.402 J-0.093
N2815 X3.598 Y-2.907 Z-8.363 I-0.402 J0.093
N2820 X4.402 Y-3.093 Z-8.408 I0.402 J-0.093
N2825 X3.598 Y-2.907 Z-8.454 I-0.402 J0.093
N2830 X4.402 Y-3.093 Z-8.499 I0.402 J-0.093
N2835 X3.598 Y-2.907 Z-8.544 I-0.402 J0.093
N2840 X4.402 Y-3.093 Z-8.589 I0.402 J-0.093
N2845 X3.598 Y-2.907 Z-8.635 I-0.402 J0.093
N2850 X4.402 Y-3.093 Z-8.68 I0.402 J-0.093
N2855 X3.598 Y-2.907 Z-8.725 I-0.402 J0.093
N2860 X4.402 Y-3.093 Z-8.77 I0.402 J-0.093
N2865 X3.598 Y-2.907 Z-8.816 I-0.402 J0.093
N2870 X4.402 Y-3.093 Z-8.861 I0.402 J-0.093
N2875 X3.598 Y-2.907 Z-8.906 I-0.402 J0.093
N2880 X4.402 Y-3.093 Z-8.951 I0.402 J-0.093
N2885 X4.047 Y-2.59 Z-8.976 I-0.402 J0.093
N2890 X3.588 Y-3. Z-9. I-0.047 J-0.41
N2895 X4.012 I0.212 J0.
N2900 X3.987 I-0.012 J0. F600.
N2905 X4.113 I0.063 J0.
N2910 X3.888 I-0.113 J0.
N2915 X4.213 I0.163 J0.
N2920 X3.787 I-0.213 J0.
N2925 X4.313 I0.263 J0.
N2930 X3.688 I-0.313 J0.
N2935 X4.412 I0.363 J0.
N2940 X3.588 I-0.412 J0.
N2945 X4.412 I0.412 J0.
N2950 X4.409 Y-2.951 Z-8.996 I-0.318 J0.
N2955 X4.397 Y-2.903 Z-8.984 I-0.314 J-0.049
N2960 X4.38 Y-2.861 Z-8.965 I-0.302 J-0.097
N2965 X4.359 Y-2.824 Z-8.939 I-0.285 J-0.139
N2970 X4.336 Y-2.794 Z-8.907 I-0.264 J-0.176
N2975 X4.314 Y-2.77 Z-8.869 I-0.241 J-0.206
N2980 X4.295 Y-2.753 Z-8.827 I-0.219 J-0.23
N2985 X4.279 Y-2.742 Z-8.781 I-0.2 J-0.247
N2990 X4.27 Y-2.735 Z-8.732 I-0.184 J-0.258
N2995 G1 X4.267 Y-2.733 Z-8.682
N3000 G0 Z5.
N3005 X4.233 Y-12.34
N3010 Z2.318
N3015 G1 Z2.317 F600.
N3020 X4.235 Y-12.339 Z2.282 F500.
N3025 X4.24 Y-12.336 Z2.248
N3030 X4.247 Y-12.33 Z2.214
N3035 G3 X4.262 Y-12.318 Z2.17 I-0.247 J0.33
N3040 X4.281 Y-12.302 Z2.13 I-0.262 J0.318
N3045 X4.303 Y-12.28 Z2.093 I-0.281 J0.302
N3050 X4.327 Y-12.252 Z2.062 I-0.303 J0.28
N3055 X4.35 Y-12.219 Z2.037 I-0.327 J0.252
N3060 X4.371 Y-12.181 Z2.018 I-0.35 J0.219
N3065 X4.389 Y-12.138 Z2.005 I-0.371 J0.181
N3070 X4.402 Y-12.093 Z2. I-0.389 J0.138
N3075 X3.598 Y-11.907 Z1.955 I-0.402 J0.093
N3080 X4.402 Y-12.093 Z1.909 I0.402 J-0.093
N3085 X3.598 Y-11.907 Z1.864 I-0.402 J0.093
N3090 X4.402 Y-12.093 Z1.819 I0.402 J-0.093
N3095 X3.598 Y-11.907 Z1.774 I-0.402 J0.093
N3100 X4.402 Y-12.093 Z1.728 I0.402 J-0.093
N3105 X3.598 Y-11.907 Z1.683 I-0.402 J0.093
N3110 X4.402 Y-12.093 Z1.638 I0.402 J-0.093
N3115 X3.598 Y-11.907 Z1.593 I-0.402 J0.093
N3120 X4.402 Y-12.093 Z1.547 I0.402 J-0.093
N3125 X3.598 Y-11.907 Z1.502 I-0.402 J0.093
N3130 X4.402 Y-12.093 Z1.457 I0.402 J-0.093
N3135 X3.598 Y-11.907 Z1.412 I-0.402 J0.093
N3140 X4.402 Y-12.093 Z1.366 I0.402 J-0.093
N3145 X3.598 Y-11.907 Z1.321 I-0.402 J0.093
N3150 X4.402 Y-12.093 Z1.276 I0.402 J-0.093
N3155 X3.598 Y-11.907 Z1.231 I-0.402 J0.093
N3160 X4.402 Y-12.093 Z1.185 I0.402 J-0.093
N3165 X3.598 Y-11.907 Z1.14 I-0.402 J0.093
N3170 X4.402 Y-12.093 Z1.095 I0.402 J-0.093
N3175 X3.598 Y-11.907 Z1.05 I-0.402 J0.093
N3180 X4.402 Y-12.093 Z1.004 I0.402 J-0.093
N3185 X3.598 Y-11.907 Z0.959 I-0.402 J0.093
N3190 X4.402 Y-12.093 Z0.914 I0.402 J-0.093
N3195 X3.598 Y-11.907 Z0.869 I-0.402 J0.093
N3200 X4.402 Y-12.093 Z0.823 I0.402 J-0.093
N3205 X3.598 Y-11.907 Z0.778 I-0.402 J0.093
N3210 X4.402 Y-12.093 Z0.733 I0.402 J-0.093
N3215 X3.598 Y-11.907 Z0.688 I-0.402 J0.093
N3220 X4.402 Y-12.093 Z0.642 I0.402 J-0.093
N3225 X3.598 Y-11.907 Z0.597 I-0.402 J0.093
N3230 X4.402 Y-12.093 Z0.552 I0.402 J-0.093
N3235 X3.598 Y-11.907 Z0.507 I-0.402 J0.093
N3240 X4.402 Y-12.093 Z0.461 I0.402 J-0.093
N3245 X3.598 Y-11.907 Z0.416 I-0.402 J0.093
N3250 X4.402 Y-12.093 Z0.371 I0.402 J-0.093
N3255 X3.598 Y-11.907 Z0.326 I-0.402 J0.093
N3260 X4.402 Y-12.093 Z0.28 I0.402 J-0.093
N3265 X3.598 Y-11.907 Z0.235 I-0.402 J0.093
N3270 X4.402 Y-12.093 Z0.19 I0.402 J-0.093
N3275 X3.598 Y-11.907 Z0.145 I-0.402 J0.093
N3280 X4.402 Y-12.093 Z0.099 I0.402 J-0.093
N3285 X3.598 Y-11.907 Z0.054 I-0.402 J0.093
N3290 X4.402 Y-12.093 Z0.009 I0.402 J-0.093
N3295 X3.598 Y-11.907 Z-0.036 I-0.402 J0.093
N3300 X4.402 Y-12.093 Z-0.082 I0.402 J-0.093
N3305 X3.598 Y-11.907 Z-0.127 I-0.402 J0.093
N3310 X4.402 Y-12.093 Z-0.172 I0.402 J-0.093
N3315 X3.598 Y-11.907 Z-0.217 I-0.402 J0.093
N3320 X4.402 Y-12.093 Z-0.263 I0.402 J-0.093
N3325 X3.598 Y-11.907 Z-0.308 I-0.402 J0.093
N3330 X4.402 Y-12.093 Z-0.353 I0.402 J-0.093
N3335 X3.598 Y-11.907 Z-0.398 I-0.402 J0.093
N3340 X4.402 Y-12.093 Z-0.444 I0.402 J-0.093
N3345 X3.598 Y-11.907 Z-0.489 I-0.402 J0.093
N3350 X4.402 Y-12.093 Z-0.534 I0.402 J-0.093
N3355 X3.598 Y-11.907 Z-0.579 I-0.402 J0.093
N3360 X4.402 Y-12.093 Z-0.625 I0.402 J-0.093
N3365 X3.598 Y-11.907 Z-0.67 I-0.402 J0.093
N3370 X4.402 Y-12.093 Z-0.715 I0.402 J-0.093
N3375 X3.598 Y-11.907 Z-0.76 I-0.402 J0.093
N3380 X4.402 Y-12.093 Z-0.806 I0.402 J-0.093
N3385 X3.598 Y-11.907 Z-0.851 I-0.402 J0.093
N3390 X4.402 Y-12.093 Z-0.896 I0.402 J-0.093
N3395 X3.598 Y-11.907 Z-0.942 I-0.402 J0.093
N3400 X4.402 Y-12.093 Z-0.987 I0.402 J-0.093
N3405 X3.598 Y-11.907 Z-1.032 I-0.402 J0.093
N3410 X4.402 Y-12.093 Z-1.077 I0.402 J-0.093
N3415 X3.598 Y-11.907 Z-1.123 I-0.402 J0.093
N3420 X4.402 Y-12.093 Z-1.168 I0.402 J-0.093
N3425 X3.598 Y-11.907 Z-1.213 I-0.402 J0.093
N3430 X4.402 Y-12.093 Z-1.258 I0.402 J-0.093
N3435 X3.598 Y-11.907 Z-1.304 I-0.402 J0.093
N3440 X4.402 Y-12.093 Z-1.349 I0.402 J-0.093
N3445 X3.598 Y-11.907 Z-1.394 I-0.402 J0.093
N3450 X4.402 Y-12.093 Z-1.439 I0.402 J-0.093
N3455 X3.598 Y-11.907 Z-1.485 I-0.402 J0.093
N3460 X4.402 Y-12.093 Z-1.53 I0.402 J-0.093
N3465 X3.598 Y-11.907 Z-1.575 I-0.402 J0.093
N3470 X4.402 Y-12.093 Z-1.62 I0.402 J-0.093
N3475 X3.598 Y-11.907 Z-1.666 I-0.402 J0.093
N3480 X4.402 Y-12.093 Z-1.711 I0.402 J-0.093
N3485 X3.598 Y-11.907 Z-1.756 I-0.402 J0.093
N3490 X4.402 Y-12.093 Z-1.801 I0.402 J-0.093
N3495 X3.598 Y-11.907 Z-1.847 I-0.402 J0.093
N3500 X4.402 Y-12.093 Z-1.892 I0.402 J-0.093
N3505 X3.598 Y-11.907 Z-1.937 I-0.402 J0.093
N3510 X4.402 Y-12.093 Z-1.982 I0.402 J-0.093
N3515 X3.598 Y-11.907 Z-2.028 I-0.402 J0.093
N3520 X4.402 Y-12.093 Z-2.073 I0.402 J-0.093
N3525 X3.598 Y-11.907 Z-2.118 I-0.402 J0.093
N3530 X4.402 Y-12.093 Z-2.163 I0.402 J-0.093
N3535 X3.598 Y-11.907 Z-2.209 I-0.402 J0.093
N3540 X4.402 Y-12.093 Z-2.254 I0.402 J-0.093
N3545 X3.598 Y-11.907 Z-2.299 I-0.402 J0.093
N3550 X4.402 Y-12.093 Z-2.344 I0.402 J-0.093
N3555 X3.598 Y-11.907 Z-2.39 I-0.402 J0.093
N3560 X4.402 Y-12.093 Z-2.435 I0.402 J-0.093
N3565 X3.598 Y-11.907 Z-2.48 I-0.402 J0.093
N3570 X4.402 Y-12.093 Z-2.525 I0.402 J-0.093
N3575 X3.598 Y-11.907 Z-2.571 I-0.402 J0.093
N3580 X4.402 Y-12.093 Z-2.616 I0.402 J-0.093
N3585 X3.598 Y-11.907 Z-2.661 I-0.402 J0.093
N3590 X4.402 Y-12.093 Z-2.706 I0.402 J-0.093
N3595 X3.598 Y-11.907 Z-2.752 I-0.402 J0.093
N3600 X4.402 Y-12.093 Z-2.797 I0.402 J-0.093
N3605 X3.598 Y-11.907 Z-2.842 I-0.402 J0.093
N3610 X4.402 Y-12.093 Z-2.887 I0.402 J-0.093
N3615 X3.598 Y-11.907 Z-2.933 I-0.402 J0.093
N3620 X4.402 Y-12.093 Z-2.978 I0.402 J-0.093
N3625 X3.598 Y-11.907 Z-3.023 I-0.402 J0.093
N3630 X4.402 Y-12.093 Z-3.068 I0.402 J-0.093
N3635 X3.598 Y-11.907 Z-3.114 I-0.402 J0.093
N3640 X4.402 Y-12.093 Z-3.159 I0.402 J-0.093
N3645 X3.598 Y-11.907 Z-3.204 I-0.402 J0.093
N3650 X4.402 Y-12.093 Z-3.249 I0.402 J-0.093
N3655 X3.598 Y-11.907 Z-3.295 I-0.402 J0.093
N3660 X4.402 Y-12.093 Z-3.34 I0.402 J-0.093
N3665 X3.598 Y-11.907 Z-3.385 I-0.402 J0.093
N3670 X4.402 Y-12.093 Z-3.43 I0.402 J-0.093
N3675 X3.598 Y-11.907 Z-3.476 I-0.402 J0.093
N3680 X4.402 Y-12.093 Z-3.521 I0.402 J-0.093
N3685 X3.598 Y-11.907 Z-3.566 I-0.402 J0.093
N3690 X4.402 Y-12.093 Z-3.612 I0.402 J-0.093
N3695 X3.598 Y-11.907 Z-3.657 I-0.402 J0.093
N3700 X4.402 Y-12.093 Z-3.702 I0.402 J-0.093
N3705 X3.598 Y-11.907 Z-3.747 I-0.402 J0.093
N3710 X4.402 Y-12.093 Z-3.793 I0.402 J-0.093
N3715 X3.598 Y-11.907 Z-3.838 I-0.402 J0.093
N3720 X4.402 Y-12.093 Z-3.883 I0.402 J-0.093
N3725 X3.598 Y-11.907 Z-3.928 I-0.402 J0.093
N3730 X4.402 Y-12.093 Z-3.974 I0.402 J-0.093
N3735 X3.598 Y-11.907 Z-4.019 I-0.402 J0.093
N3740 X4.402 Y-12.093 Z-4.064 I0.402 J-0.093
N3745 X3.598 Y-11.907 Z-4.109 I-0.402 J0.093
N3750 X4.402 Y-12.093 Z-4.155 I0.402 J-0.093
N3755 X3.598 Y-11.907 Z-4.2 I-0.402 J0.093
N3760 X4.402 Y-12.093 Z-4.245 I0.402 J-0.093
N3765 X3.598 Y-11.907 Z-4.29 I-0.402 J0.093
N3770 X4.402 Y-12.093 Z-4.336 I0.402 J-0.093
N3775 X3.598 Y-11.907 Z-4.381 I-0.402 J0.093
N3780 X4.402 Y-12.093 Z-4.426 I0.402 J-0.093
N3785 X3.598 Y-11.907 Z-4.471 I-0.402 J0.093
N3790 X4.402 Y-12.093 Z-4.517 I0.402 J-0.093
N3795 X3.598 Y-11.907 Z-4.562 I-0.402 J0.093
N3800 X4.402 Y-12.093 Z-4.607 I0.402 J-0.093
N3805 X3.598 Y-11.907 Z-4.652 I-0.402 J0.093
N3810 X4.402 Y-12.093 Z-4.698 I0.402 J-0.093
N3815 X3.598 Y-11.907 Z-4.743 I-0.402 J0.093
N3820 X4.402 Y-12.093 Z-4.788 I0.402 J-0.093
N3825 X3.598 Y-11.907 Z-4.833 I-0.402 J0.093
N3830 X4.402 Y-12.093 Z-4.879 I0.402 J-0.093
N3835 X3.598 Y-11.907 Z-4.924 I-0.402 J0.093
N3840 X4.402 Y-12.093 Z-4.969 I0.402 J-0.093
N3845 X3.598 Y-11.907 Z-5.014 I-0.402 J0.093
N3850 X4.402 Y-12.093 Z-5.06 I0.402 J-0.093
N3855 X3.598 Y-11.907 Z-5.105 I-0.402 J0.093
N3860 X4.402 Y-12.093 Z-5.15 I0.402 J-0.093
N3865 X3.598 Y-11.907 Z-5.195 I-0.402 J0.093
N3870 X4.402 Y-12.093 Z-5.241 I0.402 J-0.093
N3875 X3.598 Y-11.907 Z-5.286 I-0.402 J0.093
N3880 X4.402 Y-12.093 Z-5.331 I0.402 J-0.093
N3885 X3.598 Y-11.907 Z-5.376 I-0.402 J0.093
N3890 X4.402 Y-12.093 Z-5.422 I0.402 J-0.093
N3895 X3.598 Y-11.907 Z-5.467 I-0.402 J0.093
N3900 X4.402 Y-12.093 Z-5.512 I0.402 J-0.093
N3905 X3.598 Y-11.907 Z-5.557 I-0.402 J0.093
N3910 X4.402 Y-12.093 Z-5.603 I0.402 J-0.093
N3915 X3.598 Y-11.907 Z-5.648 I-0.402 J0.093
N3920 X4.402 Y-12.093 Z-5.693 I0.402 J-0.093
N3925 X3.598 Y-11.907 Z-5.738 I-0.402 J0.093
N3930 X4.402 Y-12.093 Z-5.784 I0.402 J-0.093
N3935 X3.598 Y-11.907 Z-5.829 I-0.402 J0.093
N3940 X4.402 Y-12.093 Z-5.874 I0.402 J-0.093
N3945 X3.598 Y-11.907 Z-5.919 I-0.402 J0.093
N3950 X4.402 Y-12.093 Z-5.965 I0.402 J-0.093
N3955 X3.598 Y-11.907 Z-6.01 I-0.402 J0.093
N3960 X4.402 Y-12.093 Z-6.055 I0.402 J-0.093
N3965 X3.598 Y-11.907 Z-6.1 I-0.402 J0.093
N3970 X4.402 Y-12.093 Z-6.146 I0.402 J-0.093
N3975 X3.598 Y-11.907 Z-6.191 I-0.402 J0.093
N3980 X4.402 Y-12.093 Z-6.236 I0.402 J-0.093
N3985 X3.598 Y-11.907 Z-6.281 I-0.402 J0.093
N3990 X4.402 Y-12.093 Z-6.327 I0.402 J-0.093
N3995 X3.598 Y-11.907 Z-6.372 I-0.402 J0.093
N4000 X4.402 Y-12.093 Z-6.417 I0.402 J-0.093
N4005 X3.598 Y-11.907 Z-6.463 I-0.402 J0.093
N4010 X4.402 Y-12.093 Z-6.508 I0.402 J-0.093
N4015 X3.598 Y-11.907 Z-6.553 I-0.402 J0.093
N4020 X4.402 Y-12.093 Z-6.598 I0.402 J-0.093
N4025 X3.598 Y-11.907 Z-6.644 I-0.402 J0.093
N4030 X4.402 Y-12.093 Z-6.689 I0.402 J-0.093
N4035 X3.598 Y-11.907 Z-6.734 I-0.402 J0.093
N4040 X4.402 Y-12.093 Z-6.779 I0.402 J-0.093
N4045 X3.598 Y-11.907 Z-6.825 I-0.402 J0.093
N4050 X4.402 Y-12.093 Z-6.87 I0.402 J-0.093
N4055 X3.598 Y-11.907 Z-6.915 I-0.402 J0.093
N4060 X4.402 Y-12.093 Z-6.96 I0.402 J-0.093
N4065 X3.598 Y-11.907 Z-7.006 I-0.402 J0.093
N4070 X4.402 Y-12.093 Z-7.051 I0.402 J-0.093
N4075 X3.598 Y-11.907 Z-7.096 I-0.402 J0.093
N4080 X4.402 Y-12.093 Z-7.141 I0.402 J-0.093
N4085 X3.598 Y-11.907 Z-7.187 I-0.402 J0.093
N4090 X4.402 Y-12.093 Z-7.232 I0.402 J-0.093
N4095 X3.598 Y-11.907 Z-7.277 I-0.402 J0.093
N4100 X4.402 Y-12.093 Z-7.322 I0.402 J-0.093
N4105 X3.598 Y-11.907 Z-7.368 I-0.402 J0.093
N4110 X4.402 Y-12.093 Z-7.413 I0.402 J-0.093
N4115 X3.598 Y-11.907 Z-7.458 I-0.402 J0.093
N4120 X4.402 Y-12.093 Z-7.503 I0.402 J-0.093
N4125 X3.598 Y-11.907 Z-7.549 I-0.402 J0.093
N4130 X4.402 Y-12.093 Z-7.594 I0.402 J-0.093
N4135 X3.598 Y-11.907 Z-7.639 I-0.402 J0.093
N4140 X4.402 Y-12.093 Z-7.684 I0.402 J-0.093
N4145 X3.598 Y-11.907 Z-7.73 I-0.402 J0.093
N4150 X4.402 Y-12.093 Z-7.775 I0.402 J-0.093
N4155 X3.598 Y-11.907 Z-7.82 I-0.402 J0.093
N4160 X4.402 Y-12.093 Z-7.865 I0.402 J-0.093
N4165 X3.598 Y-11.907 Z-7.911 I-0.402 J0.093
N4170 X4.402 Y-12.093 Z-7.956 I0.402 J-0.093
N4175 X3.598 Y-11.907 Z-8.001 I-0.402 J0.093
N4180 X4.402 Y-12.093 Z-8.046 I0.402 J-0.093
N4185 X3.598 Y-11.907 Z-8.092 I-0.402 J0.093
N4190 X4.402 Y-12.093 Z-8.137 I0.402 J-0.093
N4195 X3.598 Y-11.907 Z-8.182 I-0.402 J0.093
N4200 X4.402 Y-12.093 Z-8.227 I0.402 J-0.093
N4205 X3.598 Y-11.907 Z-8.273 I-0.402 J0.093
N4210 X4.402 Y-12.093 Z-8.318 I0.402 J-0.093
N4215 X3.598 Y-11.907 Z-8.363 I-0.402 J0.093
N4220 X4.402 Y-12.093 Z-8.408 I0.402 J-0.093
N4225 X3.598 Y-11.907 Z-8.454 I-0.402 J0.093
N4230 X4.402 Y-12.093 Z-8.499 I0.402 J-0.093
N4235 X3.598 Y-11.907 Z-8.544 I-0.402 J0.093
N4240 X4.402 Y-12.093 Z-8.589 I0.402 J-0.093
N4245 X3.598 Y-11.907 Z-8.635 I-0.402 J0.093
N4250 X4.402 Y-12.093 Z-8.68 I0.402 J-0.093
N4255 X3.598 Y-11.907 Z-8.725 I-0.402 J0.093
N4260 X4.402 Y-12.093 Z-8.77 I0.402 J-0.093
N4265 X3.598 Y-11.907 Z-8.816 I-0.402 J0.093
N4270 X4.402 Y-12.093 Z-8.861 I0.402 J-0.093
N4275 X3.598 Y-11.907 Z-8.906 I-0.402 J0.093
N4280 X4.402 Y-12.093 Z-8.951 I0.402 J-0.093
N4285 X4.047 Y-11.59 Z-8.976 I-0.402 J0.093
N4290 X3.588 Y-12. Z-9. I-0.047 J-0.41
N4295 X4.012 I0.212 J0.
N4300 X3.987 I-0.012 J0. F600.
N4305 X4.113 I0.063 J0.
N4310 X3.888 I-0.113 J0.
N4315 X4.213 I0.163 J0.
N4320 X3.787 I-0.213 J0.
N4325 X4.313 I0.263 J0.
N4330 X3.688 I-0.313 J0.
N4335 X4.412 I0.363 J0.
N4340 X3.588 I-0.412 J0.
N4345 X4.412 I0.412 J0.
N4350 X4.409 Y-11.951 Z-8.996 I-0.318 J0.
N4355 X4.397 Y-11.903 Z-8.984 I-0.314 J-0.049
N4360 X4.38 Y-11.861 Z-8.965 I-0.302 J-0.097
N4365 X4.359 Y-11.824 Z-8.939 I-0.285 J-0.139
N4370 X4.336 Y-11.794 Z-8.907 I-0.264 J-0.176
N4375 X4.314 Y-11.77 Z-8.869 I-0.241 J-0.206
N4380 X4.295 Y-11.753 Z-8.827 I-0.219 J-0.23
N4385 X4.279 Y-11.742 Z-8.781 I-0.2 J-0.247
N4390 X4.27 Y-11.735 Z-8.732 I-0.184 J-0.258
N4395 G1 X4.267 Y-11.733 Z-8.682
N4400 G0 Z5.
N4405 X12.233 Y-12.34
N4410 Z2.318
N4415 G1 Z2.317 F600.
N4420 X12.235 Y-12.339 Z2.282 F500.
N4425 X12.24 Y-12.336 Z2.248
N4430 X12.248 Y-12.33 Z2.214
N4435 G3 X12.262 Y-12.318 Z2.17 I-0.248 J0.33
N4440 X12.281 Y-12.302 Z2.13 I-0.262 J0.318
N4445 X12.303 Y-12.28 Z2.093 I-0.281 J0.302
N4450 X12.327 Y-12.252 Z2.062 I-0.303 J0.28
N4455 X12.35 Y-12.219 Z2.037 I-0.327 J0.252
N4460 X12.371 Y-12.181 Z2.018 I-0.35 J0.219
N4465 X12.389 Y-12.138 Z2.005 I-0.371 J0.181
N4470 X12.402 Y-12.093 Z2. I-0.389 J0.138
N4475 X11.598 Y-11.907 Z1.955 I-0.402 J0.093
N4480 X12.402 Y-12.093 Z1.909 I0.402 J-0.093
N4485 X11.598 Y-11.907 Z1.864 I-0.402 J0.093
N4490 X12.402 Y-12.093 Z1.819 I0.402 J-0.093
N4495 X11.598 Y-11.907 Z1.774 I-0.402 J0.093
N4500 X12.402 Y-12.093 Z1.728 I0.402 J-0.093
N4505 X11.598 Y-11.907 Z1.683 I-0.402 J0.093
N4510 X12.402 Y-12.093 Z1.638 I0.402 J-0.093
N4515 X11.598 Y-11.907 Z1.593 I-0.402 J0.093
N4520 X12.402 Y-12.093 Z1.547 I0.402 J-0.093
N4525 X11.598 Y-11.907 Z1.502 I-0.402 J0.093
N4530 X12.402 Y-12.093 Z1.457 I0.402 J-0.093
N4535 X11.598 Y-11.907 Z1.412 I-0.402 J0.093
N4540 X12.402 Y-12.093 Z1.366 I0.402 J-0.093
N4545 X11.598 Y-11.907 Z1.321 I-0.402 J0.093
N4550 X12.402 Y-12.093 Z1.276 I0.402 J-0.093
N4555 X11.598 Y-11.907 Z1.231 I-0.402 J0.093
N4560 X12.402 Y-12.093 Z1.185 I0.402 J-0.093
N4565 X11.598 Y-11.907 Z1.14 I-0.402 J0.093
N4570 X12.402 Y-12.093 Z1.095 I0.402 J-0.093
N4575 X11.598 Y-11.907 Z1.05 I-0.402 J0.093
N4580 X12.402 Y-12.093 Z1.004 I0.402 J-0.093
N4585 X11.598 Y-11.907 Z0.959 I-0.402 J0.093
N4590 X12.402 Y-12.093 Z0.914 I0.402 J-0.093
N4595 X11.598 Y-11.907 Z0.869 I-0.402 J0.093
N4600 X12.402 Y-12.093 Z0.823 I0.402 J-0.093
N4605 X11.598 Y-11.907 Z0.778 I-0.402 J0.093
N4610 X12.402 Y-12.093 Z0.733 I0.402 J-0.093
N4615 X11.598 Y-11.907 Z0.688 I-0.402 J0.093
N4620 X12.402 Y-12.093 Z0.642 I0.402 J-0.093
N4625 X11.598 Y-11.907 Z0.597 I-0.402 J0.093
N4630 X12.402 Y-12.093 Z0.552 I0.402 J-0.093
N4635 X11.598 Y-11.907 Z0.507 I-0.402 J0.093
N4640 X12.402 Y-12.093 Z0.461 I0.402 J-0.093
N4645 X11.598 Y-11.907 Z0.416 I-0.402 J0.093
N4650 X12.402 Y-12.093 Z0.371 I0.402 J-0.093
N4655 X11.598 Y-11.907 Z0.326 I-0.402 J0.093
N4660 X12.402 Y-12.093 Z0.28 I0.402 J-0.093
N4665 X11.598 Y-11.907 Z0.235 I-0.402 J0.093
N4670 X12.402 Y-12.093 Z0.19 I0.402 J-0.093
N4675 X11.598 Y-11.907 Z0.145 I-0.402 J0.093
N4680 X12.402 Y-12.093 Z0.099 I0.402 J-0.093
N4685 X11.598 Y-11.907 Z0.054 I-0.402 J0.093
N4690 X12.402 Y-12.093 Z0.009 I0.402 J-0.093
N4695 X11.598 Y-11.907 Z-0.036 I-0.402 J0.093
N4700 X12.402 Y-12.093 Z-0.082 I0.402 J-0.093
N4705 X11.598 Y-11.907 Z-0.127 I-0.402 J0.093
N4710 X12.402 Y-12.093 Z-0.172 I0.402 J-0.093
N4715 X11.598 Y-11.907 Z-0.217 I-0.402 J0.093
N4720 X12.402 Y-12.093 Z-0.263 I0.402 J-0.093
N4725 X11.598 Y-11.907 Z-0.308 I-0.402 J0.093
N4730 X12.402 Y-12.093 Z-0.353 I0.402 J-0.093
N4735 X11.598 Y-11.907 Z-0.398 I-0.402 J0.093
N4740 X12.402 Y-12.093 Z-0.444 I0.402 J-0.093
N4745 X11.598 Y-11.907 Z-0.489 I-0.402 J0.093
N4750 X12.402 Y-12.093 Z-0.534 I0.402 J-0.093
N4755 X11.598 Y-11.907 Z-0.579 I-0.402 J0.093
N4760 X12.402 Y-12.093 Z-0.625 I0.402 J-0.093
N4765 X11.598 Y-11.907 Z-0.67 I-0.402 J0.093
N4770 X12.402 Y-12.093 Z-0.715 I0.402 J-0.093
N4775 X11.598 Y-11.907 Z-0.76 I-0.402 J0.093
N4780 X12.402 Y-12.093 Z-0.806 I0.402 J-0.093
N4785 X11.598 Y-11.907 Z-0.851 I-0.402 J0.093
N4790 X12.402 Y-12.093 Z-0.896 I0.402 J-0.093
N4795 X11.598 Y-11.907 Z-0.942 I-0.402 J0.093
N4800 X12.402 Y-12.093 Z-0.987 I0.402 J-0.093
N4805 X11.598 Y-11.907 Z-1.032 I-0.402 J0.093
N4810 X12.402 Y-12.093 Z-1.077 I0.402 J-0.093
N4815 X11.598 Y-11.907 Z-1.123 I-0.402 J0.093
N4820 X12.402 Y-12.093 Z-1.168 I0.402 J-0.093
N4825 X11.598 Y-11.907 Z-1.213 I-0.402 J0.093
N4830 X12.402 Y-12.093 Z-1.258 I0.402 J-0.093
N4835 X11.598 Y-11.907 Z-1.304 I-0.402 J0.093
N4840 X12.402 Y-12.093 Z-1.349 I0.402 J-0.093
N4845 X11.598 Y-11.907 Z-1.394 I-0.402 J0.093
N4850 X12.402 Y-12.093 Z-1.439 I0.402 J-0.093
N4855 X11.598 Y-11.907 Z-1.485 I-0.402 J0.093
N4860 X12.402 Y-12.093 Z-1.53 I0.402 J-0.093
N4865 X11.598 Y-11.907 Z-1.575 I-0.402 J0.093
N4870 X12.402 Y-12.093 Z-1.62 I0.402 J-0.093
N4875 X11.598 Y-11.907 Z-1.666 I-0.402 J0.093
N4880 X12.402 Y-12.093 Z-1.711 I0.402 J-0.093
N4885 X11.598 Y-11.907 Z-1.756 I-0.402 J0.093
N4890 X12.402 Y-12.093 Z-1.801 I0.402 J-0.093
N4895 X11.598 Y-11.907 Z-1.847 I-0.402 J0.093
N4900 X12.402 Y-12.093 Z-1.892 I0.402 J-0.093
N4905 X11.598 Y-11.907 Z-1.937 I-0.402 J0.093
N4910 X12.402 Y-12.093 Z-1.982 I0.402 J-0.093
N4915 X11.598 Y-11.907 Z-2.028 I-0.402 J0.093
N4920 X12.402 Y-12.093 Z-2.073 I0.402 J-0.093
N4925 X11.598 Y-11.907 Z-2.118 I-0.402 J0.093
N4930 X12.402 Y-12.093 Z-2.163 I0.402 J-0.093
N4935 X11.598 Y-11.907 Z-2.209 I-0.402 J0.093
N4940 X12.402 Y-12.093 Z-2.254 I0.402 J-0.093
N4945 X11.598 Y-11.907 Z-2.299 I-0.402 J0.093
N4950 X12.402 Y-12.093 Z-2.344 I0.402 J-0.093
N4955 X11.598 Y-11.907 Z-2.39 I-0.402 J0.093
N4960 X12.402 Y-12.093 Z-2.435 I0.402 J-0.093
N4965 X11.598 Y-11.907 Z-2.48 I-0.402 J0.093
N4970 X12.402 Y-12.093 Z-2.525 I0.402 J-0.093
N4975 X11.598 Y-11.907 Z-2.571 I-0.402 J0.093
N4980 X12.402 Y-12.093 Z-2.616 I0.402 J-0.093
N4985 X11.598 Y-11.907 Z-2.661 I-0.402 J0.093
N4990 X12.402 Y-12.093 Z-2.706 I0.402 J-0.093
N4995 X11.598 Y-11.907 Z-2.752 I-0.402 J0.093
N5000 X12.402 Y-12.093 Z-2.797 I0.402 J-0.093
N5005 X11.598 Y-11.907 Z-2.842 I-0.402 J0.093
N5010 X12.402 Y-12.093 Z-2.887 I0.402 J-0.093
N5015 X11.598 Y-11.907 Z-2.933 I-0.402 J0.093
N5020 X12.402 Y-12.093 Z-2.978 I0.402 J-0.093
N5025 X11.598 Y-11.907 Z-3.023 I-0.402 J0.093
N5030 X12.402 Y-12.093 Z-3.068 I0.402 J-0.093
N5035 X11.598 Y-11.907 Z-3.114 I-0.402 J0.093
N5040 X12.402 Y-12.093 Z-3.159 I0.402 J-0.093
N5045 X11.598 Y-11.907 Z-3.204 I-0.402 J0.093
N5050 X12.402 Y-12.093 Z-3.249 I0.402 J-0.093
N5055 X11.598 Y-11.907 Z-3.295 I-0.402 J0.093
N5060 X12.402 Y-12.093 Z-3.34 I0.402 J-0.093
N5065 X11.598 Y-11.907 Z-3.385 I-0.402 J0.093
N5070 X12.402 Y-12.093 Z-3.43 I0.402 J-0.093
N5075 X11.598 Y-11.907 Z-3.476 I-0.402 J0.093
N5080 X12.402 Y-12.093 Z-3.521 I0.402 J-0.093
N5085 X11.598 Y-11.907 Z-3.566 I-0.402 J0.093
N5090 X12.402 Y-12.093 Z-3.612 I0.402 J-0.093
N5095 X11.598 Y-11.907 Z-3.657 I-0.402 J0.093
N5100 X12.402 Y-12.093 Z-3.702 I0.402 J-0.093
N5105 X11.598 Y-11.907 Z-3.747 I-0.402 J0.093
N5110 X12.402 Y-12.093 Z-3.793 I0.402 J-0.093
N5115 X11.598 Y-11.907 Z-3.838 I-0.402 J0.093
N5120 X12.402 Y-12.093 Z-3.883 I0.402 J-0.093
N5125 X11.598 Y-11.907 Z-3.928 I-0.402 J0.093
N5130 X12.402 Y-12.093 Z-3.974 I0.402 J-0.093
N5135 X11.598 Y-11.907 Z-4.019 I-0.402 J0.093
N5140 X12.402 Y-12.093 Z-4.064 I0.402 J-0.093
N5145 X11.598 Y-11.907 Z-4.109 I-0.402 J0.093
N5150 X12.402 Y-12.093 Z-4.155 I0.402 J-0.093
N5155 X11.598 Y-11.907 Z-4.2 I-0.402 J0.093
N5160 X12.402 Y-12.093 Z-4.245 I0.402 J-0.093
N5165 X11.598 Y-11.907 Z-4.29 I-0.402 J0.093
N5170 X12.402 Y-12.093 Z-4.336 I0.402 J-0.093
N5175 X11.598 Y-11.907 Z-4.381 I-0.402 J0.093
N5180 X12.402 Y-12.093 Z-4.426 I0.402 J-0.093
N5185 X11.598 Y-11.907 Z-4.471 I-0.402 J0.093
N5190 X12.402 Y-12.093 Z-4.517 I0.402 J-0.093
N5195 X11.598 Y-11.907 Z-4.562 I-0.402 J0.093
N5200 X12.402 Y-12.093 Z-4.607 I0.402 J-0.093
N5205 X11.598 Y-11.907 Z-4.652 I-0.402 J0.093
N5210 X12.402 Y-12.093 Z-4.698 I0.402 J-0.093
N5215 X11.598 Y-11.907 Z-4.743 I-0.402 J0.093
N5220 X12.402 Y-12.093 Z-4.788 I0.402 J-0.093
N5225 X11.598 Y-11.907 Z-4.833 I-0.402 J0.093
N5230 X12.402 Y-12.093 Z-4.879 I0.402 J-0.093
N5235 X11.598 Y-11.907 Z-4.924 I-0.402 J0.093
N5240 X12.402 Y-12.093 Z-4.969 I0.402 J-0.093
N5245 X11.598 Y-11.907 Z-5.014 I-0.402 J0.093
N5250 X12.402 Y-12.093 Z-5.06 I0.402 J-0.093
N5255 X11.598 Y-11.907 Z-5.105 I-0.402 J0.093
N5260 X12.402 Y-12.093 Z-5.15 I0.402 J-0.093
N5265 X11.598 Y-11.907 Z-5.195 I-0.402 J0.093
N5270 X12.402 Y-12.093 Z-5.241 I0.402 J-0.093
N5275 X11.598 Y-11.907 Z-5.286 I-0.402 J0.093
N5280 X12.402 Y-12.093 Z-5.331 I0.402 J-0.093
N5285 X11.598 Y-11.907 Z-5.376 I-0.402 J0.093
N5290 X12.402 Y-12.093 Z-5.422 I0.402 J-0.093
N5295 X11.598 Y-11.907 Z-5.467 I-0.402 J0.093
N5300 X12.402 Y-12.093 Z-5.512 I0.402 J-0.093
N5305 X11.598 Y-11.907 Z-5.557 I-0.402 J0.093
N5310 X12.402 Y-12.093 Z-5.603 I0.402 J-0.093
N5315 X11.598 Y-11.907 Z-5.648 I-0.402 J0.093
N5320 X12.402 Y-12.093 Z-5.693 I0.402 J-0.093
N5325 X11.598 Y-11.907 Z-5.738 I-0.402 J0.093
N5330 X12.402 Y-12.093 Z-5.784 I0.402 J-0.093
N5335 X11.598 Y-11.907 Z-5.829 I-0.402 J0.093
N5340 X12.402 Y-12.093 Z-5.874 I0.402 J-0.093
N5345 X11.598 Y-11.907 Z-5.919 I-0.402 J0.093
N5350 X12.402 Y-12.093 Z-5.965 I0.402 J-0.093
N5355 X11.598 Y-11.907 Z-6.01 I-0.402 J0.093
N5360 X12.402 Y-12.093 Z-6.055 I0.402 J-0.093
N5365 X11.598 Y-11.907 Z-6.1 I-0.402 J0.093
N5370 X12.402 Y-12.093 Z-6.146 I0.402 J-0.093
N5375 X11.598 Y-11.907 Z-6.191 I-0.402 J0.093
N5380 X12.402 Y-12.093 Z-6.236 I0.402 J-0.093
N5385 X11.598 Y-11.907 Z-6.281 I-0.402 J0.093
N5390 X12.402 Y-12.093 Z-6.327 I0.402 J-0.093
N5395 X11.598 Y-11.907 Z-6.372 I-0.402 J0.093
N5400 X12.402 Y-12.093 Z-6.417 I0.402 J-0.093
N5405 X11.598 Y-11.907 Z-6.463 I-0.402 J0.093
N5410 X12.402 Y-12.093 Z-6.508 I0.402 J-0.093
N5415 X11.598 Y-11.907 Z-6.553 I-0.402 J0.093
N5420 X12.402 Y-12.093 Z-6.598 I0.402 J-0.093
N5425 X11.598 Y-11.907 Z-6.644 I-0.402 J0.093
N5430 X12.402 Y-12.093 Z-6.689 I0.402 J-0.093
N5435 X11.598 Y-11.907 Z-6.734 I-0.402 J0.093
N5440 X12.402 Y-12.093 Z-6.779 I0.402 J-0.093
N5445 X11.598 Y-11.907 Z-6.825 I-0.402 J0.093
N5450 X12.402 Y-12.093 Z-6.87 I0.402 J-0.093
N5455 X11.598 Y-11.907 Z-6.915 I-0.402 J0.093
N5460 X12.402 Y-12.093 Z-6.96 I0.402 J-0.093
N5465 X11.598 Y-11.907 Z-7.006 I-0.402 J0.093
N5470 X12.402 Y-12.093 Z-7.051 I0.402 J-0.093
N5475 X11.598 Y-11.907 Z-7.096 I-0.402 J0.093
N5480 X12.402 Y-12.093 Z-7.141 I0.402 J-0.093
N5485 X11.598 Y-11.907 Z-7.187 I-0.402 J0.093
N5490 X12.402 Y-12.093 Z-7.232 I0.402 J-0.093
N5495 X11.598 Y-11.907 Z-7.277 I-0.402 J0.093
N5500 X12.402 Y-12.093 Z-7.322 I0.402 J-0.093
N5505 X11.598 Y-11.907 Z-7.368 I-0.402 J0.093
N5510 X12.402 Y-12.093 Z-7.413 I0.402 J-0.093
N5515 X11.598 Y-11.907 Z-7.458 I-0.402 J0.093
N5520 X12.402 Y-12.093 Z-7.503 I0.402 J-0.093
N5525 X11.598 Y-11.907 Z-7.549 I-0.402 J0.093
N5530 X12.402 Y-12.093 Z-7.594 I0.402 J-0.093
N5535 X11.598 Y-11.907 Z-7.639 I-0.402 J0.093
N5540 X12.402 Y-12.093 Z-7.684 I0.402 J-0.093
N5545 X11.598 Y-11.907 Z-7.73 I-0.402 J0.093
N5550 X12.402 Y-12.093 Z-7.775 I0.402 J-0.093
N5555 X11.598 Y-11.907 Z-7.82 I-0.402 J0.093
N5560 X12.402 Y-12.093 Z-7.865 I0.402 J-0.093
N5565 X11.598 Y-11.907 Z-7.911 I-0.402 J0.093
N5570 X12.402 Y-12.093 Z-7.956 I0.402 J-0.093
N5575 X11.598 Y-11.907 Z-8.001 I-0.402 J0.093
N5580 X12.402 Y-12.093 Z-8.046 I0.402 J-0.093
N5585 X11.598 Y-11.907 Z-8.092 I-0.402 J0.093
N5590 X12.402 Y-12.093 Z-8.137 I0.402 J-0.093
N5595 X11.598 Y-11.907 Z-8.182 I-0.402 J0.093
N5600 X12.402 Y-12.093 Z-8.227 I0.402 J-0.093
N5605 X11.598 Y-11.907 Z-8.273 I-0.402 J0.093
N5610 X12.402 Y-12.093 Z-8.318 I0.402 J-0.093
N5615 X11.598 Y-11.907 Z-8.363 I-0.402 J0.093
N5620 X12.402 Y-12.093 Z-8.408 I0.402 J-0.093
N5625 X11.598 Y-11.907 Z-8.454 I-0.402 J0.093
N5630 X12.402 Y-12.093 Z-8.499 I0.402 J-0.093
N5635 X11.598 Y-11.907 Z-8.544 I-0.402 J0.093
N5640 X12.402 Y-12.093 Z-8.589 I0.402 J-0.093
N5645 X11.598 Y-11.907 Z-8.635 I-0.402 J0.093
N5650 X12.402 Y-12.093 Z-8.68 I0.402 J-0.093
N5655 X11.598 Y-11.907 Z-8.725 I-0.402 J0.093
N5660 X12.402 Y-12.093 Z-8.77 I0.402 J-0.093
N5665 X11.598 Y-11.907 Z-8.816 I-0.402 J0.093
N5670 X12.402 Y-12.093 Z-8.861 I0.402 J-0.093
N5675 X11.598 Y-11.907 Z-8.906 I-0.402 J0.093
N5680 X12.402 Y-12.093 Z-8.951 I0.402 J-0.093
N5685 X12.047 Y-11.59 Z-8.976 I-0.402 J0.093
N5690 X11.587 Y-12. Z-9. I-0.047 J-0.41
N5695 X12.012 I0.213 J0.
N5700 X11.988 I-0.012 J0. F600.
N5705 X12.113 I0.063 J0.
N5710 X11.887 I-0.113 J0.
N5715 X12.212 I0.163 J0.
N5720 X11.788 I-0.212 J0.
N5725 X12.313 I0.262 J0.
N5730 X11.688 I-0.313 J0.
N5735 X12.413 I0.363 J0.
N5740 X11.587 I-0.413 J0.
N5745 X12.413 I0.413 J0.
N5750 X12.409 Y-11.951 Z-8.996 I-0.318 J0.
N5755 X12.397 Y-11.903 Z-8.984 I-0.314 J-0.049
N5760 X12.38 Y-11.861 Z-8.965 I-0.302 J-0.097
N5765 X12.359 Y-11.824 Z-8.939 I-0.285 J-0.139
N5770 X12.336 Y-11.794 Z-8.907 I-0.264 J-0.176
N5775 X12.314 Y-11.77 Z-8.869 I-0.241 J-0.206
N5780 X12.295 Y-11.753 Z-8.827 I-0.219 J-0.23
N5785 X12.279 Y-11.742 Z-8.781 I-0.2 J-0.247
N5790 X12.27 Y-11.735 Z-8.732 I-0.184 J-0.258
N5795 G1 X12.267 Y-11.733 Z-8.682
N5800 G0 Z5.
N5805 X28.233 Y-12.34
N5810 Z2.318
N5815 G1 Z2.317 F600.
N5820 X28.235 Y-12.339 Z2.282 F500.
N5825 X28.24 Y-12.336 Z2.248
N5830 X28.247 Y-12.33 Z2.214
N5835 G3 X28.262 Y-12.318 Z2.17 I-0.247 J0.33
N5840 X28.281 Y-12.302 Z2.13 I-0.262 J0.318
N5845 X28.303 Y-12.28 Z2.093 I-0.281 J0.302
N5850 X28.327 Y-12.252 Z2.062 I-0.303 J0.28
N5855 X28.35 Y-12.219 Z2.037 I-0.327 J0.252
N5860 X28.371 Y-12.181 Z2.018 I-0.35 J0.219
N5865 X28.389 Y-12.138 Z2.005 I-0.371 J0.181
N5870 X28.402 Y-12.093 Z2. I-0.389 J0.138
N5875 X27.598 Y-11.907 Z1.955 I-0.402 J0.093
N5880 X28.402 Y-12.093 Z1.909 I0.402 J-0.093
N5885 X27.598 Y-11.907 Z1.864 I-0.402 J0.093
N5890 X28.402 Y-12.093 Z1.819 I0.402 J-0.093
N5895 X27.598 Y-11.907 Z1.774 I-0.402 J0.093
N5900 X28.402 Y-12.093 Z1.728 I0.402 J-0.093
N5905 X27.598 Y-11.907 Z1.683 I-0.402 J0.093
N5910 X28.402 Y-12.093 Z1.638 I0.402 J-0.093
N5915 X27.598 Y-11.907 Z1.593 I-0.402 J0.093
N5920 X28.402 Y-12.093 Z1.547 I0.402 J-0.093
N5925 X27.598 Y-11.907 Z1.502 I-0.402 J0.093
N5930 X28.402 Y-12.093 Z1.457 I0.402 J-0.093
N5935 X27.598 Y-11.907 Z1.412 I-0.402 J0.093
N5940 X28.402 Y-12.093 Z1.366 I0.402 J-0.093
N5945 X27.598 Y-11.907 Z1.321 I-0.402 J0.093
N5950 X28.402 Y-12.093 Z1.276 I0.402 J-0.093
N5955 X27.598 Y-11.907 Z1.231 I-0.402 J0.093
N5960 X28.402 Y-12.093 Z1.185 I0.402 J-0.093
N5965 X27.598 Y-11.907 Z1.14 I-0.402 J0.093
N5970 X28.402 Y-12.093 Z1.095 I0.402 J-0.093
N5975 X27.598 Y-11.907 Z1.05 I-0.402 J0.093
N5980 X28.402 Y-12.093 Z1.004 I0.402 J-0.093
N5985 X27.598 Y-11.907 Z0.959 I-0.402 J0.093
N5990 X28.402 Y-12.093 Z0.914 I0.402 J-0.093
N5995 X27.598 Y-11.907 Z0.869 I-0.402 J0.093
N6000 X28.402 Y-12.093 Z0.823 I0.402 J-0.093
N6005 X27.598 Y-11.907 Z0.778 I-0.402 J0.093
N6010 X28.402 Y-12.093 Z0.733 I0.402 J-0.093
N6015 X27.598 Y-11.907 Z0.688 I-0.402 J0.093
N6020 X28.402 Y-12.093 Z0.642 I0.402 J-0.093
N6025 X27.598 Y-11.907 Z0.597 I-0.402 J0.093
N6030 X28.402 Y-12.093 Z0.552 I0.402 J-0.093
N6035 X27.598 Y-11.907 Z0.507 I-0.402 J0.093
N6040 X28.402 Y-12.093 Z0.461 I0.402 J-0.093
N6045 X27.598 Y-11.907 Z0.416 I-0.402 J0.093
N6050 X28.402 Y-12.093 Z0.371 I0.402 J-0.093
N6055 X27.598 Y-11.907 Z0.326 I-0.402 J0.093
N6060 X28.402 Y-12.093 Z0.28 I0.402 J-0.093
N6065 X27.598 Y-11.907 Z0.235 I-0.402 J0.093
N6070 X28.402 Y-12.093 Z0.19 I0.402 J-0.093
N6075 X27.598 Y-11.907 Z0.145 I-0.402 J0.093
N6080 X28.402 Y-12.093 Z0.099 I0.402 J-0.093
N6085 X27.598 Y-11.907 Z0.054 I-0.402 J0.093
N6090 X28.402 Y-12.093 Z0.009 I0.402 J-0.093
N6095 X27.598 Y-11.907 Z-0.036 I-0.402 J0.093
N6100 X28.402 Y-12.093 Z-0.082 I0.402 J-0.093
N6105 X27.598 Y-11.907 Z-0.127 I-0.402 J0.093
N6110 X28.402 Y-12.093 Z-0.172 I0.402 J-0.093
N6115 X27.598 Y-11.907 Z-0.217 I-0.402 J0.093
N6120 X28.402 Y-12.093 Z-0.263 I0.402 J-0.093
N6125 X27.598 Y-11.907 Z-0.308 I-0.402 J0.093
N6130 X28.402 Y-12.093 Z-0.353 I0.402 J-0.093
N6135 X27.598 Y-11.907 Z-0.398 I-0.402 J0.093
N6140 X28.402 Y-12.093 Z-0.444 I0.402 J-0.093
N6145 X27.598 Y-11.907 Z-0.489 I-0.402 J0.093
N6150 X28.402 Y-12.093 Z-0.534 I0.402 J-0.093
N6155 X27.598 Y-11.907 Z-0.579 I-0.402 J0.093
N6160 X28.402 Y-12.093 Z-0.625 I0.402 J-0.093
N6165 X27.598 Y-11.907 Z-0.67 I-0.402 J0.093
N6170 X28.402 Y-12.093 Z-0.715 I0.402 J-0.093
N6175 X27.598 Y-11.907 Z-0.76 I-0.402 J0.093
N6180 X28.402 Y-12.093 Z-0.806 I0.402 J-0.093
N6185 X27.598 Y-11.907 Z-0.851 I-0.402 J0.093
N6190 X28.402 Y-12.093 Z-0.896 I0.402 J-0.093
N6195 X27.598 Y-11.907 Z-0.942 I-0.402 J0.093
N6200 X28.402 Y-12.093 Z-0.987 I0.402 J-0.093
N6205 X27.598 Y-11.907 Z-1.032 I-0.402 J0.093
N6210 X28.402 Y-12.093 Z-1.077 I0.402 J-0.093
N6215 X27.598 Y-11.907 Z-1.123 I-0.402 J0.093
N6220 X28.402 Y-12.093 Z-1.168 I0.402 J-0.093
N6225 X27.598 Y-11.907 Z-1.213 I-0.402 J0.093
N6230 X28.402 Y-12.093 Z-1.258 I0.402 J-0.093
N6235 X27.598 Y-11.907 Z-1.304 I-0.402 J0.093
N6240 X28.402 Y-12.093 Z-1.349 I0.402 J-0.093
N6245 X27.598 Y-11.907 Z-1.394 I-0.402 J0.093
N6250 X28.402 Y-12.093 Z-1.439 I0.402 J-0.093
N6255 X27.598 Y-11.907 Z-1.485 I-0.402 J0.093
N6260 X28.402 Y-12.093 Z-1.53 I0.402 J-0.093
N6265 X27.598 Y-11.907 Z-1.575 I-0.402 J0.093
N6270 X28.402 Y-12.093 Z-1.62 I0.402 J-0.093
N6275 X27.598 Y-11.907 Z-1.666 I-0.402 J0.093
N6280 X28.402 Y-12.093 Z-1.711 I0.402 J-0.093
N6285 X27.598 Y-11.907 Z-1.756 I-0.402 J0.093
N6290 X28.402 Y-12.093 Z-1.801 I0.402 J-0.093
N6295 X27.598 Y-11.907 Z-1.847 I-0.402 J0.093
N6300 X28.402 Y-12.093 Z-1.892 I0.402 J-0.093
N6305 X27.598 Y-11.907 Z-1.937 I-0.402 J0.093
N6310 X28.402 Y-12.093 Z-1.982 I0.402 J-0.093
N6315 X27.598 Y-11.907 Z-2.028 I-0.402 J0.093
N6320 X28.402 Y-12.093 Z-2.073 I0.402 J-0.093
N6325 X27.598 Y-11.907 Z-2.118 I-0.402 J0.093
N6330 X28.402 Y-12.093 Z-2.163 I0.402 J-0.093
N6335 X27.598 Y-11.907 Z-2.209 I-0.402 J0.093
N6340 X28.402 Y-12.093 Z-2.254 I0.402 J-0.093
N6345 X27.598 Y-11.907 Z-2.299 I-0.402 J0.093
N6350 X28.402 Y-12.093 Z-2.344 I0.402 J-0.093
N6355 X27.598 Y-11.907 Z-2.39 I-0.402 J0.093
N6360 X28.402 Y-12.093 Z-2.435 I0.402 J-0.093
N6365 X27.598 Y-11.907 Z-2.48 I-0.402 J0.093
N6370 X28.402 Y-12.093 Z-2.525 I0.402 J-0.093
N6375 X27.598 Y-11.907 Z-2.571 I-0.402 J0.093
N6380 X28.402 Y-12.093 Z-2.616 I0.402 J-0.093
N6385 X27.598 Y-11.907 Z-2.661 I-0.402 J0.093
N6390 X28.402 Y-12.093 Z-2.706 I0.402 J-0.093
N6395 X27.598 Y-11.907 Z-2.752 I-0.402 J0.093
N6400 X28.402 Y-12.093 Z-2.797 I0.402 J-0.093
N6405 X27.598 Y-11.907 Z-2.842 I-0.402 J0.093
N6410 X28.402 Y-12.093 Z-2.887 I0.402 J-0.093
N6415 X27.598 Y-11.907 Z-2.933 I-0.402 J0.093
N6420 X28.402 Y-12.093 Z-2.978 I0.402 J-0.093
N6425 X27.598 Y-11.907 Z-3.023 I-0.402 J0.093
N6430 X28.402 Y-12.093 Z-3.068 I0.402 J-0.093
N6435 X27.598 Y-11.907 Z-3.114 I-0.402 J0.093
N6440 X28.402 Y-12.093 Z-3.159 I0.402 J-0.093
N6445 X27.598 Y-11.907 Z-3.204 I-0.402 J0.093
N6450 X28.402 Y-12.093 Z-3.249 I0.402 J-0.093
N6455 X27.598 Y-11.907 Z-3.295 I-0.402 J0.093
N6460 X28.402 Y-12.093 Z-3.34 I0.402 J-0.093
N6465 X27.598 Y-11.907 Z-3.385 I-0.402 J0.093
N6470 X28.402 Y-12.093 Z-3.43 I0.402 J-0.093
N6475 X27.598 Y-11.907 Z-3.476 I-0.402 J0.093
N6480 X28.402 Y-12.093 Z-3.521 I0.402 J-0.093
N6485 X27.598 Y-11.907 Z-3.566 I-0.402 J0.093
N6490 X28.402 Y-12.093 Z-3.612 I0.402 J-0.093
N6495 X27.598 Y-11.907 Z-3.657 I-0.402 J0.093
N6500 X28.402 Y-12.093 Z-3.702 I0.402 J-0.093
N6505 X27.598 Y-11.907 Z-3.747 I-0.402 J0.093
N6510 X28.402 Y-12.093 Z-3.793 I0.402 J-0.093
N6515 X27.598 Y-11.907 Z-3.838 I-0.402 J0.093
N6520 X28.402 Y-12.093 Z-3.883 I0.402 J-0.093
N6525 X27.598 Y-11.907 Z-3.928 I-0.402 J0.093
N6530 X28.402 Y-12.093 Z-3.974 I0.402 J-0.093
N6535 X27.598 Y-11.907 Z-4.019 I-0.402 J0.093
N6540 X28.402 Y-12.093 Z-4.064 I0.402 J-0.093
N6545 X27.598 Y-11.907 Z-4.109 I-0.402 J0.093
N6550 X28.402 Y-12.093 Z-4.155 I0.402 J-0.093
N6555 X27.598 Y-11.907 Z-4.2 I-0.402 J0.093
N6560 X28.402 Y-12.093 Z-4.245 I0.402 J-0.093
N6565 X27.598 Y-11.907 Z-4.29 I-0.402 J0.093
N6570 X28.402 Y-12.093 Z-4.336 I0.402 J-0.093
N6575 X27.598 Y-11.907 Z-4.381 I-0.402 J0.093
N6580 X28.402 Y-12.093 Z-4.426 I0.402 J-0.093
N6585 X27.598 Y-11.907 Z-4.471 I-0.402 J0.093
N6590 X28.402 Y-12.093 Z-4.517 I0.402 J-0.093
N6595 X27.598 Y-11.907 Z-4.562 I-0.402 J0.093
N6600 X28.402 Y-12.093 Z-4.607 I0.402 J-0.093
N6605 X27.598 Y-11.907 Z-4.652 I-0.402 J0.093
N6610 X28.402 Y-12.093 Z-4.698 I0.402 J-0.093
N6615 X27.598 Y-11.907 Z-4.743 I-0.402 J0.093
N6620 X28.402 Y-12.093 Z-4.788 I0.402 J-0.093
N6625 X27.598 Y-11.907 Z-4.833 I-0.402 J0.093
N6630 X28.402 Y-12.093 Z-4.879 I0.402 J-0.093
N6635 X27.598 Y-11.907 Z-4.924 I-0.402 J0.093
N6640 X28.402 Y-12.093 Z-4.969 I0.402 J-0.093
N6645 X27.598 Y-11.907 Z-5.014 I-0.402 J0.093
N6650 X28.402 Y-12.093 Z-5.06 I0.402 J-0.093
N6655 X27.598 Y-11.907 Z-5.105 I-0.402 J0.093
N6660 X28.402 Y-12.093 Z-5.15 I0.402 J-0.093
N6665 X27.598 Y-11.907 Z-5.195 I-0.402 J0.093
N6670 X28.402 Y-12.093 Z-5.241 I0.402 J-0.093
N6675 X27.598 Y-11.907 Z-5.286 I-0.402 J0.093
N6680 X28.402 Y-12.093 Z-5.331 I0.402 J-0.093
N6685 X27.598 Y-11.907 Z-5.376 I-0.402 J0.093
N6690 X28.402 Y-12.093 Z-5.422 I0.402 J-0.093
N6695 X27.598 Y-11.907 Z-5.467 I-0.402 J0.093
N6700 X28.402 Y-12.093 Z-5.512 I0.402 J-0.093
N6705 X27.598 Y-11.907 Z-5.557 I-0.402 J0.093
N6710 X28.402 Y-12.093 Z-5.603 I0.402 J-0.093
N6715 X27.598 Y-11.907 Z-5.648 I-0.402 J0.093
N6720 X28.402 Y-12.093 Z-5.693 I0.402 J-0.093
N6725 X27.598 Y-11.907 Z-5.738 I-0.402 J0.093
N6730 X28.402 Y-12.093 Z-5.784 I0.402 J-0.093
N6735 X27.598 Y-11.907 Z-5.829 I-0.402 J0.093
N6740 X28.402 Y-12.093 Z-5.874 I0.402 J-0.093
N6745 X27.598 Y-11.907 Z-5.919 I-0.402 J0.093
N6750 X28.402 Y-12.093 Z-5.965 I0.402 J-0.093
N6755 X27.598 Y-11.907 Z-6.01 I-0.402 J0.093
N6760 X28.402 Y-12.093 Z-6.055 I0.402 J-0.093
N6765 X27.598 Y-11.907 Z-6.1 I-0.402 J0.093
N6770 X28.402 Y-12.093 Z-6.146 I0.402 J-0.093
N6775 X27.598 Y-11.907 Z-6.191 I-0.402 J0.093
N6780 X28.402 Y-12.093 Z-6.236 I0.402 J-0.093
N6785 X27.598 Y-11.907 Z-6.281 I-0.402 J0.093
N6790 X28.402 Y-12.093 Z-6.327 I0.402 J-0.093
N6795 X27.598 Y-11.907 Z-6.372 I-0.402 J0.093
N6800 X28.402 Y-12.093 Z-6.417 I0.402 J-0.093
N6805 X27.598 Y-11.907 Z-6.463 I-0.402 J0.093
N6810 X28.402 Y-12.093 Z-6.508 I0.402 J-0.093
N6815 X27.598 Y-11.907 Z-6.553 I-0.402 J0.093
N6820 X28.402 Y-12.093 Z-6.598 I0.402 J-0.093
N6825 X27.598 Y-11.907 Z-6.644 I-0.402 J0.093
N6830 X28.402 Y-12.093 Z-6.689 I0.402 J-0.093
N6835 X27.598 Y-11.907 Z-6.734 I-0.402 J0.093
N6840 X28.402 Y-12.093 Z-6.779 I0.402 J-0.093
N6845 X27.598 Y-11.907 Z-6.825 I-0.402 J0.093
N6850 X28.402 Y-12.093 Z-6.87 I0.402 J-0.093
N6855 X27.598 Y-11.907 Z-6.915 I-0.402 J0.093
N6860 X28.402 Y-12.093 Z-6.96 I0.402 J-0.093
N6865 X27.598 Y-11.907 Z-7.006 I-0.402 J0.093
N6870 X28.402 Y-12.093 Z-7.051 I0.402 J-0.093
N6875 X27.598 Y-11.907 Z-7.096 I-0.402 J0.093
N6880 X28.402 Y-12.093 Z-7.141 I0.402 J-0.093
N6885 X27.598 Y-11.907 Z-7.187 I-0.402 J0.093
N6890 X28.402 Y-12.093 Z-7.232 I0.402 J-0.093
N6895 X27.598 Y-11.907 Z-7.277 I-0.402 J0.093
N6900 X28.402 Y-12.093 Z-7.322 I0.402 J-0.093
N6905 X27.598 Y-11.907 Z-7.368 I-0.402 J0.093
N6910 X28.402 Y-12.093 Z-7.413 I0.402 J-0.093
N6915 X27.598 Y-11.907 Z-7.458 I-0.402 J0.093
N6920 X28.402 Y-12.093 Z-7.503 I0.402 J-0.093
N6925 X27.598 Y-11.907 Z-7.549 I-0.402 J0.093
N6930 X28.402 Y-12.093 Z-7.594 I0.402 J-0.093
N6935 X27.598 Y-11.907 Z-7.639 I-0.402 J0.093
N6940 X28.402 Y-12.093 Z-7.684 I0.402 J-0.093
N6945 X27.598 Y-11.907 Z-7.73 I-0.402 J0.093
N6950 X28.402 Y-12.093 Z-7.775 I0.402 J-0.093
N6955 X27.598 Y-11.907 Z-7.82 I-0.402 J0.093
N6960 X28.402 Y-12.093 Z-7.865 I0.402 J-0.093
N6965 X27.598 Y-11.907 Z-7.911 I-0.402 J0.093
N6970 X28.402 Y-12.093 Z-7.956 I0.402 J-0.093
N6975 X27.598 Y-11.907 Z-8.001 I-0.402 J0.093
N6980 X28.402 Y-12.093 Z-8.046 I0.402 J-0.093
N6985 X27.598 Y-11.907 Z-8.092 I-0.402 J0.093
N6990 X28.402 Y-12.093 Z-8.137 I0.402 J-0.093
N6995 X27.598 Y-11.907 Z-8.182 I-0.402 J0.093
N7000 X28.402 Y-12.093 Z-8.227 I0.402 J-0.093
N7005 X27.598 Y-11.907 Z-8.273 I-0.402 J0.093
N7010 X28.402 Y-12.093 Z-8.318 I0.402 J-0.093
N7015 X27.598 Y-11.907 Z-8.363 I-0.402 J0.093
N7020 X28.402 Y-12.093 Z-8.408 I0.402 J-0.093
N7025 X27.598 Y-11.907 Z-8.454 I-0.402 J0.093
N7030 X28.402 Y-12.093 Z-8.499 I0.402 J-0.093
N7035 X27.598 Y-11.907 Z-8.544 I-0.402 J0.093
N7040 X28.402 Y-12.093 Z-8.589 I0.402 J-0.093
N7045 X27.598 Y-11.907 Z-8.635 I-0.402 J0.093
N7050 X28.402 Y-12.093 Z-8.68 I0.402 J-0.093
N7055 X27.598 Y-11.907 Z-8.725 I-0.402 J0.093
N7060 X28.402 Y-12.093 Z-8.77 I0.402 J-0.093
N7065 X27.598 Y-11.907 Z-8.816 I-0.402 J0.093
N7070 X28.402 Y-12.093 Z-8.861 I0.402 J-0.093
N7075 X27.598 Y-11.907 Z-8.906 I-0.402 J0.093
N7080 X28.402 Y-12.093 Z-8.951 I0.402 J-0.093
N7085 X28.047 Y-11.59 Z-8.976 I-0.402 J0.093
N7090 X27.587 Y-12. Z-9. I-0.047 J-0.41
N7095 X28.013 I0.212 J0.
N7100 X27.987 I-0.013 J0. F600.
N7105 X28.112 I0.063 J0.
N7110 X27.888 I-0.112 J0.
N7115 X28.212 I0.162 J0.
N7120 X27.788 I-0.212 J0.
N7125 X28.313 I0.262 J0.
N7130 X27.688 I-0.313 J0.
N7135 X28.413 I0.362 J0.
N7140 X27.587 I-0.413 J0.
N7145 X28.413 I0.413 J0.
N7150 X28.409 Y-11.951 Z-8.996 I-0.318 J0.
N7155 X28.397 Y-11.903 Z-8.984 I-0.314 J-0.049
N7160 X28.38 Y-11.861 Z-8.965 I-0.302 J-0.097
N7165 X28.359 Y-11.824 Z-8.939 I-0.285 J-0.139
N7170 X28.336 Y-11.794 Z-8.907 I-0.264 J-0.176
N7175 X28.314 Y-11.77 Z-8.869 I-0.241 J-0.206
N7180 X28.295 Y-11.753 Z-8.827 I-0.219 J-0.23
N7185 X28.279 Y-11.742 Z-8.781 I-0.2 J-0.247
N7190 X28.27 Y-11.735 Z-8.732 I-0.184 J-0.258
N7195 G1 X28.267 Y-11.733 Z-8.682
N7200 G0 Z5.
N7205 X36.233 Y-12.34
N7210 Z2.318
N7215 G1 Z2.317 F600.
N7220 X36.235 Y-12.339 Z2.282 F500.
N7225 X36.24 Y-12.336 Z2.248
N7230 X36.248 Y-12.33 Z2.214
N7235 G3 X36.262 Y-12.318 Z2.17 I-0.248 J0.33
N7240 X36.281 Y-12.302 Z2.13 I-0.262 J0.318
N7245 X36.303 Y-12.28 Z2.093 I-0.281 J0.302
N7250 X36.327 Y-12.252 Z2.062 I-0.303 J0.28
N7255 X36.35 Y-12.219 Z2.037 I-0.327 J0.252
N7260 X36.371 Y-12.181 Z2.018 I-0.35 J0.219
N7265 X36.389 Y-12.138 Z2.005 I-0.371 J0.181
N7270 X36.402 Y-12.093 Z2. I-0.389 J0.138
N7275 X35.598 Y-11.907 Z1.955 I-0.402 J0.093
N7280 X36.402 Y-12.093 Z1.909 I0.402 J-0.093
N7285 X35.598 Y-11.907 Z1.864 I-0.402 J0.093
N7290 X36.402 Y-12.093 Z1.819 I0.402 J-0.093
N7295 X35.598 Y-11.907 Z1.774 I-0.402 J0.093
N7300 X36.402 Y-12.093 Z1.728 I0.402 J-0.093
N7305 X35.598 Y-11.907 Z1.683 I-0.402 J0.093
N7310 X36.402 Y-12.093 Z1.638 I0.402 J-0.093
N7315 X35.598 Y-11.907 Z1.593 I-0.402 J0.093
N7320 X36.402 Y-12.093 Z1.547 I0.402 J-0.093
N7325 X35.598 Y-11.907 Z1.502 I-0.402 J0.093
N7330 X36.402 Y-12.093 Z1.457 I0.402 J-0.093
N7335 X35.598 Y-11.907 Z1.412 I-0.402 J0.093
N7340 X36.402 Y-12.093 Z1.366 I0.402 J-0.093
N7345 X35.598 Y-11.907 Z1.321 I-0.402 J0.093
N7350 X36.402 Y-12.093 Z1.276 I0.402 J-0.093
N7355 X35.598 Y-11.907 Z1.231 I-0.402 J0.093
N7360 X36.402 Y-12.093 Z1.185 I0.402 J-0.093
N7365 X35.598 Y-11.907 Z1.14 I-0.402 J0.093
N7370 X36.402 Y-12.093 Z1.095 I0.402 J-0.093
N7375 X35.598 Y-11.907 Z1.05 I-0.402 J0.093
N7380 X36.402 Y-12.093 Z1.004 I0.402 J-0.093
N7385 X35.598 Y-11.907 Z0.959 I-0.402 J0.093
N7390 X36.402 Y-12.093 Z0.914 I0.402 J-0.093
N7395 X35.598 Y-11.907 Z0.869 I-0.402 J0.093
N7400 X36.402 Y-12.093 Z0.823 I0.402 J-0.093
N7405 X35.598 Y-11.907 Z0.778 I-0.402 J0.093
N7410 X36.402 Y-12.093 Z0.733 I0.402 J-0.093
N7415 X35.598 Y-11.907 Z0.688 I-0.402 J0.093
N7420 X36.402 Y-12.093 Z0.642 I0.402 J-0.093
N7425 X35.598 Y-11.907 Z0.597 I-0.402 J0.093
N7430 X36.402 Y-12.093 Z0.552 I0.402 J-0.093
N7435 X35.598 Y-11.907 Z0.507 I-0.402 J0.093
N7440 X36.402 Y-12.093 Z0.461 I0.402 J-0.093
N7445 X35.598 Y-11.907 Z0.416 I-0.402 J0.093
N7450 X36.402 Y-12.093 Z0.371 I0.402 J-0.093
N7455 X35.598 Y-11.907 Z0.326 I-0.402 J0.093
N7460 X36.402 Y-12.093 Z0.28 I0.402 J-0.093
N7465 X35.598 Y-11.907 Z0.235 I-0.402 J0.093
N7470 X36.402 Y-12.093 Z0.19 I0.402 J-0.093
N7475 X35.598 Y-11.907 Z0.145 I-0.402 J0.093
N7480 X36.402 Y-12.093 Z0.099 I0.402 J-0.093
N7485 X35.598 Y-11.907 Z0.054 I-0.402 J0.093
N7490 X36.402 Y-12.093 Z0.009 I0.402 J-0.093
N7495 X35.598 Y-11.907 Z-0.036 I-0.402 J0.093
N7500 X36.402 Y-12.093 Z-0.082 I0.402 J-0.093
N7505 X35.598 Y-11.907 Z-0.127 I-0.402 J0.093
N7510 X36.402 Y-12.093 Z-0.172 I0.402 J-0.093
N7515 X35.598 Y-11.907 Z-0.217 I-0.402 J0.093
N7520 X36.402 Y-12.093 Z-0.263 I0.402 J-0.093
N7525 X35.598 Y-11.907 Z-0.308 I-0.402 J0.093
N7530 X36.402 Y-12.093 Z-0.353 I0.402 J-0.093
N7535 X35.598 Y-11.907 Z-0.398 I-0.402 J0.093
N7540 X36.402 Y-12.093 Z-0.444 I0.402 J-0.093
N7545 X35.598 Y-11.907 Z-0.489 I-0.402 J0.093
N7550 X36.402 Y-12.093 Z-0.534 I0.402 J-0.093
N7555 X35.598 Y-11.907 Z-0.579 I-0.402 J0.093
N7560 X36.402 Y-12.093 Z-0.625 I0.402 J-0.093
N7565 X35.598 Y-11.907 Z-0.67 I-0.402 J0.093
N7570 X36.402 Y-12.093 Z-0.715 I0.402 J-0.093
N7575 X35.598 Y-11.907 Z-0.76 I-0.402 J0.093
N7580 X36.402 Y-12.093 Z-0.806 I0.402 J-0.093
N7585 X35.598 Y-11.907 Z-0.851 I-0.402 J0.093
N7590 X36.402 Y-12.093 Z-0.896 I0.402 J-0.093
N7595 X35.598 Y-11.907 Z-0.942 I-0.402 J0.093
N7600 X36.402 Y-12.093 Z-0.987 I0.402 J-0.093
N7605 X35.598 Y-11.907 Z-1.032 I-0.402 J0.093
N7610 X36.402 Y-12.093 Z-1.077 I0.402 J-0.093
N7615 X35.598 Y-11.907 Z-1.123 I-0.402 J0.093
N7620 X36.402 Y-12.093 Z-1.168 I0.402 J-0.093
N7625 X35.598 Y-11.907 Z-1.213 I-0.402 J0.093
N7630 X36.402 Y-12.093 Z-1.258 I0.402 J-0.093
N7635 X35.598 Y-11.907 Z-1.304 I-0.402 J0.093
N7640 X36.402 Y-12.093 Z-1.349 I0.402 J-0.093
N7645 X35.598 Y-11.907 Z-1.394 I-0.402 J0.093
N7650 X36.402 Y-12.093 Z-1.439 I0.402 J-0.093
N7655 X35.598 Y-11.907 Z-1.485 I-0.402 J0.093
N7660 X36.402 Y-12.093 Z-1.53 I0.402 J-0.093
N7665 X35.598 Y-11.907 Z-1.575 I-0.402 J0.093
N7670 X36.402 Y-12.093 Z-1.62 I0.402 J-0.093
N7675 X35.598 Y-11.907 Z-1.666 I-0.402 J0.093
N7680 X36.402 Y-12.093 Z-1.711 I0.402 J-0.093
N7685 X35.598 Y-11.907 Z-1.756 I-0.402 J0.093
N7690 X36.402 Y-12.093 Z-1.801 I0.402 J-0.093
N7695 X35.598 Y-11.907 Z-1.847 I-0.402 J0.093
N7700 X36.402 Y-12.093 Z-1.892 I0.402 J-0.093
N7705 X35.598 Y-11.907 Z-1.937 I-0.402 J0.093
N7710 X36.402 Y-12.093 Z-1.982 I0.402 J-0.093
N7715 X35.598 Y-11.907 Z-2.028 I-0.402 J0.093
N7720 X36.402 Y-12.093 Z-2.073 I0.402 J-0.093
N7725 X35.598 Y-11.907 Z-2.118 I-0.402 J0.093
N7730 X36.402 Y-12.093 Z-2.163 I0.402 J-0.093
N7735 X35.598 Y-11.907 Z-2.209 I-0.402 J0.093
N7740 X36.402 Y-12.093 Z-2.254 I0.402 J-0.093
N7745 X35.598 Y-11.907 Z-2.299 I-0.402 J0.093
N7750 X36.402 Y-12.093 Z-2.344 I0.402 J-0.093
N7755 X35.598 Y-11.907 Z-2.39 I-0.402 J0.093
N7760 X36.402 Y-12.093 Z-2.435 I0.402 J-0.093
N7765 X35.598 Y-11.907 Z-2.48 I-0.402 J0.093
N7770 X36.402 Y-12.093 Z-2.525 I0.402 J-0.093
N7775 X35.598 Y-11.907 Z-2.571 I-0.402 J0.093
N7780 X36.402 Y-12.093 Z-2.616 I0.402 J-0.093
N7785 X35.598 Y-11.907 Z-2.661 I-0.402 J0.093
N7790 X36.402 Y-12.093 Z-2.706 I0.402 J-0.093
N7795 X35.598 Y-11.907 Z-2.752 I-0.402 J0.093
N7800 X36.402 Y-12.093 Z-2.797 I0.402 J-0.093
N7805 X35.598 Y-11.907 Z-2.842 I-0.402 J0.093
N7810 X36.402 Y-12.093 Z-2.887 I0.402 J-0.093
N7815 X35.598 Y-11.907 Z-2.933 I-0.402 J0.093
N7820 X36.402 Y-12.093 Z-2.978 I0.402 J-0.093
N7825 X35.598 Y-11.907 Z-3.023 I-0.402 J0.093
N7830 X36.402 Y-12.093 Z-3.068 I0.402 J-0.093
N7835 X35.598 Y-11.907 Z-3.114 I-0.402 J0.093
N7840 X36.402 Y-12.093 Z-3.159 I0.402 J-0.093
N7845 X35.598 Y-11.907 Z-3.204 I-0.402 J0.093
N7850 X36.402 Y-12.093 Z-3.249 I0.402 J-0.093
N7855 X35.598 Y-11.907 Z-3.295 I-0.402 J0.093
N7860 X36.402 Y-12.093 Z-3.34 I0.402 J-0.093
N7865 X35.598 Y-11.907 Z-3.385 I-0.402 J0.093
N7870 X36.402 Y-12.093 Z-3.43 I0.402 J-0.093
N7875 X35.598 Y-11.907 Z-3.476 I-0.402 J0.093
N7880 X36.402 Y-12.093 Z-3.521 I0.402 J-0.093
N7885 X35.598 Y-11.907 Z-3.566 I-0.402 J0.093
N7890 X36.402 Y-12.093 Z-3.612 I0.402 J-0.093
N7895 X35.598 Y-11.907 Z-3.657 I-0.402 J0.093
N7900 X36.402 Y-12.093 Z-3.702 I0.402 J-0.093
N7905 X35.598 Y-11.907 Z-3.747 I-0.402 J0.093
N7910 X36.402 Y-12.093 Z-3.793 I0.402 J-0.093
N7915 X35.598 Y-11.907 Z-3.838 I-0.402 J0.093
N7920 X36.402 Y-12.093 Z-3.883 I0.402 J-0.093
N7925 X35.598 Y-11.907 Z-3.928 I-0.402 J0.093
N7930 X36.402 Y-12.093 Z-3.974 I0.402 J-0.093
N7935 X35.598 Y-11.907 Z-4.019 I-0.402 J0.093
N7940 X36.402 Y-12.093 Z-4.064 I0.402 J-0.093
N7945 X35.598 Y-11.907 Z-4.109 I-0.402 J0.093
N7950 X36.402 Y-12.093 Z-4.155 I0.402 J-0.093
N7955 X35.598 Y-11.907 Z-4.2 I-0.402 J0.093
N7960 X36.402 Y-12.093 Z-4.245 I0.402 J-0.093
N7965 X35.598 Y-11.907 Z-4.29 I-0.402 J0.093
N7970 X36.402 Y-12.093 Z-4.336 I0.402 J-0.093
N7975 X35.598 Y-11.907 Z-4.381 I-0.402 J0.093
N7980 X36.402 Y-12.093 Z-4.426 I0.402 J-0.093
N7985 X35.598 Y-11.907 Z-4.471 I-0.402 J0.093
N7990 X36.402 Y-12.093 Z-4.517 I0.402 J-0.093
N7995 X35.598 Y-11.907 Z-4.562 I-0.402 J0.093
N8000 X36.402 Y-12.093 Z-4.607 I0.402 J-0.093
N8005 X35.598 Y-11.907 Z-4.652 I-0.402 J0.093
N8010 X36.402 Y-12.093 Z-4.698 I0.402 J-0.093
N8015 X35.598 Y-11.907 Z-4.743 I-0.402 J0.093
N8020 X36.402 Y-12.093 Z-4.788 I0.402 J-0.093
N8025 X35.598 Y-11.907 Z-4.833 I-0.402 J0.093
N8030 X36.402 Y-12.093 Z-4.879 I0.402 J-0.093
N8035 X35.598 Y-11.907 Z-4.924 I-0.402 J0.093
N8040 X36.402 Y-12.093 Z-4.969 I0.402 J-0.093
N8045 X35.598 Y-11.907 Z-5.014 I-0.402 J0.093
N8050 X36.402 Y-12.093 Z-5.06 I0.402 J-0.093
N8055 X35.598 Y-11.907 Z-5.105 I-0.402 J0.093
N8060 X36.402 Y-12.093 Z-5.15 I0.402 J-0.093
N8065 X35.598 Y-11.907 Z-5.195 I-0.402 J0.093
N8070 X36.402 Y-12.093 Z-5.241 I0.402 J-0.093
N8075 X35.598 Y-11.907 Z-5.286 I-0.402 J0.093
N8080 X36.402 Y-12.093 Z-5.331 I0.402 J-0.093
N8085 X35.598 Y-11.907 Z-5.376 I-0.402 J0.093
N8090 X36.402 Y-12.093 Z-5.422 I0.402 J-0.093
N8095 X35.598 Y-11.907 Z-5.467 I-0.402 J0.093
N8100 X36.402 Y-12.093 Z-5.512 I0.402 J-0.093
N8105 X35.598 Y-11.907 Z-5.557 I-0.402 J0.093
N8110 X36.402 Y-12.093 Z-5.603 I0.402 J-0.093
N8115 X35.598 Y-11.907 Z-5.648 I-0.402 J0.093
N8120 X36.402 Y-12.093 Z-5.693 I0.402 J-0.093
N8125 X35.598 Y-11.907 Z-5.738 I-0.402 J0.093
N8130 X36.402 Y-12.093 Z-5.784 I0.402 J-0.093
N8135 X35.598 Y-11.907 Z-5.829 I-0.402 J0.093
N8140 X36.402 Y-12.093 Z-5.874 I0.402 J-0.093
N8145 X35.598 Y-11.907 Z-5.919 I-0.402 J0.093
N8150 X36.402 Y-12.093 Z-5.965 I0.402 J-0.093
N8155 X35.598 Y-11.907 Z-6.01 I-0.402 J0.093
N8160 X36.402 Y-12.093 Z-6.055 I0.402 J-0.093
N8165 X35.598 Y-11.907 Z-6.1 I-0.402 J0.093
N8170 X36.402 Y-12.093 Z-6.146 I0.402 J-0.093
N8175 X35.598 Y-11.907 Z-6.191 I-0.402 J0.093
N8180 X36.402 Y-12.093 Z-6.236 I0.402 J-0.093
N8185 X35.598 Y-11.907 Z-6.281 I-0.402 J0.093
N8190 X36.402 Y-12.093 Z-6.327 I0.402 J-0.093
N8195 X35.598 Y-11.907 Z-6.372 I-0.402 J0.093
N8200 X36.402 Y-12.093 Z-6.417 I0.402 J-0.093
N8205 X35.598 Y-11.907 Z-6.463 I-0.402 J0.093
N8210 X36.402 Y-12.093 Z-6.508 I0.402 J-0.093
N8215 X35.598 Y-11.907 Z-6.553 I-0.402 J0.093
N8220 X36.402 Y-12.093 Z-6.598 I0.402 J-0.093
N8225 X35.598 Y-11.907 Z-6.644 I-0.402 J0.093
N8230 X36.402 Y-12.093 Z-6.689 I0.402 J-0.093
N8235 X35.598 Y-11.907 Z-6.734 I-0.402 J0.093
N8240 X36.402 Y-12.093 Z-6.779 I0.402 J-0.093
N8245 X35.598 Y-11.907 Z-6.825 I-0.402 J0.093
N8250 X36.402 Y-12.093 Z-6.87 I0.402 J-0.093
N8255 X35.598 Y-11.907 Z-6.915 I-0.402 J0.093
N8260 X36.402 Y-12.093 Z-6.96 I0.402 J-0.093
N8265 X35.598 Y-11.907 Z-7.006 I-0.402 J0.093
N8270 X36.402 Y-12.093 Z-7.051 I0.402 J-0.093
N8275 X35.598 Y-11.907 Z-7.096 I-0.402 J0.093
N8280 X36.402 Y-12.093 Z-7.141 I0.402 J-0.093
N8285 X35.598 Y-11.907 Z-7.187 I-0.402 J0.093
N8290 X36.402 Y-12.093 Z-7.232 I0.402 J-0.093
N8295 X35.598 Y-11.907 Z-7.277 I-0.402 J0.093
N8300 X36.402 Y-12.093 Z-7.322 I0.402 J-0.093
N8305 X35.598 Y-11.907 Z-7.368 I-0.402 J0.093
N8310 X36.402 Y-12.093 Z-7.413 I0.402 J-0.093
N8315 X35.598 Y-11.907 Z-7.458 I-0.402 J0.093
N8320 X36.402 Y-12.093 Z-7.503 I0.402 J-0.093
N8325 X35.598 Y-11.907 Z-7.549 I-0.402 J0.093
N8330 X36.402 Y-12.093 Z-7.594 I0.402 J-0.093
N8335 X35.598 Y-11.907 Z-7.639 I-0.402 J0.093
N8340 X36.402 Y-12.093 Z-7.684 I0.402 J-0.093
N8345 X35.598 Y-11.907 Z-7.73 I-0.402 J0.093
N8350 X36.402 Y-12.093 Z-7.775 I0.402 J-0.093
N8355 X35.598 Y-11.907 Z-7.82 I-0.402 J0.093
N8360 X36.402 Y-12.093 Z-7.865 I0.402 J-0.093
N8365 X35.598 Y-11.907 Z-7.911 I-0.402 J0.093
N8370 X36.402 Y-12.093 Z-7.956 I0.402 J-0.093
N8375 X35.598 Y-11.907 Z-8.001 I-0.402 J0.093
N8380 X36.402 Y-12.093 Z-8.046 I0.402 J-0.093
N8385 X35.598 Y-11.907 Z-8.092 I-0.402 J0.093
N8390 X36.402 Y-12.093 Z-8.137 I0.402 J-0.093
N8395 X35.598 Y-11.907 Z-8.182 I-0.402 J0.093
N8400 X36.402 Y-12.093 Z-8.227 I0.402 J-0.093
N8405 X35.598 Y-11.907 Z-8.273 I-0.402 J0.093
N8410 X36.402 Y-12.093 Z-8.318 I0.402 J-0.093
N8415 X35.598 Y-11.907 Z-8.363 I-0.402 J0.093
N8420 X36.402 Y-12.093 Z-8.408 I0.402 J-0.093
N8425 X35.598 Y-11.907 Z-8.454 I-0.402 J0.093
N8430 X36.402 Y-12.093 Z-8.499 I0.402 J-0.093
N8435 X35.598 Y-11.907 Z-8.544 I-0.402 J0.093
N8440 X36.402 Y-12.093 Z-8.589 I0.402 J-0.093
N8445 X35.598 Y-11.907 Z-8.635 I-0.402 J0.093
N8450 X36.402 Y-12.093 Z-8.68 I0.402 J-0.093
N8455 X35.598 Y-11.907 Z-8.725 I-0.402 J0.093
N8460 X36.402 Y-12.093 Z-8.77 I0.402 J-0.093
N8465 X35.598 Y-11.907 Z-8.816 I-0.402 J0.093
N8470 X36.402 Y-12.093 Z-8.861 I0.402 J-0.093
N8475 X35.598 Y-11.907 Z-8.906 I-0.402 J0.093
N8480 X36.402 Y-12.093 Z-8.951 I0.402 J-0.093
N8485 X36.047 Y-11.59 Z-8.976 I-0.402 J0.093
N8490 X35.588 Y-12. Z-9. I-0.047 J-0.41
N8495 X36.013 I0.212 J0.
N8500 X35.987 I-0.013 J0. F600.
N8505 X36.112 I0.063 J0.
N8510 X35.888 I-0.112 J0.
N8515 X36.213 I0.162 J0.
N8520 X35.787 I-0.213 J0.
N8525 X36.313 I0.263 J0.
N8530 X35.688 I-0.313 J0.
N8535 X36.412 I0.362 J0.
N8540 X35.588 I-0.412 J0.
N8545 X36.412 I0.412 J0.
N8550 X36.409 Y-11.951 Z-8.996 I-0.317 J0.
N8555 X36.397 Y-11.903 Z-8.984 I-0.314 J-0.049
N8560 X36.38 Y-11.861 Z-8.965 I-0.302 J-0.097
N8565 X36.359 Y-11.824 Z-8.939 I-0.285 J-0.139
N8570 X36.336 Y-11.794 Z-8.907 I-0.264 J-0.176
N8575 X36.314 Y-11.77 Z-8.869 I-0.241 J-0.206
N8580 X36.295 Y-11.753 Z-8.827 I-0.219 J-0.23
N8585 X36.279 Y-11.742 Z-8.781 I-0.2 J-0.247
N8590 X36.27 Y-11.735 Z-8.732 I-0.184 J-0.258
N8595 G1 X36.267 Y-11.733 Z-8.682
N8600 G0 Z5.
N8605 X36.233 Y-3.34
N8610 Z2.318
N8615 G1 Z2.317 F600.
N8620 X36.235 Y-3.339 Z2.282 F500.
N8625 X36.24 Y-3.336 Z2.248
N8630 X36.248 Y-3.33 Z2.214
N8635 G3 X36.262 Y-3.318 Z2.17 I-0.248 J0.33
N8640 X36.281 Y-3.302 Z2.13 I-0.262 J0.318
N8645 X36.303 Y-3.28 Z2.093 I-0.281 J0.302
N8650 X36.327 Y-3.252 Z2.062 I-0.303 J0.28
N8655 X36.35 Y-3.219 Z2.037 I-0.327 J0.252
N8660 X36.371 Y-3.181 Z2.018 I-0.35 J0.219
N8665 X36.389 Y-3.138 Z2.005 I-0.371 J0.181
N8670 X36.402 Y-3.093 Z2. I-0.389 J0.138
N8675 X35.598 Y-2.907 Z1.955 I-0.402 J0.093
N8680 X36.402 Y-3.093 Z1.909 I0.402 J-0.093
N8685 X35.598 Y-2.907 Z1.864 I-0.402 J0.093
N8690 X36.402 Y-3.093 Z1.819 I0.402 J-0.093
N8695 X35.598 Y-2.907 Z1.774 I-0.402 J0.093
N8700 X36.402 Y-3.093 Z1.728 I0.402 J-0.093
N8705 X35.598 Y-2.907 Z1.683 I-0.402 J0.093
N8710 X36.402 Y-3.093 Z1.638 I0.402 J-0.093
N8715 X35.598 Y-2.907 Z1.593 I-0.402 J0.093
N8720 X36.402 Y-3.093 Z1.547 I0.402 J-0.093
N8725 X35.598 Y-2.907 Z1.502 I-0.402 J0.093
N8730 X36.402 Y-3.093 Z1.457 I0.402 J-0.093
N8735 X35.598 Y-2.907 Z1.412 I-0.402 J0.093
N8740 X36.402 Y-3.093 Z1.366 I0.402 J-0.093
N8745 X35.598 Y-2.907 Z1.321 I-0.402 J0.093
N8750 X36.402 Y-3.093 Z1.276 I0.402 J-0.093
N8755 X35.598 Y-2.907 Z1.231 I-0.402 J0.093
N8760 X36.402 Y-3.093 Z1.185 I0.402 J-0.093
N8765 X35.598 Y-2.907 Z1.14 I-0.402 J0.093
N8770 X36.402 Y-3.093 Z1.095 I0.402 J-0.093
N8775 X35.598 Y-2.907 Z1.05 I-0.402 J0.093
N8780 X36.402 Y-3.093 Z1.004 I0.402 J-0.093
N8785 X35.598 Y-2.907 Z0.959 I-0.402 J0.093
N8790 X36.402 Y-3.093 Z0.914 I0.402 J-0.093
N8795 X35.598 Y-2.907 Z0.869 I-0.402 J0.093
N8800 X36.402 Y-3.093 Z0.823 I0.402 J-0.093
N8805 X35.598 Y-2.907 Z0.778 I-0.402 J0.093
N8810 X36.402 Y-3.093 Z0.733 I0.402 J-0.093
N8815 X35.598 Y-2.907 Z0.688 I-0.402 J0.093
N8820 X36.402 Y-3.093 Z0.642 I0.402 J-0.093
N8825 X35.598 Y-2.907 Z0.597 I-0.402 J0.093
N8830 X36.402 Y-3.093 Z0.552 I0.402 J-0.093
N8835 X35.598 Y-2.907 Z0.507 I-0.402 J0.093
N8840 X36.402 Y-3.093 Z0.461 I0.402 J-0.093
N8845 X35.598 Y-2.907 Z0.416 I-0.402 J0.093
N8850 X36.402 Y-3.093 Z0.371 I0.402 J-0.093
N8855 X35.598 Y-2.907 Z0.326 I-0.402 J0.093
N8860 X36.402 Y-3.093 Z0.28 I0.402 J-0.093
N8865 X35.598 Y-2.907 Z0.235 I-0.402 J0.093
N8870 X36.402 Y-3.093 Z0.19 I0.402 J-0.093
N8875 X35.598 Y-2.907 Z0.145 I-0.402 J0.093
N8880 X36.402 Y-3.093 Z0.099 I0.402 J-0.093
N8885 X35.598 Y-2.907 Z0.054 I-0.402 J0.093
N8890 X36.402 Y-3.093 Z0.009 I0.402 J-0.093
N8895 X35.598 Y-2.907 Z-0.036 I-0.402 J0.093
N8900 X36.402 Y-3.093 Z-0.082 I0.402 J-0.093
N8905 X35.598 Y-2.907 Z-0.127 I-0.402 J0.093
N8910 X36.402 Y-3.093 Z-0.172 I0.402 J-0.093
N8915 X35.598 Y-2.907 Z-0.217 I-0.402 J0.093
N8920 X36.402 Y-3.093 Z-0.263 I0.402 J-0.093
N8925 X35.598 Y-2.907 Z-0.308 I-0.402 J0.093
N8930 X36.402 Y-3.093 Z-0.353 I0.402 J-0.093
N8935 X35.598 Y-2.907 Z-0.398 I-0.402 J0.093
N8940 X36.402 Y-3.093 Z-0.444 I0.402 J-0.093
N8945 X35.598 Y-2.907 Z-0.489 I-0.402 J0.093
N8950 X36.402 Y-3.093 Z-0.534 I0.402 J-0.093
N8955 X35.598 Y-2.907 Z-0.579 I-0.402 J0.093
N8960 X36.402 Y-3.093 Z-0.625 I0.402 J-0.093
N8965 X35.598 Y-2.907 Z-0.67 I-0.402 J0.093
N8970 X36.402 Y-3.093 Z-0.715 I0.402 J-0.093
N8975 X35.598 Y-2.907 Z-0.76 I-0.402 J0.093
N8980 X36.402 Y-3.093 Z-0.806 I0.402 J-0.093
N8985 X35.598 Y-2.907 Z-0.851 I-0.402 J0.093
N8990 X36.402 Y-3.093 Z-0.896 I0.402 J-0.093
N8995 X35.598 Y-2.907 Z-0.942 I-0.402 J0.093
N9000 X36.402 Y-3.093 Z-0.987 I0.402 J-0.093
N9005 X35.598 Y-2.907 Z-1.032 I-0.402 J0.093
N9010 X36.402 Y-3.093 Z-1.077 I0.402 J-0.093
N9015 X35.598 Y-2.907 Z-1.123 I-0.402 J0.093
N9020 X36.402 Y-3.093 Z-1.168 I0.402 J-0.093
N9025 X35.598 Y-2.907 Z-1.213 I-0.402 J0.093
N9030 X36.402 Y-3.093 Z-1.258 I0.402 J-0.093
N9035 X35.598 Y-2.907 Z-1.304 I-0.402 J0.093
N9040 X36.402 Y-3.093 Z-1.349 I0.402 J-0.093
N9045 X35.598 Y-2.907 Z-1.394 I-0.402 J0.093
N9050 X36.402 Y-3.093 Z-1.439 I0.402 J-0.093
N9055 X35.598 Y-2.907 Z-1.485 I-0.402 J0.093
N9060 X36.402 Y-3.093 Z-1.53 I0.402 J-0.093
N9065 X35.598 Y-2.907 Z-1.575 I-0.402 J0.093
N9070 X36.402 Y-3.093 Z-1.62 I0.402 J-0.093
N9075 X35.598 Y-2.907 Z-1.666 I-0.402 J0.093
N9080 X36.402 Y-3.093 Z-1.711 I0.402 J-0.093
N9085 X35.598 Y-2.907 Z-1.756 I-0.402 J0.093
N9090 X36.402 Y-3.093 Z-1.801 I0.402 J-0.093
N9095 X35.598 Y-2.907 Z-1.847 I-0.402 J0.093
N9100 X36.402 Y-3.093 Z-1.892 I0.402 J-0.093
N9105 X35.598 Y-2.907 Z-1.937 I-0.402 J0.093
N9110 X36.402 Y-3.093 Z-1.982 I0.402 J-0.093
N9115 X35.598 Y-2.907 Z-2.028 I-0.402 J0.093
N9120 X36.402 Y-3.093 Z-2.073 I0.402 J-0.093
N9125 X35.598 Y-2.907 Z-2.118 I-0.402 J0.093
N9130 X36.402 Y-3.093 Z-2.163 I0.402 J-0.093
N9135 X35.598 Y-2.907 Z-2.209 I-0.402 J0.093
N9140 X36.402 Y-3.093 Z-2.254 I0.402 J-0.093
N9145 X35.598 Y-2.907 Z-2.299 I-0.402 J0.093
N9150 X36.402 Y-3.093 Z-2.344 I0.402 J-0.093
N9155 X35.598 Y-2.907 Z-2.39 I-0.402 J0.093
N9160 X36.402 Y-3.093 Z-2.435 I0.402 J-0.093
N9165 X35.598 Y-2.907 Z-2.48 I-0.402 J0.093
N9170 X36.402 Y-3.093 Z-2.525 I0.402 J-0.093
N9175 X35.598 Y-2.907 Z-2.571 I-0.402 J0.093
N9180 X36.402 Y-3.093 Z-2.616 I0.402 J-0.093
N9185 X35.598 Y-2.907 Z-2.661 I-0.402 J0.093
N9190 X36.402 Y-3.093 Z-2.706 I0.402 J-0.093
N9195 X35.598 Y-2.907 Z-2.752 I-0.402 J0.093
N9200 X36.402 Y-3.093 Z-2.797 I0.402 J-0.093
N9205 X35.598 Y-2.907 Z-2.842 I-0.402 J0.093
N9210 X36.402 Y-3.093 Z-2.887 I0.402 J-0.093
N9215 X35.598 Y-2.907 Z-2.933 I-0.402 J0.093
N9220 X36.402 Y-3.093 Z-2.978 I0.402 J-0.093
N9225 X35.598 Y-2.907 Z-3.023 I-0.402 J0.093
N9230 X36.402 Y-3.093 Z-3.068 I0.402 J-0.093
N9235 X35.598 Y-2.907 Z-3.114 I-0.402 J0.093
N9240 X36.402 Y-3.093 Z-3.159 I0.402 J-0.093
N9245 X35.598 Y-2.907 Z-3.204 I-0.402 J0.093
N9250 X36.402 Y-3.093 Z-3.249 I0.402 J-0.093
N9255 X35.598 Y-2.907 Z-3.295 I-0.402 J0.093
N9260 X36.402 Y-3.093 Z-3.34 I0.402 J-0.093
N9265 X35.598 Y-2.907 Z-3.385 I-0.402 J0.093
N9270 X36.402 Y-3.093 Z-3.43 I0.402 J-0.093
N9275 X35.598 Y-2.907 Z-3.476 I-0.402 J0.093
N9280 X36.402 Y-3.093 Z-3.521 I0.402 J-0.093
N9285 X35.598 Y-2.907 Z-3.566 I-0.402 J0.093
N9290 X36.402 Y-3.093 Z-3.612 I0.402 J-0.093
N9295 X35.598 Y-2.907 Z-3.657 I-0.402 J0.093
N9300 X36.402 Y-3.093 Z-3.702 I0.402 J-0.093
N9305 X35.598 Y-2.907 Z-3.747 I-0.402 J0.093
N9310 X36.402 Y-3.093 Z-3.793 I0.402 J-0.093
N9315 X35.598 Y-2.907 Z-3.838 I-0.402 J0.093
N9320 X36.402 Y-3.093 Z-3.883 I0.402 J-0.093
N9325 X35.598 Y-2.907 Z-3.928 I-0.402 J0.093
N9330 X36.402 Y-3.093 Z-3.974 I0.402 J-0.093
N9335 X35.598 Y-2.907 Z-4.019 I-0.402 J0.093
N9340 X36.402 Y-3.093 Z-4.064 I0.402 J-0.093
N9345 X35.598 Y-2.907 Z-4.109 I-0.402 J0.093
N9350 X36.402 Y-3.093 Z-4.155 I0.402 J-0.093
N9355 X35.598 Y-2.907 Z-4.2 I-0.402 J0.093
N9360 X36.402 Y-3.093 Z-4.245 I0.402 J-0.093
N9365 X35.598 Y-2.907 Z-4.29 I-0.402 J0.093
N9370 X36.402 Y-3.093 Z-4.336 I0.402 J-0.093
N9375 X35.598 Y-2.907 Z-4.381 I-0.402 J0.093
N9380 X36.402 Y-3.093 Z-4.426 I0.402 J-0.093
N9385 X35.598 Y-2.907 Z-4.471 I-0.402 J0.093
N9390 X36.402 Y-3.093 Z-4.517 I0.402 J-0.093
N9395 X35.598 Y-2.907 Z-4.562 I-0.402 J0.093
N9400 X36.402 Y-3.093 Z-4.607 I0.402 J-0.093
N9405 X35.598 Y-2.907 Z-4.652 I-0.402 J0.093
N9410 X36.402 Y-3.093 Z-4.698 I0.402 J-0.093
N9415 X35.598 Y-2.907 Z-4.743 I-0.402 J0.093
N9420 X36.402 Y-3.093 Z-4.788 I0.402 J-0.093
N9425 X35.598 Y-2.907 Z-4.833 I-0.402 J0.093
N9430 X36.402 Y-3.093 Z-4.879 I0.402 J-0.093
N9435 X35.598 Y-2.907 Z-4.924 I-0.402 J0.093
N9440 X36.402 Y-3.093 Z-4.969 I0.402 J-0.093
N9445 X35.598 Y-2.907 Z-5.014 I-0.402 J0.093
N9450 X36.402 Y-3.093 Z-5.06 I0.402 J-0.093
N9455 X35.598 Y-2.907 Z-5.105 I-0.402 J0.093
N9460 X36.402 Y-3.093 Z-5.15 I0.402 J-0.093
N9465 X35.598 Y-2.907 Z-5.195 I-0.402 J0.093
N9470 X36.402 Y-3.093 Z-5.241 I0.402 J-0.093
N9475 X35.598 Y-2.907 Z-5.286 I-0.402 J0.093
N9480 X36.402 Y-3.093 Z-5.331 I0.402 J-0.093
N9485 X35.598 Y-2.907 Z-5.376 I-0.402 J0.093
N9490 X36.402 Y-3.093 Z-5.422 I0.402 J-0.093
N9495 X35.598 Y-2.907 Z-5.467 I-0.402 J0.093
N9500 X36.402 Y-3.093 Z-5.512 I0.402 J-0.093
N9505 X35.598 Y-2.907 Z-5.557 I-0.402 J0.093
N9510 X36.402 Y-3.093 Z-5.603 I0.402 J-0.093
N9515 X35.598 Y-2.907 Z-5.648 I-0.402 J0.093
N9520 X36.402 Y-3.093 Z-5.693 I0.402 J-0.093
N9525 X35.598 Y-2.907 Z-5.738 I-0.402 J0.093
N9530 X36.402 Y-3.093 Z-5.784 I0.402 J-0.093
N9535 X35.598 Y-2.907 Z-5.829 I-0.402 J0.093
N9540 X36.402 Y-3.093 Z-5.874 I0.402 J-0.093
N9545 X35.598 Y-2.907 Z-5.919 I-0.402 J0.093
N9550 X36.402 Y-3.093 Z-5.965 I0.402 J-0.093
N9555 X35.598 Y-2.907 Z-6.01 I-0.402 J0.093
N9560 X36.402 Y-3.093 Z-6.055 I0.402 J-0.093
N9565 X35.598 Y-2.907 Z-6.1 I-0.402 J0.093
N9570 X36.402 Y-3.093 Z-6.146 I0.402 J-0.093
N9575 X35.598 Y-2.907 Z-6.191 I-0.402 J0.093
N9580 X36.402 Y-3.093 Z-6.236 I0.402 J-0.093
N9585 X35.598 Y-2.907 Z-6.281 I-0.402 J0.093
N9590 X36.402 Y-3.093 Z-6.327 I0.402 J-0.093
N9595 X35.598 Y-2.907 Z-6.372 I-0.402 J0.093
N9600 X36.402 Y-3.093 Z-6.417 I0.402 J-0.093
N9605 X35.598 Y-2.907 Z-6.463 I-0.402 J0.093
N9610 X36.402 Y-3.093 Z-6.508 I0.402 J-0.093
N9615 X35.598 Y-2.907 Z-6.553 I-0.402 J0.093
N9620 X36.402 Y-3.093 Z-6.598 I0.402 J-0.093
N9625 X35.598 Y-2.907 Z-6.644 I-0.402 J0.093
N9630 X36.402 Y-3.093 Z-6.689 I0.402 J-0.093
N9635 X35.598 Y-2.907 Z-6.734 I-0.402 J0.093
N9640 X36.402 Y-3.093 Z-6.779 I0.402 J-0.093
N9645 X35.598 Y-2.907 Z-6.825 I-0.402 J0.093
N9650 X36.402 Y-3.093 Z-6.87 I0.402 J-0.093
N9655 X35.598 Y-2.907 Z-6.915 I-0.402 J0.093
N9660 X36.402 Y-3.093 Z-6.96 I0.402 J-0.093
N9665 X35.598 Y-2.907 Z-7.006 I-0.402 J0.093
N9670 X36.402 Y-3.093 Z-7.051 I0.402 J-0.093
N9675 X35.598 Y-2.907 Z-7.096 I-0.402 J0.093
N9680 X36.402 Y-3.093 Z-7.141 I0.402 J-0.093
N9685 X35.598 Y-2.907 Z-7.187 I-0.402 J0.093
N9690 X36.402 Y-3.093 Z-7.232 I0.402 J-0.093
N9695 X35.598 Y-2.907 Z-7.277 I-0.402 J0.093
N9700 X36.402 Y-3.093 Z-7.322 I0.402 J-0.093
N9705 X35.598 Y-2.907 Z-7.368 I-0.402 J0.093
N9710 X36.402 Y-3.093 Z-7.413 I0.402 J-0.093
N9715 X35.598 Y-2.907 Z-7.458 I-0.402 J0.093
N9720 X36.402 Y-3.093 Z-7.503 I0.402 J-0.093
N9725 X35.598 Y-2.907 Z-7.549 I-0.402 J0.093
N9730 X36.402 Y-3.093 Z-7.594 I0.402 J-0.093
N9735 X35.598 Y-2.907 Z-7.639 I-0.402 J0.093
N9740 X36.402 Y-3.093 Z-7.684 I0.402 J-0.093
N9745 X35.598 Y-2.907 Z-7.73 I-0.402 J0.093
N9750 X36.402 Y-3.093 Z-7.775 I0.402 J-0.093
N9755 X35.598 Y-2.907 Z-7.82 I-0.402 J0.093
N9760 X36.402 Y-3.093 Z-7.865 I0.402 J-0.093
N9765 X35.598 Y-2.907 Z-7.911 I-0.402 J0.093
N9770 X36.402 Y-3.093 Z-7.956 I0.402 J-0.093
N9775 X35.598 Y-2.907 Z-8.001 I-0.402 J0.093
N9780 X36.402 Y-3.093 Z-8.046 I0.402 J-0.093
N9785 X35.598 Y-2.907 Z-8.092 I-0.402 J0.093
N9790 X36.402 Y-3.093 Z-8.137 I0.402 J-0.093
N9795 X35.598 Y-2.907 Z-8.182 I-0.402 J0.093
N9800 X36.402 Y-3.093 Z-8.227 I0.402 J-0.093
N9805 X35.598 Y-2.907 Z-8.273 I-0.402 J0.093
N9810 X36.402 Y-3.093 Z-8.318 I0.402 J-0.093
N9815 X35.598 Y-2.907 Z-8.363 I-0.402 J0.093
N9820 X36.402 Y-3.093 Z-8.408 I0.402 J-0.093
N9825 X35.598 Y-2.907 Z-8.454 I-0.402 J0.093
N9830 X36.402 Y-3.093 Z-8.499 I0.402 J-0.093
N9835 X35.598 Y-2.907 Z-8.544 I-0.402 J0.093
N9840 X36.402 Y-3.093 Z-8.589 I0.402 J-0.093
N9845 X35.598 Y-2.907 Z-8.635 I-0.402 J0.093
N9850 X36.402 Y-3.093 Z-8.68 I0.402 J-0.093
N9855 X35.598 Y-2.907 Z-8.725 I-0.402 J0.093
N9860 X36.402 Y-3.093 Z-8.77 I0.402 J-0.093
N9865 X35.598 Y-2.907 Z-8.816 I-0.402 J0.093
N9870 X36.402 Y-3.093 Z-8.861 I0.402 J-0.093
N9875 X35.598 Y-2.907 Z-8.906 I-0.402 J0.093
N9880 X36.402 Y-3.093 Z-8.951 I0.402 J-0.093
N9885 X36.047 Y-2.59 Z-8.976 I-0.402 J0.093
N9890 X35.588 Y-3. Z-9. I-0.047 J-0.41
N9895 X36.013 I0.212 J0.
N9900 X35.987 I-0.013 J0. F600.
N9905 X36.112 I0.063 J0.
N9910 X35.888 I-0.112 J0.
N9915 X36.213 I0.162 J0.
N9920 X35.787 I-0.213 J0.
N9925 X36.313 I0.263 J0.
N9930 X35.688 I-0.313 J0.
N9935 X36.412 I0.362 J0.
N9940 X35.588 I-0.412 J0.
N9945 X36.412 I0.412 J0.
N9950 X36.409 Y-2.951 Z-8.996 I-0.317 J0.
N9955 X36.397 Y-2.903 Z-8.984 I-0.314 J-0.049
N9960 X36.38 Y-2.861 Z-8.965 I-0.302 J-0.097
N9965 X36.359 Y-2.824 Z-8.939 I-0.285 J-0.139
N9970 X36.336 Y-2.794 Z-8.907 I-0.264 J-0.176
N9975 X36.314 Y-2.77 Z-8.869 I-0.241 J-0.206
N9980 X36.295 Y-2.753 Z-8.827 I-0.219 J-0.23
N9985 X36.279 Y-2.742 Z-8.781 I-0.2 J-0.247
N9990 X36.27 Y-2.735 Z-8.732 I-0.184 J-0.258
N9995 G1 X36.267 Y-2.733 Z-8.682
N10000 G0 Z5.
N10005 X28.233 Y-3.34
N10010 Z2.318
N10015 G1 Z2.317 F600.
N10020 X28.235 Y-3.339 Z2.282 F500.
N10025 X28.24 Y-3.336 Z2.248
N10030 X28.247 Y-3.33 Z2.214
N10035 G3 X28.262 Y-3.318 Z2.17 I-0.247 J0.33
N10040 X28.281 Y-3.302 Z2.13 I-0.262 J0.318
N10045 X28.303 Y-3.28 Z2.093 I-0.281 J0.302
N10050 X28.327 Y-3.252 Z2.062 I-0.303 J0.28
N10055 X28.35 Y-3.219 Z2.037 I-0.327 J0.252
N10060 X28.371 Y-3.181 Z2.018 I-0.35 J0.219
N10065 X28.389 Y-3.138 Z2.005 I-0.371 J0.181
N10070 X28.402 Y-3.093 Z2. I-0.389 J0.138
N10075 X27.598 Y-2.907 Z1.955 I-0.402 J0.093
N10080 X28.402 Y-3.093 Z1.909 I0.402 J-0.093
N10085 X27.598 Y-2.907 Z1.864 I-0.402 J0.093
N10090 X28.402 Y-3.093 Z1.819 I0.402 J-0.093
N10095 X27.598 Y-2.907 Z1.774 I-0.402 J0.093
N10100 X28.402 Y-3.093 Z1.728 I0.402 J-0.093
N10105 X27.598 Y-2.907 Z1.683 I-0.402 J0.093
N10110 X28.402 Y-3.093 Z1.638 I0.402 J-0.093
N10115 X27.598 Y-2.907 Z1.593 I-0.402 J0.093
N10120 X28.402 Y-3.093 Z1.547 I0.402 J-0.093
N10125 X27.598 Y-2.907 Z1.502 I-0.402 J0.093
N10130 X28.402 Y-3.093 Z1.457 I0.402 J-0.093
N10135 X27.598 Y-2.907 Z1.412 I-0.402 J0.093
N10140 X28.402 Y-3.093 Z1.366 I0.402 J-0.093
N10145 X27.598 Y-2.907 Z1.321 I-0.402 J0.093
N10150 X28.402 Y-3.093 Z1.276 I0.402 J-0.093
N10155 X27.598 Y-2.907 Z1.231 I-0.402 J0.093
N10160 X28.402 Y-3.093 Z1.185 I0.402 J-0.093
N10165 X27.598 Y-2.907 Z1.14 I-0.402 J0.093
N10170 X28.402 Y-3.093 Z1.095 I0.402 J-0.093
N10175 X27.598 Y-2.907 Z1.05 I-0.402 J0.093
N10180 X28.402 Y-3.093 Z1.004 I0.402 J-0.093
N10185 X27.598 Y-2.907 Z0.959 I-0.402 J0.093
N10190 X28.402 Y-3.093 Z0.914 I0.402 J-0.093
N10195 X27.598 Y-2.907 Z0.869 I-0.402 J0.093
N10200 X28.402 Y-3.093 Z0.823 I0.402 J-0.093
N10205 X27.598 Y-2.907 Z0.778 I-0.402 J0.093
N10210 X28.402 Y-3.093 Z0.733 I0.402 J-0.093
N10215 X27.598 Y-2.907 Z0.688 I-0.402 J0.093
N10220 X28.402 Y-3.093 Z0.642 I0.402 J-0.093
N10225 X27.598 Y-2.907 Z0.597 I-0.402 J0.093
N10230 X28.402 Y-3.093 Z0.552 I0.402 J-0.093
N10235 X27.598 Y-2.907 Z0.507 I-0.402 J0.093
N10240 X28.402 Y-3.093 Z0.461 I0.402 J-0.093
N10245 X27.598 Y-2.907 Z0.416 I-0.402 J0.093
N10250 X28.402 Y-3.093 Z0.371 I0.402 J-0.093
N10255 X27.598 Y-2.907 Z0.326 I-0.402 J0.093
N10260 X28.402 Y-3.093 Z0.28 I0.402 J-0.093
N10265 X27.598 Y-2.907 Z0.235 I-0.402 J0.093
N10270 X28.402 Y-3.093 Z0.19 I0.402 J-0.093
N10275 X27.598 Y-2.907 Z0.145 I-0.402 J0.093
N10280 X28.402 Y-3.093 Z0.099 I0.402 J-0.093
N10285 X27.598 Y-2.907 Z0.054 I-0.402 J0.093
N10290 X28.402 Y-3.093 Z0.009 I0.402 J-0.093
N10295 X27.598 Y-2.907 Z-0.036 I-0.402 J0.093
N10300 X28.402 Y-3.093 Z-0.082 I0.402 J-0.093
N10305 X27.598 Y-2.907 Z-0.127 I-0.402 J0.093
N10310 X28.402 Y-3.093 Z-0.172 I0.402 J-0.093
N10315 X27.598 Y-2.907 Z-0.217 I-0.402 J0.093
N10320 X28.402 Y-3.093 Z-0.263 I0.402 J-0.093
N10325 X27.598 Y-2.907 Z-0.308 I-0.402 J0.093
N10330 X28.402 Y-3.093 Z-0.353 I0.402 J-0.093
N10335 X27.598 Y-2.907 Z-0.398 I-0.402 J0.093
N10340 X28.402 Y-3.093 Z-0.444 I0.402 J-0.093
N10345 X27.598 Y-2.907 Z-0.489 I-0.402 J0.093
N10350 X28.402 Y-3.093 Z-0.534 I0.402 J-0.093
N10355 X27.598 Y-2.907 Z-0.579 I-0.402 J0.093
N10360 X28.402 Y-3.093 Z-0.625 I0.402 J-0.093
N10365 X27.598 Y-2.907 Z-0.67 I-0.402 J0.093
N10370 X28.402 Y-3.093 Z-0.715 I0.402 J-0.093
N10375 X27.598 Y-2.907 Z-0.76 I-0.402 J0.093
N10380 X28.402 Y-3.093 Z-0.806 I0.402 J-0.093
N10385 X27.598 Y-2.907 Z-0.851 I-0.402 J0.093
N10390 X28.402 Y-3.093 Z-0.896 I0.402 J-0.093
N10395 X27.598 Y-2.907 Z-0.942 I-0.402 J0.093
N10400 X28.402 Y-3.093 Z-0.987 I0.402 J-0.093
N10405 X27.598 Y-2.907 Z-1.032 I-0.402 J0.093
N10410 X28.402 Y-3.093 Z-1.077 I0.402 J-0.093
N10415 X27.598 Y-2.907 Z-1.123 I-0.402 J0.093
N10420 X28.402 Y-3.093 Z-1.168 I0.402 J-0.093
N10425 X27.598 Y-2.907 Z-1.213 I-0.402 J0.093
N10430 X28.402 Y-3.093 Z-1.258 I0.402 J-0.093
N10435 X27.598 Y-2.907 Z-1.304 I-0.402 J0.093
N10440 X28.402 Y-3.093 Z-1.349 I0.402 J-0.093
N10445 X27.598 Y-2.907 Z-1.394 I-0.402 J0.093
N10450 X28.402 Y-3.093 Z-1.439 I0.402 J-0.093
N10455 X27.598 Y-2.907 Z-1.485 I-0.402 J0.093
N10460 X28.402 Y-3.093 Z-1.53 I0.402 J-0.093
N10465 X27.598 Y-2.907 Z-1.575 I-0.402 J0.093
N10470 X28.402 Y-3.093 Z-1.62 I0.402 J-0.093
N10475 X27.598 Y-2.907 Z-1.666 I-0.402 J0.093
N10480 X28.402 Y-3.093 Z-1.711 I0.402 J-0.093
N10485 X27.598 Y-2.907 Z-1.756 I-0.402 J0.093
N10490 X28.402 Y-3.093 Z-1.801 I0.402 J-0.093
N10495 X27.598 Y-2.907 Z-1.847 I-0.402 J0.093
N10500 X28.402 Y-3.093 Z-1.892 I0.402 J-0.093
N10505 X27.598 Y-2.907 Z-1.937 I-0.402 J0.093
N10510 X28.402 Y-3.093 Z-1.982 I0.402 J-0.093
N10515 X27.598 Y-2.907 Z-2.028 I-0.402 J0.093
N10520 X28.402 Y-3.093 Z-2.073 I0.402 J-0.093
N10525 X27.598 Y-2.907 Z-2.118 I-0.402 J0.093
N10530 X28.402 Y-3.093 Z-2.163 I0.402 J-0.093
N10535 X27.598 Y-2.907 Z-2.209 I-0.402 J0.093
N10540 X28.402 Y-3.093 Z-2.254 I0.402 J-0.093
N10545 X27.598 Y-2.907 Z-2.299 I-0.402 J0.093
N10550 X28.402 Y-3.093 Z-2.344 I0.402 J-0.093
N10555 X27.598 Y-2.907 Z-2.39 I-0.402 J0.093
N10560 X28.402 Y-3.093 Z-2.435 I0.402 J-0.093
N10565 X27.598 Y-2.907 Z-2.48 I-0.402 J0.093
N10570 X28.402 Y-3.093 Z-2.525 I0.402 J-0.093
N10575 X27.598 Y-2.907 Z-2.571 I-0.402 J0.093
N10580 X28.402 Y-3.093 Z-2.616 I0.402 J-0.093
N10585 X27.598 Y-2.907 Z-2.661 I-0.402 J0.093
N10590 X28.402 Y-3.093 Z-2.706 I0.402 J-0.093
N10595 X27.598 Y-2.907 Z-2.752 I-0.402 J0.093
N10600 X28.402 Y-3.093 Z-2.797 I0.402 J-0.093
N10605 X27.598 Y-2.907 Z-2.842 I-0.402 J0.093
N10610 X28.402 Y-3.093 Z-2.887 I0.402 J-0.093
N10615 X27.598 Y-2.907 Z-2.933 I-0.402 J0.093
N10620 X28.402 Y-3.093 Z-2.978 I0.402 J-0.093
N10625 X27.598 Y-2.907 Z-3.023 I-0.402 J0.093
N10630 X28.402 Y-3.093 Z-3.068 I0.402 J-0.093
N10635 X27.598 Y-2.907 Z-3.114 I-0.402 J0.093
N10640 X28.402 Y-3.093 Z-3.159 I0.402 J-0.093
N10645 X27.598 Y-2.907 Z-3.204 I-0.402 J0.093
N10650 X28.402 Y-3.093 Z-3.249 I0.402 J-0.093
N10655 X27.598 Y-2.907 Z-3.295 I-0.402 J0.093
N10660 X28.402 Y-3.093 Z-3.34 I0.402 J-0.093
N10665 X27.598 Y-2.907 Z-3.385 I-0.402 J0.093
N10670 X28.402 Y-3.093 Z-3.43 I0.402 J-0.093
N10675 X27.598 Y-2.907 Z-3.476 I-0.402 J0.093
N10680 X28.402 Y-3.093 Z-3.521 I0.402 J-0.093
N10685 X27.598 Y-2.907 Z-3.566 I-0.402 J0.093
N10690 X28.402 Y-3.093 Z-3.612 I0.402 J-0.093
N10695 X27.598 Y-2.907 Z-3.657 I-0.402 J0.093
N10700 X28.402 Y-3.093 Z-3.702 I0.402 J-0.093
N10705 X27.598 Y-2.907 Z-3.747 I-0.402 J0.093
N10710 X28.402 Y-3.093 Z-3.793 I0.402 J-0.093
N10715 X27.598 Y-2.907 Z-3.838 I-0.402 J0.093
N10720 X28.402 Y-3.093 Z-3.883 I0.402 J-0.093
N10725 X27.598 Y-2.907 Z-3.928 I-0.402 J0.093
N10730 X28.402 Y-3.093 Z-3.974 I0.402 J-0.093
N10735 X27.598 Y-2.907 Z-4.019 I-0.402 J0.093
N10740 X28.402 Y-3.093 Z-4.064 I0.402 J-0.093
N10745 X27.598 Y-2.907 Z-4.109 I-0.402 J0.093
N10750 X28.402 Y-3.093 Z-4.155 I0.402 J-0.093
N10755 X27.598 Y-2.907 Z-4.2 I-0.402 J0.093
N10760 X28.402 Y-3.093 Z-4.245 I0.402 J-0.093
N10765 X27.598 Y-2.907 Z-4.29 I-0.402 J0.093
N10770 X28.402 Y-3.093 Z-4.336 I0.402 J-0.093
N10775 X27.598 Y-2.907 Z-4.381 I-0.402 J0.093
N10780 X28.402 Y-3.093 Z-4.426 I0.402 J-0.093
N10785 X27.598 Y-2.907 Z-4.471 I-0.402 J0.093
N10790 X28.402 Y-3.093 Z-4.517 I0.402 J-0.093
N10795 X27.598 Y-2.907 Z-4.562 I-0.402 J0.093
N10800 X28.402 Y-3.093 Z-4.607 I0.402 J-0.093
N10805 X27.598 Y-2.907 Z-4.652 I-0.402 J0.093
N10810 X28.402 Y-3.093 Z-4.698 I0.402 J-0.093
N10815 X27.598 Y-2.907 Z-4.743 I-0.402 J0.093
N10820 X28.402 Y-3.093 Z-4.788 I0.402 J-0.093
N10825 X27.598 Y-2.907 Z-4.833 I-0.402 J0.093
N10830 X28.402 Y-3.093 Z-4.879 I0.402 J-0.093
N10835 X27.598 Y-2.907 Z-4.924 I-0.402 J0.093
N10840 X28.402 Y-3.093 Z-4.969 I0.402 J-0.093
N10845 X27.598 Y-2.907 Z-5.014 I-0.402 J0.093
N10850 X28.402 Y-3.093 Z-5.06 I0.402 J-0.093
N10855 X27.598 Y-2.907 Z-5.105 I-0.402 J0.093
N10860 X28.402 Y-3.093 Z-5.15 I0.402 J-0.093
N10865 X27.598 Y-2.907 Z-5.195 I-0.402 J0.093
N10870 X28.402 Y-3.093 Z-5.241 I0.402 J-0.093
N10875 X27.598 Y-2.907 Z-5.286 I-0.402 J0.093
N10880 X28.402 Y-3.093 Z-5.331 I0.402 J-0.093
N10885 X27.598 Y-2.907 Z-5.376 I-0.402 J0.093
N10890 X28.402 Y-3.093 Z-5.422 I0.402 J-0.093
N10895 X27.598 Y-2.907 Z-5.467 I-0.402 J0.093
N10900 X28.402 Y-3.093 Z-5.512 I0.402 J-0.093
N10905 X27.598 Y-2.907 Z-5.557 I-0.402 J0.093
N10910 X28.402 Y-3.093 Z-5.603 I0.402 J-0.093
N10915 X27.598 Y-2.907 Z-5.648 I-0.402 J0.093
N10920 X28.402 Y-3.093 Z-5.693 I0.402 J-0.093
N10925 X27.598 Y-2.907 Z-5.738 I-0.402 J0.093
N10930 X28.402 Y-3.093 Z-5.784 I0.402 J-0.093
N10935 X27.598 Y-2.907 Z-5.829 I-0.402 J0.093
N10940 X28.402 Y-3.093 Z-5.874 I0.402 J-0.093
N10945 X27.598 Y-2.907 Z-5.919 I-0.402 J0.093
N10950 X28.402 Y-3.093 Z-5.965 I0.402 J-0.093
N10955 X27.598 Y-2.907 Z-6.01 I-0.402 J0.093
N10960 X28.402 Y-3.093 Z-6.055 I0.402 J-0.093
N10965 X27.598 Y-2.907 Z-6.1 I-0.402 J0.093
N10970 X28.402 Y-3.093 Z-6.146 I0.402 J-0.093
N10975 X27.598 Y-2.907 Z-6.191 I-0.402 J0.093
N10980 X28.402 Y-3.093 Z-6.236 I0.402 J-0.093
N10985 X27.598 Y-2.907 Z-6.281 I-0.402 J0.093
N10990 X28.402 Y-3.093 Z-6.327 I0.402 J-0.093
N10995 X27.598 Y-2.907 Z-6.372 I-0.402 J0.093
N11000 X28.402 Y-3.093 Z-6.417 I0.402 J-0.093
N11005 X27.598 Y-2.907 Z-6.463 I-0.402 J0.093
N11010 X28.402 Y-3.093 Z-6.508 I0.402 J-0.093
N11015 X27.598 Y-2.907 Z-6.553 I-0.402 J0.093
N11020 X28.402 Y-3.093 Z-6.598 I0.402 J-0.093
N11025 X27.598 Y-2.907 Z-6.644 I-0.402 J0.093
N11030 X28.402 Y-3.093 Z-6.689 I0.402 J-0.093
N11035 X27.598 Y-2.907 Z-6.734 I-0.402 J0.093
N11040 X28.402 Y-3.093 Z-6.779 I0.402 J-0.093
N11045 X27.598 Y-2.907 Z-6.825 I-0.402 J0.093
N11050 X28.402 Y-3.093 Z-6.87 I0.402 J-0.093
N11055 X27.598 Y-2.907 Z-6.915 I-0.402 J0.093
N11060 X28.402 Y-3.093 Z-6.96 I0.402 J-0.093
N11065 X27.598 Y-2.907 Z-7.006 I-0.402 J0.093
N11070 X28.402 Y-3.093 Z-7.051 I0.402 J-0.093
N11075 X27.598 Y-2.907 Z-7.096 I-0.402 J0.093
N11080 X28.402 Y-3.093 Z-7.141 I0.402 J-0.093
N11085 X27.598 Y-2.907 Z-7.187 I-0.402 J0.093
N11090 X28.402 Y-3.093 Z-7.232 I0.402 J-0.093
N11095 X27.598 Y-2.907 Z-7.277 I-0.402 J0.093
N11100 X28.402 Y-3.093 Z-7.322 I0.402 J-0.093
N11105 X27.598 Y-2.907 Z-7.368 I-0.402 J0.093
N11110 X28.402 Y-3.093 Z-7.413 I0.402 J-0.093
N11115 X27.598 Y-2.907 Z-7.458 I-0.402 J0.093
N11120 X28.402 Y-3.093 Z-7.503 I0.402 J-0.093
N11125 X27.598 Y-2.907 Z-7.549 I-0.402 J0.093
N11130 X28.402 Y-3.093 Z-7.594 I0.402 J-0.093
N11135 X27.598 Y-2.907 Z-7.639 I-0.402 J0.093
N11140 X28.402 Y-3.093 Z-7.684 I0.402 J-0.093
N11145 X27.598 Y-2.907 Z-7.73 I-0.402 J0.093
N11150 X28.402 Y-3.093 Z-7.775 I0.402 J-0.093
N11155 X27.598 Y-2.907 Z-7.82 I-0.402 J0.093
N11160 X28.402 Y-3.093 Z-7.865 I0.402 J-0.093
N11165 X27.598 Y-2.907 Z-7.911 I-0.402 J0.093
N11170 X28.402 Y-3.093 Z-7.956 I0.402 J-0.093
N11175 X27.598 Y-2.907 Z-8.001 I-0.402 J0.093
N11180 X28.402 Y-3.093 Z-8.046 I0.402 J-0.093
N11185 X27.598 Y-2.907 Z-8.092 I-0.402 J0.093
N11190 X28.402 Y-3.093 Z-8.137 I0.402 J-0.093
N11195 X27.598 Y-2.907 Z-8.182 I-0.402 J0.093
N11200 X28.402 Y-3.093 Z-8.227 I0.402 J-0.093
N11205 X27.598 Y-2.907 Z-8.273 I-0.402 J0.093
N11210 X28.402 Y-3.093 Z-8.318 I0.402 J-0.093
N11215 X27.598 Y-2.907 Z-8.363 I-0.402 J0.093
N11220 X28.402 Y-3.093 Z-8.408 I0.402 J-0.093
N11225 X27.598 Y-2.907 Z-8.454 I-0.402 J0.093
N11230 X28.402 Y-3.093 Z-8.499 I0.402 J-0.093
N11235 X27.598 Y-2.907 Z-8.544 I-0.402 J0.093
N11240 X28.402 Y-3.093 Z-8.589 I0.402 J-0.093
N11245 X27.598 Y-2.907 Z-8.635 I-0.402 J0.093
N11250 X28.402 Y-3.093 Z-8.68 I0.402 J-0.093
N11255 X27.598 Y-2.907 Z-8.725 I-0.402 J0.093
N11260 X28.402 Y-3.093 Z-8.77 I0.402 J-0.093
N11265 X27.598 Y-2.907 Z-8.816 I-0.402 J0.093
N11270 X28.402 Y-3.093 Z-8.861 I0.402 J-0.093
N11275 X27.598 Y-2.907 Z-8.906 I-0.402 J0.093
N11280 X28.402 Y-3.093 Z-8.951 I0.402 J-0.093
N11285 X28.047 Y-2.59 Z-8.976 I-0.402 J0.093
N11290 X27.587 Y-3. Z-9. I-0.047 J-0.41
N11295 X28.013 I0.212 J0.
