%
(1)
(T3  D=2.5 CR=0. TAPER=118DEG - ZMIN=0. - DRILL)
N10 G90 G94 G17 G91.1
N15 G21
N20 G53 G0 Z0.
(DRILL2)
N25 M9
N30 T3 M6
N35 S1910 M3
N40 G54
N45 M8
N55 G0 X27. Y4.
N60 G43 Z19. H3
N70 G0 Z16.
N75 G98 G83 X27. Y4. Z0. R16. Q1. F30.34
N80 G80
N90 G0 Y-4. Z16.
N95 G83 X27. Y-4. Z3. R16. Q1. F30.34
N100 X12.
N105 X18.
N110 G80
N120 G0 Y4. Z16.
N125 G83 X18. Y4. Z0. R16. Q1. F30.34
N130 X12.
N135 X3.
N140 G80
N150 G0 Y-4. Z16.
N155 G83 X3. Y-4. Z3. R16. Q1. F30.34
N160 Y-20.
N165 G80
N175 G0 Y-28. Z16.
N180 G83 X3. Y-28. Z0. R16. Q1. F30.34
N185 X18.
N190 X12.
N195 G80
N205 G0 Y-20. Z16.
N210 G83 X12. Y-20. Z3. R16. Q1. F30.34
N215 X18.
N220 X27.
N225 G80
N235 G0 Y-28. Z16.
N240 G83 X27. Y-28. Z0. R16. Q1. F30.34
N245 G80
N250 G0 Z19.
N260 M9
N265 G53 Z0.
N270 M30
%
