%
(SCT-013-000)
(T10  D=10. CR=0. - ZMIN=-24. - FLAT END MILL)
N10 G90 G94 G17 G91.1
N15 G21
N20 G53 G0 Z0.
(2D POCKET3)
N25 M9
N30 T10 M6
N35 S3000 M3
N40 G54
N45 M8
N55 G0 X24.996 Y-16.211
N60 G43 Z6. H10
N65 #100=900. (CUTTING)
N70 #103=800. (ENTRY)
N75 #104=900. (EXIT)
N80 #107=700. (RAMPING)
N85 G0 Z3.5
N90 G1 Z3.499 F#103
N95 S2700
N100 G3 X25.001 Y-16.229 Z3.309 I4.593 J1.211 F#107
N105 X25.015 Y-16.282 Z3.125 I4.588 J1.229
N110 X25.04 Y-16.367 Z2.955 I4.574 J1.282
N115 X25.076 Y-16.481 Z2.805 I4.549 J1.367
N120 X25.123 Y-16.618 Z2.68 I4.513 J1.481
N125 X25.183 Y-16.774 Z2.586 I4.466 J1.618
N130 X25.254 Y-16.941 Z2.525 I4.406 J1.774
N135 X25.335 Y-17.113 Z2.5 I4.335 J1.941
N140 X33.843 Y-12.887 Z1.979 I4.254 J2.113
N145 X25.335 Y-17.113 Z1.458 I-4.254 J-2.113
N150 X33.843 Y-12.887 Z0.937 I4.254 J2.113
N155 X25.335 Y-17.113 Z0.416 I-4.254 J-2.113
N160 X33.843 Y-12.887 Z-0.106 I4.254 J2.113
N165 X25.335 Y-17.113 Z-0.627 I-4.254 J-2.113
N170 X33.843 Y-12.887 Z-1.148 I4.254 J2.113
N175 X25.335 Y-17.113 Z-1.669 I-4.254 J-2.113
N180 X33.843 Y-12.887 Z-2.19 I4.254 J2.113
N185 X25.335 Y-17.113 Z-2.711 I-4.254 J-2.113
N190 X33.843 Y-12.887 Z-3.232 I4.254 J2.113
N195 X25.335 Y-17.113 Z-3.753 I-4.254 J-2.113
N200 X33.843 Y-12.887 Z-4.274 I4.254 J2.113
N205 X25.335 Y-17.113 Z-4.796 I-4.254 J-2.113
N210 X33.843 Y-12.887 Z-5.317 I4.254 J2.113
N215 X25.335 Y-17.113 Z-5.838 I-4.254 J-2.113
N220 X33.843 Y-12.887 Z-6.359 I4.254 J2.113
N225 X25.335 Y-17.113 Z-6.88 I-4.254 J-2.113
N230 X33.843 Y-12.887 Z-7.401 I4.254 J2.113
N235 X25.335 Y-17.113 Z-7.922 I-4.254 J-2.113
N240 X33.843 Y-12.887 Z-8.443 I4.254 J2.113
N245 X25.335 Y-17.113 Z-8.964 I-4.254 J-2.113
N250 X33.843 Y-12.887 Z-9.485 I4.254 J2.113
N255 X25.335 Y-17.113 Z-10.007 I-4.254 J-2.113
N260 X33.843 Y-12.887 Z-10.528 I4.254 J2.113
N265 X25.335 Y-17.113 Z-11.049 I-4.254 J-2.113
N270 X33.843 Y-12.887 Z-11.57 I4.254 J2.113
N275 X25.335 Y-17.113 Z-12.091 I-4.254 J-2.113
N280 X33.843 Y-12.887 Z-12.612 I4.254 J2.113
N285 X25.335 Y-17.113 Z-13.133 I-4.254 J-2.113
N290 X33.843 Y-12.887 Z-13.654 I4.254 J2.113
N295 X25.335 Y-17.113 Z-14.175 I-4.254 J-2.113
N300 X33.843 Y-12.887 Z-14.697 I4.254 J2.113
N305 X25.335 Y-17.113 Z-15.218 I-4.254 J-2.113
N310 X33.843 Y-12.887 Z-15.739 I4.254 J2.113
N315 X25.335 Y-17.113 Z-16.26 I-4.254 J-2.113
N320 X33.843 Y-12.887 Z-16.781 I4.254 J2.113
N325 X25.335 Y-17.113 Z-17.302 I-4.254 J-2.113
N330 X33.843 Y-12.887 Z-17.823 I4.254 J2.113
N335 X25.335 Y-17.113 Z-18.344 I-4.254 J-2.113
N340 X33.843 Y-12.887 Z-18.865 I4.254 J2.113
N345 X25.335 Y-17.113 Z-19.387 I-4.254 J-2.113
N350 X33.843 Y-12.887 Z-19.908 I4.254 J2.113
N355 X25.335 Y-17.113 Z-20.429 I-4.254 J-2.113
N360 X33.843 Y-12.887 Z-20.95 I4.254 J2.113
N365 X25.335 Y-17.113 Z-21.471 I-4.254 J-2.113
N370 X33.843 Y-12.887 Z-21.992 I4.254 J2.113
N375 X25.335 Y-17.113 Z-22.513 I-4.254 J-2.113
N380 X33.843 Y-12.887 Z-23.034 I4.254 J2.113
N385 X25.335 Y-17.113 Z-23.555 I-4.254 J-2.113
N390 X34.339 Y-15. Z-24. I4.254 J2.113
N395 X25.399 I-4.47 J0.
N400 S3000
N405 X25.549 I0.075 J0. F#100
N410 X25.199 I-0.175 J0.
N415 X25.749 I0.275 J0.
N420 X24.999 I-0.375 J0.
N425 X25.949 I0.475 J0.
N430 X24.799 I-0.575 J0.
N435 X26.149 I0.675 J0.
N440 X24.599 I-0.775 J0.
N445 X26.349 I0.875 J0.
N450 X24.399 I-0.975 J0.
N455 X26.549 I1.075 J0.
N460 X24.199 I-1.175 J0.
N465 X26.749 I1.275 J0.
N470 X23.999 I-1.375 J0.
N475 X26.949 I1.475 J0.
N480 X23.799 I-1.575 J0.
N485 X27.149 I1.675 J0.
N490 X23.599 I-1.775 J0.
N495 X27.349 I1.875 J0.
N500 X23.399 I-1.975 J0.
N505 X27.549 I2.075 J0.
N510 X23.199 I-2.175 J0.
N515 X27.749 I2.275 J0.
N520 X22.999 I-2.375 J0.
N525 X27.949 I2.475 J0.
N530 X22.799 I-2.575 J0.
N535 X28.149 I2.675 J0.
N540 X22.599 I-2.775 J0.
N545 X28.349 I2.875 J0.
N550 X22.399 I-2.975 J0.
N555 X28.549 I3.075 J0.
N560 X22.199 I-3.175 J0.
N565 X28.749 I3.275 J0.
N570 X21.999 I-3.375 J0.
N575 X28.949 I3.475 J0.
N580 X21.799 I-3.575 J0.
N585 X29.149 I3.675 J0.
N590 X21.599 I-3.775 J0.
N595 X29.349 I3.875 J0.
N600 X21.399 I-3.975 J0.
N605 X29.549 I4.075 J0.
N610 X21.199 I-4.175 J0.
N615 X29.749 I4.275 J0.
N620 X20.999 I-4.375 J0.
N625 X29.949 I4.475 J0.
N630 X20.799 I-4.575 J0.
N635 X30.149 I4.675 J0.
N640 X20.599 I-4.775 J0.
N645 X30.349 I4.875 J0.
N650 X20.399 I-4.975 J0.
N655 X30.549 I5.075 J0.
N660 X20.199 I-5.175 J0.
N665 X30.749 I5.275 J0.
N670 X19.999 I-5.375 J0.
N675 X30.949 I5.475 J0.
N680 X19.799 I-5.575 J0.
N685 X31.149 I5.675 J0.
N690 X19.599 I-5.775 J0.
N695 X31.349 I5.875 J0.
N700 X19.399 I-5.975 J0.
N705 X31.549 I6.075 J0.
N710 X19.199 I-6.175 J0.
N715 X31.749 I6.275 J0.
N720 X18.999 I-6.375 J0.
N725 X31.949 I6.475 J0.
N730 X18.799 I-6.575 J0.
N735 X32.149 I6.675 J0.
N740 X18.599 I-6.775 J0.
N745 X32.349 I6.875 J0.
N750 X18.399 I-6.975 J0.
N755 X32.549 I7.075 J0.
N760 X18.199 I-7.175 J0.
N765 X32.749 I7.275 J0.
N770 X17.999 I-7.375 J0.
N775 X32.949 I7.475 J0.
N780 X17.799 I-7.575 J0.
N785 X33.149 I7.675 J0.
N790 X17.599 I-7.775 J0.
N795 X33.349 I7.875 J0.
N800 X17.399 I-7.975 J0.
N805 X33.549 I8.075 J0.
N810 X17.199 I-8.175 J0.
N815 X33.749 I8.275 J0.
N820 X16.999 I-8.375 J0.
N825 X33.949 I8.475 J0.
N830 X16.799 I-8.575 J0.
N835 X34.149 I8.675 J0.
N840 X16.599 I-8.775 J0.
N845 X34.349 I8.875 J0.
N850 X16.399 I-8.975 J0.
N855 X34.349 I8.975 J0.
N860 X34.33 Y-14.806 Z-23.981 I-1. J0. F#104
N865 X34.276 Y-14.627 Z-23.924 I-0.981 J-0.194
N870 X34.198 Y-14.473 Z-23.831 I-0.928 J-0.373
N875 X34.109 Y-14.35 Z-23.707 I-0.85 J-0.527
N880 X34.023 Y-14.261 Z-23.556 I-0.76 J-0.65
N885 X33.952 Y-14.202 Z-23.383 I-0.674 J-0.739
N890 X33.905 Y-14.169 Z-23.195 I-0.603 J-0.798
N895 X33.889 Y-14.159 Z-23. I-0.556 J-0.831
N900 G0 Z6.
(2D CONTOUR1)
N910 M8
N915 G0 X31.399 Y-16.
N920 #102=600. (FINISH)
N925 #103=800. (ENTRY)
N930 #104=900. (EXIT)
N935 #108=300. (PLUNGE)
N940 Z6.
N945 Z3.
N950 G1 Z1. F#103
N955 Z-23. F#108
N960 G18 G2 X32.399 Z-24. I1. K0.
N965 G1 X33.399 F#103
N970 G17 G3 X34.399 Y-15. I0. J1.
N975 X16.349 I-9.025 J0. F#102
N980 X34.399 I9.025 J0.
N985 X33.399 Y-14. I-1. J0. F#104
N990 G1 X32.399
N995 G18 G3 X31.399 Z-23. I0. K1.
N1000 G0 Z6.
N1005 G17
(FACE2)
N1010 M8
N1015 G0 Z10.
N1020 X58.5 Y-30.502
N1025 #100=900. (CUTTING)
N1030 #102=900. (FINISH)
N1035 #103=800. (ENTRY)
N1040 #104=900. (EXIT)
N1045 Z5.
N1050 G1 Z1. F#103
N1055 G18 G3 X57.5 Z0. I-1. K0.
N1060 G1 X52.
N1065 X-2. F#102
N1070 G17 G2 Y-23.584 I0. J3.459 F#100
N1075 G1 X52. F#102
N1080 G3 Y-16.666 I0. J3.459 F#100
N1085 G1 X-2. F#102
N1090 G2 Y-9.748 I0. J3.459 F#100
N1095 G1 X52. F#102
N1100 G3 Y-2.83 I0. J3.459 F#100
N1105 G1 X-2. F#102
N1110 G18 G3 X-3. Z1. I0. K1. F#104
N1115 G0 Z10.
N1120 G17
N1125 M9
N1130 G53 G0 Z0.
N1135 M30
%
