%
(BALL NUT HOLDER LOW PROFILE S2 T6 8MM)
(T6  D=8. CR=0. - ZMIN=-24. - FLAT END MILL)
N10 G90 G94 G17 G91.1
N15 G21
N20 G53 G0 Z0.
(2D POCKET3)
N25 M9
N30 T6 M6
N35 S3000 M3
N40 G54
N45 M9
N55 G0 X27.676 Y-18.482
N60 G43 Z6. H6
N65 #100=1000. (CUTTING)
N70 #103=1000. (ENTRY)
N75 #104=1000. (EXIT)
N80 #107=1000.33 (RAMPING)
N85 G0 Z3.3
N90 G3 X27.694 Y-18.489 Z3.125 I1.522 J3.482 F#107
N95 X27.746 Y-18.511 Z2.96 I1.505 J3.489
N100 X27.831 Y-18.545 Z2.81 I1.453 J3.511
N105 X27.945 Y-18.587 Z2.684 I1.368 J3.545
N110 X28.084 Y-18.633 Z2.588 I1.254 J3.587
N115 X28.241 Y-18.677 Z2.525 I1.115 J3.633
N120 X28.41 Y-18.717 Z2.5 I0.957 J3.677
N125 X29.987 Y-11.283 Z2.083 I0.789 J3.717
N130 X28.41 Y-18.717 Z1.666 I-0.789 J-3.717
N135 X29.987 Y-11.283 Z1.249 I0.789 J3.717
N140 X28.41 Y-18.717 Z0.832 I-0.789 J-3.717
N145 X29.987 Y-11.283 Z0.416 I0.789 J3.717
N150 X28.41 Y-18.717 Z-0.001 I-0.789 J-3.717
N155 X29.987 Y-11.283 Z-0.418 I0.789 J3.717
N160 X28.41 Y-18.717 Z-0.835 I-0.789 J-3.717
N165 X29.987 Y-11.283 Z-1.252 I0.789 J3.717
N170 X28.41 Y-18.717 Z-1.669 I-0.789 J-3.717
N175 X29.987 Y-11.283 Z-2.086 I0.789 J3.717
N180 X28.41 Y-18.717 Z-2.503 I-0.789 J-3.717
N185 X29.987 Y-11.283 Z-2.92 I0.789 J3.717
N190 X28.41 Y-18.717 Z-3.336 I-0.789 J-3.717
N195 X29.987 Y-11.283 Z-3.753 I0.789 J3.717
N200 X28.41 Y-18.717 Z-4.17 I-0.789 J-3.717
N205 X29.987 Y-11.283 Z-4.587 I0.789 J3.717
N210 X28.41 Y-18.717 Z-5.004 I-0.789 J-3.717
N215 X29.987 Y-11.283 Z-5.421 I0.789 J3.717
N220 X28.41 Y-18.717 Z-5.838 I-0.789 J-3.717
N225 X29.987 Y-11.283 Z-6.255 I0.789 J3.717
N230 X28.41 Y-18.717 Z-6.671 I-0.789 J-3.717
N235 X29.987 Y-11.283 Z-7.088 I0.789 J3.717
N240 X28.41 Y-18.717 Z-7.505 I-0.789 J-3.717
N245 X29.987 Y-11.283 Z-7.922 I0.789 J3.717
N250 X28.41 Y-18.717 Z-8.339 I-0.789 J-3.717
N255 X29.987 Y-11.283 Z-8.756 I0.789 J3.717
N260 X28.41 Y-18.717 Z-9.173 I-0.789 J-3.717
N265 X29.987 Y-11.283 Z-9.59 I0.789 J3.717
N270 X28.41 Y-18.717 Z-10.007 I-0.789 J-3.717
N275 X29.987 Y-11.283 Z-10.423 I0.789 J3.717
N280 X28.41 Y-18.717 Z-10.84 I-0.789 J-3.717
N285 X29.987 Y-11.283 Z-11.257 I0.789 J3.717
N290 X28.41 Y-18.717 Z-11.674 I-0.789 J-3.717
N295 X29.987 Y-11.283 Z-12.091 I0.789 J3.717
N300 X28.41 Y-18.717 Z-12.508 I-0.789 J-3.717
N305 X29.987 Y-11.283 Z-12.925 I0.789 J3.717
N310 X28.41 Y-18.717 Z-13.342 I-0.789 J-3.717
N315 X29.987 Y-11.283 Z-13.759 I0.789 J3.717
N320 X28.41 Y-18.717 Z-14.175 I-0.789 J-3.717
N325 X29.987 Y-11.283 Z-14.592 I0.789 J3.717
N330 X28.41 Y-18.717 Z-15.009 I-0.789 J-3.717
N335 X29.987 Y-11.283 Z-15.426 I0.789 J3.717
N340 X28.41 Y-18.717 Z-15.843 I-0.789 J-3.717
N345 X29.987 Y-11.283 Z-16.26 I0.789 J3.717
N350 X28.41 Y-18.717 Z-16.677 I-0.789 J-3.717
N355 X29.987 Y-11.283 Z-17.094 I0.789 J3.717
N360 X28.41 Y-18.717 Z-17.511 I-0.789 J-3.717
N365 X29.987 Y-11.283 Z-17.927 I0.789 J3.717
N370 X28.41 Y-18.717 Z-18.344 I-0.789 J-3.717
N375 X29.987 Y-11.283 Z-18.761 I0.789 J3.717
N380 X28.41 Y-18.717 Z-19.178 I-0.789 J-3.717
N385 X29.987 Y-11.283 Z-19.595 I0.789 J3.717
N390 X28.41 Y-18.717 Z-20.012 I-0.789 J-3.717
N395 X29.987 Y-11.283 Z-20.429 I0.789 J3.717
N400 X28.41 Y-18.717 Z-20.846 I-0.789 J-3.717
N405 X29.987 Y-11.283 Z-21.263 I0.789 J3.717
N410 X28.41 Y-18.717 Z-21.679 I-0.789 J-3.717
N415 X29.987 Y-11.283 Z-22.096 I0.789 J3.717
N420 X28.41 Y-18.717 Z-22.513 I-0.789 J-3.717
N425 X29.987 Y-11.283 Z-22.93 I0.789 J3.717
N430 X28.41 Y-18.717 Z-23.347 I-0.789 J-3.717
N435 X29.987 Y-11.283 Z-23.764 I0.789 J3.717
N440 X25.399 Y-15. Z-24. I-0.789 J-3.717
N445 X25.549 I0.075 J0. F#100
N450 X25.199 I-0.175 J0.
N455 X25.749 I0.275 J0.
N460 X24.999 I-0.375 J0.
N465 X25.949 I0.475 J0.
N470 X24.799 I-0.575 J0.
N475 X26.149 I0.675 J0.
N480 X24.599 I-0.775 J0.
N485 X26.349 I0.875 J0.
N490 X24.399 I-0.975 J0.
N495 X26.549 I1.075 J0.
N500 X24.199 I-1.175 J0.
N505 X26.749 I1.275 J0.
N510 X23.999 I-1.375 J0.
N515 X26.949 I1.475 J0.
N520 X23.799 I-1.575 J0.
N525 X27.149 I1.675 J0.
N530 X23.599 I-1.775 J0.
N535 X27.349 I1.875 J0.
N540 X23.399 I-1.975 J0.
N545 X27.549 I2.075 J0.
N550 X23.199 I-2.175 J0.
N555 X27.749 I2.275 J0.
N560 X22.999 I-2.375 J0.
N565 X27.949 I2.475 J0.
N570 X22.799 I-2.575 J0.
N575 X28.149 I2.675 J0.
N580 X22.599 I-2.775 J0.
N585 X28.349 I2.875 J0.
N590 X22.399 I-2.975 J0.
N595 X28.549 I3.075 J0.
N600 X22.199 I-3.175 J0.
N605 X28.749 I3.275 J0.
N610 X21.999 I-3.375 J0.
N615 X28.949 I3.475 J0.
N620 X21.799 I-3.575 J0.
N625 X29.149 I3.675 J0.
N630 X21.599 I-3.775 J0.
N635 X29.349 I3.875 J0.
N640 X21.399 I-3.975 J0.
N645 X29.549 I4.075 J0.
N650 X21.199 I-4.175 J0.
N655 X29.749 I4.275 J0.
N660 X20.999 I-4.375 J0.
N665 X29.949 I4.475 J0.
N670 X20.799 I-4.575 J0.
N675 X30.149 I4.675 J0.
N680 X20.599 I-4.775 J0.
N685 X30.349 I4.875 J0.
N690 X20.399 I-4.975 J0.
N695 X30.549 I5.075 J0.
N700 X20.199 I-5.175 J0.
N705 X30.749 I5.275 J0.
N710 X19.999 I-5.375 J0.
N715 X30.949 I5.475 J0.
N720 X19.799 I-5.575 J0.
N725 X31.149 I5.675 J0.
N730 X19.599 I-5.775 J0.
N735 X31.349 I5.875 J0.
N740 X19.399 I-5.975 J0.
N745 X31.549 I6.075 J0.
N750 X19.199 I-6.175 J0.
N755 X31.749 I6.275 J0.
N760 X18.999 I-6.375 J0.
N765 X31.949 I6.475 J0.
N770 X18.799 I-6.575 J0.
N775 X32.149 I6.675 J0.
N780 X18.599 I-6.775 J0.
N785 X32.349 I6.875 J0.
N790 X18.399 I-6.975 J0.
N795 X32.549 I7.075 J0.
N800 X18.199 I-7.175 J0.
N805 X32.749 I7.275 J0.
N810 X17.999 I-7.375 J0.
N815 X32.949 I7.475 J0.
N820 X17.799 I-7.575 J0.
N825 X33.149 I7.675 J0.
N830 X17.599 I-7.775 J0.
N835 X33.349 I7.875 J0.
N840 X17.399 I-7.975 J0.
N845 X33.549 I8.075 J0.
N850 X17.199 I-8.175 J0.
N855 X33.749 I8.275 J0.
N860 X16.999 I-8.375 J0.
N865 X33.949 I8.475 J0.
N870 X16.799 I-8.575 J0.
N875 X34.149 I8.675 J0.
N880 X16.599 I-8.775 J0.
N885 X34.349 I8.875 J0.
N890 X16.399 I-8.975 J0.
N895 X34.549 I9.075 J0.
N900 X16.199 I-9.175 J0.
N905 X34.749 I9.275 J0.
N910 X15.999 I-9.375 J0.
N915 X34.949 I9.475 J0.
N920 X15.799 I-9.575 J0.
N925 X35.149 I9.675 J0.
N930 X15.599 I-9.775 J0.
N935 X35.349 I9.875 J0.
N940 X15.399 I-9.975 J0.
N945 X35.349 I9.975 J0.
N950 X35.334 Y-14.845 Z-23.985 I-0.8 J0. F#104
N955 X35.291 Y-14.701 Z-23.939 I-0.785 J-0.155
N960 X35.228 Y-14.578 Z-23.865 I-0.742 J-0.299
N965 X35.157 Y-14.48 Z-23.766 I-0.68 J-0.422
N970 X35.088 Y-14.409 Z-23.644 I-0.608 J-0.52
N975 X35.031 Y-14.362 Z-23.506 I-0.539 J-0.591
N980 X34.994 Y-14.335 Z-23.356 I-0.482 J-0.638
N985 X34.981 Y-14.327 Z-23.2 I-0.445 J-0.665
N990 G0 Z6.
(2D CONTOUR1)
N1000 M9
N1005 G0 X32.999 Y-15.8
N1010 #102=600. (FINISH)
N1015 #103=1000. (ENTRY)
N1020 #104=1000. (EXIT)
N1025 #108=333. (PLUNGE)
N1030 Z6.
N1035 Z3.
N1040 G1 Z1. F#103
N1045 Z-23.2 F#108
N1050 G18 G2 X33.799 Z-24. I0.8 K0.
N1055 G1 X34.599 F#103
N1060 G17 G3 X35.399 Y-15. I0. J0.8
N1065 X15.349 I-10.025 J0. F#102
N1070 X35.399 I10.025 J0.
N1075 X34.599 Y-14.2 I-0.8 J0. F#104
N1080 G1 X33.799
N1085 G18 G3 X32.999 Z-23.2 I0. K0.8
N1090 G0 Z6.
N1095 G17
N1100 M9
N1105 G53 G0 Z0.
N1110 M30
%
