%
(1)
(T13  D=5.95 CR=0. - ZMIN=-5. - FLAT END MILL)
N10 G90 G94 G17 G91.1
N15 G21
N20 G53 G0 Z0.
(2D POCKET4)
N25 M9
N30 T13 M6
N35 S4000 M3
N40 G54
N45 M8
N55 G0 X4.495 Y-14.245
N60 G43 Z6. H13
N65 #100=1000. (CUTTING)
N70 #103=1000. (ENTRY)
N75 #104=1000. (EXIT)
N80 #107=800. (RAMPING)
N85 G0 Z3.095
N90 G3 X4.499 Y-14.272 Z2.915 I1.505 J0.245 F#107
N95 X4.516 Y-14.351 Z2.752 I1.501 J0.272
N100 X4.55 Y-14.473 Z2.621 I1.484 J0.351
N105 X4.608 Y-14.622 Z2.534 I1.45 J0.473
N110 X4.69 Y-14.781 Z2.5 I1.392 J0.622
N115 X7.31 Y-13.219 Z2.333 I1.31 J0.781
N120 X4.69 Y-14.781 Z2.165 I-1.31 J-0.781
N125 X7.31 Y-13.219 Z1.998 I1.31 J0.781
N130 X4.69 Y-14.781 Z1.831 I-1.31 J-0.781
N135 X7.31 Y-13.219 Z1.663 I1.31 J0.781
N140 X4.69 Y-14.781 Z1.496 I-1.31 J-0.781
N145 X7.31 Y-13.219 Z1.329 I1.31 J0.781
N150 X4.69 Y-14.781 Z1.162 I-1.31 J-0.781
N155 X7.31 Y-13.219 Z0.994 I1.31 J0.781
N160 X4.69 Y-14.781 Z0.827 I-1.31 J-0.781
N165 X7.31 Y-13.219 Z0.66 I1.31 J0.781
N170 X4.69 Y-14.781 Z0.492 I-1.31 J-0.781
N175 X7.31 Y-13.219 Z0.325 I1.31 J0.781
N180 X4.69 Y-14.781 Z0.158 I-1.31 J-0.781
N185 X7.31 Y-13.219 Z-0.01 I1.31 J0.781
N190 X4.69 Y-14.781 Z-0.177 I-1.31 J-0.781
N195 X7.31 Y-13.219 Z-0.344 I1.31 J0.781
N200 X4.69 Y-14.781 Z-0.511 I-1.31 J-0.781
N205 X7.31 Y-13.219 Z-0.679 I1.31 J0.781
N210 X4.69 Y-14.781 Z-0.846 I-1.31 J-0.781
N215 X7.31 Y-13.219 Z-1.013 I1.31 J0.781
N220 X4.69 Y-14.781 Z-1.181 I-1.31 J-0.781
N225 X7.31 Y-13.219 Z-1.348 I1.31 J0.781
N230 X4.69 Y-14.781 Z-1.515 I-1.31 J-0.781
N235 X7.31 Y-13.219 Z-1.683 I1.31 J0.781
N240 X4.69 Y-14.781 Z-1.85 I-1.31 J-0.781
N245 X7.31 Y-13.219 Z-2.017 I1.31 J0.781
N250 X4.69 Y-14.781 Z-2.184 I-1.31 J-0.781
N255 X7.31 Y-13.219 Z-2.352 I1.31 J0.781
N260 X4.69 Y-14.781 Z-2.519 I-1.31 J-0.781
N265 X7.31 Y-13.219 Z-2.686 I1.31 J0.781
N270 X4.69 Y-14.781 Z-2.854 I-1.31 J-0.781
N275 X7.31 Y-13.219 Z-3.021 I1.31 J0.781
N280 X4.69 Y-14.781 Z-3.188 I-1.31 J-0.781
N285 X7.31 Y-13.219 Z-3.356 I1.31 J0.781
N290 X4.69 Y-14.781 Z-3.523 I-1.31 J-0.781
N295 X7.31 Y-13.219 Z-3.69 I1.31 J0.781
N300 X4.69 Y-14.781 Z-3.858 I-1.31 J-0.781
N305 X7.31 Y-13.219 Z-4.025 I1.31 J0.781
N310 X4.69 Y-14.781 Z-4.192 I-1.31 J-0.781
N315 X7.31 Y-13.219 Z-4.359 I1.31 J0.781
N320 X4.69 Y-14.781 Z-4.527 I-1.31 J-0.781
N325 X7.31 Y-13.219 Z-4.694 I1.31 J0.781
N330 X4.69 Y-14.781 Z-4.861 I-1.31 J-0.781
N335 X7.525 Y-14. Z-5. I1.31 J0.781
N340 X6.075 I-0.725 J0.
N345 X6.125 I0.025 J0. F#100
N350 X5.875 I-0.125 J0.
N355 X6.325 I0.225 J0.
N360 X5.675 I-0.325 J0.
N365 X6.525 I0.425 J0.
N370 X5.475 I-0.525 J0.
N375 X6.725 I0.625 J0.
N380 X5.275 I-0.725 J0.
N385 X6.925 I0.825 J0.
N390 X5.075 I-0.925 J0.
N395 X7.125 I1.025 J0.
N400 X4.875 I-1.125 J0.
N405 X7.325 I1.225 J0.
N410 X4.675 I-1.325 J0.
N415 X7.525 I1.425 J0.
N420 X4.475 I-1.525 J0.
N425 X7.525 I1.525 J0.
N430 X7.497 Y-13.819 Z-4.971 I-0.595 J0. F#104
N435 X7.425 Y-13.67 Z-4.886 I-0.567 J-0.181
N440 X7.341 Y-13.569 Z-4.755 I-0.495 J-0.33
N445 X7.276 Y-13.516 Z-4.589 I-0.411 J-0.431
N450 X7.251 Y-13.499 Z-4.405 I-0.346 J-0.484
N455 G0 Z3.095
N460 X4.495 Y-29.245
N465 G3 X4.499 Y-29.272 Z2.915 I1.505 J0.245 F#107
N470 X4.516 Y-29.351 Z2.752 I1.501 J0.272
N475 X4.55 Y-29.473 Z2.621 I1.484 J0.351
N480 X4.608 Y-29.622 Z2.534 I1.45 J0.473
N485 X4.69 Y-29.781 Z2.5 I1.392 J0.622
N490 X7.31 Y-28.219 Z2.333 I1.31 J0.781
N495 X4.69 Y-29.781 Z2.165 I-1.31 J-0.781
N500 X7.31 Y-28.219 Z1.998 I1.31 J0.781
N505 X4.69 Y-29.781 Z1.831 I-1.31 J-0.781
N510 X7.31 Y-28.219 Z1.663 I1.31 J0.781
N515 X4.69 Y-29.781 Z1.496 I-1.31 J-0.781
N520 X7.31 Y-28.219 Z1.329 I1.31 J0.781
N525 X4.69 Y-29.781 Z1.162 I-1.31 J-0.781
N530 X7.31 Y-28.219 Z0.994 I1.31 J0.781
N535 X4.69 Y-29.781 Z0.827 I-1.31 J-0.781
N540 X7.31 Y-28.219 Z0.66 I1.31 J0.781
N545 X4.69 Y-29.781 Z0.492 I-1.31 J-0.781
N550 X7.31 Y-28.219 Z0.325 I1.31 J0.781
N555 X4.69 Y-29.781 Z0.158 I-1.31 J-0.781
N560 X7.31 Y-28.219 Z-0.01 I1.31 J0.781
N565 X4.69 Y-29.781 Z-0.177 I-1.31 J-0.781
N570 X7.31 Y-28.219 Z-0.344 I1.31 J0.781
N575 X4.69 Y-29.781 Z-0.511 I-1.31 J-0.781
N580 X7.31 Y-28.219 Z-0.679 I1.31 J0.781
N585 X4.69 Y-29.781 Z-0.846 I-1.31 J-0.781
N590 X7.31 Y-28.219 Z-1.013 I1.31 J0.781
N595 X4.69 Y-29.781 Z-1.181 I-1.31 J-0.781
N600 X7.31 Y-28.219 Z-1.348 I1.31 J0.781
N605 X4.69 Y-29.781 Z-1.515 I-1.31 J-0.781
N610 X7.31 Y-28.219 Z-1.683 I1.31 J0.781
N615 X4.69 Y-29.781 Z-1.85 I-1.31 J-0.781
N620 X7.31 Y-28.219 Z-2.017 I1.31 J0.781
N625 X4.69 Y-29.781 Z-2.184 I-1.31 J-0.781
N630 X7.31 Y-28.219 Z-2.352 I1.31 J0.781
N635 X4.69 Y-29.781 Z-2.519 I-1.31 J-0.781
N640 X7.31 Y-28.219 Z-2.686 I1.31 J0.781
N645 X4.69 Y-29.781 Z-2.854 I-1.31 J-0.781
N650 X7.31 Y-28.219 Z-3.021 I1.31 J0.781
N655 X4.69 Y-29.781 Z-3.188 I-1.31 J-0.781
N660 X7.31 Y-28.219 Z-3.356 I1.31 J0.781
N665 X4.69 Y-29.781 Z-3.523 I-1.31 J-0.781
N670 X7.31 Y-28.219 Z-3.69 I1.31 J0.781
N675 X4.69 Y-29.781 Z-3.858 I-1.31 J-0.781
N680 X7.31 Y-28.219 Z-4.025 I1.31 J0.781
N685 X4.69 Y-29.781 Z-4.192 I-1.31 J-0.781
N690 X7.31 Y-28.219 Z-4.359 I1.31 J0.781
N695 X4.69 Y-29.781 Z-4.527 I-1.31 J-0.781
N700 X7.31 Y-28.219 Z-4.694 I1.31 J0.781
N705 X4.69 Y-29.781 Z-4.861 I-1.31 J-0.781
N710 X7.525 Y-29. Z-5. I1.31 J0.781
N715 X6.075 I-0.725 J0.
N720 X6.125 I0.025 J0. F#100
N725 X5.875 I-0.125 J0.
N730 X6.325 I0.225 J0.
N735 X5.675 I-0.325 J0.
N740 X6.525 I0.425 J0.
N745 X5.475 I-0.525 J0.
N750 X6.725 I0.625 J0.
N755 X5.275 I-0.725 J0.
N760 X6.925 I0.825 J0.
N765 X5.075 I-0.925 J0.
N770 X7.125 I1.025 J0.
N775 X4.875 I-1.125 J0.
N780 X7.325 I1.225 J0.
N785 X4.675 I-1.325 J0.
N790 X7.525 I1.425 J0.
N795 X4.475 I-1.525 J0.
N800 X7.525 I1.525 J0.
N805 X7.497 Y-28.819 Z-4.971 I-0.595 J0. F#104
N810 X7.425 Y-28.67 Z-4.886 I-0.567 J-0.181
N815 X7.341 Y-28.569 Z-4.755 I-0.495 J-0.33
N820 X7.276 Y-28.516 Z-4.589 I-0.411 J-0.431
N825 X7.251 Y-28.499 Z-4.405 I-0.346 J-0.484
N830 G0 Z3.095
N835 X42.495 Y-29.245
N840 G3 X42.499 Y-29.272 Z2.915 I1.505 J0.245 F#107
N845 X42.516 Y-29.351 Z2.752 I1.501 J0.272
N850 X42.55 Y-29.473 Z2.621 I1.484 J0.351
N855 X42.608 Y-29.622 Z2.534 I1.45 J0.473
N860 X42.69 Y-29.781 Z2.5 I1.392 J0.622
N865 X45.31 Y-28.219 Z2.333 I1.31 J0.781
N870 X42.69 Y-29.781 Z2.165 I-1.31 J-0.781
N875 X45.31 Y-28.219 Z1.998 I1.31 J0.781
N880 X42.69 Y-29.781 Z1.831 I-1.31 J-0.781
N885 X45.31 Y-28.219 Z1.663 I1.31 J0.781
N890 X42.69 Y-29.781 Z1.496 I-1.31 J-0.781
N895 X45.31 Y-28.219 Z1.329 I1.31 J0.781
N900 X42.69 Y-29.781 Z1.162 I-1.31 J-0.781
N905 X45.31 Y-28.219 Z0.994 I1.31 J0.781
N910 X42.69 Y-29.781 Z0.827 I-1.31 J-0.781
N915 X45.31 Y-28.219 Z0.66 I1.31 J0.781
N920 X42.69 Y-29.781 Z0.492 I-1.31 J-0.781
N925 X45.31 Y-28.219 Z0.325 I1.31 J0.781
N930 X42.69 Y-29.781 Z0.158 I-1.31 J-0.781
N935 X45.31 Y-28.219 Z-0.01 I1.31 J0.781
N940 X42.69 Y-29.781 Z-0.177 I-1.31 J-0.781
N945 X45.31 Y-28.219 Z-0.344 I1.31 J0.781
N950 X42.69 Y-29.781 Z-0.511 I-1.31 J-0.781
N955 X45.31 Y-28.219 Z-0.679 I1.31 J0.781
N960 X42.69 Y-29.781 Z-0.846 I-1.31 J-0.781
N965 X45.31 Y-28.219 Z-1.013 I1.31 J0.781
N970 X42.69 Y-29.781 Z-1.181 I-1.31 J-0.781
N975 X45.31 Y-28.219 Z-1.348 I1.31 J0.781
N980 X42.69 Y-29.781 Z-1.515 I-1.31 J-0.781
N985 X45.31 Y-28.219 Z-1.683 I1.31 J0.781
N990 X42.69 Y-29.781 Z-1.85 I-1.31 J-0.781
N995 X45.31 Y-28.219 Z-2.017 I1.31 J0.781
N1000 X42.69 Y-29.781 Z-2.184 I-1.31 J-0.781
N1005 X45.31 Y-28.219 Z-2.352 I1.31 J0.781
N1010 X42.69 Y-29.781 Z-2.519 I-1.31 J-0.781
N1015 X45.31 Y-28.219 Z-2.686 I1.31 J0.781
N1020 X42.69 Y-29.781 Z-2.854 I-1.31 J-0.781
N1025 X45.31 Y-28.219 Z-3.021 I1.31 J0.781
N1030 X42.69 Y-29.781 Z-3.188 I-1.31 J-0.781
N1035 X45.31 Y-28.219 Z-3.356 I1.31 J0.781
N1040 X42.69 Y-29.781 Z-3.523 I-1.31 J-0.781
N1045 X45.31 Y-28.219 Z-3.69 I1.31 J0.781
N1050 X42.69 Y-29.781 Z-3.858 I-1.31 J-0.781
N1055 X45.31 Y-28.219 Z-4.025 I1.31 J0.781
N1060 X42.69 Y-29.781 Z-4.192 I-1.31 J-0.781
N1065 X45.31 Y-28.219 Z-4.359 I1.31 J0.781
N1070 X42.69 Y-29.781 Z-4.527 I-1.31 J-0.781
N1075 X45.31 Y-28.219 Z-4.694 I1.31 J0.781
N1080 X42.69 Y-29.781 Z-4.861 I-1.31 J-0.781
N1085 X45.525 Y-29. Z-5. I1.31 J0.781
N1090 X44.075 I-0.725 J0.
N1095 X44.125 I0.025 J0. F#100
N1100 X43.875 I-0.125 J0.
N1105 X44.325 I0.225 J0.
N1110 X43.675 I-0.325 J0.
N1115 X44.525 I0.425 J0.
N1120 X43.475 I-0.525 J0.
N1125 X44.725 I0.625 J0.
N1130 X43.275 I-0.725 J0.
N1135 X44.925 I0.825 J0.
N1140 X43.075 I-0.925 J0.
N1145 X45.125 I1.025 J0.
N1150 X42.875 I-1.125 J0.
N1155 X45.325 I1.225 J0.
N1160 X42.675 I-1.325 J0.
N1165 X45.525 I1.425 J0.
N1170 X42.475 I-1.525 J0.
N1175 X45.525 I1.525 J0.
N1180 X45.497 Y-28.819 Z-4.971 I-0.595 J0. F#104
N1185 X45.425 Y-28.67 Z-4.886 I-0.567 J-0.181
N1190 X45.341 Y-28.569 Z-4.755 I-0.495 J-0.33
N1195 X45.276 Y-28.516 Z-4.589 I-0.411 J-0.431
N1200 X45.251 Y-28.499 Z-4.405 I-0.346 J-0.484
N1205 G0 Z3.095
N1210 X42.495 Y-14.245
N1215 G3 X42.499 Y-14.272 Z2.915 I1.505 J0.245 F#107
N1220 X42.516 Y-14.351 Z2.752 I1.501 J0.272
N1225 X42.55 Y-14.473 Z2.621 I1.484 J0.351
N1230 X42.608 Y-14.622 Z2.534 I1.45 J0.473
N1235 X42.69 Y-14.781 Z2.5 I1.392 J0.622
N1240 X45.31 Y-13.219 Z2.333 I1.31 J0.781
N1245 X42.69 Y-14.781 Z2.165 I-1.31 J-0.781
N1250 X45.31 Y-13.219 Z1.998 I1.31 J0.781
N1255 X42.69 Y-14.781 Z1.831 I-1.31 J-0.781
N1260 X45.31 Y-13.219 Z1.663 I1.31 J0.781
N1265 X42.69 Y-14.781 Z1.496 I-1.31 J-0.781
N1270 X45.31 Y-13.219 Z1.329 I1.31 J0.781
N1275 X42.69 Y-14.781 Z1.162 I-1.31 J-0.781
N1280 X45.31 Y-13.219 Z0.994 I1.31 J0.781
N1285 X42.69 Y-14.781 Z0.827 I-1.31 J-0.781
N1290 X45.31 Y-13.219 Z0.66 I1.31 J0.781
N1295 X42.69 Y-14.781 Z0.492 I-1.31 J-0.781
N1300 X45.31 Y-13.219 Z0.325 I1.31 J0.781
N1305 X42.69 Y-14.781 Z0.158 I-1.31 J-0.781
N1310 X45.31 Y-13.219 Z-0.01 I1.31 J0.781
N1315 X42.69 Y-14.781 Z-0.177 I-1.31 J-0.781
N1320 X45.31 Y-13.219 Z-0.344 I1.31 J0.781
N1325 X42.69 Y-14.781 Z-0.511 I-1.31 J-0.781
N1330 X45.31 Y-13.219 Z-0.679 I1.31 J0.781
N1335 X42.69 Y-14.781 Z-0.846 I-1.31 J-0.781
N1340 X45.31 Y-13.219 Z-1.013 I1.31 J0.781
N1345 X42.69 Y-14.781 Z-1.181 I-1.31 J-0.781
N1350 X45.31 Y-13.219 Z-1.348 I1.31 J0.781
N1355 X42.69 Y-14.781 Z-1.515 I-1.31 J-0.781
N1360 X45.31 Y-13.219 Z-1.683 I1.31 J0.781
N1365 X42.69 Y-14.781 Z-1.85 I-1.31 J-0.781
N1370 X45.31 Y-13.219 Z-2.017 I1.31 J0.781
N1375 X42.69 Y-14.781 Z-2.184 I-1.31 J-0.781
N1380 X45.31 Y-13.219 Z-2.352 I1.31 J0.781
N1385 X42.69 Y-14.781 Z-2.519 I-1.31 J-0.781
N1390 X45.31 Y-13.219 Z-2.686 I1.31 J0.781
N1395 X42.69 Y-14.781 Z-2.854 I-1.31 J-0.781
N1400 X45.31 Y-13.219 Z-3.021 I1.31 J0.781
N1405 X42.69 Y-14.781 Z-3.188 I-1.31 J-0.781
N1410 X45.31 Y-13.219 Z-3.356 I1.31 J0.781
N1415 X42.69 Y-14.781 Z-3.523 I-1.31 J-0.781
N1420 X45.31 Y-13.219 Z-3.69 I1.31 J0.781
N1425 X42.69 Y-14.781 Z-3.858 I-1.31 J-0.781
N1430 X45.31 Y-13.219 Z-4.025 I1.31 J0.781
N1435 X42.69 Y-14.781 Z-4.192 I-1.31 J-0.781
N1440 X45.31 Y-13.219 Z-4.359 I1.31 J0.781
N1445 X42.69 Y-14.781 Z-4.527 I-1.31 J-0.781
N1450 X45.31 Y-13.219 Z-4.694 I1.31 J0.781
N1455 X42.69 Y-14.781 Z-4.861 I-1.31 J-0.781
N1460 X45.525 Y-14. Z-5. I1.31 J0.781
N1465 X44.075 I-0.725 J0.
N1470 X44.125 I0.025 J0. F#100
N1475 X43.875 I-0.125 J0.
N1480 X44.325 I0.225 J0.
N1485 X43.675 I-0.325 J0.
N1490 X44.525 I0.425 J0.
N1495 X43.475 I-0.525 J0.
N1500 X44.725 I0.625 J0.
N1505 X43.275 I-0.725 J0.
N1510 X44.925 I0.825 J0.
N1515 X43.075 I-0.925 J0.
N1520 X45.125 I1.025 J0.
N1525 X42.875 I-1.125 J0.
N1530 X45.325 I1.225 J0.
N1535 X42.675 I-1.325 J0.
N1540 X45.525 I1.425 J0.
N1545 X42.475 I-1.525 J0.
N1550 X45.525 I1.525 J0.
N1555 X45.497 Y-13.819 Z-4.971 I-0.595 J0. F#104
N1560 X45.425 Y-13.67 Z-4.886 I-0.567 J-0.181
N1565 X45.341 Y-13.569 Z-4.755 I-0.495 J-0.33
N1570 X45.276 Y-13.516 Z-4.589 I-0.411 J-0.431
N1575 X45.251 Y-13.499 Z-4.405 I-0.346 J-0.484
N1580 G0 Z6.
N1590 M9
N1595 G53 Z0.
N1600 M30
%
