%
(1)
(T10  D=10. CR=0. - ZMIN=-24. - FLAT END MILL)
N10 G90 G94 G17 G91.1
N15 G21
N20 G53 G0 Z0.
(2D POCKET3)
N25 M9
N30 T10 M6
N35 S3000 M3
N40 G54
N45 M8
N55 G0 X34.276 Y-15.773
N60 G43 Z11. H10
N65 #100=900. (CUTTING)
N70 #103=800. (ENTRY)
N75 #104=900. (EXIT)
N80 #107=700. (RAMPING)
N85 G1 Z3.499 F#103
N90 S2700
N95 G3 X34.279 Y-15.755 Z3.308 I-4.687 J0.773 F#107
N100 X34.287 Y-15.701 Z3.124 I-4.69 J0.755
N105 X34.299 Y-15.613 Z2.954 I-4.698 J0.701
N110 X34.313 Y-15.494 Z2.804 I-4.71 J0.613
N115 X34.326 Y-15.349 Z2.68 I-4.724 J0.494
N120 X34.336 Y-15.182 Z2.585 I-4.737 J0.349
N125 X34.339 Y-15. Z2.525 I-4.747 J0.182
N130 X34.335 Y-14.812 Z2.5 I-4.75 J0.
N135 X24.843 Y-15.188 Z1.979 I-4.746 J-0.188
N140 X34.335 Y-14.812 Z1.458 I4.746 J0.188
N145 X24.843 Y-15.188 Z0.937 I-4.746 J-0.188
N150 X34.335 Y-14.812 Z0.416 I4.746 J0.188
N155 X24.843 Y-15.188 Z-0.106 I-4.746 J-0.188
N160 X34.335 Y-14.812 Z-0.627 I4.746 J0.188
N165 X24.843 Y-15.188 Z-1.148 I-4.746 J-0.188
N170 X34.335 Y-14.812 Z-1.669 I4.746 J0.188
N175 X24.843 Y-15.188 Z-2.19 I-4.746 J-0.188
N180 X34.335 Y-14.812 Z-2.711 I4.746 J0.188
N185 X24.843 Y-15.188 Z-3.232 I-4.746 J-0.188
N190 X34.335 Y-14.812 Z-3.753 I4.746 J0.188
N195 X24.843 Y-15.188 Z-4.274 I-4.746 J-0.188
N200 X34.335 Y-14.812 Z-4.796 I4.746 J0.188
N205 X24.843 Y-15.188 Z-5.317 I-4.746 J-0.188
N210 X34.335 Y-14.812 Z-5.838 I4.746 J0.188
N215 X24.843 Y-15.188 Z-6.359 I-4.746 J-0.188
N220 X34.335 Y-14.812 Z-6.88 I4.746 J0.188
N225 X24.843 Y-15.188 Z-7.401 I-4.746 J-0.188
N230 X34.335 Y-14.812 Z-7.922 I4.746 J0.188
N235 X24.843 Y-15.188 Z-8.443 I-4.746 J-0.188
N240 X34.335 Y-14.812 Z-8.964 I4.746 J0.188
N245 X24.843 Y-15.188 Z-9.485 I-4.746 J-0.188
N250 X34.339 Y-15. Z-10. I4.746 J0.188
N255 X25.399 I-4.47 J0.
N260 S3000
N265 X25.449 I0.025 J0. F#100
N270 X25.299 I-0.075 J0.
N275 X25.549 I0.125 J0.
N280 X25.199 I-0.175 J0.
N285 X25.649 I0.225 J0.
N290 X25.099 I-0.275 J0.
N295 X25.749 I0.325 J0.
N300 X24.999 I-0.375 J0.
N305 X25.849 I0.425 J0.
N310 X24.899 I-0.475 J0.
N315 X25.949 I0.525 J0.
N320 X24.799 I-0.575 J0.
N325 X26.049 I0.625 J0.
N330 X24.699 I-0.675 J0.
N335 X26.149 I0.725 J0.
N340 X24.599 I-0.775 J0.
N345 X26.249 I0.825 J0.
N350 X24.499 I-0.875 J0.
N355 X26.349 I0.925 J0.
N360 X24.399 I-0.975 J0.
N365 X26.449 I1.025 J0.
N370 X24.299 I-1.075 J0.
N375 X26.549 I1.125 J0.
N380 X24.199 I-1.175 J0.
N385 X26.649 I1.225 J0.
N390 X24.099 I-1.275 J0.
N395 X26.749 I1.325 J0.
N400 X23.999 I-1.375 J0.
N405 X26.849 I1.425 J0.
N410 X23.899 I-1.475 J0.
N415 X26.949 I1.525 J0.
N420 X23.799 I-1.575 J0.
N425 X27.049 I1.625 J0.
N430 X23.699 I-1.675 J0.
N435 X27.149 I1.725 J0.
N440 X23.599 I-1.775 J0.
N445 X27.249 I1.825 J0.
N450 X23.499 I-1.875 J0.
N455 X27.349 I1.925 J0.
N460 X23.399 I-1.975 J0.
N465 X27.449 I2.025 J0.
N470 X23.299 I-2.075 J0.
N475 X27.549 I2.125 J0.
N480 X23.199 I-2.175 J0.
N485 X27.649 I2.225 J0.
N490 X23.099 I-2.275 J0.
N495 X27.749 I2.325 J0.
N500 X22.999 I-2.375 J0.
N505 X27.849 I2.425 J0.
N510 X22.899 I-2.475 J0.
N515 X27.949 I2.525 J0.
N520 X22.799 I-2.575 J0.
N525 X28.049 I2.625 J0.
N530 X22.699 I-2.675 J0.
N535 X28.149 I2.725 J0.
N540 X22.599 I-2.775 J0.
N545 X28.249 I2.825 J0.
N550 X22.499 I-2.875 J0.
N555 X28.349 I2.925 J0.
N560 X22.399 I-2.975 J0.
N565 X28.449 I3.025 J0.
N570 X22.299 I-3.075 J0.
N575 X28.549 I3.125 J0.
N580 X22.199 I-3.175 J0.
N585 X28.649 I3.225 J0.
N590 X22.099 I-3.275 J0.
N595 X28.749 I3.325 J0.
N600 X21.999 I-3.375 J0.
N605 X28.849 I3.425 J0.
N610 X21.899 I-3.475 J0.
N615 X28.949 I3.525 J0.
N620 X21.799 I-3.575 J0.
N625 X29.049 I3.625 J0.
N630 X21.699 I-3.675 J0.
N635 X29.149 I3.725 J0.
N640 X21.599 I-3.775 J0.
N645 X29.249 I3.825 J0.
N650 X21.499 I-3.875 J0.
N655 X29.349 I3.925 J0.
N660 X21.399 I-3.975 J0.
N665 X29.449 I4.025 J0.
N670 X21.299 I-4.075 J0.
N675 X29.549 I4.125 J0.
N680 X21.199 I-4.175 J0.
N685 X29.649 I4.225 J0.
N690 X21.099 I-4.275 J0.
N695 X29.749 I4.325 J0.
N700 X20.999 I-4.375 J0.
N705 X29.849 I4.425 J0.
N710 X20.899 I-4.475 J0.
N715 X29.949 I4.525 J0.
N720 X20.799 I-4.575 J0.
N725 X30.049 I4.625 J0.
N730 X20.699 I-4.675 J0.
N735 X30.149 I4.725 J0.
N740 X20.599 I-4.775 J0.
N745 X30.249 I4.825 J0.
N750 X20.499 I-4.875 J0.
N755 X30.349 I4.925 J0.
N760 X20.399 I-4.975 J0.
N765 X30.449 I5.025 J0.
N770 X20.299 I-5.075 J0.
N775 X30.549 I5.125 J0.
N780 X20.199 I-5.175 J0.
N785 X30.649 I5.225 J0.
N790 X20.099 I-5.275 J0.
N795 X30.749 I5.325 J0.
N800 X19.999 I-5.375 J0.
N805 X30.849 I5.425 J0.
N810 X19.899 I-5.475 J0.
N815 X30.949 I5.525 J0.
N820 X19.799 I-5.575 J0.
N825 X31.049 I5.625 J0.
N830 X19.699 I-5.675 J0.
N835 X31.149 I5.725 J0.
N840 X19.599 I-5.775 J0.
N845 X31.249 I5.825 J0.
N850 X19.499 I-5.875 J0.
N855 X31.349 I5.925 J0.
N860 X19.399 I-5.975 J0.
N865 X31.449 I6.025 J0.
N870 X19.299 I-6.075 J0.
N875 X31.549 I6.125 J0.
N880 X19.199 I-6.175 J0.
N885 X31.649 I6.225 J0.
N890 X19.099 I-6.275 J0.
N895 X31.749 I6.325 J0.
N900 X18.999 I-6.375 J0.
N905 X31.849 I6.425 J0.
N910 X18.899 I-6.475 J0.
N915 X31.949 I6.525 J0.
N920 X18.799 I-6.575 J0.
N925 X32.049 I6.625 J0.
N930 X18.699 I-6.675 J0.
N935 X32.149 I6.725 J0.
N940 X18.599 I-6.775 J0.
N945 X32.249 I6.825 J0.
N950 X18.499 I-6.875 J0.
N955 X32.349 I6.925 J0.
N960 X18.399 I-6.975 J0.
N965 X32.449 I7.025 J0.
N970 X18.299 I-7.075 J0.
N975 X32.549 I7.125 J0.
N980 X18.199 I-7.175 J0.
N985 X32.649 I7.225 J0.
N990 X18.099 I-7.275 J0.
N995 X32.749 I7.325 J0.
N1000 X17.999 I-7.375 J0.
N1005 X32.849 I7.425 J0.
N1010 X17.899 I-7.475 J0.
N1015 X32.949 I7.525 J0.
N1020 X17.799 I-7.575 J0.
N1025 X33.049 I7.625 J0.
N1030 X17.699 I-7.675 J0.
N1035 X33.149 I7.725 J0.
N1040 X17.599 I-7.775 J0.
N1045 X33.249 I7.825 J0.
N1050 X17.499 I-7.875 J0.
N1055 X33.349 I7.925 J0.
N1060 X17.399 I-7.975 J0.
N1065 X33.449 I8.025 J0.
N1070 X17.299 I-8.075 J0.
N1075 X33.549 I8.125 J0.
N1080 X17.199 I-8.175 J0.
N1085 X33.649 I8.225 J0.
N1090 X17.099 I-8.275 J0.
N1095 X33.749 I8.325 J0.
N1100 X16.999 I-8.375 J0.
N1105 X33.849 I8.425 J0.
N1110 X16.899 I-8.475 J0.
N1115 X33.949 I8.525 J0.
N1120 X16.799 I-8.575 J0.
N1125 X34.049 I8.625 J0.
N1130 X16.699 I-8.675 J0.
N1135 X34.149 I8.725 J0.
N1140 X16.599 I-8.775 J0.
N1145 X34.249 I8.825 J0.
N1150 X16.499 I-8.875 J0.
N1155 X34.349 I8.925 J0.
N1160 X16.399 I-8.975 J0.
N1165 X34.349 I8.975 J0.
N1170 X33.996 Y-14.522 I-0.5 J0.
N1175 G1 X26.22 Y-12.134
N1180 G3 X25.66 Y-12.331 I-0.147 J-0.478
N1185 S2700
N1190 X33.519 Y-17.669 Z-10.521 I3.929 J-2.669 F#107
N1195 X25.66 Y-12.331 Z-11.042 I-3.929 J2.669
N1200 X33.519 Y-17.669 Z-11.563 I3.929 J-2.669
N1205 X25.66 Y-12.331 Z-12.084 I-3.929 J2.669
N1210 X33.519 Y-17.669 Z-12.606 I3.929 J-2.669
N1215 X25.66 Y-12.331 Z-13.127 I-3.929 J2.669
N1220 X33.519 Y-17.669 Z-13.648 I3.929 J-2.669
N1225 X25.66 Y-12.331 Z-14.169 I-3.929 J2.669
N1230 X33.519 Y-17.669 Z-14.69 I3.929 J-2.669
N1235 X25.66 Y-12.331 Z-15.211 I-3.929 J2.669
N1240 X33.519 Y-17.669 Z-15.732 I3.929 J-2.669
N1245 X25.66 Y-12.331 Z-16.253 I-3.929 J2.669
N1250 X33.519 Y-17.669 Z-16.774 I3.929 J-2.669
N1255 X25.66 Y-12.331 Z-17.296 I-3.929 J2.669
N1260 X33.519 Y-17.669 Z-17.817 I3.929 J-2.669
N1265 X25.66 Y-12.331 Z-18.338 I-3.929 J2.669
N1270 X33.519 Y-17.669 Z-18.859 I3.929 J-2.669
N1275 X25.66 Y-12.331 Z-19.38 I-3.929 J2.669
N1280 X33.519 Y-17.669 Z-19.901 I3.929 J-2.669
N1285 X34.339 Y-15. Z-20. I-3.929 J2.669
N1290 X25.399 I-4.47 J0.
N1295 S3000
N1300 X25.449 I0.025 J0. F#100
N1305 X25.299 I-0.075 J0.
N1310 X25.549 I0.125 J0.
N1315 X25.199 I-0.175 J0.
N1320 X25.649 I0.225 J0.
N1325 X25.099 I-0.275 J0.
N1330 X25.749 I0.325 J0.
N1335 X24.999 I-0.375 J0.
N1340 X25.849 I0.425 J0.
N1345 X24.899 I-0.475 J0.
N1350 X25.949 I0.525 J0.
N1355 X24.799 I-0.575 J0.
N1360 X26.049 I0.625 J0.
N1365 X24.699 I-0.675 J0.
N1370 X26.149 I0.725 J0.
N1375 X24.599 I-0.775 J0.
N1380 X26.249 I0.825 J0.
N1385 X24.499 I-0.875 J0.
N1390 X26.349 I0.925 J0.
N1395 X24.399 I-0.975 J0.
N1400 X26.449 I1.025 J0.
N1405 X24.299 I-1.075 J0.
N1410 X26.549 I1.125 J0.
N1415 X24.199 I-1.175 J0.
N1420 X26.649 I1.225 J0.
N1425 X24.099 I-1.275 J0.
N1430 X26.749 I1.325 J0.
N1435 X23.999 I-1.375 J0.
N1440 X26.849 I1.425 J0.
N1445 X23.899 I-1.475 J0.
N1450 X26.949 I1.525 J0.
N1455 X23.799 I-1.575 J0.
N1460 X27.049 I1.625 J0.
N1465 X23.699 I-1.675 J0.
N1470 X27.149 I1.725 J0.
N1475 X23.599 I-1.775 J0.
N1480 X27.249 I1.825 J0.
N1485 X23.499 I-1.875 J0.
N1490 X27.349 I1.925 J0.
N1495 X23.399 I-1.975 J0.
N1500 X27.449 I2.025 J0.
N1505 X23.299 I-2.075 J0.
N1510 X27.549 I2.125 J0.
N1515 X23.199 I-2.175 J0.
N1520 X27.649 I2.225 J0.
N1525 X23.099 I-2.275 J0.
N1530 X27.749 I2.325 J0.
N1535 X22.999 I-2.375 J0.
N1540 X27.849 I2.425 J0.
N1545 X22.899 I-2.475 J0.
N1550 X27.949 I2.525 J0.
N1555 X22.799 I-2.575 J0.
N1560 X28.049 I2.625 J0.
N1565 X22.699 I-2.675 J0.
N1570 X28.149 I2.725 J0.
N1575 X22.599 I-2.775 J0.
N1580 X28.249 I2.825 J0.
N1585 X22.499 I-2.875 J0.
N1590 X28.349 I2.925 J0.
N1595 X22.399 I-2.975 J0.
N1600 X28.449 I3.025 J0.
N1605 X22.299 I-3.075 J0.
N1610 X28.549 I3.125 J0.
N1615 X22.199 I-3.175 J0.
N1620 X28.649 I3.225 J0.
N1625 X22.099 I-3.275 J0.
N1630 X28.749 I3.325 J0.
N1635 X21.999 I-3.375 J0.
N1640 X28.849 I3.425 J0.
N1645 X21.899 I-3.475 J0.
N1650 X28.949 I3.525 J0.
N1655 X21.799 I-3.575 J0.
N1660 X29.049 I3.625 J0.
N1665 X21.699 I-3.675 J0.
N1670 X29.149 I3.725 J0.
N1675 X21.599 I-3.775 J0.
N1680 X29.249 I3.825 J0.
N1685 X21.499 I-3.875 J0.
N1690 X29.349 I3.925 J0.
N1695 X21.399 I-3.975 J0.
N1700 X29.449 I4.025 J0.
N1705 X21.299 I-4.075 J0.
N1710 X29.549 I4.125 J0.
N1715 X21.199 I-4.175 J0.
N1720 X29.649 I4.225 J0.
N1725 X21.099 I-4.275 J0.
N1730 X29.749 I4.325 J0.
N1735 X20.999 I-4.375 J0.
N1740 X29.849 I4.425 J0.
N1745 X20.899 I-4.475 J0.
N1750 X29.949 I4.525 J0.
N1755 X20.799 I-4.575 J0.
N1760 X30.049 I4.625 J0.
N1765 X20.699 I-4.675 J0.
N1770 X30.149 I4.725 J0.
N1775 X20.599 I-4.775 J0.
N1780 X30.249 I4.825 J0.
N1785 X20.499 I-4.875 J0.
N1790 X30.349 I4.925 J0.
N1795 X20.399 I-4.975 J0.
N1800 X30.449 I5.025 J0.
N1805 X20.299 I-5.075 J0.
N1810 X30.549 I5.125 J0.
N1815 X20.199 I-5.175 J0.
N1820 X30.649 I5.225 J0.
N1825 X20.099 I-5.275 J0.
N1830 X30.749 I5.325 J0.
N1835 X19.999 I-5.375 J0.
N1840 X30.849 I5.425 J0.
N1845 X19.899 I-5.475 J0.
N1850 X30.949 I5.525 J0.
N1855 X19.799 I-5.575 J0.
N1860 X31.049 I5.625 J0.
N1865 X19.699 I-5.675 J0.
N1870 X31.149 I5.725 J0.
N1875 X19.599 I-5.775 J0.
N1880 X31.249 I5.825 J0.
N1885 X19.499 I-5.875 J0.
N1890 X31.349 I5.925 J0.
N1895 X19.399 I-5.975 J0.
N1900 X31.449 I6.025 J0.
N1905 X19.299 I-6.075 J0.
N1910 X31.549 I6.125 J0.
N1915 X19.199 I-6.175 J0.
N1920 X31.649 I6.225 J0.
N1925 X19.099 I-6.275 J0.
N1930 X31.749 I6.325 J0.
N1935 X18.999 I-6.375 J0.
N1940 X31.849 I6.425 J0.
N1945 X18.899 I-6.475 J0.
N1950 X31.949 I6.525 J0.
N1955 X18.799 I-6.575 J0.
N1960 X32.049 I6.625 J0.
N1965 X18.699 I-6.675 J0.
N1970 X32.149 I6.725 J0.
N1975 X18.599 I-6.775 J0.
N1980 X32.249 I6.825 J0.
N1985 X18.499 I-6.875 J0.
N1990 X32.349 I6.925 J0.
N1995 X18.399 I-6.975 J0.
N2000 X32.449 I7.025 J0.
N2005 X18.299 I-7.075 J0.
N2010 X32.549 I7.125 J0.
N2015 X18.199 I-7.175 J0.
N2020 X32.649 I7.225 J0.
N2025 X18.099 I-7.275 J0.
N2030 X32.749 I7.325 J0.
N2035 X17.999 I-7.375 J0.
N2040 X32.849 I7.425 J0.
N2045 X17.899 I-7.475 J0.
N2050 X32.949 I7.525 J0.
N2055 X17.799 I-7.575 J0.
N2060 X33.049 I7.625 J0.
N2065 X17.699 I-7.675 J0.
N2070 X33.149 I7.725 J0.
N2075 X17.599 I-7.775 J0.
N2080 X33.249 I7.825 J0.
N2085 X17.499 I-7.875 J0.
N2090 X33.349 I7.925 J0.
N2095 X17.399 I-7.975 J0.
N2100 X33.449 I8.025 J0.
N2105 X17.299 I-8.075 J0.
N2110 X33.549 I8.125 J0.
N2115 X17.199 I-8.175 J0.
N2120 X33.649 I8.225 J0.
N2125 X17.099 I-8.275 J0.
N2130 X33.749 I8.325 J0.
N2135 X16.999 I-8.375 J0.
N2140 X33.849 I8.425 J0.
N2145 X16.899 I-8.475 J0.
N2150 X33.949 I8.525 J0.
N2155 X16.799 I-8.575 J0.
N2160 X34.049 I8.625 J0.
N2165 X16.699 I-8.675 J0.
N2170 X34.149 I8.725 J0.
N2175 X16.599 I-8.775 J0.
N2180 X34.249 I8.825 J0.
N2185 X16.499 I-8.875 J0.
N2190 X34.349 I8.925 J0.
N2195 X16.399 I-8.975 J0.
N2200 X34.349 I8.975 J0.
N2205 X34.285 Y-14.755 I-0.5 J0.
N2210 G1 X32.257 Y-11.138
N2215 G3 X32.083 Y-10.957 I-0.436 J-0.245
N2220 S2700
N2225 X27.095 Y-19.043 Z-20.521 I-2.494 J-4.043 F#107
N2230 X32.083 Y-10.957 Z-21.042 I2.494 J4.043
N2235 X27.095 Y-19.043 Z-21.563 I-2.494 J-4.043
N2240 X32.083 Y-10.957 Z-22.084 I2.494 J4.043
N2245 X27.095 Y-19.043 Z-22.606 I-2.494 J-4.043
N2250 X32.083 Y-10.957 Z-23.127 I2.494 J4.043
N2255 X27.095 Y-19.043 Z-23.648 I-2.494 J-4.043
N2260 X34.339 Y-15. Z-24. I2.494 J4.043
N2265 X25.399 I-4.47 J0.
N2270 S3000
N2275 X25.449 I0.025 J0. F#100
N2280 X25.299 I-0.075 J0.
N2285 X25.549 I0.125 J0.
N2290 X25.199 I-0.175 J0.
N2295 X25.649 I0.225 J0.
N2300 X25.099 I-0.275 J0.
N2305 X25.749 I0.325 J0.
N2310 X24.999 I-0.375 J0.
N2315 X25.849 I0.425 J0.
N2320 X24.899 I-0.475 J0.
N2325 X25.949 I0.525 J0.
N2330 X24.799 I-0.575 J0.
N2335 X26.049 I0.625 J0.
N2340 X24.699 I-0.675 J0.
N2345 X26.149 I0.725 J0.
N2350 X24.599 I-0.775 J0.
N2355 X26.249 I0.825 J0.
N2360 X24.499 I-0.875 J0.
N2365 X26.349 I0.925 J0.
N2370 X24.399 I-0.975 J0.
N2375 X26.449 I1.025 J0.
N2380 X24.299 I-1.075 J0.
N2385 X26.549 I1.125 J0.
N2390 X24.199 I-1.175 J0.
N2395 X26.649 I1.225 J0.
N2400 X24.099 I-1.275 J0.
N2405 X26.749 I1.325 J0.
N2410 X23.999 I-1.375 J0.
N2415 X26.849 I1.425 J0.
N2420 X23.899 I-1.475 J0.
N2425 X26.949 I1.525 J0.
N2430 X23.799 I-1.575 J0.
N2435 X27.049 I1.625 J0.
N2440 X23.699 I-1.675 J0.
N2445 X27.149 I1.725 J0.
N2450 X23.599 I-1.775 J0.
N2455 X27.249 I1.825 J0.
N2460 X23.499 I-1.875 J0.
N2465 X27.349 I1.925 J0.
N2470 X23.399 I-1.975 J0.
N2475 X27.449 I2.025 J0.
N2480 X23.299 I-2.075 J0.
N2485 X27.549 I2.125 J0.
N2490 X23.199 I-2.175 J0.
N2495 X27.649 I2.225 J0.
N2500 X23.099 I-2.275 J0.
N2505 X27.749 I2.325 J0.
N2510 X22.999 I-2.375 J0.
N2515 X27.849 I2.425 J0.
N2520 X22.899 I-2.475 J0.
N2525 X27.949 I2.525 J0.
N2530 X22.799 I-2.575 J0.
N2535 X28.049 I2.625 J0.
N2540 X22.699 I-2.675 J0.
N2545 X28.149 I2.725 J0.
N2550 X22.599 I-2.775 J0.
N2555 X28.249 I2.825 J0.
N2560 X22.499 I-2.875 J0.
N2565 X28.349 I2.925 J0.
N2570 X22.399 I-2.975 J0.
N2575 X28.449 I3.025 J0.
N2580 X22.299 I-3.075 J0.
N2585 X28.549 I3.125 J0.
N2590 X22.199 I-3.175 J0.
N2595 X28.649 I3.225 J0.
N2600 X22.099 I-3.275 J0.
N2605 X28.749 I3.325 J0.
N2610 X21.999 I-3.375 J0.
N2615 X28.849 I3.425 J0.
N2620 X21.899 I-3.475 J0.
N2625 X28.949 I3.525 J0.
N2630 X21.799 I-3.575 J0.
N2635 X29.049 I3.625 J0.
N2640 X21.699 I-3.675 J0.
N2645 X29.149 I3.725 J0.
N2650 X21.599 I-3.775 J0.
N2655 X29.249 I3.825 J0.
N2660 X21.499 I-3.875 J0.
N2665 X29.349 I3.925 J0.
N2670 X21.399 I-3.975 J0.
N2675 X29.449 I4.025 J0.
N2680 X21.299 I-4.075 J0.
N2685 X29.549 I4.125 J0.
N2690 X21.199 I-4.175 J0.
N2695 X29.649 I4.225 J0.
N2700 X21.099 I-4.275 J0.
N2705 X29.749 I4.325 J0.
N2710 X20.999 I-4.375 J0.
N2715 X29.849 I4.425 J0.
N2720 X20.899 I-4.475 J0.
N2725 X29.949 I4.525 J0.
N2730 X20.799 I-4.575 J0.
N2735 X30.049 I4.625 J0.
N2740 X20.699 I-4.675 J0.
N2745 X30.149 I4.725 J0.
N2750 X20.599 I-4.775 J0.
N2755 X30.249 I4.825 J0.
N2760 X20.499 I-4.875 J0.
N2765 X30.349 I4.925 J0.
N2770 X20.399 I-4.975 J0.
N2775 X30.449 I5.025 J0.
N2780 X20.299 I-5.075 J0.
N2785 X30.549 I5.125 J0.
N2790 X20.199 I-5.175 J0.
N2795 X30.649 I5.225 J0.
N2800 X20.099 I-5.275 J0.
N2805 X30.749 I5.325 J0.
N2810 X19.999 I-5.375 J0.
N2815 X30.849 I5.425 J0.
N2820 X19.899 I-5.475 J0.
N2825 X30.949 I5.525 J0.
N2830 X19.799 I-5.575 J0.
N2835 X31.049 I5.625 J0.
N2840 X19.699 I-5.675 J0.
N2845 X31.149 I5.725 J0.
N2850 X19.599 I-5.775 J0.
N2855 X31.249 I5.825 J0.
N2860 X19.499 I-5.875 J0.
N2865 X31.349 I5.925 J0.
N2870 X19.399 I-5.975 J0.
N2875 X31.449 I6.025 J0.
N2880 X19.299 I-6.075 J0.
N2885 X31.549 I6.125 J0.
N2890 X19.199 I-6.175 J0.
N2895 X31.649 I6.225 J0.
N2900 X19.099 I-6.275 J0.
N2905 X31.749 I6.325 J0.
N2910 X18.999 I-6.375 J0.
N2915 X31.849 I6.425 J0.
N2920 X18.899 I-6.475 J0.
N2925 X31.949 I6.525 J0.
N2930 X18.799 I-6.575 J0.
N2935 X32.049 I6.625 J0.
N2940 X18.699 I-6.675 J0.
N2945 X32.149 I6.725 J0.
N2950 X18.599 I-6.775 J0.
N2955 X32.249 I6.825 J0.
N2960 X18.499 I-6.875 J0.
N2965 X32.349 I6.925 J0.
N2970 X18.399 I-6.975 J0.
N2975 X32.449 I7.025 J0.
N2980 X18.299 I-7.075 J0.
N2985 X32.549 I7.125 J0.
N2990 X18.199 I-7.175 J0.
N2995 X32.649 I7.225 J0.
N3000 X18.099 I-7.275 J0.
N3005 X32.749 I7.325 J0.
N3010 X17.999 I-7.375 J0.
N3015 X32.849 I7.425 J0.
N3020 X17.899 I-7.475 J0.
N3025 X32.949 I7.525 J0.
N3030 X17.799 I-7.575 J0.
N3035 X33.049 I7.625 J0.
N3040 X17.699 I-7.675 J0.
N3045 X33.149 I7.725 J0.
N3050 X17.599 I-7.775 J0.
N3055 X33.249 I7.825 J0.
N3060 X17.499 I-7.875 J0.
N3065 X33.349 I7.925 J0.
N3070 X17.399 I-7.975 J0.
N3075 X33.449 I8.025 J0.
N3080 X17.299 I-8.075 J0.
N3085 X33.549 I8.125 J0.
N3090 X17.199 I-8.175 J0.
N3095 X33.649 I8.225 J0.
N3100 X17.099 I-8.275 J0.
N3105 X33.749 I8.325 J0.
N3110 X16.999 I-8.375 J0.
N3115 X33.849 I8.425 J0.
N3120 X16.899 I-8.475 J0.
N3125 X33.949 I8.525 J0.
N3130 X16.799 I-8.575 J0.
N3135 X34.049 I8.625 J0.
N3140 X16.699 I-8.675 J0.
N3145 X34.149 I8.725 J0.
N3150 X16.599 I-8.775 J0.
N3155 X34.249 I8.825 J0.
N3160 X16.499 I-8.875 J0.
N3165 X34.349 I8.925 J0.
N3170 X16.399 I-8.975 J0.
N3175 X34.349 I8.975 J0.
N3180 X34.33 Y-14.806 Z-23.981 I-1. J0. F#104
N3185 X34.276 Y-14.627 Z-23.924 I-0.981 J-0.194
N3190 X34.198 Y-14.473 Z-23.831 I-0.928 J-0.373
N3195 X34.109 Y-14.35 Z-23.707 I-0.85 J-0.527
N3200 X34.023 Y-14.261 Z-23.556 I-0.76 J-0.65
N3205 X33.952 Y-14.202 Z-23.383 I-0.674 J-0.739
N3210 X33.905 Y-14.169 Z-23.195 I-0.603 J-0.798
N3215 X33.889 Y-14.159 Z-23. I-0.556 J-0.831
N3220 G0 Z11.
(2D CONTOUR1)
N3230 M8
N3235 G0 X19.399 Y-14.
N3240 #102=600. (FINISH)
N3245 #103=800. (ENTRY)
N3250 #104=900. (EXIT)
N3255 #108=300. (PLUNGE)
N3260 Z6.
N3265 Z3.
N3270 G1 Z1. F#103
N3275 Z-23. F#108
N3280 G18 G3 X18.399 Z-24. I-1. K0.
N3285 G1 X17.399 F#103
N3290 G17 G3 X16.399 Y-15. I0. J-1.
N3295 X34.349 I8.975 J0. F#102
N3300 X16.399 I-8.975 J0.
N3305 X34.399 I9. J0.
N3310 X16.349 I-9.025 J0.
N3315 X34.399 I9.025 J0.
N3320 X33.399 Y-14. I-1. J0. F#104
N3325 G1 X32.399
N3330 G18 G3 X31.399 Z-23. I0. K1.
N3335 G0 Z6.
N3340 G17
N3345 M9
N3350 G53 G0 Z0.
N3355 M30
%
