%
(1)
(T10  D=10. CR=0. - ZMIN=0. - FLAT END MILL)
N10 G90 G94 G17 G91.1
N15 G21
N20 G53 G0 Z0.
(FACE2)
N25 M9
N30 T10 M6
N35 S3000 M3
N40 G54
N45 M8
N55 G0 X58.5 Y-30.502
N60 G43 Z10. H10
N65 #100=900. (CUTTING)
N70 #102=900. (FINISH)
N75 #103=800. (ENTRY)
N80 #104=900. (EXIT)
N85 G0 Z5.
N90 G1 Z1. F#103
N95 G18 G3 X57.5 Z0. I-1. K0.
N100 G1 X52.
N105 X-2. F#102
N110 G17 G2 Y-23.584 I0. J3.459 F#100
N115 G1 X52. F#102
N120 G3 Y-16.666 I0. J3.459 F#100
N125 G1 X-2. F#102
N130 G2 Y-9.748 I0. J3.459 F#100
N135 G1 X52. F#102
N140 G3 Y-2.83 I0. J3.459 F#100
N145 G1 X-2. F#102
N150 G18 G3 X-3. Z1. I0. K1. F#104
N155 G0 Z10.
N160 G17
N165 M9
N170 G53 G0 Z0.
N175 M30
%
