%
(1)
(T3  D=2.5 CR=0. TAPER=118DEG - ZMIN=-25. - DRILL)
N10 G90 G94 G17 G91.1
N15 G21
N20 G53 G0 Z0.
(DRILL2)
N25 M9
N30 T3 M6
N35 S1910 M3
N40 G54
N45 M8
N55 G0 X44. Y-29.
N60 G43 Z6. H3
N70 G0 Z3.
N75 G98 G83 X44. Y-29. Z-25. R3. Q1. F30.34
N80 Y-14.
N85 X6.
N90 Y-29.
N95 G80
N100 G0 Z6.
N110 M9
N115 G53 Z0.
N120 M30
%
