%
(1)
(T10  D=10. CR=0. - ZMIN=-24. - FLAT END MILL)
N10 G90 G94 G17 G91.1
N15 G21
N20 G53 G0 Z0.
(2D CONTOUR1)
N25 M9
N30 T10 M6
N35 S3000 M3
N40 G54
N45 M8
N55 G0 X19.309 Y-14.
N60 G43 Z6. H10
N65 #102=600. (FINISH)
N70 #103=800. (ENTRY)
N75 #104=900. (EXIT)
N80 #108=900. (PLUNGE)
N85 G0 Z3.
N90 G1 Z1. F#103
N95 Z-23. F#108
N100 G18 G3 X18.309 Z-24. I-1. K0.
N105 G1 X17.309 F#103
N110 G17 G3 X16.309 Y-15. I0. J-1.
N115 X34.439 I9.065 J0. F#102
N120 X16.309 I-9.065 J0.
N125 X34.479 I9.085 J0.
N130 X16.269 I-9.105 J0.
N135 X34.479 I9.105 J0.
N140 X33.479 Y-14. I-1. J0. F#104
N145 G1 X32.479
N150 G18 G3 X31.479 Z-23. I0. K1.
N155 G0 Z6.
N160 G17
N165 M9
N170 G53 G0 Z0.
N175 M30
%
