%
(1)
(T13  D=5.95 CR=0. - ZMIN=-6. - FLAT END MILL)
N10 G90 G94 G17 G91.1
N15 G21
N20 G53 G0 Z0.
(2D ADAPTIVE1)
N25 M9
N30 T13 M6
N35 S4000 M3
N40 G54
N45 M8
N55 G0 X-13.399 Y-62.945
N60 G43 Z4. H13
N65 #100=1000. (CUTTING)
N70 #103=1000. (ENTRY)
N75 #104=1000. (EXIT)
N80 #105=30000. (DIRECT)
N85 #106=450. (REDUCED)
N90 G0 Z2.51
N95 G1 Z-6. F#103
N100 X-13.393 Y-62.935 F#106
N105 X-13.391 Y-62.931
N110 G3 X-14.038 Y-62.751 I-0.997 J-2.326 F#100
N115 G1 X-14.203 Y-62.753
N120 X-14.351 Y-62.826
N125 X-14.455 Y-62.954
N130 X-14.497 Y-63.113
N135 X-14.468 Y-63.276
N140 X-14.375 Y-63.412
N145 X-14.233 Y-63.497
N150 G3 X-14.002 Y-63.483 I0.081 J0.59 F#104
N155 X-13.707 Y-63.302 I-0.151 J0.575 F#105
N160 G1 X-13.542 Y-63.115
N165 X-13.45 Y-63.012 F#103
N170 G3 X-13.393 Y-62.935 I-0.445 J0.395
N175 G1 X-13.354 Y-62.868 F#106
N180 G3 X-14.054 Y-62.621 I-0.717 J-0.914 F#100
N185 G1 X-14.238 Y-62.644
N190 X-14.396 Y-62.74
N195 X-14.503 Y-62.891
N200 X-14.54 Y-63.072
N205 X-14.501 Y-63.253
N210 X-14.393 Y-63.403
N215 X-14.233 Y-63.497
N220 G3 X-14.002 Y-63.483 I0.081 J0.59 F#104
N225 X-13.695 Y-63.287 I-0.151 J0.575 F#105
N230 G1 X-13.499 Y-63.051
N235 X-13.398 Y-62.93 F#103
N240 G3 X-13.354 Y-62.868 I-0.458 J0.38
N245 G1 X-13.305 Y-62.785 F#106
N250 G3 X-14.277 Y-62.539 I-0.707 J-0.748 F#100
N255 G1 X-14.438 Y-62.646
N260 X-14.55 Y-62.802
N265 X-14.596 Y-62.989
N270 X-14.569 Y-63.18
N275 X-14.473 Y-63.347
N280 X-14.322 Y-63.467
N285 G3 X-14.091 Y-63.489 I0.171 J0.57 F#104
N290 X-13.687 Y-63.269 I-0.06 J0.592 F#105
N295 G1 X-13.448 Y-62.97
N300 X-13.343 Y-62.839 F#103
N305 G3 X-13.305 Y-62.785 I-0.464 J0.372
N310 G1 X-13.257 Y-62.703 F#106
N315 G3 X-14.309 Y-62.437 I-0.735 J-0.693 F#100
N320 G1 X-14.469 Y-62.542
N325 X-14.587 Y-62.693
N330 X-14.649 Y-62.874
N335 Y-63.065
N340 X-14.586 Y-63.246
N345 G3 X-14.409 Y-63.397 I0.467 J0.369 F#104
N350 X-13.638 Y-63.228 I0.29 J0.519 F#105
N355 G1 X-13.393 Y-62.892
N360 X-13.279 Y-62.735 F#103
N365 X-13.271 Y-62.725
N370 X-13.264 Y-62.714
N375 X-13.257 Y-62.703
N380 X-13.211 Y-62.625 F#106
N385 G3 X-14.049 Y-62.27 I-0.767 J-0.643 F#100
N390 G1 X-14.263 Y-62.319
N395 X-14.449 Y-62.437
N400 X-14.586 Y-62.61
N405 X-14.658 Y-62.818
N410 Y-63.038
N415 X-14.586 Y-63.246
N420 G3 X-14.409 Y-63.397 I0.467 J0.369 F#104
N425 X-13.633 Y-63.222 I0.29 J0.519 F#105
N430 G1 X-13.346 Y-62.816
N435 X-13.229 Y-62.651 F#103
N440 X-13.223 Y-62.643
N445 X-13.217 Y-62.634
N450 X-13.211 Y-62.625
N455 X-13.165 Y-62.547 F#106
N460 G3 X-13.884 Y-62.157 I-0.781 J-0.582 F#100
N465 G1 X-14.109 Y-62.173
N470 X-14.318 Y-62.258
N475 X-14.491 Y-62.402
N480 X-14.613 Y-62.592
N485 X-14.672 Y-62.809
N490 X-14.663 Y-63.034
N495 X-14.586 Y-63.246
N500 G3 X-14.409 Y-63.397 I0.467 J0.369 F#104
N505 X-13.63 Y-63.217 I0.29 J0.519 F#105
N510 G1 X-13.299 Y-62.739
N515 X-13.165 Y-62.547 F#103
N520 X-13.12 Y-62.47 F#106
N525 G3 X-13.673 Y-62.078 I-0.773 J-0.506 F#100
N530 G1 X-13.906 Y-62.051
N535 X-14.136 Y-62.093
N540 X-14.345 Y-62.199
N545 X-14.514 Y-62.361
N550 X-14.63 Y-62.564
N555 X-14.683 Y-62.793
N560 X-14.667 Y-63.027
N565 X-14.586 Y-63.246
N570 G3 X-14.409 Y-63.397 I0.467 J0.369 F#104
N575 X-13.627 Y-63.213 I0.29 J0.519 F#105
N580 G1 X-13.252 Y-62.663
N585 X-13.12 Y-62.47 F#103
N590 X-13.075 Y-62.392 F#106
N595 X-13.073 Y-62.388
N600 X-13.081 Y-62.375 F#100
N605 X-13.089 Y-62.363
N610 X-13.097 Y-62.35
N615 X-13.106 Y-62.338
N620 X-13.114 Y-62.326
N625 X-13.123 Y-62.314
N630 X-13.132 Y-62.302
N635 X-13.142 Y-62.29
N640 X-13.151 Y-62.278
N645 X-13.161 Y-62.267
N650 X-13.171 Y-62.256
N655 X-13.181 Y-62.245
N660 X-13.191 Y-62.234
N665 X-13.202 Y-62.223
N670 X-13.213 Y-62.213
N675 X-13.223 Y-62.202
N680 X-13.422 Y-62.059
N685 X-13.654 Y-61.977
N690 X-13.899 Y-61.963
N695 X-14.138 Y-62.019
N700 X-14.353 Y-62.139
N705 X-14.525 Y-62.314
N710 X-14.64 Y-62.531
N715 X-14.691 Y-62.771
N720 X-14.672 Y-63.016
N725 X-14.586 Y-63.246
N730 G3 X-14.409 Y-63.397 I0.467 J0.369 F#104
N735 X-13.625 Y-63.21 I0.29 J0.519 F#105
N740 G1 X-13.205 Y-62.586
N745 X-13.075 Y-62.392 F#103
N750 X-13.033 Y-62.321 F#106
N755 G3 X-13.628 Y-61.879 I-0.756 J-0.397 F#100
N760 G1 X-13.885 Y-61.863
N765 X-14.137 Y-61.921
N770 X-14.361 Y-62.048
N775 X-14.541 Y-62.233
N780 X-14.663 Y-62.46
N785 X-14.716 Y-62.713
N790 X-14.696 Y-62.97
N795 X-14.605 Y-63.211
N800 G3 X-14.448 Y-63.382 I0.486 J0.289 F#104
N805 X-13.65 Y-63.238 I0.328 J0.46 F#105
N810 G1 X-13.163 Y-62.514
N815 X-13.033 Y-62.321 F#103
N820 X-12.987 Y-62.242 F#106
N825 G3 X-13.614 Y-61.774 I-0.775 J-0.383 F#100
N830 G1 X-13.882 Y-61.76
N835 X-14.143 Y-61.824
N840 X-14.376 Y-61.958
N845 X-14.563 Y-62.151
N850 X-14.688 Y-62.389
N855 X-14.742 Y-62.653
N860 X-14.721 Y-62.921
N865 X-14.626 Y-63.173
N870 G3 X-14.471 Y-63.345 I0.511 J0.305 F#104
N875 X-13.619 Y-63.197 I0.356 J0.477 F#105
N880 G1 X-13.116 Y-62.437
N885 X-12.987 Y-62.242 F#103
N890 X-12.943 Y-62.167 F#106
N895 G3 X-13.612 Y-61.665 I-0.795 J-0.362 F#100
N900 G1 X-13.859 Y-61.652
N905 X-14.101 Y-61.703
N910 X-14.323 Y-61.813
N915 X-14.512 Y-61.973
N920 X-14.655 Y-62.176
N925 X-14.744 Y-62.407
N930 X-14.774 Y-62.653
N935 X-14.742 Y-62.898
N940 X-14.65 Y-63.129
N945 G3 X-14.495 Y-63.301 I0.511 J0.305 F#104
N950 X-13.654 Y-63.169 I0.356 J0.477 F#105
N955 G1 X-13.078 Y-62.358
N960 X-12.961 Y-62.194 F#103
N965 X-12.955 Y-62.185
N970 X-12.949 Y-62.176
N975 X-12.943 Y-62.167
N980 X-12.898 Y-62.09 F#106
N985 G3 X-13.565 Y-61.561 I-0.819 J-0.348 F#100
N990 G1 X-13.825 Y-61.54
N995 X-14.082 Y-61.587
N1000 X-14.319 Y-61.697
N1005 X-14.521 Y-61.863
N1010 X-14.676 Y-62.074
N1015 X-14.773 Y-62.317
N1020 X-14.806 Y-62.576
N1025 X-14.774 Y-62.836
N1030 X-14.678 Y-63.079
N1035 G3 X-14.522 Y-63.251 I0.511 J0.305 F#104
N1040 X-13.693 Y-63.135 I0.356 J0.477 F#105
N1045 G1 X-13.038 Y-62.277
N1050 X-12.928 Y-62.133 F#103
N1055 G3 X-12.898 Y-62.09 I-0.473 J0.361
N1060 G1 X-12.854 Y-62.015 F#106
N1065 G3 X-13.53 Y-61.454 I-0.841 J-0.327 F#100
N1070 G1 X-13.8 Y-61.426
N1075 X-14.069 Y-61.471
N1080 X-14.318 Y-61.582
N1085 X-14.531 Y-61.751
N1090 X-14.695 Y-61.969
N1095 X-14.8 Y-62.22
N1100 X-14.839 Y-62.49
N1105 X-14.808 Y-62.761
N1110 X-14.712 Y-63.015
N1115 G3 X-14.558 Y-63.189 I0.515 J0.298 F#104
N1120 X-13.737 Y-63.095 I0.362 J0.472 F#105
N1125 G1 X-12.999 Y-62.198
N1130 X-12.897 Y-62.075 F#103
N1135 G3 X-12.854 Y-62.015 I-0.459 J0.378
N1140 G1 X-12.808 Y-61.937 F#106
N1145 G3 X-13.494 Y-61.345 I-0.867 J-0.311 F#100
N1150 G1 X-13.748 Y-61.31
N1155 X-14.003 Y-61.34
N1160 X-14.245 Y-61.426
N1165 X-14.461 Y-61.564
N1170 X-14.639 Y-61.749
N1175 X-14.772 Y-61.969
N1180 X-14.85 Y-62.213
N1185 X-14.872 Y-62.469
N1190 X-14.834 Y-62.723
N1195 X-14.74 Y-62.961
N1200 G3 X-14.587 Y-63.136 I0.515 J0.298 F#104
N1205 X-13.777 Y-63.055 I0.362 J0.472 F#105
N1210 G1 X-12.957 Y-62.117
N1215 X-12.863 Y-62.011 F#103
N1220 G3 X-12.809 Y-61.937 I-0.448 J0.392
N1225 G1 X-12.763 Y-61.86 F#106
N1230 G3 X-13.47 Y-61.23 I-0.894 J-0.291 F#100
N1235 G1 X-13.484 Y-61.221
N1240 X-13.498 Y-61.218
N1245 X-13.513 Y-61.215
N1250 X-13.527 Y-61.211
N1255 X-13.542 Y-61.208
N1260 X-13.557 Y-61.206
N1265 X-13.572 Y-61.203
N1270 X-13.586 Y-61.2
N1275 X-13.601 Y-61.198
N1280 X-13.616 Y-61.196
N1285 X-13.631 Y-61.194
N1290 X-13.646 Y-61.193
N1295 X-13.661 Y-61.191
N1300 X-13.676 Y-61.19
N1305 X-13.691 Y-61.189
N1310 X-13.962 Y-61.208
N1315 X-14.222 Y-61.289
N1320 X-14.455 Y-61.428
N1325 X-14.65 Y-61.618
N1330 X-14.796 Y-61.848
N1335 X-14.884 Y-62.105
N1340 X-14.91 Y-62.376
N1345 X-14.873 Y-62.645
N1350 X-14.774 Y-62.899
N1355 G3 X-14.62 Y-63.073 I0.515 J0.298 F#104
N1360 X-13.825 Y-63.007 I0.362 J0.472 F#105
N1365 G1 X-12.915 Y-62.037
N1370 X-12.832 Y-61.949 F#103
N1375 G3 X-12.763 Y-61.86 I-0.434 J0.407
N1380 G1 X-12.718 Y-61.783 F#106
N1385 G3 X-13.399 Y-61.122 I-0.922 J-0.27 F#100
N1390 G1 X-13.412 Y-61.113
N1395 X-13.427 Y-61.109
N1400 X-13.441 Y-61.105
N1405 X-13.456 Y-61.101
N1410 X-13.47 Y-61.097
N1415 X-13.485 Y-61.094
N1420 X-13.499 Y-61.09
N1425 X-13.514 Y-61.087
N1430 X-13.529 Y-61.084
N1435 X-13.543 Y-61.081
N1440 X-13.558 Y-61.078
N1445 X-13.573 Y-61.076
N1450 X-13.588 Y-61.073
N1455 X-13.603 Y-61.071
N1460 X-13.617 Y-61.07
N1465 X-13.632 Y-61.068
N1470 X-13.891 Y-61.072
N1475 X-14.144 Y-61.132
N1480 X-14.377 Y-61.243
N1485 X-14.582 Y-61.403
N1490 X-14.747 Y-61.602
N1495 X-14.867 Y-61.832
N1500 X-14.934 Y-62.082
N1505 X-14.947 Y-62.341
N1510 X-14.904 Y-62.596
N1515 X-14.807 Y-62.836
N1520 G3 X-14.654 Y-63.011 I0.515 J0.298 F#104
N1525 X-13.871 Y-62.958 I0.362 J0.472 F#105
N1530 G1 X-12.872 Y-61.957
N1535 X-12.8 Y-61.885 F#103
N1540 G3 X-12.718 Y-61.783 I-0.421 J0.42
N1545 G1 X-12.671 Y-61.702 F#106
N1550 G3 X-13.342 Y-61.01 I-0.952 J-0.251 F#100
N1555 G1 X-13.354 Y-61.
N1560 X-13.369 Y-60.995
N1565 X-13.383 Y-60.991
N1570 X-13.397 Y-60.986
N1575 X-13.412 Y-60.982
N1580 X-13.426 Y-60.978
N1585 X-13.44 Y-60.974
N1590 X-13.455 Y-60.97
N1595 X-13.47 Y-60.966
N1600 X-13.484 Y-60.963
N1605 X-13.499 Y-60.96
N1610 X-13.514 Y-60.957
N1615 X-13.528 Y-60.954
N1620 X-13.543 Y-60.952
N1625 X-13.819 Y-60.939
N1630 X-14.091 Y-60.987
N1635 X-14.346 Y-61.094
N1640 X-14.572 Y-61.254
N1645 X-14.756 Y-61.46
N1650 X-14.891 Y-61.701
N1655 X-14.969 Y-61.966
N1660 X-14.987 Y-62.242
N1665 X-14.943 Y-62.515
N1670 X-14.841 Y-62.772
N1675 G3 X-14.688 Y-62.946 I0.515 J0.298 F#104
N1680 X-13.917 Y-62.906 I0.362 J0.472 F#105
N1685 G1 X-12.827 Y-61.875
N1690 X-12.765 Y-61.816 F#103
N1695 G3 X-12.671 Y-61.702 I-0.409 J0.432
N1700 G1 X-12.624 Y-61.621 F#106
N1705 G3 X-13.268 Y-60.903 I-0.972 J-0.224 F#100
N1710 G1 X-13.281 Y-60.893
N1715 X-13.295 Y-60.887
N1720 X-13.309 Y-60.882
N1725 X-13.323 Y-60.877
N1730 X-13.337 Y-60.872
N1735 X-13.351 Y-60.867
N1740 X-13.365 Y-60.862
N1745 X-13.38 Y-60.858
N1750 X-13.394 Y-60.853
N1755 X-13.408 Y-60.849
N1760 X-13.423 Y-60.845
N1765 X-13.437 Y-60.842
N1770 X-13.452 Y-60.838
N1775 X-13.467 Y-60.835
N1780 X-13.731 Y-60.807
N1785 X-13.996 Y-60.834
N1790 X-14.25 Y-60.915
N1795 X-14.482 Y-61.046
N1800 X-14.682 Y-61.221
N1805 X-14.842 Y-61.434
N1810 X-14.955 Y-61.675
N1815 X-15.016 Y-61.934
N1820 X-15.023 Y-62.201
N1825 X-14.975 Y-62.463
N1830 X-14.875 Y-62.709
N1835 G3 X-14.721 Y-62.883 I0.515 J0.298 F#104
N1840 X-13.962 Y-62.854 I0.362 J0.472 F#105
N1845 G1 X-12.781 Y-61.792
N1850 X-12.729 Y-61.745 F#103
N1855 G3 X-12.624 Y-61.621 I-0.398 J0.443
N1860 G1 X-12.575 Y-61.538 F#106
N1865 G3 X-13.18 Y-60.802 I-0.988 J-0.196 F#100
N1870 G1 X-13.192 Y-60.791
N1875 X-13.206 Y-60.785
N1880 X-13.22 Y-60.779
N1885 X-13.233 Y-60.773
N1890 X-13.247 Y-60.767
N1895 X-13.261 Y-60.762
N1900 X-13.275 Y-60.756
N1905 X-13.289 Y-60.751
N1910 X-13.303 Y-60.746
N1915 X-13.317 Y-60.741
N1920 X-13.332 Y-60.736
N1925 X-13.346 Y-60.732
N1930 X-13.36 Y-60.727
N1935 X-13.616 Y-60.68
N1940 X-13.877 Y-60.684
N1945 X-14.132 Y-60.738
N1950 X-14.371 Y-60.84
N1955 X-14.587 Y-60.987
N1960 X-14.769 Y-61.172
N1965 X-14.913 Y-61.39
N1970 X-15.011 Y-61.631
N1975 X-15.061 Y-61.887
N1980 X-15.06 Y-62.147
N1985 X-15.009 Y-62.403
N1990 X-14.91 Y-62.643
N1995 G3 X-14.756 Y-62.818 I0.515 J0.298 F#104
N2000 X-14.008 Y-62.798 I0.362 J0.472 F#105
N2005 G1 X-12.733 Y-61.708
N2010 X-12.691 Y-61.672 F#103
N2015 G3 X-12.575 Y-61.538 I-0.387 J0.452
N2020 G1 X-12.525 Y-61.453 F#106
N2025 G3 X-13.079 Y-60.71 I-0.997 J-0.166 F#100
N2030 X-13.5 Y-60.558 I-0.581 J-0.95
N2035 G1 X-13.755 Y-60.539
N2040 X-14.01 Y-60.568
N2045 X-14.255 Y-60.644
N2050 X-14.481 Y-60.763
N2055 X-14.682 Y-60.923
N2060 X-14.85 Y-61.116
N2065 X-14.979 Y-61.338
N2070 X-15.066 Y-61.579
N2075 X-15.106 Y-61.832
N2080 X-15.099 Y-62.088
N2085 X-15.045 Y-62.339
N2090 X-14.946 Y-62.575
N2095 G3 X-14.793 Y-62.749 I0.515 J0.298 F#104
N2100 X-14.056 Y-62.738 I0.362 J0.472 F#105
N2105 G1 X-12.684 Y-61.622
N2110 X-12.652 Y-61.596 F#103
N2115 G3 X-12.525 Y-61.453 I-0.376 J0.461
N2120 G1 X-12.474 Y-61.366 F#106
N2125 G3 X-12.941 Y-60.645 I-0.994 J-0.132 F#100
N2130 X-13.358 Y-60.447 I-0.679 J-0.895
N2135 G1 X-13.63 Y-60.402
N2140 X-13.906 Y-60.411
N2145 X-14.175 Y-60.473
N2150 X-14.427 Y-60.586
N2155 X-14.653 Y-60.745
N2160 X-14.844 Y-60.944
N2165 X-14.993 Y-61.176
N2170 X-15.095 Y-61.433
N2175 X-15.146 Y-61.704
N2180 X-15.144 Y-61.98
N2185 X-15.089 Y-62.25
N2190 X-14.983 Y-62.505
N2195 G3 X-14.83 Y-62.68 I0.515 J0.298 F#104
N2200 X-14.103 Y-62.677 I0.362 J0.472 F#105
N2205 G1 X-12.634 Y-61.534
N2210 X-12.612 Y-61.517 F#103
N2215 G3 X-12.474 Y-61.366 I-0.365 J0.47
N2220 G1 X-12.423 Y-61.278 F#106
N2225 G3 X-12.853 Y-60.549 I-1.007 J-0.104 F#100
N2230 X-13.819 Y-60.261 I-0.842 J-1.06
N2235 G1 X-14.083 Y-60.3
N2240 X-14.336 Y-60.389
N2245 X-14.568 Y-60.522
N2250 X-14.772 Y-60.695
N2255 X-14.942 Y-60.902
N2260 X-15.072 Y-61.136
N2265 X-15.157 Y-61.39
N2270 X-15.196 Y-61.655
N2275 X-15.186 Y-61.922
N2280 X-15.128 Y-62.183
N2285 X-15.024 Y-62.43
N2290 G3 X-14.87 Y-62.604 I0.515 J0.298 F#104
N2295 X-14.155 Y-62.61 I0.362 J0.472 F#105
N2300 G1 X-12.583 Y-61.446
N2305 X-12.571 Y-61.438 F#103
N2310 G3 X-12.423 Y-61.278 I-0.354 J0.478
N2315 G1 X-12.371 Y-61.19 F#100
N2320 G3 X-12.765 Y-60.456 I-1.007 J-0.068
N2325 X-13.684 Y-60.106 I-0.929 J-1.056
N2330 G1 X-13.948 Y-60.121
N2335 X-14.205 Y-60.183
N2340 X-14.448 Y-60.289
N2345 X-14.669 Y-60.436
N2350 X-14.861 Y-60.618
N2355 X-15.019 Y-60.831
N2360 X-15.138 Y-61.068
N2365 X-15.214 Y-61.322
N2370 X-15.245 Y-61.585
N2375 X-15.23 Y-61.85
N2380 X-15.169 Y-62.108
N2385 X-15.065 Y-62.351
N2390 G3 X-14.912 Y-62.526 I0.515 J0.298 F#104
N2395 X-14.208 Y-62.54 I0.362 J0.472 F#105
N2400 G1 X-12.531 Y-61.358
N2405 G3 X-12.371 Y-61.19 I-0.343 J0.486 F#103
N2410 G1 X-12.316 Y-61.096 F#100
N2415 G3 X-12.647 Y-60.389 I-0.994 J-0.036
N2420 X-13.804 Y-59.953 I-1.054 J-1.043
N2425 G1 X-14.065 Y-59.986
N2430 X-14.316 Y-60.065
N2435 X-14.551 Y-60.184
N2440 X-14.762 Y-60.341
N2445 X-14.945 Y-60.531
N2450 X-15.093 Y-60.749
N2455 X-15.203 Y-60.989
N2460 X-15.271 Y-61.243
N2465 X-15.296 Y-61.505
N2470 X-15.277 Y-61.768
N2475 X-15.215 Y-62.024
N2480 X-15.111 Y-62.266
N2485 G3 X-14.958 Y-62.44 I0.515 J0.298 F#104
N2490 X-14.265 Y-62.462 I0.362 J0.472 F#105
N2495 G1 X-12.488 Y-61.272
N2500 X-12.476 Y-61.264
N2505 G3 X-12.316 Y-61.096 I-0.343 J0.486 F#103
N2510 G1 X-12.262 Y-61.003 F#100
N2515 G3 X-12.56 Y-60.296 I-0.994 J-0.003
N2520 X-13.929 Y-59.804 I-1.15 J-1.048
N2525 G1 X-14.186 Y-59.853
N2530 X-14.43 Y-59.947
N2535 X-14.656 Y-60.079
N2540 X-14.858 Y-60.245
N2545 X-15.03 Y-60.442
N2550 X-15.169 Y-60.664
N2555 X-15.27 Y-60.905
N2560 X-15.331 Y-61.159
N2565 X-15.351 Y-61.42
N2570 X-15.328 Y-61.681
N2575 X-15.264 Y-61.934
N2580 X-15.16 Y-62.174
N2585 G3 X-15.007 Y-62.349 I0.515 J0.298 F#104
N2590 X-14.326 Y-62.379 I0.362 J0.472 F#105
N2595 G1 X-12.446 Y-61.187
N2600 X-12.434 Y-61.179
N2605 X-12.422 Y-61.171
N2610 G3 X-12.262 Y-61.003 I-0.343 J0.486 F#103
N2615 G1 X-12.205 Y-60.905 F#100
N2620 G3 X-12.492 Y-60.179 I-1.013 J0.02
N2625 X-13.695 Y-59.628 I-1.202 J-1.038
N2630 X-14.342 Y-59.735 I-0.078 J-1.54
N2635 G1 X-14.574 Y-59.844
N2640 G3 X-15.216 Y-62.069 I0.826 J-1.444
N2645 X-15.062 Y-62.244 I0.515 J0.298 F#104
N2650 X-14.397 Y-62.283 I0.362 J0.472 F#105
N2655 G1 X-12.403 Y-61.098
N2660 X-12.39 Y-61.09
N2665 X-12.377 Y-61.082
N2670 X-12.365 Y-61.073
N2675 G3 X-12.205 Y-60.905 I-0.343 J0.486 F#103
N2680 G1 X-12.148 Y-60.808 F#100
N2685 G3 X-12.402 Y-60.084 I-1.01 J0.052
N2690 X-13.559 Y-59.467 I-1.281 J-1.01
N2695 X-15.204 Y-60.245 I-0.207 J-1.69
N2700 X-15.271 Y-61.966 I1.439 J-0.918
N2705 X-15.117 Y-62.141 I0.515 J0.298 F#104
N2710 X-14.465 Y-62.187 I0.362 J0.472 F#105
N2715 G1 X-12.36 Y-61.009
N2720 G3 X-12.308 Y-60.976 I-0.291 J0.519
N2725 X-12.148 Y-60.808 I-0.343 J0.486 F#103
N2730 G1 X-12.089 Y-60.707 F#100
N2735 G3 X-12.322 Y-59.975 I-1.02 J0.078
N2740 X-13.423 Y-59.312 I-1.346 J-0.99
N2745 X-15.07 Y-59.831 I-0.346 J-1.775
N2750 G1 X-15.239 Y-60.042
N2755 X-15.374 Y-60.276
N2760 X-15.471 Y-60.528
N2765 X-15.527 Y-60.792
N2770 X-15.542 Y-61.061
N2775 X-15.515 Y-61.33
N2780 X-15.447 Y-61.591
N2785 X-15.339 Y-61.838
N2790 G3 X-15.186 Y-62.013 I0.515 J0.298 F#104
N2795 X-14.551 Y-62.069 I0.362 J0.472 F#105
N2800 G1 X-12.318 Y-60.917
N2805 G3 X-12.249 Y-60.875 I-0.273 J0.529
N2810 X-12.089 Y-60.707 I-0.343 J0.486 F#103
N2815 G1 X-12.03 Y-60.607 F#100
N2820 G3 X-12.23 Y-59.88 I-1.007 J0.115
N2825 X-13.267 Y-59.167 I-1.413 J-0.944
N2830 X-14.757 Y-59.367 I-0.51 J-1.856
N2835 G1 X-14.975 Y-59.524
N2840 X-15.167 Y-59.711
N2845 X-15.329 Y-59.926
N2850 X-15.457 Y-60.163
N2855 X-15.547 Y-60.416
N2860 X-15.598 Y-60.68
N2865 X-15.609 Y-60.949
N2870 X-15.579 Y-61.216
N2875 X-15.509 Y-61.475
N2880 X-15.401 Y-61.722
N2885 G3 X-15.248 Y-61.896 I0.515 J0.298 F#104
N2890 X-14.628 Y-61.959 I0.362 J0.472 F#105
N2895 G1 X-12.275 Y-60.825
N2900 G3 X-12.19 Y-60.776 I-0.258 J0.536
N2905 X-12.03 Y-60.607 I-0.343 J0.486 F#103
N2910 G1 X-11.969 Y-60.502 F#100
N2915 G3 X-12.147 Y-59.769 I-1.012 J0.142
N2920 X-13.142 Y-59.019 I-1.472 J-0.917
N2925 X-14.633 Y-59.098 I-0.645 J-1.921
N2930 G1 X-14.867 Y-59.229
N2935 G3 X-15.468 Y-61.597 I1.001 J-1.514
N2940 X-15.314 Y-61.771 I0.515 J0.298 F#104
N2945 X-14.709 Y-61.842 I0.362 J0.472 F#105
N2950 G1 X-12.228 Y-60.727
N2955 G3 X-12.129 Y-60.67 I-0.244 J0.543
N2960 X-11.969 Y-60.502 I-0.343 J0.486 F#103
N2965 G1 X-11.904 Y-60.391 F#100
N2970 G3 X-12.038 Y-59.701 I-0.981 J0.167
N2975 X-13.009 Y-58.875 I-1.549 J-0.837
N2980 X-14.78 Y-58.964 I-0.789 J-1.969
N2985 X-15.539 Y-61.463 I0.872 J-1.629
N2990 X-15.386 Y-61.638 I0.515 J0.298 F#104
N2995 X-14.795 Y-61.714 I0.362 J0.472 F#105
N3000 G1 X-12.177 Y-60.622
N3005 G3 X-12.064 Y-60.559 I-0.229 J0.549
N3010 X-11.904 Y-60.391 I-0.343 J0.486 F#103
N3015 G1 X-11.841 Y-60.283 F#100
N3020 G3 X-11.959 Y-59.576 I-0.979 J0.199
N3025 X-12.797 Y-58.77 I-1.572 J-0.795
N3030 X-14.872 Y-58.799 I-1.01 J-1.983
N3035 X-15.612 Y-61.327 I0.922 J-1.642
N3040 X-15.459 Y-61.501 I0.515 J0.298 F#104
N3045 X-14.883 Y-61.583 I0.362 J0.472 F#105
N3050 G1 X-12.129 Y-60.52
N3055 G3 X-12.001 Y-60.451 I-0.214 J0.555
N3060 X-11.841 Y-60.283 I-0.343 J0.486 F#103
N3065 G1 X-11.774 Y-60.169 F#100
N3070 G3 X-11.874 Y-59.459 I-0.98 J0.224
N3075 X-12.671 Y-58.631 I-1.619 J-0.762
N3080 X-14.966 Y-58.63 I-1.148 J-2.025
N3085 X-15.907 Y-60.158 I0.978 J-1.657
N3090 X-15.686 Y-61.188 I1.917 J-0.126
N3095 X-15.533 Y-61.362 I0.515 J0.298 F#104
N3100 X-14.97 Y-61.45 I0.362 J0.472 F#105
N3105 G1 X-12.076 Y-60.411
N3110 G3 X-11.934 Y-60.337 I-0.201 J0.56
N3115 X-11.774 Y-60.169 I-0.343 J0.486 F#103
N3120 G1 X-11.704 Y-60.05 F#100
N3125 G3 X-11.788 Y-59.337 I-0.984 J0.246
N3130 X-12.546 Y-58.492 I-1.661 J-0.727
N3135 X-15.057 Y-58.456 I-1.285 J-2.057
N3140 X-15.954 Y-59.743 I1.032 J-1.675
N3145 X-15.761 Y-61.046 I1.921 J-0.383
N3150 X-15.608 Y-61.221 I0.515 J0.298 F#104
N3155 X-15.058 Y-61.313 I0.362 J0.472 F#105
N3160 G1 X-12.019 Y-60.296
N3165 G3 X-11.865 Y-60.219 I-0.189 J0.564
N3170 X-11.704 Y-60.05 I-0.343 J0.486 F#103
N3175 G1 X-11.635 Y-59.931 F#100
N3180 G3 X-11.699 Y-59.216 I-0.981 J0.271
N3185 X-12.381 Y-58.381 I-1.68 J-0.676
N3190 X-14.654 Y-58.049 I-1.46 J-2.054
N3195 X-15.725 Y-58.837 I0.63 J-1.979
N3200 X-16.026 Y-60.394 I1.658 J-1.127
N3205 G1 X-15.949 Y-60.655
N3210 X-15.838 Y-60.902
N3215 G3 X-15.685 Y-61.077 I0.515 J0.298 F#104
N3220 X-15.146 Y-61.172 I0.362 J0.472 F#105
N3225 G1 X-11.96 Y-60.181
N3230 G3 X-11.795 Y-60.099 I-0.177 J0.568
N3235 X-11.635 Y-59.931 I-0.343 J0.486 F#103
N3240 G1 X-11.565 Y-59.812 F#100
N3245 G3 X-11.603 Y-59.11 I-0.958 J0.3
N3250 X-12.216 Y-58.275 I-1.699 J-0.605
N3255 X-14.212 Y-57.73 I-1.62 J-2.002
N3260 X-15.514 Y-58.31 I0.269 J-2.357
N3265 X-16.154 Y-59.98 I1.373 J-1.484
N3270 G1 X-16.112 Y-60.241
N3275 X-16.036 Y-60.495
N3280 X-15.927 Y-60.736
N3285 G3 X-15.774 Y-60.91 I0.515 J0.298 F#104
N3290 X-15.25 Y-61.01 I0.362 J0.472 F#105
N3295 G1 X-11.906 Y-60.067
N3300 G3 X-11.725 Y-59.98 I-0.162 J0.573
N3305 X-11.565 Y-59.812 I-0.343 J0.486 F#103
N3310 G1 X-11.49 Y-59.684 F#100
N3315 G3 X-11.518 Y-58.967 I-0.969 J0.322
N3320 X-12.126 Y-58.11 I-1.745 J-0.594
N3325 X-13.897 Y-57.489 I-1.699 J-2.008
N3330 X-15.439 Y-57.987 I-0.017 J-2.585
N3335 X-16.016 Y-60.569 I1.218 J-1.627
N3340 X-15.862 Y-60.744 I0.515 J0.298 F#104
N3345 X-15.352 Y-60.847 I0.362 J0.472 F#105
N3350 G1 X-11.844 Y-59.942
N3355 G3 X-11.65 Y-59.853 I-0.149 J0.576
N3360 X-11.49 Y-59.684 I-0.343 J0.486 F#103
N3365 X-11.372 Y-59.075 I-0.641 J0.441 F#100
N3370 X-11.817 Y-58.159 I-1.659 J-0.24
N3375 X-13.423 Y-57.303 I-1.948 J-1.721
N3380 X-15.59 Y-57.838 I-0.476 J-2.728
N3385 X-16.328 Y-59.155 I1.331 J-1.611
N3390 X-16.105 Y-60.402 I2.043 J-0.278
N3395 X-15.952 Y-60.576 I0.515 J0.298 F#104
N3400 X-15.454 Y-60.683 I0.362 J0.472 F#105
N3405 G1 X-11.784 Y-59.821
N3410 G3 X-11.578 Y-59.728 I-0.136 J0.579
N3415 X-11.417 Y-59.56 I-0.343 J0.486 F#103
N3420 X-11.29 Y-58.898 I-0.682 J0.475 F#100
N3425 X-11.716 Y-58.004 I-1.687 J-0.256
N3430 X-13.035 Y-57.163 I-1.988 J-1.663
N3435 X-15.584 Y-57.564 I-0.861 J-2.823
N3440 X-16.291 Y-58.481 I1.354 J-1.776
N3445 X-16.193 Y-60.238 I1.955 J-0.771
N3450 X-16.039 Y-60.412 I0.515 J0.298 F#104
N3455 X-15.552 Y-60.521 I0.362 J0.472 F#105
N3460 G1 X-11.716 Y-59.69
N3465 G3 X-11.499 Y-59.595 I-0.126 J0.582
N3470 X-11.339 Y-59.427 I-0.343 J0.486 F#103
N3475 X-11.206 Y-58.719 I-0.72 J0.503 F#100
N3480 X-11.604 Y-57.859 I-1.71 J-0.269
N3485 X-12.981 Y-56.946 I-2.092 J-1.663
N3490 X-15.61 Y-57.315 I-0.929 J-2.935
N3495 X-16.474 Y-58.561 I1.294 J-1.819
N3500 X-16.284 Y-60.066 I2.086 J-0.502
N3505 X-16.131 Y-60.24 I0.515 J0.298 F#104
N3510 X-15.653 Y-60.351 I0.362 J0.472 F#105
N3515 G1 X-11.647 Y-59.556
N3520 G3 X-11.42 Y-59.459 I-0.116 J0.584
N3525 X-11.26 Y-59.29 I-0.343 J0.486 F#103
N3530 X-11.117 Y-58.551 I-0.75 J0.529 F#100
N3535 X-11.527 Y-57.664 I-1.772 J-0.281
N3540 X-12.895 Y-56.736 I-2.159 J-1.711
N3545 X-15.659 Y-57.078 I-1.026 J-3.042
N3550 X-16.501 Y-58.141 I1.337 J-1.926
N3555 X-16.486 Y-59.656 I2.05 J-0.737
N3560 G1 X-16.378 Y-59.89
N3565 G3 X-16.225 Y-60.064 I0.515 J0.298 F#104
N3570 X-15.757 Y-60.177 I0.362 J0.472 F#105
N3575 G1 X-11.575 Y-59.418
N3580 G3 X-11.338 Y-59.319 I-0.106 J0.585
N3585 X-11.178 Y-59.151 I-0.343 J0.486 F#103
N3590 X-11.053 Y-58.912 I-0.796 J0.571 F#100
N3595 X-11.118 Y-58.061 I-1.239 J0.333
N3600 X-11.963 Y-56.98 I-2.167 J-0.824
N3605 X-14.321 Y-56.366 I-1.943 J-2.627
N3610 X-16.065 Y-57.139 I0.28 J-2.989
N3615 X-16.697 Y-59.009 I1.56 J-1.569
N3620 G1 X-16.647 Y-59.26
N3625 X-16.567 Y-59.503
N3630 X-16.461 Y-59.735
N3635 G3 X-16.307 Y-59.909 I0.515 J0.298 F#104
N3640 X-15.844 Y-60.023 I0.362 J0.472 F#105
N3645 G1 X-11.492 Y-59.269
N3650 G3 X-11.251 Y-59.169 I-0.102 J0.586
N3655 X-11.09 Y-59.001 I-0.343 J0.486 F#103
N3660 X-10.937 Y-58.215 I-0.802 J0.565 F#100
N3665 X-11.38 Y-57.262 I-1.894 J-0.302
N3670 X-12.851 Y-56.273 I-2.314 J-1.854
N3675 X-15.765 Y-56.612 I-1.095 J-3.28
N3680 X-16.605 Y-57.548 I1.395 J-2.095
N3685 X-16.67 Y-59.311 I2.02 J-0.957
N3690 G1 X-16.562 Y-59.545
N3695 G3 X-16.408 Y-59.72 I0.515 J0.298 F#104
N3700 X-15.956 Y-59.835 I0.362 J0.472 F#105
N3705 G1 X-11.423 Y-59.135
N3710 G3 X-11.171 Y-59.033 I-0.091 J0.588
N3715 X-11.011 Y-58.865 I-0.343 J0.486 F#103
N3720 X-10.839 Y-58.473 I-0.811 J0.59 F#100
N3725 X-11.042 Y-57.466 I-1.601 J0.201
N3730 X-12.163 Y-56.335 I-2.403 J-1.26
N3735 X-15.81 Y-56.375 I-1.789 J-3.118
N3740 X-16.704 Y-57.376 I1.325 J-2.084
N3745 X-16.645 Y-59.39 I2.075 J-0.947
N3750 G1 X-16.601 Y-59.455 F#104
N3755 X-16.55 Y-59.513
N3760 X-16.491 Y-59.565
N3765 G3 X-16.041 Y-59.681 I0.362 J0.472 F#105
N3770 G1 X-11.334 Y-58.978
N3775 G3 X-11.077 Y-58.874 I-0.088 J0.588
N3780 X-10.917 Y-58.705 I-0.345 J0.485 F#103
N3785 X-10.756 Y-57.868 I-0.861 J0.6 F#100
N3790 X-11.287 Y-56.789 I-2.078 J-0.353
N3795 X-12.968 Y-55.758 I-2.459 J-2.122
N3800 X-15.937 Y-56.187 I-1.004 J-3.541
N3805 X-16.811 Y-57.207 I1.397 J-2.08
N3810 X-16.735 Y-59.221 I2.126 J-0.929
N3815 G1 X-16.691 Y-59.286 F#104
N3820 X-16.64 Y-59.344
N3825 X-16.581 Y-59.396
N3830 G3 X-16.137 Y-59.512 I0.362 J0.472 F#105
N3835 G1 X-11.253 Y-58.826
N3840 G3 X-10.98 Y-58.714 I-0.083 J0.589
N3845 X-10.825 Y-58.541 I-0.356 J0.476 F#103
N3850 X-10.676 Y-57.626 I-0.948 J0.623 F#100
N3855 X-11.281 Y-56.503 I-2.197 J-0.458
N3860 X-13.083 Y-55.484 I-2.502 J-2.322
N3865 X-15.975 Y-55.938 I-0.904 J-3.686
N3870 X-16.912 Y-57.018 I1.387 J-2.149
N3875 X-16.827 Y-59.049 I2.17 J-0.927
N3880 G1 X-16.784 Y-59.113 F#104
N3885 X-16.732 Y-59.171
N3890 X-16.673 Y-59.223
N3895 G3 X-16.231 Y-59.34 I0.362 J0.472 F#105
N3900 G1 X-11.166 Y-58.65
N3905 G3 X-10.861 Y-58.514 I-0.08 J0.59
N3910 X-10.717 Y-58.332 I-0.385 J0.453 F#103
N3915 X-10.559 Y-57.705 I-1.23 J0.642 F#100
N3920 X-11.007 Y-56.533 I-2.044 J-0.109
N3925 X-12.458 Y-55.434 I-2.61 J-1.939
N3930 X-15.897 Y-55.616 I-1.529 J-3.678
N3935 X-16.772 Y-56.389 I1.476 J-2.554
N3940 X-17.173 Y-58.124 I1.973 J-1.369
N3945 G1 X-17.117 Y-58.379
N3950 X-17.035 Y-58.626
N3955 X-16.925 Y-58.862
N3960 G3 X-16.773 Y-59.037 I0.516 J0.297 F#104
N3965 X-16.325 Y-59.154 I0.363 J0.472 F#105
N3970 G1 X-11.074 Y-58.395
N3975 G3 X-10.7 Y-58.184 I-0.085 J0.589
N3980 X-10.59 Y-57.979 I-0.459 J0.378 F#103
N3985 X-10.948 Y-56.314 I-1.864 J0.47 F#100
N3990 X-12.302 Y-55.245 I-2.603 J-1.904
N3995 X-16.021 Y-55.412 I-1.696 J-3.736
N4000 X-16.894 Y-56.225 I1.486 J-2.47
N4005 X-17.267 Y-58.071 I2.095 J-1.384
N4010 X-16.924 Y-58.861 I3.203 J0.919
N4015 G1 X-16.881 Y-58.926 F#104
N4020 X-16.831 Y-58.985
N4025 X-16.773 Y-59.037
N4030 G3 X-16.27 Y-59.144 I0.363 J0.472 F#105
N4035 G1 X-11.002 Y-57.873
N4040 G3 X-10.579 Y-57.489 I-0.139 J0.578
N4045 X-10.548 Y-57.259 I-0.562 J0.194 F#103
N4050 X-10.82 Y-56.466 I-1.951 J-0.226 F#100
N4055 X-11.211 Y-55.796 I-3.203 J-1.422
N4060 X-12.849 Y-54.799 I-2.468 J-2.21
N4065 X-15.63 Y-54.946 I-1.183 J-4.009
N4070 X-16.998 Y-56.263 I1.077 J-2.488
N4075 X-17.315 Y-57.179 I2.489 J-1.373
N4080 X-17.266 Y-58.071 I2.46 J-0.312
N4085 G1 X-17.235 Y-58.142 F#104
N4090 X-17.195 Y-58.209
N4095 X-17.147 Y-58.27
N4100 G3 X-16.538 Y-58.443 I0.442 J0.398 F#105
N4105 G1 X-11.376 Y-56.931
N4110 G3 X-10.949 Y-56.334 I-0.167 J0.571
N4115 X-11.004 Y-56.108 I-0.594 J-0.026 F#103
N4120 X-11.222 Y-55.666 I-14.876 J-7.079 F#100
N4125 X-12.102 Y-54.874 I-1.934 J-1.263
N4130 X-14.31 Y-54.39 I-1.908 J-3.43
N4135 X-15.812 Y-54.806 I0.075 J-3.197
N4140 X-16.923 Y-56.109 I1.466 J-2.374
N4145 G1 X-16.998 Y-56.263
N4150 G3 X-17.048 Y-56.49 I0.545 J-0.238 F#104
N4155 X-16.391 Y-57.093 I0.595 J-0.011 F#105
N4160 G1 X-11.652 Y-56.594
N4165 G3 X-11.119 Y-56.007 I-0.062 J0.592
N4170 X-11.163 Y-55.779 I-0.595 J0.004 F#103
N4175 X-11.4 Y-55.284 I-2.83 J-1.053 F#100
N4180 X-12.446 Y-54.478 I-1.988 J-1.499
N4185 X-14.942 Y-54.223 I-1.631 J-3.624
N4190 X-16.817 Y-55.885 I0.733 J-2.715
N4195 G1 X-16.84 Y-55.932
N4200 X-16.854 Y-55.96
N4205 G3 X-16.903 Y-56.187 I0.546 J-0.237 F#104
N4210 X-16.241 Y-56.789 I0.595 J-0.01 F#105
N4215 G1 X-11.78 Y-56.287
N4220 G3 X-11.252 Y-55.709 I-0.066 J0.591
N4225 X-11.292 Y-55.481 I-0.595 J0.013 F#103
N4230 X-11.465 Y-55.074 I-3.265 J-1.15 F#100
N4235 X-12.332 Y-54.317 I-1.814 J-1.202
N4240 X-14.643 Y-53.929 I-1.741 J-3.296
N4245 X-16.691 Y-55.587 I0.466 J-2.67
N4250 G1 X-16.756 Y-55.751
N4255 G3 X-16.791 Y-55.981 I0.559 J-0.203 F#104
N4260 X-16.119 Y-56.544 I0.594 J0.027 F#105
N4265 G1 X-11.887 Y-55.984
N4270 G3 X-11.372 Y-55.447 I-0.078 J0.59
N4275 X-11.398 Y-55.216 I-0.593 J0.052 F#103
N4280 X-11.593 Y-54.757 I-1.806 J-0.498 F#100
N4285 X-12.543 Y-53.998 I-1.85 J-1.34
N4290 X-14.671 Y-53.707 I-1.508 J-3.111
N4295 X-16.22 Y-54.685 I0.604 J-2.672
N4300 X-16.689 Y-55.587 I2.415 J-1.83
N4305 G1 X-16.711 Y-55.662 F#104
N4310 X-16.723 Y-55.739
N4315 X-16.725 Y-55.817
N4320 G3 X-16.04 Y-56.378 I0.594 J0.027 F#105
N4325 G1 X-11.957 Y-55.748
N4330 G3 X-11.455 Y-55.215 I-0.091 J0.588
N4335 X-11.479 Y-54.984 I-0.592 J0.055 F#103
N4340 X-11.632 Y-54.577 I-2.552 J-0.725 F#100
N4345 X-12.487 Y-53.815 I-1.75 J-1.101
N4350 X-14.625 Y-53.482 I-1.534 J-2.822
N4355 X-16.156 Y-54.473 I0.61 J-2.621
N4360 X-16.607 Y-55.38 I2.509 J-1.814
N4365 G1 X-16.629 Y-55.455 F#104
N4370 X-16.64 Y-55.532
N4375 X-16.642 Y-55.609
N4380 G3 X-15.947 Y-56.158 I0.594 J0.037 F#105
N4385 G1 X-12.034 Y-55.487
N4390 G3 X-11.543 Y-54.968 I-0.101 J0.586
N4395 X-11.563 Y-54.736 I-0.591 J0.068 F#103
N4400 X-11.702 Y-54.339 I-1.811 J-0.412 F#100
N4405 X-12.53 Y-53.584 I-1.714 J-1.049
N4410 X-14.709 Y-53.289 I-1.467 J-2.645
N4415 X-16.469 Y-54.987 I0.68 J-2.467
N4420 G1 X-16.485 Y-55.063 F#104
N4425 X-16.49 Y-55.141
N4430 X-16.485 Y-55.219
N4435 G3 X-15.818 Y-55.734 I0.59 J0.074 F#105
N4440 G1 X-12.127 Y-55.252
N4445 G3 X-11.616 Y-54.75 I-0.077 J0.59
N4450 X-11.627 Y-54.518 I-0.588 J0.088 F#103
N4455 X-11.744 Y-54.144 I-1.714 J-0.331 F#100
N4460 X-12.535 Y-53.378 I-1.644 J-0.906
N4465 X-14.625 Y-53.06 I-1.451 J-2.505
N4470 X-16.408 Y-54.78 I0.623 J-2.43
N4475 G1 X-16.462 Y-54.964
N4480 X-16.469 Y-54.987
N4485 G3 X-16.485 Y-55.219 I0.574 J-0.157 F#104
N4490 X-15.779 Y-55.728 I0.59 J0.074 F#105
N4495 G1 X-12.152 Y-55.01
N4500 G3 X-11.681 Y-54.526 I-0.116 J0.584
N4505 X-11.687 Y-54.294 I-0.587 J0.1 F#103
N4510 X-11.815 Y-53.884 I-1.863 J-0.354 F#100
N4515 X-12.688 Y-53.093 I-1.687 J-0.985
N4520 X-14.581 Y-52.844 I-1.286 J-2.458
N4525 X-16.377 Y-54.681 I0.605 J-2.388
N4530 G1 X-16.408 Y-54.78
N4535 G3 X-16.42 Y-55.012 I0.577 J-0.147 F#104
N4540 X-15.709 Y-55.51 I0.589 J0.085 F#105
N4545 G1 X-12.204 Y-54.776
N4550 G3 X-11.743 Y-54.312 I-0.122 J0.582
N4555 X-11.742 Y-54.08 I-0.583 J0.118 F#103
N4560 X-11.834 Y-53.721 I-2.019 J-0.324 F#100
N4565 X-12.576 Y-52.956 I-1.579 J-0.791
N4570 X-15.083 Y-52.812 I-1.391 J-2.307
N4575 X-16.284 Y-54.337 I0.993 J-2.016
N4580 G1 X-16.327 Y-54.502
N4585 X-16.339 Y-54.543
N4590 G3 X-16.35 Y-54.775 I0.577 J-0.144 F#104
N4595 X-15.638 Y-55.269 I0.589 J0.088 F#105
N4600 G1 X-12.25 Y-54.548
N4605 G3 X-11.796 Y-54.107 I-0.124 J0.582
N4610 X-11.786 Y-53.875 I-0.578 J0.141 F#103
N4615 X-11.899 Y-53.45 I-1.42 J-0.153 F#100
N4620 X-12.776 Y-52.651 I-1.64 J-0.917
N4625 X-14.787 Y-52.496 I-1.191 J-2.329
N4630 X-16.082 Y-53.68 I0.805 J-2.18
N4635 G1 X-16.177 Y-53.919
N4640 X-16.246 Y-54.166
N4645 X-16.283 Y-54.337
N4650 G3 X-16.28 Y-54.569 I0.585 J-0.108 F#104
N4655 X-15.576 Y-55.028 I0.582 J0.124 F#105
N4660 G1 X-12.291 Y-54.341
N4665 G3 X-11.835 Y-53.901 I-0.122 J0.582
N4670 X-11.825 Y-53.669 I-0.578 J0.142 F#103
N4675 X-11.912 Y-53.291 I-1.61 J-0.172 F#100
N4680 X-12.667 Y-52.514 I-1.544 J-0.746
N4685 X-14.543 Y-52.228 I-1.297 J-2.208
N4690 X-16.207 Y-53.974 I0.571 J-2.21
N4695 G1 X-16.241 Y-54.145
N4700 X-16.246 Y-54.166
N4705 G3 X-16.242 Y-54.398 I0.585 J-0.106 F#104
N4710 X-15.527 Y-54.852 I0.582 J0.126 F#105
N4715 G1 X-12.32 Y-54.111
N4720 G3 X-11.877 Y-53.679 I-0.134 J0.58
N4725 X-11.865 Y-53.448 I-0.576 J0.148 F#103
N4730 X-11.973 Y-53.016 I-1.141 J-0.057 F#100
N4735 X-12.832 Y-52.232 I-1.597 J-0.887
N4740 X-14.649 Y-52.061 I-1.125 J-2.21
N4745 X-16.168 Y-53.788 I0.659 J-2.111
N4750 G1 X-16.206 Y-53.974
N4755 G3 X-16.2 Y-54.206 I0.587 J-0.099 F#104
N4760 X-15.482 Y-54.652 I0.58 J0.133 F#105
N4765 G1 X-12.345 Y-53.909
N4770 G3 X-11.912 Y-53.5 I-0.137 J0.579
N4775 X-11.89 Y-53.269 I-0.57 J0.17 F#103
N4780 X-11.963 Y-52.887 I-1.205 J-0.034 F#100
N4785 X-12.689 Y-52.117 I-1.511 J-0.697
N4790 X-14.931 Y-51.965 I-1.27 J-2.108
N4795 X-15.888 Y-52.857 I0.925 J-1.953
N4800 G1 X-16.002 Y-53.097
N4805 X-16.086 Y-53.349
N4810 X-16.137 Y-53.61
N4815 X-16.168 Y-53.788
N4820 G3 X-16.155 Y-54.02 I0.589 J-0.082 F#104
N4825 X-15.438 Y-54.448 I0.576 J0.15 F#105
N4830 G1 X-12.365 Y-53.698
N4835 G3 X-11.941 Y-53.305 I-0.141 J0.578
N4840 X-11.913 Y-53.074 I-0.565 J0.185 F#103
N4845 X-11.999 Y-52.651 I-1.208 J-0.026 F#100
N4850 X-12.825 Y-51.851 I-1.563 J-0.787
N4855 X-14.715 Y-51.693 I-1.127 J-2.113
N4860 X-15.875 Y-52.7 I0.767 J-2.056
N4865 X-16.136 Y-53.61 I2.052 J-1.079
N4870 G1 X-16.138 Y-53.687 F#104
N4875 X-16.131 Y-53.765
N4880 X-16.114 Y-53.841
N4885 G3 X-15.402 Y-54.244 I0.569 J0.174 F#105
N4890 G1 X-12.385 Y-53.499
N4895 G3 X-11.966 Y-53.117 I-0.143 J0.578
N4900 X-11.934 Y-52.887 I-0.562 J0.196 F#103
N4905 X-12.013 Y-52.46 I-1.188 J-0.001 F#100
N4910 X-12.817 Y-51.664 I-1.548 J-0.759
N4915 X-14.469 Y-51.434 I-1.13 J-2.062
N4920 X-16.104 Y-53.364 I0.527 J-2.104
N4925 G1 X-16.114 Y-53.437
N4930 X-16.115 Y-53.442
N4935 G3 X-16.092 Y-53.673 I0.592 J-0.057 F#104
N4940 X-15.372 Y-54.075 I0.569 J0.174 F#105
N4945 G1 X-12.394 Y-53.296
N4950 G3 X-11.99 Y-52.937 I-0.15 J0.576
N4955 X-11.95 Y-52.708 I-0.554 J0.216 F#103
N4960 X-12.018 Y-52.283 I-1.089 J0.042 F#100
N4965 X-12.795 Y-51.486 I-1.529 J-0.714
N4970 X-14.468 Y-51.247 I-1.139 J-1.996
N4975 X-16.071 Y-53.077 I0.538 J-2.088
N4980 G1 X-16.094 Y-53.27
N4985 G3 X-16.068 Y-53.501 I0.593 J-0.052 F#104
N4990 X-15.347 Y-53.896 I0.567 J0.179 F#105
N4995 G1 X-12.4 Y-53.106
N5000 G3 X-12.004 Y-52.758 I-0.154 J0.575
N5005 X-11.959 Y-52.53 I-0.55 J0.226 F#103
N5010 X-12.008 Y-52.141 I-1.069 J0.063 F#100
N5015 X-12.703 Y-51.351 I-1.475 J-0.597
N5020 X-14.71 Y-51.139 I-1.216 J-1.9
N5025 X-15.946 Y-52.424 I0.803 J-2.009
N5030 X-16.07 Y-53.077 I2.308 J-0.778
N5035 X-16.044 Y-53.308 I0.592 J-0.05 F#104
N5040 X-15.324 Y-53.702 I0.567 J0.181 F#105
N5045 G1 X-12.407 Y-52.92
N5050 G3 X-12.011 Y-52.572 I-0.154 J0.575
N5055 X-11.966 Y-52.344 I-0.55 J0.226 F#103
N5060 X-12.024 Y-51.922 I-1.105 J0.063 F#100
N5065 X-12.81 Y-51.1 I-1.527 J-0.672
N5070 X-14.716 Y-50.958 I-1.102 J-1.932
N5075 X-15.953 Y-52.295 I0.814 J-1.994
N5080 G1 X-16.017 Y-52.555
N5085 X-16.049 Y-52.822
N5090 G3 X-16.009 Y-53.05 I0.595 J-0.013 F#104
N5095 X-15.318 Y-53.414 I0.554 J0.216 F#105
N5100 G1 X-12.431 Y-52.732
N5105 G3 X-12.023 Y-52.392 I-0.137 J0.579
N5110 X-11.973 Y-52.166 I-0.545 J0.24 F#103
N5115 X-12.256 Y-51.363 I-1.047 J0.082 F#100
N5120 X-13.396 Y-50.685 I-1.538 J-1.29
N5125 X-15.859 Y-51.886 I-0.522 J-2.054
N5130 G1 X-15.953 Y-52.137
N5135 X-16.014 Y-52.398
N5140 X-16.041 Y-52.665
N5145 G3 X-15.997 Y-52.893 I0.595 J-0.003 F#104
N5150 X-15.307 Y-53.247 I0.551 J0.225 F#105
N5155 G1 X-12.43 Y-52.554
N5160 G3 X-12.027 Y-52.221 I-0.139 J0.578
N5165 X-11.975 Y-51.995 I-0.542 J0.246 F#103
N5170 X-12.002 Y-51.629 I-1.113 J0.101 F#100
N5175 X-12.603 Y-50.854 I-1.409 J-0.471
N5180 X-14.773 Y-50.612 I-1.299 J-1.798
N5185 X-15.949 Y-51.958 I0.881 J-1.957
N5190 X-16.04 Y-52.665 I2.496 J-0.679
N5195 G1 X-16.036 Y-52.742 F#104
N5200 X-16.021 Y-52.819
N5205 X-15.997 Y-52.893
N5210 G3 X-15.272 Y-53.237 I0.551 J0.225 F#105
N5215 G1 X-12.396 Y-52.357
N5220 G3 X-12.028 Y-52.035 I-0.174 J0.569
N5225 X-11.975 Y-51.809 I-0.541 J0.247 F#103
N5230 X-12.017 Y-51.394 I-1.057 J0.103 F#100
N5235 X-12.738 Y-50.577 I-1.482 J-0.58
N5240 X-14.776 Y-50.427 I-1.163 J-1.883
N5245 X-15.95 Y-51.79 I0.882 J-1.946
N5250 G1 X-16.005 Y-52.049
N5255 X-16.028 Y-52.313
N5260 G3 X-15.98 Y-52.54 I0.595 J0.007 F#104
N5265 X-15.292 Y-52.885 I0.547 J0.234 F#105
N5270 G1 X-12.429 Y-52.188
N5275 G3 X-12.028 Y-51.856 I-0.141 J0.578
N5280 X-11.975 Y-51.63 I-0.541 J0.247 F#103
N5285 X-12.002 Y-51.254 I-1.143 J0.106 F#100
N5290 X-12.645 Y-50.449 I-1.426 J-0.48
N5295 X-14.783 Y-50.244 I-1.254 J-1.826
N5300 X-15.873 Y-51.385 I0.89 J-1.942
N5305 G1 X-15.957 Y-51.64
N5310 X-16.008 Y-51.904
N5315 X-16.025 Y-52.173
N5320 G3 X-15.972 Y-52.399 I0.595 J0.021 F#104
N5325 X-15.282 Y-52.729 I0.541 J0.247 F#105
N5330 G1 X-12.422 Y-51.994
N5335 G3 X-12.028 Y-51.665 I-0.148 J0.576
N5340 X-11.975 Y-51.439 I-0.541 J0.247 F#103
N5345 X-12.002 Y-51.066 I-1.12 J0.105 F#100
N5350 X-12.645 Y-50.262 I-1.424 J-0.479
N5355 X-14.578 Y-49.978 I-1.257 J-1.836
N5360 X-16.025 Y-51.986 I0.671 J-2.009
N5365 G1 Y-52.173
N5370 G3 X-15.972 Y-52.399 I0.595 J0.021 F#104
N5375 X-15.247 Y-52.718 I0.541 J0.247 F#105
N5380 G1 X-12.386 Y-51.792
N5385 G3 X-12.028 Y-51.473 I-0.183 J0.566
N5390 X-11.975 Y-51.247 I-0.541 J0.247 F#103
N5395 X-12.002 Y-50.878 I-1.104 J0.104 F#100
N5400 X-12.644 Y-50.075 I-1.423 J-0.478
N5405 X-14.827 Y-49.888 I-1.256 J-1.832
N5410 X-15.96 Y-51.272 I0.929 J-1.916
N5415 G1 X-16.009 Y-51.531
N5420 X-16.025 Y-51.794
N5425 Y-51.986
N5430 G3 X-15.972 Y-52.212 I0.595 J0.021 F#104
N5435 X-15.247 Y-52.531 I0.541 J0.247 F#105
N5440 G1 X-12.386 Y-51.603
N5445 G3 X-12.028 Y-51.283 I-0.184 J0.566
N5450 X-11.975 Y-51.057 I-0.541 J0.247 F#103
N5455 X-12.017 Y-50.644 I-1.055 J0.103 F#100
N5460 X-12.735 Y-49.829 I-1.475 J-0.577
N5465 X-14.584 Y-49.604 I-1.171 J-1.905
N5470 X-16.025 Y-51.604 I0.669 J-2.002
N5475 G1 Y-51.794
N5480 G3 X-15.972 Y-52.02 I0.595 J0.021 F#104
N5485 X-15.249 Y-52.34 I0.541 J0.247 F#105
N5490 G1 X-12.388 Y-51.425
N5495 G3 X-12.028 Y-51.105 I-0.181 J0.567
N5500 X-11.975 Y-50.879 I-0.541 J0.247 F#103
N5505 X-12.002 Y-50.503 I-1.145 J0.106 F#100
N5510 X-12.643 Y-49.701 I-1.421 J-0.479
N5515 X-14.83 Y-49.513 I-1.259 J-1.838
N5520 X-15.879 Y-50.643 I0.933 J-1.918
N5525 G1 X-15.96 Y-50.894
N5530 X-16.009 Y-51.152
N5535 X-16.025 Y-51.414
N5540 Y-51.604
N5545 G3 X-15.972 Y-51.83 I0.595 J0.021 F#104
N5550 X-15.249 Y-52.15 I0.541 J0.247 F#105
N5555 G1 X-12.388 Y-51.235
N5560 G3 X-12.028 Y-50.915 I-0.181 J0.567
N5565 X-11.975 Y-50.689 I-0.541 J0.247 F#103
N5570 X-12.002 Y-50.316 I-1.136 J0.105 F#100
N5575 X-12.643 Y-49.514 I-1.421 J-0.478
N5580 X-14.831 Y-49.325 I-1.26 J-1.839
N5585 X-15.879 Y-50.455 I0.933 J-1.917
N5590 G1 X-15.96 Y-50.705
N5595 X-16.009 Y-50.963
N5600 X-16.025 Y-51.225
N5605 Y-51.414
N5610 G3 X-15.972 Y-51.64 I0.595 J0.021 F#104
N5615 X-15.249 Y-51.96 I0.541 J0.247 F#105
N5620 G1 X-12.389 Y-51.047
N5625 G3 X-12.028 Y-50.727 I-0.181 J0.567
N5630 X-11.975 Y-50.501 I-0.541 J0.247 F#103
N5635 X-12.002 Y-50.129 I-1.132 J0.104 F#100
N5640 X-12.644 Y-49.326 I-1.421 J-0.479
N5645 X-14.587 Y-49.041 I-1.264 J-1.849
N5650 X-16.025 Y-51.036 I0.667 J-1.996
N5655 G1 Y-51.225
N5660 G3 X-15.972 Y-51.451 I0.595 J0.021 F#104
N5665 X-15.25 Y-51.771 I0.541 J0.247 F#105
N5670 G1 X-12.389 Y-50.86
N5675 G3 X-12.028 Y-50.539 I-0.181 J0.567
N5680 X-11.975 Y-50.313 I-0.541 J0.247 F#103
N5685 X-12.002 Y-49.942 I-1.116 J0.105 F#100
N5690 X-12.644 Y-49.139 I-1.422 J-0.478
N5695 X-14.588 Y-48.853 I-1.265 J-1.85
N5700 X-16.025 Y-50.847 I0.666 J-1.995
N5705 G1 Y-51.036
N5710 G3 X-15.972 Y-51.262 I0.595 J0.021 F#104
N5715 X-15.249 Y-51.582 I0.541 J0.247 F#105
N5720 G1 X-12.388 Y-50.667
N5725 G3 X-12.028 Y-50.347 I-0.181 J0.567
N5730 X-11.975 Y-50.121 I-0.541 J0.247 F#103
N5735 X-12.017 Y-49.707 I-1.055 J0.103 F#100
N5740 X-12.736 Y-48.892 I-1.477 J-0.578
N5745 X-14.589 Y-48.665 I-1.175 J-1.911
N5750 X-16.025 Y-50.659 I0.668 J-1.996
N5755 G1 Y-50.847
N5760 G3 X-15.972 Y-51.073 I0.595 J0.021 F#104
N5765 X-15.251 Y-51.394 I0.541 J0.247 F#105
N5770 G1 X-12.39 Y-50.489
N5775 G3 X-12.028 Y-50.169 I-0.179 J0.567
N5780 X-11.975 Y-49.943 I-0.541 J0.247 F#103
N5785 X-12.002 Y-49.567 I-1.139 J0.106 F#100
N5790 X-12.645 Y-48.763 I-1.423 J-0.479
N5795 X-14.589 Y-48.477 I-1.266 J-1.851
N5800 X-16.025 Y-50.47 I0.666 J-1.994
N5805 G1 Y-50.659
N5810 G3 X-15.972 Y-50.885 I0.595 J0.021 F#104
N5815 X-15.25 Y-51.205 I0.541 J0.247 F#105
N5820 G1 X-12.39 Y-50.297
N5825 G3 X-12.028 Y-49.977 I-0.18 J0.567
N5830 X-11.975 Y-49.751 I-0.541 J0.247 F#103
N5835 X-12.002 Y-49.38 I-1.12 J0.104 F#100
N5840 X-12.645 Y-48.576 I-1.424 J-0.479
N5845 X-14.589 Y-48.289 I-1.266 J-1.851
N5850 X-16.025 Y-50.282 I0.666 J-1.994
N5855 G1 Y-50.47
N5860 G3 X-15.972 Y-50.696 I0.595 J0.021 F#104
N5865 X-15.25 Y-51.016 I0.541 J0.247 F#105
N5870 G1 X-12.389 Y-50.108
N5875 G3 X-12.028 Y-49.787 I-0.18 J0.567
N5880 X-11.975 Y-49.561 I-0.541 J0.247 F#103
N5885 X-12.002 Y-49.192 I-1.113 J0.104 F#100
N5890 X-12.645 Y-48.388 I-1.424 J-0.479
N5895 X-14.59 Y-48.101 I-1.266 J-1.851
N5900 X-16.025 Y-50.093 I0.666 J-1.993
N5905 G1 Y-50.282
N5910 G3 X-15.972 Y-50.508 I0.595 J0.021 F#104
N5915 X-15.25 Y-50.828 I0.541 J0.247 F#105
N5920 G1 X-12.39 Y-49.92
N5925 G3 X-12.028 Y-49.6 I-0.18 J0.567
N5930 X-11.975 Y-49.374 I-0.541 J0.247 F#103
N5935 X-12.002 Y-49.005 I-1.108 J0.104 F#100
N5940 X-12.645 Y-48.2 I-1.424 J-0.479
N5945 X-14.59 Y-47.914 I-1.266 J-1.851
N5950 X-16.025 Y-49.905 I0.666 J-1.993
N5955 G1 Y-50.093
N5960 G3 X-15.972 Y-50.319 I0.595 J0.021 F#104
N5965 X-15.25 Y-50.64 I0.541 J0.247 F#105
N5970 G1 X-12.389 Y-49.731
N5975 G3 X-12.028 Y-49.411 I-0.18 J0.567
N5980 X-11.975 Y-49.185 I-0.541 J0.247 F#103
N5985 X-12.017 Y-48.77 I-1.058 J0.103 F#100
N5990 X-12.737 Y-47.953 I-1.479 J-0.579
N5995 X-14.59 Y-47.725 I-1.176 J-1.912
N6000 X-16.025 Y-49.717 I0.667 J-1.993
N6005 G1 Y-49.905
N6010 G3 X-15.972 Y-50.131 I0.595 J0.021 F#104
N6015 X-15.252 Y-50.452 I0.541 J0.247 F#105
N6020 G1 X-12.391 Y-49.553
N6025 G3 X-12.028 Y-49.232 I-0.178 J0.568
N6030 X-11.975 Y-49.006 I-0.541 J0.247 F#103
N6035 X-11.996 Y-48.652 I-1.175 J0.107 F#100
N6040 X-12.56 Y-47.886 I-1.376 J-0.422
N6045 X-14.59 Y-47.538 I-1.351 J-1.79
N6050 X-16.025 Y-49.529 I0.665 J-1.991
N6055 G1 Y-49.717
N6060 G3 X-15.972 Y-49.943 I0.595 J0.021 F#104
N6065 X-15.25 Y-50.263 I0.541 J0.247 F#105
N6070 G1 X-12.389 Y-49.354
N6075 G3 X-12.028 Y-49.034 I-0.18 J0.567
N6080 X-11.975 Y-48.808 I-0.541 J0.247 F#103
N6085 X-12.017 Y-48.395 I-1.051 J0.102 F#100
N6090 X-12.737 Y-47.578 I-1.48 J-0.579
N6095 X-14.639 Y-47.365 I-1.177 J-1.914
N6100 X-16.025 Y-49.338 I0.715 J-1.976
N6105 G1 Y-49.529
N6110 G3 X-15.972 Y-49.755 I0.595 J0.021 F#104
N6115 X-15.252 Y-50.076 I0.541 J0.247 F#105
N6120 G1 X-12.391 Y-49.176
N6125 G3 X-12.028 Y-48.855 I-0.178 J0.568
N6130 X-11.975 Y-48.629 I-0.541 J0.247 F#103
N6135 X-11.996 Y-48.277 I-1.177 J0.106 F#100
N6140 X-12.56 Y-47.51 I-1.377 J-0.422
N6145 X-14.756 Y-47.224 I-1.349 J-1.784
N6150 X-15.869 Y-48.355 I0.837 J-1.936
N6155 G1 X-15.955 Y-48.612
N6160 X-16.007 Y-48.878
N6165 X-16.025 Y-49.148
N6170 Y-49.338
N6175 G3 X-15.972 Y-49.564 I0.595 J0.021 F#104
N6180 X-15.251 Y-49.885 I0.541 J0.247 F#105
N6185 G1 X-12.39 Y-48.981
N6190 G3 X-12.028 Y-48.661 I-0.179 J0.567
N6195 X-11.975 Y-48.435 I-0.541 J0.247 F#103
N6200 X-12.017 Y-48.019 I-1.061 J0.103 F#100
N6205 X-12.738 Y-47.202 I-1.481 J-0.58
N6210 X-14.54 Y-46.959 I-1.175 J-1.908
N6215 X-16.025 Y-48.97 I0.621 J-2.013
N6220 G1 Y-49.148
N6225 G3 X-15.972 Y-49.374 I0.595 J0.021 F#104
N6230 X-15.253 Y-49.696 I0.541 J0.247 F#105
N6235 G1 X-12.392 Y-48.803
N6240 G3 X-12.028 Y-48.482 I-0.177 J0.568
N6245 X-11.975 Y-48.256 I-0.541 J0.247 F#103
N6250 X-11.996 Y-47.901 I-1.192 J0.106 F#100
N6255 X-12.561 Y-47.134 I-1.378 J-0.422
N6260 X-14.585 Y-46.787 I-1.348 J-1.783
N6265 X-16.025 Y-48.785 I0.668 J-1.999
N6270 G1 Y-48.97
N6275 G3 X-15.972 Y-49.196 I0.595 J0.021 F#104
N6280 X-15.25 Y-49.516 I0.541 J0.247 F#105
N6285 G1 X-12.39 Y-48.608
N6290 G3 X-12.028 Y-48.287 I-0.18 J0.567
N6295 X-11.975 Y-48.061 I-0.541 J0.247 F#103
N6300 X-12.002 Y-47.691 I-1.108 J0.105 F#100
N6305 X-12.646 Y-46.885 I-1.427 J-0.48
N6310 X-14.749 Y-46.662 I-1.259 J-1.832
N6315 X-15.955 Y-48.058 I0.837 J-1.942
N6320 G1 X-16.007 Y-48.325
N6325 X-16.025 Y-48.597
N6330 Y-48.785
N6335 G3 X-15.972 Y-49.011 I0.595 J0.021 F#104
N6340 X-15.249 Y-49.331 I0.541 J0.247 F#105
N6345 G1 X-12.388 Y-48.416
N6350 G3 X-12.028 Y-48.096 I-0.181 J0.567
N6355 X-11.975 Y-47.87 I-0.541 J0.247 F#103
N6360 X-12.017 Y-47.456 I-1.053 J0.102 F#100
N6365 X-12.737 Y-46.639 I-1.48 J-0.579
N6370 X-14.532 Y-46.397 I-1.169 J-1.896
N6375 X-16.025 Y-48.419 I0.624 J-2.023
N6380 G1 Y-48.597
N6385 G3 X-15.972 Y-48.823 I0.595 J0.021 F#104
N6390 X-15.251 Y-49.144 I0.541 J0.247 F#105
N6395 G1 X-12.39 Y-48.238
N6400 G3 X-12.028 Y-47.917 I-0.18 J0.567
N6405 X-11.975 Y-47.691 I-0.541 J0.247 F#103
N6410 X-12.002 Y-47.315 I-1.137 J0.106 F#100
N6415 X-12.646 Y-46.51 I-1.426 J-0.48
N6420 X-14.58 Y-46.226 I-1.258 J-1.837
N6425 X-16.025 Y-48.232 I0.671 J-2.007
N6430 G1 Y-48.419
N6435 G3 X-15.972 Y-48.645 I0.595 J0.021 F#104
N6440 X-15.248 Y-48.965 I0.541 J0.247 F#105
N6445 G1 X-12.387 Y-48.045
N6450 G3 X-12.028 Y-47.725 I-0.182 J0.566
N6455 X-11.975 Y-47.499 I-0.541 J0.247 F#103
N6460 X-12.002 Y-47.128 I-1.121 J0.104 F#100
N6465 X-12.645 Y-46.323 I-1.425 J-0.479
N6470 X-14.828 Y-46.136 I-1.257 J-1.832
N6475 X-15.879 Y-47.268 I0.933 J-1.92
N6480 G1 X-15.96 Y-47.519
N6485 X-16.009 Y-47.777
N6490 X-16.025 Y-48.04
N6495 Y-48.232
N6500 G3 X-15.972 Y-48.458 I0.595 J0.021 F#104
N6505 X-15.248 Y-48.777 I0.541 J0.247 F#105
N6510 G1 X-12.387 Y-47.856
N6515 G3 X-12.028 Y-47.536 I-0.182 J0.566
N6520 X-11.975 Y-47.31 I-0.541 J0.247 F#103
N6525 X-12.002 Y-46.94 I-1.111 J0.104 F#100
N6530 X-12.644 Y-46.136 I-1.424 J-0.479
N6535 X-14.83 Y-45.948 I-1.258 J-1.836
N6540 X-15.879 Y-47.079 I0.932 J-1.918
N6545 G1 X-15.96 Y-47.329
N6550 X-16.009 Y-47.588
N6555 X-16.025 Y-47.85
N6560 Y-48.04
N6565 G3 X-15.972 Y-48.266 I0.595 J0.021 F#104
N6570 X-15.248 Y-48.586 I0.541 J0.247 F#105
N6575 G1 X-12.387 Y-47.666
N6580 G3 X-12.028 Y-47.346 I-0.182 J0.566
N6585 X-11.975 Y-47.12 I-0.541 J0.247 F#103
N6590 X-12.002 Y-46.752 I-1.105 J0.103 F#100
N6595 X-12.644 Y-45.949 I-1.423 J-0.478
N6600 X-14.831 Y-45.76 I-1.26 J-1.838
N6605 X-15.879 Y-46.89 I0.932 J-1.917
N6610 G1 X-15.96 Y-47.14
N6615 X-16.009 Y-47.399
N6620 X-16.025 Y-47.661
N6625 Y-47.85
N6630 G3 X-15.972 Y-48.076 I0.595 J0.021 F#104
N6635 X-15.249 Y-48.396 I0.541 J0.247 F#105
N6640 G1 X-12.388 Y-47.478
N6645 G3 X-12.028 Y-47.158 I-0.182 J0.567
N6650 X-11.975 Y-46.932 I-0.541 J0.247 F#103
N6655 X-12.017 Y-46.518 I-1.058 J0.103 F#100
N6660 X-12.735 Y-45.703 I-1.476 J-0.578
N6665 X-14.587 Y-45.476 I-1.174 J-1.91
N6670 X-16.025 Y-47.472 I0.668 J-1.997
N6675 G1 Y-47.661
N6680 G3 X-15.972 Y-47.887 I0.595 J0.021 F#104
N6685 X-15.251 Y-48.207 I0.541 J0.247 F#105
N6690 G1 X-12.39 Y-47.3
N6695 G3 X-12.028 Y-46.98 I-0.18 J0.567
N6700 X-11.975 Y-46.754 I-0.541 J0.247 F#103
N6705 X-11.996 Y-46.4 I-1.185 J0.106 F#100
N6710 X-12.601 Y-45.605 I-1.392 J-0.431
N6715 X-14.832 Y-45.385 I-1.305 J-1.809
N6720 X-15.88 Y-46.513 I0.931 J-1.915
N6725 G1 X-15.96 Y-46.763
N6730 X-16.009 Y-47.021
N6735 X-16.025 Y-47.283
N6740 Y-47.472
N6745 G3 X-15.972 Y-47.698 I0.595 J0.021 F#104
N6750 X-15.249 Y-48.018 I0.541 J0.247 F#105
N6755 G1 X-12.389 Y-47.105
N6760 G3 X-12.028 Y-46.784 I-0.181 J0.567
N6765 X-11.975 Y-46.558 I-0.541 J0.247 F#103
N6770 X-12.009 Y-46.167 I-1.079 J0.104 F#100
N6775 X-12.689 Y-45.357 I-1.451 J-0.528
N6780 X-14.589 Y-45.1 I-1.221 J-1.881
N6785 X-16.025 Y-47.094 I0.667 J-1.995
N6790 G1 Y-47.283
N6795 G3 X-15.972 Y-47.509 I0.595 J0.021 F#104
N6800 X-15.25 Y-47.829 I0.541 J0.247 F#105
N6805 G1 X-12.389 Y-46.92
N6810 G3 X-12.028 Y-46.599 I-0.18 J0.567
N6815 X-11.975 Y-46.374 I-0.541 J0.247 F#103
N6820 X-12.002 Y-46.003 I-1.112 J0.105 F#100
N6825 X-12.645 Y-45.199 I-1.423 J-0.479
N6830 X-14.589 Y-44.913 I-1.266 J-1.85
N6835 X-16.025 Y-46.906 I0.666 J-1.994
N6840 G1 Y-47.094
N6845 G3 X-15.972 Y-47.32 I0.595 J0.021 F#104
N6850 X-15.25 Y-47.64 I0.541 J0.247 F#105
N6855 G1 X-12.389 Y-46.728
N6860 G3 X-12.028 Y-46.408 I-0.181 J0.567
N6865 X-11.975 Y-46.182 I-0.541 J0.247 F#103
N6870 X-12.017 Y-45.768 I-1.054 J0.103 F#100
N6875 X-12.736 Y-44.952 I-1.478 J-0.578
N6880 X-14.589 Y-44.725 I-1.176 J-1.911
N6885 X-16.025 Y-46.717 I0.667 J-1.995
N6890 G1 Y-46.906
N6895 G3 X-15.972 Y-47.132 I0.595 J0.021 F#104
N6900 X-15.251 Y-47.452 I0.541 J0.247 F#105
N6905 G1 X-12.391 Y-46.55
N6910 G3 X-12.028 Y-46.229 I-0.179 J0.567
N6915 X-11.975 Y-46.003 I-0.541 J0.247 F#103
N6920 X-12.002 Y-45.628 I-1.145 J0.105 F#100
N6925 X-12.645 Y-44.823 I-1.425 J-0.48
N6930 X-14.59 Y-44.537 I-1.266 J-1.851
N6935 X-16.025 Y-46.529 I0.666 J-1.993
N6940 G1 Y-46.717
N6945 G3 X-15.972 Y-46.943 I0.595 J0.021 F#104
N6950 X-15.251 Y-47.264 I0.541 J0.247 F#105
N6955 G1 X-12.39 Y-46.36
N6960 G3 X-12.028 Y-46.04 I-0.179 J0.567
N6965 X-11.975 Y-45.814 I-0.541 J0.247 F#103
N6970 X-11.996 Y-45.463 I-1.165 J0.106 F#100
N6975 X-12.56 Y-44.697 I-1.375 J-0.421
N6980 X-14.59 Y-44.349 I-1.351 J-1.789
N6985 X-16.025 Y-46.341 I0.665 J-1.992
N6990 G1 Y-46.529
N6995 G3 X-15.972 Y-46.755 I0.595 J0.021 F#104
N7000 X-15.25 Y-47.075 I0.541 J0.247 F#105
N7005 G1 X-12.389 Y-46.165
N7010 G3 X-12.028 Y-45.844 I-0.18 J0.567
N7015 X-11.975 Y-45.618 I-0.541 J0.247 F#103
N7020 X-12.009 Y-45.23 I-1.074 J0.102 F#100
N7025 X-12.691 Y-44.418 I-1.453 J-0.529
N7030 X-14.59 Y-44.161 I-1.222 J-1.882
N7035 X-16.025 Y-46.152 I0.667 J-1.993
N7040 G1 Y-46.341
N7045 G3 X-15.972 Y-46.567 I0.595 J0.021 F#104
N7050 X-15.251 Y-46.887 I0.541 J0.247 F#105
N7055 G1 X-12.39 Y-45.984
N7060 G3 X-12.028 Y-45.663 I-0.179 J0.567
N7065 X-11.975 Y-45.437 I-0.541 J0.247 F#103
N7070 X-12.002 Y-45.065 I-1.124 J0.105 F#100
N7075 X-12.646 Y-44.26 I-1.426 J-0.48
N7080 X-14.59 Y-43.973 I-1.266 J-1.851
N7085 X-16.025 Y-45.964 I0.666 J-1.992
N7090 G1 Y-46.152
N7095 G3 X-15.972 Y-46.378 I0.595 J0.021 F#104
N7100 X-15.251 Y-46.699 I0.541 J0.247 F#105
N7105 G1 X-12.39 Y-45.794
N7110 G3 X-12.028 Y-45.474 I-0.179 J0.567
N7115 X-11.975 Y-45.248 I-0.541 J0.247 F#103
N7120 X-12.002 Y-44.877 I-1.12 J0.104 F#100
N7125 X-12.646 Y-44.072 I-1.426 J-0.48
N7130 X-14.639 Y-43.801 I-1.267 J-1.854
N7135 X-16.025 Y-45.774 I0.714 J-1.975
N7140 G1 Y-45.964
N7145 G3 X-15.972 Y-46.19 I0.595 J0.021 F#104
N7150 X-15.251 Y-46.511 I0.541 J0.247 F#105
N7155 G1 X-12.39 Y-45.607
N7160 G3 X-12.028 Y-45.286 I-0.179 J0.567
N7165 X-11.975 Y-45.06 I-0.541 J0.247 F#103
N7170 X-12.002 Y-44.69 I-1.121 J0.104 F#100
N7175 X-12.646 Y-43.884 I-1.426 J-0.48
N7180 X-14.642 Y-43.613 I-1.269 J-1.858
N7185 X-16.025 Y-45.581 I0.712 J-1.97
N7190 G1 Y-45.774
N7195 G3 X-15.972 Y-46. I0.595 J0.021 F#104
N7200 X-15.252 Y-46.32 I0.541 J0.247 F#105
N7205 G1 X-12.391 Y-45.42
N7210 G3 X-12.028 Y-45.099 I-0.179 J0.568
N7215 X-11.975 Y-44.873 I-0.541 J0.247 F#103
N7220 X-12.002 Y-44.502 I-1.127 J0.103 F#100
N7225 X-12.646 Y-43.697 I-1.426 J-0.48
N7230 X-14.752 Y-43.469 I-1.264 J-1.841
N7235 X-15.749 Y-44.361 I0.849 J-1.953
N7240 X-16.025 Y-45.401 I1.829 J-1.041
N7245 G1 Y-45.581
N7250 G3 X-15.972 Y-45.807 I0.595 J0.021 F#104
N7255 X-15.253 Y-46.128 I0.541 J0.247 F#105
N7260 G1 X-12.392 Y-45.234
N7265 G3 X-12.028 Y-44.913 I-0.177 J0.568
N7270 X-11.975 Y-44.687 I-0.541 J0.247 F#103
N7275 X-12.002 Y-44.314 I-1.134 J0.104 F#100
N7280 X-12.646 Y-43.509 I-1.427 J-0.481
N7285 X-14.536 Y-43.206 I-1.263 J-1.842
N7290 X-16.025 Y-45.223 I0.622 J-2.017
N7295 G1 Y-45.401
N7300 G3 X-15.972 Y-45.627 I0.595 J0.021 F#104
N7305 X-15.252 Y-45.948 I0.541 J0.247 F#105
N7310 G1 X-12.391 Y-45.046
N7315 G3 X-12.028 Y-44.726 I-0.179 J0.568
N7320 X-11.975 Y-44.5 I-0.541 J0.247 F#103
N7325 X-12.002 Y-44.126 I-1.14 J0.104 F#100
N7330 X-12.647 Y-43.32 I-1.428 J-0.481
N7335 X-14.583 Y-43.034 I-1.261 J-1.839
N7340 X-16.025 Y-45.036 I0.67 J-2.003
N7345 G1 Y-45.223
N7350 G3 X-15.972 Y-45.448 I0.595 J0.021 F#104
N7355 X-15.25 Y-45.769 I0.541 J0.247 F#105
N7360 G1 X-12.39 Y-44.86
N7365 G3 X-12.028 Y-44.54 I-0.18 J0.567
N7370 X-11.975 Y-44.314 I-0.541 J0.247 F#103
N7375 X-12.002 Y-43.939 I-1.135 J0.106 F#100
N7380 X-12.647 Y-43.133 I-1.428 J-0.481
N7385 X-14.748 Y-42.91 I-1.257 J-1.83
N7390 X-15.955 Y-44.307 I0.838 J-1.944
N7395 G1 X-16.007 Y-44.575
N7400 X-16.025 Y-44.847
N7405 Y-45.036
N7410 G3 X-15.972 Y-45.262 I0.595 J0.021 F#104
N7415 X-15.249 Y-45.582 I0.541 J0.247 F#105
N7420 G1 X-12.389 Y-44.668
N7425 G3 X-12.028 Y-44.348 I-0.181 J0.567
N7430 X-11.975 Y-44.122 I-0.541 J0.247 F#103
N7435 X-12.002 Y-43.751 I-1.111 J0.105 F#100
N7440 X-12.646 Y-42.945 I-1.427 J-0.48
N7445 X-14.783 Y-42.739 I-1.255 J-1.826
N7450 X-15.873 Y-43.88 I0.893 J-1.944
N7455 G1 X-15.957 Y-44.136
N7460 X-16.008 Y-44.4
N7465 X-16.025 Y-44.669
N7470 Y-44.847
N7475 G3 X-15.972 Y-45.073 I0.595 J0.021 F#104
N7480 X-15.249 Y-45.393 I0.541 J0.247 F#105
N7485 G1 X-12.388 Y-44.476
N7490 G3 X-12.028 Y-44.156 I-0.182 J0.567
N7495 X-11.975 Y-43.93 I-0.541 J0.247 F#103
N7500 X-12.017 Y-43.516 I-1.056 J0.103 F#100
N7505 X-12.737 Y-42.699 I-1.479 J-0.579
N7510 X-14.579 Y-42.473 I-1.167 J-1.896
N7515 X-16.025 Y-44.481 I0.673 J-2.009
N7520 G1 Y-44.669
N7525 G3 X-15.972 Y-44.895 I0.595 J0.021 F#104
N7530 X-15.249 Y-45.214 I0.541 J0.247 F#105
N7535 G1 X-12.388 Y-44.297
N7540 G3 X-12.028 Y-43.978 I-0.182 J0.567
N7545 X-11.975 Y-43.752 I-0.541 J0.247 F#103
N7550 X-12.002 Y-43.375 I-1.149 J0.106 F#100
N7555 X-12.645 Y-42.571 I-1.425 J-0.48
N7560 X-14.827 Y-42.384 I-1.256 J-1.832
N7565 X-15.96 Y-43.768 I0.929 J-1.916
N7570 G1 X-16.009 Y-44.027
N7575 X-16.025 Y-44.289
N7580 Y-44.481
N7585 G3 X-15.972 Y-44.707 I0.595 J0.021 F#104
N7590 X-15.248 Y-45.027 I0.541 J0.247 F#105
N7595 G1 X-12.388 Y-44.108
N7600 G3 X-12.028 Y-43.788 I-0.182 J0.567
N7605 X-11.975 Y-43.562 I-0.541 J0.247 F#103
N7610 X-12.002 Y-43.187 I-1.139 J0.105 F#100
N7615 X-12.644 Y-42.384 I-1.423 J-0.479
N7620 X-14.829 Y-42.196 I-1.258 J-1.836
N7625 X-15.879 Y-43.328 I0.932 J-1.919
N7630 G1 X-15.96 Y-43.578
N7635 X-16.009 Y-43.837
N7640 X-16.025 Y-44.099
N7645 Y-44.289
N7650 G3 X-15.972 Y-44.515 I0.595 J0.021 F#104
N7655 X-15.249 Y-44.835 I0.541 J0.247 F#105
N7660 G1 X-12.388 Y-43.918
N7665 G3 X-12.028 Y-43.599 I-0.182 J0.567
N7670 X-11.975 Y-43.373 I-0.541 J0.247 F#103
N7675 X-12.002 Y-43. I-1.132 J0.104 F#100
N7680 X-12.644 Y-42.197 I-1.422 J-0.479
N7685 X-14.83 Y-42.009 I-1.259 J-1.838
N7690 X-15.879 Y-43.139 I0.932 J-1.918
N7695 G1 X-15.96 Y-43.389
N7700 X-16.009 Y-43.647
N7705 X-16.025 Y-43.91
N7710 Y-44.099
N7715 G3 X-15.972 Y-44.325 I0.595 J0.021 F#104
N7720 X-15.249 Y-44.645 I0.541 J0.247 F#105
N7725 G1 X-12.388 Y-43.731
N7730 G3 X-12.028 Y-43.411 I-0.181 J0.567
N7735 X-11.975 Y-43.185 I-0.541 J0.247 F#103
N7740 X-12.002 Y-42.812 I-1.13 J0.104 F#100
N7745 X-12.644 Y-42.01 I-1.422 J-0.479
N7750 X-14.831 Y-41.821 I-1.261 J-1.839
N7755 X-15.879 Y-42.95 I0.933 J-1.917
N7760 G1 X-15.96 Y-43.2
N7765 X-16.009 Y-43.458
N7770 X-16.025 Y-43.72
N7775 Y-43.91
N7780 G3 X-15.972 Y-44.136 I0.595 J0.021 F#104
N7785 X-15.25 Y-44.456 I0.541 J0.247 F#105
N7790 G1 X-12.389 Y-43.543
N7795 G3 X-12.028 Y-43.223 I-0.181 J0.567
N7800 X-11.975 Y-42.997 I-0.541 J0.247 F#103
N7805 X-12.002 Y-42.625 I-1.115 J0.105 F#100
N7810 X-12.644 Y-41.822 I-1.422 J-0.478
N7815 X-14.588 Y-41.537 I-1.264 J-1.849
N7820 X-16.025 Y-43.532 I0.667 J-1.996
N7825 G1 Y-43.72
N7830 G3 X-15.972 Y-43.946 I0.595 J0.021 F#104
N7835 X-15.249 Y-44.266 I0.541 J0.247 F#105
N7840 G1 X-12.388 Y-43.35
N7845 G3 X-12.028 Y-43.03 I-0.181 J0.567
N7850 X-11.975 Y-42.804 I-0.541 J0.247 F#103
N7855 X-12.017 Y-42.391 I-1.054 J0.103 F#100
N7860 X-12.736 Y-41.576 I-1.476 J-0.578
N7865 X-14.588 Y-41.348 I-1.175 J-1.911
N7870 X-16.025 Y-43.343 I0.668 J-1.996
N7875 G1 Y-43.532
N7880 G3 X-15.972 Y-43.758 I0.595 J0.021 F#104
N7885 X-15.251 Y-44.078 I0.541 J0.247 F#105
N7890 G1 X-12.39 Y-43.173
N7895 G3 X-12.028 Y-42.852 I-0.18 J0.567
N7900 X-11.975 Y-42.626 I-0.541 J0.247 F#103
N7905 X-12.002 Y-42.251 I-1.138 J0.106 F#100
N7910 X-12.645 Y-41.447 I-1.423 J-0.479
N7915 X-14.589 Y-41.161 I-1.265 J-1.85
N7920 X-16.025 Y-43.154 I0.666 J-1.994
N7925 G1 Y-43.343
N7930 G3 X-15.972 Y-43.569 I0.595 J0.021 F#104
N7935 X-15.25 Y-43.889 I0.541 J0.247 F#105
N7940 G1 X-12.39 Y-42.981
N7945 G3 X-12.028 Y-42.66 I-0.18 J0.567
N7950 X-11.975 Y-42.434 I-0.541 J0.247 F#103
N7955 X-12.002 Y-42.063 I-1.119 J0.104 F#100
N7960 X-12.645 Y-41.259 I-1.424 J-0.479
N7965 X-14.589 Y-40.973 I-1.266 J-1.851
N7970 X-16.025 Y-42.966 I0.666 J-1.994
N7975 G1 Y-43.154
N7980 G3 X-15.972 Y-43.38 I0.595 J0.021 F#104
N7985 X-15.25 Y-43.701 I0.541 J0.247 F#105
N7990 G1 X-12.389 Y-42.791
N7995 G3 X-12.028 Y-42.471 I-0.18 J0.567
N8000 X-11.975 Y-42.245 I-0.541 J0.247 F#103
N8005 X-12.002 Y-41.876 I-1.112 J0.104 F#100
N8010 X-12.645 Y-41.072 I-1.424 J-0.479
N8015 X-14.59 Y-40.785 I-1.266 J-1.851
N8020 X-16.025 Y-42.777 I0.666 J-1.993
N8025 G1 Y-42.966
N8030 G3 X-15.972 Y-43.192 I0.595 J0.021 F#104
N8035 X-15.25 Y-43.512 I0.541 J0.247 F#105
N8040 G1 X-12.39 Y-42.603
N8045 G3 X-12.028 Y-42.283 I-0.18 J0.567
N8050 X-11.975 Y-42.057 I-0.541 J0.247 F#103
N8055 X-12.002 Y-41.688 I-1.107 J0.104 F#100
N8060 X-12.645 Y-40.884 I-1.424 J-0.479
N8065 X-14.59 Y-40.597 I-1.266 J-1.851
N8070 X-16.025 Y-42.589 I0.666 J-1.993
N8075 G1 Y-42.777
N8080 G3 X-15.972 Y-43.003 I0.595 J0.021 F#104
N8085 X-15.25 Y-43.324 I0.541 J0.247 F#105
N8090 G1 X-12.389 Y-42.414
N8095 G3 X-12.028 Y-42.094 I-0.18 J0.567
N8100 X-11.975 Y-41.868 I-0.541 J0.247 F#103
N8105 X-12.017 Y-41.454 I-1.057 J0.103 F#100
N8110 X-12.737 Y-40.637 I-1.479 J-0.579
N8115 X-14.59 Y-40.409 I-1.176 J-1.912
N8120 X-16.025 Y-42.401 I0.667 J-1.994
N8125 G1 Y-42.589
N8130 G3 X-15.972 Y-42.815 I0.595 J0.021 F#104
N8135 X-15.252 Y-43.136 I0.541 J0.247 F#105
N8140 G1 X-12.391 Y-42.236
N8145 G3 X-12.028 Y-41.916 I-0.178 J0.568
N8150 X-11.975 Y-41.69 I-0.541 J0.247 F#103
N8155 X-12.002 Y-41.313 I-1.149 J0.106 F#100
N8160 X-12.646 Y-40.508 I-1.426 J-0.48
N8165 X-14.59 Y-40.222 I-1.266 J-1.851
N8170 X-16.025 Y-42.213 I0.666 J-1.992
N8175 G1 Y-42.401
N8180 G3 X-15.972 Y-42.627 I0.595 J0.021 F#104
N8185 X-15.252 Y-42.948 I0.541 J0.247 F#105
N8190 G1 X-12.391 Y-42.047
N8195 G3 X-12.028 Y-41.726 I-0.179 J0.568
N8200 X-11.975 Y-41.5 I-0.541 J0.247 F#103
N8205 X-12.002 Y-41.125 I-1.144 J0.105 F#100
N8210 X-12.646 Y-40.32 I-1.426 J-0.48
N8215 X-14.639 Y-40.049 I-1.267 J-1.854
N8220 X-16.025 Y-42.022 I0.714 J-1.975
N8225 G1 Y-42.213
N8230 G3 X-15.972 Y-42.439 I0.595 J0.021 F#104
N8235 X-15.252 Y-42.76 I0.541 J0.247 F#105
N8240 G1 X-12.391 Y-41.86
N8245 G3 X-12.028 Y-41.539 I-0.179 J0.568
N8250 X-11.975 Y-41.313 I-0.541 J0.247 F#103
N8255 X-11.996 Y-40.96 I-1.175 J0.106 F#100
N8260 X-12.56 Y-40.194 I-1.377 J-0.422
N8265 X-14.757 Y-39.907 I-1.349 J-1.784
N8270 X-15.869 Y-41.039 I0.836 J-1.935
N8275 G1 X-15.955 Y-41.296
N8280 X-16.007 Y-41.562
N8285 X-16.025 Y-41.832
N8290 Y-42.022
N8295 G3 X-15.972 Y-42.248 I0.595 J0.021 F#104
N8300 X-15.251 Y-42.569 I0.541 J0.247 F#105
N8305 G1 X-12.39 Y-41.665
N8310 G3 X-12.028 Y-41.344 I-0.179 J0.567
N8315 X-11.975 Y-41.118 I-0.541 J0.247 F#103
N8320 X-12.017 Y-40.703 I-1.059 J0.103 F#100
N8325 X-12.738 Y-39.886 I-1.481 J-0.58
N8330 X-14.54 Y-39.643 I-1.175 J-1.908
N8335 X-16.025 Y-41.653 I0.621 J-2.012
N8340 G1 Y-41.832
N8345 G3 X-15.972 Y-42.058 I0.595 J0.021 F#104
N8350 X-15.253 Y-42.379 I0.541 J0.247 F#105
N8355 G1 X-12.392 Y-41.487
N8360 G3 X-12.028 Y-41.166 I-0.177 J0.568
N8365 X-11.975 Y-40.94 I-0.541 J0.247 F#103
N8370 X-11.996 Y-40.585 I-1.19 J0.106 F#100
N8375 X-12.56 Y-39.818 I-1.377 J-0.422
N8380 X-14.585 Y-39.471 I-1.348 J-1.783
N8385 X-16.025 Y-41.469 I0.668 J-1.999
N8390 G1 Y-41.653
N8395 G3 X-15.972 Y-41.879 I0.595 J0.021 F#104
N8400 X-15.25 Y-42.2 I0.541 J0.247 F#105
N8405 G1 X-12.39 Y-41.291
N8410 G3 X-12.028 Y-40.971 I-0.18 J0.567
N8415 X-11.975 Y-40.745 I-0.541 J0.247 F#103
N8420 X-12.002 Y-40.375 I-1.106 J0.105 F#100
N8425 X-12.646 Y-39.569 I-1.427 J-0.48
N8430 X-14.749 Y-39.345 I-1.259 J-1.833
N8435 X-15.868 Y-40.483 I0.84 J-1.945
N8440 G1 X-15.955 Y-40.741
N8445 X-16.007 Y-41.009
N8450 X-16.025 Y-41.281
N8455 Y-41.469
N8460 G3 X-15.972 Y-41.695 I0.595 J0.021 F#104
N8465 X-15.249 Y-42.015 I0.541 J0.247 F#105
N8470 G1 X-12.388 Y-41.099
N8475 G3 X-12.028 Y-40.779 I-0.181 J0.567
N8480 X-11.975 Y-40.553 I-0.541 J0.247 F#103
N8485 X-12.017 Y-40.14 I-1.052 J0.102 F#100
N8490 X-12.737 Y-39.323 I-1.48 J-0.579
N8495 X-14.532 Y-39.081 I-1.169 J-1.896
N8500 X-16.025 Y-41.103 I0.623 J-2.023
N8505 G1 Y-41.281
N8510 G3 X-15.972 Y-41.507 I0.595 J0.021 F#104
N8515 X-15.251 Y-41.827 I0.541 J0.247 F#105
N8520 G1 X-12.39 Y-40.921
N8525 G3 X-12.028 Y-40.601 I-0.18 J0.567
N8530 X-11.975 Y-40.375 I-0.541 J0.247 F#103
N8535 X-12.002 Y-39.999 I-1.136 J0.106 F#100
N8540 X-12.646 Y-39.194 I-1.426 J-0.48
N8545 X-14.58 Y-38.909 I-1.258 J-1.837
N8550 X-16.025 Y-40.915 I0.671 J-2.007
N8555 G1 Y-41.103
N8560 G3 X-15.972 Y-41.329 I0.595 J0.021 F#104
N8565 X-15.248 Y-41.648 I0.541 J0.247 F#105
N8570 G1 X-12.387 Y-40.728
N8575 G3 X-12.028 Y-40.409 I-0.182 J0.566
N8580 X-11.975 Y-40.183 I-0.541 J0.247 F#103
N8585 X-12.002 Y-39.812 I-1.119 J0.104 F#100
N8590 X-12.645 Y-39.007 I-1.425 J-0.479
N8595 X-14.828 Y-38.82 I-1.257 J-1.832
N8600 X-15.879 Y-39.952 I0.933 J-1.92
N8605 G1 X-15.96 Y-40.203
N8610 X-16.009 Y-40.461
N8615 X-16.025 Y-40.724
N8620 Y-40.915
N8625 G3 X-15.972 Y-41.141 I0.595 J0.021 F#104
N8630 X-15.248 Y-41.461 I0.541 J0.247 F#105
N8635 G1 X-12.387 Y-40.539
N8640 G3 X-12.028 Y-40.219 I-0.183 J0.566
N8645 X-11.975 Y-39.993 I-0.541 J0.247 F#103
N8650 X-12.002 Y-39.624 I-1.11 J0.104 F#100
N8655 X-12.645 Y-38.82 I-1.424 J-0.479
N8660 X-14.83 Y-38.632 I-1.258 J-1.836
N8665 X-15.879 Y-39.763 I0.932 J-1.918
N8670 G1 X-15.96 Y-40.013
N8675 X-16.009 Y-40.271
N8680 X-16.025 Y-40.534
N8685 Y-40.724
N8690 G3 X-15.972 Y-40.95 I0.595 J0.021 F#104
N8695 X-15.248 Y-41.27 I0.541 J0.247 F#105
N8700 G1 X-12.387 Y-40.349
N8705 G3 X-12.028 Y-40.03 I-0.182 J0.566
N8710 X-11.975 Y-39.804 I-0.541 J0.247 F#103
N8715 X-12.002 Y-39.436 I-1.103 J0.103 F#100
N8720 X-12.644 Y-38.633 I-1.423 J-0.478
N8725 X-14.831 Y-38.444 I-1.26 J-1.838
N8730 X-15.879 Y-39.574 I0.932 J-1.917
N8735 G1 X-15.96 Y-39.824
N8740 X-16.009 Y-40.082
N8745 X-16.025 Y-40.344
N8750 Y-40.534
N8755 G3 X-15.972 Y-40.76 I0.595 J0.021 F#104
N8760 X-15.249 Y-41.08 I0.541 J0.247 F#105
N8765 G1 X-12.388 Y-40.162
N8770 G3 X-12.028 Y-39.842 I-0.182 J0.567
N8775 X-11.975 Y-39.616 I-0.541 J0.247 F#103
N8780 X-12.017 Y-39.201 I-1.057 J0.103 F#100
N8785 X-12.735 Y-38.387 I-1.476 J-0.578
N8790 X-14.587 Y-38.16 I-1.174 J-1.91
N8795 X-16.025 Y-40.155 I0.668 J-1.997
N8800 G1 Y-40.344
N8805 G3 X-15.972 Y-40.57 I0.595 J0.021 F#104
N8810 X-15.251 Y-40.891 I0.541 J0.247 F#105
N8815 G1 X-12.39 Y-39.984
N8820 G3 X-12.028 Y-39.663 I-0.18 J0.567
N8825 X-11.975 Y-39.437 I-0.541 J0.247 F#103
N8830 X-11.996 Y-39.083 I-1.183 J0.106 F#100
N8835 X-12.601 Y-38.288 I-1.393 J-0.431
N8840 X-14.832 Y-38.069 I-1.305 J-1.809
N8845 X-15.88 Y-39.197 I0.931 J-1.915
N8850 G1 X-15.96 Y-39.447
N8855 X-16.009 Y-39.705
N8860 X-16.025 Y-39.967
N8865 Y-40.155
N8870 G3 X-15.972 Y-40.381 I0.595 J0.021 F#104
N8875 X-15.249 Y-40.701 I0.541 J0.247 F#105
N8880 G1 X-12.389 Y-39.788
N8885 G3 X-12.028 Y-39.468 I-0.181 J0.567
N8890 X-11.975 Y-39.242 I-0.541 J0.247 F#103
N8895 X-12.009 Y-38.851 I-1.078 J0.104 F#100
N8900 X-12.689 Y-38.041 I-1.451 J-0.528
N8905 X-14.589 Y-37.784 I-1.221 J-1.881
N8910 X-16.025 Y-39.778 I0.667 J-1.995
N8915 G1 Y-39.967
N8920 G3 X-15.972 Y-40.193 I0.595 J0.021 F#104
N8925 X-15.25 Y-40.513 I0.541 J0.247 F#105
N8930 G1 X-12.389 Y-39.603
N8935 G3 X-12.028 Y-39.283 I-0.18 J0.567
N8940 X-11.975 Y-39.057 I-0.541 J0.247 F#103
N8945 X-12.002 Y-38.687 I-1.11 J0.105 F#100
N8950 X-12.645 Y-37.883 I-1.423 J-0.479
N8955 X-14.589 Y-37.596 I-1.266 J-1.85
N8960 X-16.025 Y-39.589 I0.666 J-1.994
N8965 G1 Y-39.778
N8970 G3 X-15.972 Y-40.004 I0.595 J0.021 F#104
N8975 X-15.25 Y-40.324 I0.541 J0.247 F#105
N8980 G1 X-12.389 Y-39.411
N8985 G3 X-12.028 Y-39.091 I-0.181 J0.567
N8990 X-11.975 Y-38.865 I-0.541 J0.247 F#103
N8995 X-12.017 Y-38.452 I-1.053 J0.103 F#100
N9000 X-12.736 Y-37.636 I-1.478 J-0.578
N9005 X-14.589 Y-37.408 I-1.176 J-1.911
N9010 X-16.025 Y-39.401 I0.667 J-1.994
N9015 G1 Y-39.589
N9020 G3 X-15.972 Y-39.815 I0.595 J0.021 F#104
N9025 X-15.251 Y-40.136 I0.541 J0.247 F#105
N9030 G1 X-12.391 Y-39.233
N9035 G3 X-12.028 Y-38.913 I-0.179 J0.567
N9040 X-11.975 Y-38.687 I-0.541 J0.247 F#103
N9045 X-12.002 Y-38.311 I-1.143 J0.105 F#100
N9050 X-12.645 Y-37.507 I-1.425 J-0.48
N9055 X-14.59 Y-37.221 I-1.266 J-1.851
N9060 X-16.025 Y-39.213 I0.666 J-1.993
N9065 G1 Y-39.401
N9070 G3 X-15.972 Y-39.627 I0.595 J0.021 F#104
N9075 X-15.251 Y-39.948 I0.541 J0.247 F#105
N9080 G1 X-12.39 Y-39.044
N9085 G3 X-12.028 Y-38.723 I-0.179 J0.567
N9090 X-11.975 Y-38.497 I-0.541 J0.247 F#103
N9095 X-12.002 Y-38.124 I-1.136 J0.105 F#100
N9100 X-12.645 Y-37.319 I-1.425 J-0.48
N9105 X-14.59 Y-37.033 I-1.266 J-1.851
N9110 X-16.025 Y-39.024 I0.666 J-1.993
N9115 G1 Y-39.213
N9120 G3 X-15.972 Y-39.439 I0.595 J0.021 F#104
N9125 X-15.251 Y-39.759 I0.541 J0.247 F#105
N9130 G1 X-12.391 Y-38.856
N9135 G3 X-12.028 Y-38.536 I-0.179 J0.567
N9140 X-11.975 Y-38.31 I-0.541 J0.247 F#103
N9145 X-12.002 Y-37.936 I-1.132 J0.105 F#100
N9150 X-12.646 Y-37.132 I-1.425 J-0.48
N9155 X-14.59 Y-36.845 I-1.266 J-1.851
N9160 X-16.025 Y-38.836 I0.666 J-1.992
N9165 G1 Y-39.024
N9170 G3 X-15.972 Y-39.25 I0.595 J0.021 F#104
N9175 X-15.251 Y-39.571 I0.541 J0.247 F#105
N9180 G1 X-12.39 Y-38.667
N9185 G3 X-12.028 Y-38.347 I-0.179 J0.567
N9190 X-11.975 Y-38.121 I-0.541 J0.247 F#103
N9195 X-12.002 Y-37.749 I-1.123 J0.105 F#100
N9200 X-12.646 Y-36.944 I-1.426 J-0.48
N9205 X-14.59 Y-36.657 I-1.266 J-1.851
N9210 X-16.025 Y-38.648 I0.666 J-1.992
N9215 G1 Y-38.836
N9220 G3 X-15.972 Y-39.062 I0.595 J0.021 F#104
N9225 X-15.251 Y-39.383 I0.541 J0.247 F#105
N9230 G1 X-12.39 Y-38.478
N9235 G3 X-12.028 Y-38.157 I-0.179 J0.567
N9240 X-11.975 Y-37.931 I-0.541 J0.247 F#103
N9245 X-12.002 Y-37.561 I-1.118 J0.104 F#100
N9250 X-12.646 Y-36.756 I-1.426 J-0.48
N9255 X-14.639 Y-36.485 I-1.267 J-1.854
N9260 X-16.025 Y-38.457 I0.714 J-1.975
N9265 G1 Y-38.648
N9270 G3 X-15.972 Y-38.874 I0.595 J0.021 F#104
N9275 X-15.251 Y-39.195 I0.541 J0.247 F#105
N9280 G1 X-12.39 Y-38.29
N9285 G3 X-12.028 Y-37.97 I-0.179 J0.567
N9290 X-11.975 Y-37.744 I-0.541 J0.247 F#103
N9295 X-12.002 Y-37.373 I-1.12 J0.104 F#100
N9300 X-12.646 Y-36.568 I-1.426 J-0.48
N9305 X-14.642 Y-36.297 I-1.269 J-1.858
N9310 X-16.025 Y-38.265 I0.712 J-1.97
N9315 G1 Y-38.457
N9320 G3 X-15.972 Y-38.683 I0.595 J0.021 F#104
N9325 X-15.252 Y-39.004 I0.541 J0.247 F#105
N9330 G1 X-12.391 Y-38.103
N9335 G3 X-12.028 Y-37.782 I-0.179 J0.568
N9340 X-11.975 Y-37.556 I-0.541 J0.247 F#103
N9345 X-12.002 Y-37.186 I-1.126 J0.103 F#100
N9350 X-12.646 Y-36.38 I-1.426 J-0.48
N9355 X-14.753 Y-36.153 I-1.264 J-1.841
N9360 X-15.749 Y-37.044 I0.849 J-1.953
N9365 X-16.025 Y-38.084 I1.828 J-1.041
N9370 G1 Y-38.265
N9375 G3 X-15.972 Y-38.491 I0.595 J0.021 F#104
N9380 X-15.253 Y-38.812 I0.541 J0.247 F#105
N9385 G1 X-12.392 Y-37.918
N9390 G3 X-12.028 Y-37.597 I-0.177 J0.568
N9395 X-11.975 Y-37.371 I-0.541 J0.247 F#103
N9400 X-12.002 Y-36.998 I-1.132 J0.104 F#100
N9405 X-12.646 Y-36.192 I-1.427 J-0.481
N9410 X-14.536 Y-35.89 I-1.263 J-1.842
N9415 X-16.025 Y-37.906 I0.622 J-2.017
N9420 G1 Y-38.084
N9425 G3 X-15.972 Y-38.31 I0.595 J0.021 F#104
N9430 X-15.252 Y-38.631 I0.541 J0.247 F#105
N9435 G1 X-12.391 Y-37.73
N9440 G3 X-12.028 Y-37.409 I-0.179 J0.568
N9445 X-11.975 Y-37.183 I-0.541 J0.247 F#103
N9450 X-12.002 Y-36.81 I-1.139 J0.104 F#100
N9455 X-12.647 Y-36.004 I-1.428 J-0.481
N9460 X-14.583 Y-35.718 I-1.261 J-1.839
N9465 X-16.025 Y-37.72 I0.67 J-2.003
N9470 G1 Y-37.906
N9475 G3 X-15.972 Y-38.132 I0.595 J0.021 F#104
N9480 X-15.25 Y-38.452 I0.541 J0.247 F#105
N9485 G1 X-12.39 Y-37.544
N9490 G3 X-12.028 Y-37.223 I-0.18 J0.567
N9495 X-11.975 Y-36.997 I-0.541 J0.247 F#103
N9500 X-12.002 Y-36.623 I-1.133 J0.106 F#100
N9505 X-12.647 Y-35.816 I-1.428 J-0.481
N9510 X-14.748 Y-35.593 I-1.257 J-1.83
N9515 X-15.955 Y-36.991 I0.838 J-1.944
N9520 G1 X-16.007 Y-37.259
N9525 X-16.025 Y-37.531
N9530 Y-37.72
N9535 G3 X-15.972 Y-37.946 I0.595 J0.021 F#104
N9540 X-15.249 Y-38.266 I0.541 J0.247 F#105
N9545 G1 X-12.389 Y-37.352
N9550 G3 X-12.028 Y-37.032 I-0.181 J0.567
N9555 X-11.975 Y-36.806 I-0.541 J0.247 F#103
N9560 X-12.002 Y-36.435 I-1.11 J0.105 F#100
N9565 X-12.646 Y-35.629 I-1.427 J-0.48
N9570 X-14.783 Y-35.423 I-1.255 J-1.826
N9575 X-15.873 Y-36.564 I0.893 J-1.944
N9580 G1 X-15.957 Y-36.819
N9585 X-16.008 Y-37.084
N9590 X-16.025 Y-37.352
N9595 Y-37.531
N9600 G3 X-15.972 Y-37.757 I0.595 J0.021 F#104
N9605 X-15.249 Y-38.077 I0.541 J0.247 F#105
N9610 G1 X-12.388 Y-37.159
N9615 G3 X-12.028 Y-36.84 I-0.182 J0.567
N9620 X-11.975 Y-36.614 I-0.541 J0.247 F#103
N9625 X-12.017 Y-36.2 I-1.055 J0.103 F#100
N9630 X-12.737 Y-35.383 I-1.479 J-0.579
N9635 X-14.579 Y-35.157 I-1.167 J-1.896
N9640 X-16.025 Y-37.165 I0.672 J-2.009
N9645 G1 Y-37.352
N9650 G3 X-15.972 Y-37.578 I0.595 J0.021 F#104
N9655 X-15.249 Y-37.898 I0.541 J0.247 F#105
N9660 G1 X-12.388 Y-36.981
N9665 G3 X-12.028 Y-36.661 I-0.182 J0.567
N9670 X-11.975 Y-36.435 I-0.541 J0.247 F#103
N9675 X-12.002 Y-36.059 I-1.148 J0.105 F#100
N9680 X-12.645 Y-35.255 I-1.425 J-0.48
N9685 X-14.827 Y-35.068 I-1.256 J-1.832
N9690 X-15.96 Y-36.451 I0.929 J-1.916
N9695 G1 X-16.009 Y-36.71
N9700 X-16.025 Y-36.973
N9705 Y-37.165
N9710 G3 X-15.972 Y-37.391 I0.595 J0.021 F#104
N9715 X-15.248 Y-37.71 I0.541 J0.247 F#105
N9720 G1 X-12.388 Y-36.792
N9725 G3 X-12.028 Y-36.472 I-0.182 J0.566
N9730 X-11.975 Y-36.246 I-0.541 J0.247 F#103
N9735 X-12.002 Y-35.871 I-1.137 J0.105 F#100
N9740 X-12.644 Y-35.068 I-1.423 J-0.479
N9745 X-14.829 Y-34.88 I-1.258 J-1.836
N9750 X-15.879 Y-36.011 I0.932 J-1.919
N9755 G1 X-15.96 Y-36.262
N9760 X-16.009 Y-36.52
N9765 X-16.025 Y-36.783
N9770 Y-36.973
N9775 G3 X-15.972 Y-37.199 I0.595 J0.021 F#104
N9780 X-15.249 Y-37.519 I0.541 J0.247 F#105
N9785 G1 X-12.388 Y-36.602
N9790 G3 X-12.028 Y-36.282 I-0.182 J0.567
N9795 X-11.975 Y-36.056 I-0.541 J0.247 F#103
N9800 X-12.002 Y-35.684 I-1.131 J0.104 F#100
N9805 X-12.644 Y-34.881 I-1.422 J-0.479
N9810 X-14.83 Y-34.692 I-1.259 J-1.838
N9815 X-15.879 Y-35.823 I0.932 J-1.917
N9820 G1 X-15.96 Y-36.073
N9825 X-16.009 Y-36.331
N9830 X-16.025 Y-36.593
N9835 Y-36.783
N9840 G3 X-15.972 Y-37.009 I0.595 J0.021 F#104
N9845 X-15.249 Y-37.329 I0.541 J0.247 F#105
N9850 G1 X-12.388 Y-36.414
N9855 G3 X-12.028 Y-36.094 I-0.181 J0.567
N9860 X-11.975 Y-35.868 I-0.541 J0.247 F#103
N9865 X-12.002 Y-35.496 I-1.129 J0.104 F#100
N9870 X-12.644 Y-34.693 I-1.422 J-0.479
N9875 X-14.831 Y-34.504 I-1.261 J-1.839
N9880 X-15.879 Y-35.634 I0.933 J-1.917
N9885 G1 X-15.96 Y-35.884
N9890 X-16.009 Y-36.142
N9895 X-16.025 Y-36.404
N9900 Y-36.593
N9905 G3 X-15.972 Y-36.819 I0.595 J0.021 F#104
N9910 X-15.249 Y-37.139 I0.541 J0.247 F#105
N9915 G1 X-12.389 Y-36.226
N9920 G3 X-12.028 Y-35.906 I-0.181 J0.567
N9925 X-11.975 Y-35.68 I-0.541 J0.247 F#103
N9930 X-12.002 Y-35.309 I-1.113 J0.105 F#100
N9935 X-12.644 Y-34.506 I-1.422 J-0.478
N9940 X-14.588 Y-34.22 I-1.265 J-1.849
N9945 X-16.025 Y-36.215 I0.667 J-1.996
N9950 G1 Y-36.404
N9955 G3 X-15.972 Y-36.63 I0.595 J0.021 F#104
N9960 X-15.249 Y-36.95 I0.541 J0.247 F#105
N9965 G1 X-12.388 Y-36.034
N9970 G3 X-12.028 Y-35.714 I-0.181 J0.567
N9975 X-11.975 Y-35.488 I-0.541 J0.247 F#103
N9980 X-12.017 Y-35.075 I-1.054 J0.103 F#100
N9985 X-12.736 Y-34.26 I-1.476 J-0.578
N9990 X-14.588 Y-34.032 I-1.175 J-1.911
N9995 X-16.025 Y-36.026 I0.668 J-1.996
N10000 G1 Y-36.215
N10005 G3 X-15.972 Y-36.441 I0.595 J0.021 F#104
N10010 X-15.251 Y-36.762 I0.541 J0.247 F#105
N10015 G1 X-12.39 Y-35.856
N10020 G3 X-12.028 Y-35.536 I-0.18 J0.567
N10025 X-11.975 Y-35.31 I-0.541 J0.247 F#103
N10030 X-12.002 Y-34.934 I-1.137 J0.106 F#100
N10035 X-12.645 Y-34.131 I-1.423 J-0.479
N10040 X-14.589 Y-33.845 I-1.265 J-1.85
N10045 X-16.025 Y-35.838 I0.666 J-1.994
N10050 G1 Y-36.026
N10055 G3 X-15.972 Y-36.252 I0.595 J0.021 F#104
N10060 X-15.25 Y-36.573 I0.541 J0.247 F#105
N10065 G1 X-12.389 Y-35.664
N10070 G3 X-12.028 Y-35.344 I-0.18 J0.567
N10075 X-11.975 Y-35.118 I-0.541 J0.247 F#103
N10080 X-12.002 Y-34.747 I-1.118 J0.104 F#100
N10085 X-12.645 Y-33.943 I-1.423 J-0.479
N10090 X-14.589 Y-33.657 I-1.266 J-1.851
N10095 X-16.025 Y-35.649 I0.666 J-1.994
N10100 G1 Y-35.838
N10105 G3 X-15.972 Y-36.064 I0.595 J0.021 F#104
N10110 X-15.25 Y-36.384 I0.541 J0.247 F#105
N10115 G1 X-12.389 Y-35.475
N10120 G3 X-12.028 Y-35.154 I-0.18 J0.567
N10125 X-11.975 Y-34.928 I-0.541 J0.247 F#103
N10130 X-12.002 Y-34.56 I-1.111 J0.103 F#100
N10135 X-12.645 Y-33.755 I-1.424 J-0.479
N10140 X-14.59 Y-33.469 I-1.266 J-1.851
N10145 X-16.025 Y-35.461 I0.666 J-1.993
N10150 G1 Y-35.649
N10155 G3 X-15.972 Y-35.875 I0.595 J0.021 F#104
N10160 X-15.25 Y-36.196 I0.541 J0.247 F#105
N10165 G1 X-12.389 Y-35.287
N10170 G3 X-12.028 Y-34.967 I-0.18 J0.567
N10175 X-11.975 Y-34.741 I-0.541 J0.247 F#103
N10180 X-12.002 Y-34.372 I-1.106 J0.104 F#100
N10185 X-12.645 Y-33.568 I-1.424 J-0.479
N10190 X-14.59 Y-33.281 I-1.266 J-1.851
N10195 X-16.025 Y-35.273 I0.666 J-1.993
N10200 G1 Y-35.461
N10205 G3 X-15.972 Y-35.687 I0.595 J0.021 F#104
N10210 X-15.25 Y-36.007 I0.541 J0.247 F#105
N10215 G1 X-12.389 Y-35.098
N10220 G3 X-12.028 Y-34.778 I-0.18 J0.567
N10225 X-11.975 Y-34.552 I-0.541 J0.247 F#103
N10230 X-12.017 Y-34.137 I-1.057 J0.103 F#100
N10235 X-12.737 Y-33.321 I-1.479 J-0.579
N10240 X-14.59 Y-33.093 I-1.176 J-1.912
N10245 X-16.025 Y-35.085 I0.667 J-1.994
N10250 G1 Y-35.273
N10255 G3 X-15.972 Y-35.499 I0.595 J0.021 F#104
N10260 X-15.252 Y-35.82 I0.541 J0.247 F#105
N10265 G1 X-12.391 Y-34.92
N10270 G3 X-12.028 Y-34.599 I-0.179 J0.568
N10275 X-11.975 Y-34.373 I-0.541 J0.247 F#103
N10280 X-12.002 Y-33.997 I-1.148 J0.106 F#100
N10285 X-12.646 Y-33.192 I-1.426 J-0.48
N10290 X-14.59 Y-32.905 I-1.266 J-1.851
N10295 X-16.025 Y-34.896 I0.666 J-1.992
N10300 G1 Y-35.085
N10305 G3 X-15.972 Y-35.311 I0.595 J0.021 F#104
N10310 X-15.252 Y-35.631 I0.541 J0.247 F#105
N10315 G1 X-12.391 Y-34.73
N10320 G3 X-12.028 Y-34.41 I-0.179 J0.568
N10325 X-11.975 Y-34.184 I-0.541 J0.247 F#103
N10330 X-12.002 Y-33.809 I-1.143 J0.105 F#100
N10335 X-12.646 Y-33.004 I-1.426 J-0.48
N10340 X-14.639 Y-32.733 I-1.267 J-1.854
N10345 X-16.025 Y-34.706 I0.714 J-1.975
N10350 G1 Y-34.896
N10355 G3 X-15.972 Y-35.122 I0.595 J0.021 F#104
N10360 X-15.252 Y-35.443 I0.541 J0.247 F#105
N10365 G1 X-12.391 Y-34.543
N10370 G3 X-12.028 Y-34.222 I-0.179 J0.568
N10375 X-11.975 Y-33.996 I-0.541 J0.247 F#103
N10380 X-11.996 Y-33.644 I-1.174 J0.106 F#100
N10385 X-12.56 Y-32.877 I-1.377 J-0.422
N10390 X-14.757 Y-32.591 I-1.349 J-1.784
N10395 X-15.869 Y-33.722 I0.836 J-1.935
N10400 G1 X-15.955 Y-33.979
N10405 X-16.007 Y-34.245
N10410 X-16.025 Y-34.515
N10415 Y-34.706
N10420 G3 X-15.972 Y-34.932 I0.595 J0.021 F#104
N10425 X-15.251 Y-35.252 I0.541 J0.247 F#105
N10430 G1 X-12.39 Y-34.348
N10435 G3 X-12.028 Y-34.028 I-0.179 J0.567
N10440 X-11.975 Y-33.802 I-0.541 J0.247 F#103
N10445 X-12.017 Y-33.387 I-1.059 J0.103 F#100
N10450 X-12.738 Y-32.57 I-1.481 J-0.58
N10455 X-14.54 Y-32.327 I-1.175 J-1.908
N10460 X-16.025 Y-34.337 I0.621 J-2.012
N10465 G1 Y-34.515
N10470 G3 X-15.972 Y-34.741 I0.595 J0.021 F#104
N10475 X-15.253 Y-35.063 I0.541 J0.247 F#105
N10480 G1 X-12.392 Y-34.17
N10485 G3 X-12.028 Y-33.849 I-0.177 J0.568
N10490 X-11.975 Y-33.623 I-0.541 J0.247 F#103
N10495 X-11.996 Y-33.269 I-1.188 J0.106 F#100
N10500 X-12.56 Y-32.502 I-1.377 J-0.422
N10505 X-14.585 Y-32.154 I-1.348 J-1.784
N10510 X-16.025 Y-34.152 I0.668 J-1.999
N10515 G1 Y-34.337
N10520 G3 X-15.972 Y-34.563 I0.595 J0.021 F#104
N10525 X-15.25 Y-34.883 I0.541 J0.247 F#105
N10530 G1 X-12.39 Y-33.975
N10535 G3 X-12.028 Y-33.654 I-0.18 J0.567
N10540 X-11.975 Y-33.428 I-0.541 J0.247 F#103
N10545 X-12.002 Y-33.058 I-1.119 J0.103 F#100
N10550 X-12.646 Y-32.253 I-1.427 J-0.48
N10555 X-14.749 Y-32.029 I-1.259 J-1.833
N10560 X-15.868 Y-33.167 I0.84 J-1.945
N10565 G1 X-15.955 Y-33.425
N10570 X-16.007 Y-33.692
N10575 X-16.025 Y-33.964
N10580 Y-34.152
N10585 G3 X-15.972 Y-34.378 I0.595 J0.021 F#104
N10590 X-15.25 Y-34.699 I0.541 J0.247 F#105
N10595 G1 X-12.389 Y-33.788
N10600 G3 X-12.028 Y-33.468 I-0.18 J0.567
N10605 X-11.975 Y-33.242 I-0.541 J0.247 F#103
N10610 X-12.009 Y-32.847 I-1.094 J0.104 F#100
N10615 X-12.691 Y-32.035 I-1.455 J-0.529
N10620 X-14.532 Y-31.765 I-1.215 J-1.868
N10625 X-16.025 Y-33.786 I0.623 J-2.022
N10630 G1 Y-33.964
N10635 G3 X-15.972 Y-34.19 I0.595 J0.021 F#104
N10640 X-15.251 Y-34.511 I0.541 J0.247 F#105
N10645 G1 X-12.39 Y-33.605
N10650 G3 X-12.028 Y-33.284 I-0.18 J0.567
N10655 X-11.975 Y-33.058 I-0.541 J0.247 F#103
N10660 X-12.002 Y-32.683 I-1.134 J0.106 F#100
N10665 X-12.646 Y-31.878 I-1.426 J-0.48
N10670 X-14.58 Y-31.593 I-1.258 J-1.837
N10675 X-16.025 Y-33.599 I0.671 J-2.007
N10680 G1 Y-33.786
N10685 G3 X-15.972 Y-34.012 I0.595 J0.021 F#104
N10690 X-15.248 Y-34.332 I0.541 J0.247 F#105
N10695 G1 X-12.387 Y-33.412
N10700 G3 X-12.028 Y-33.092 I-0.182 J0.566
N10705 X-11.975 Y-32.866 I-0.541 J0.247 F#103
N10710 X-12.002 Y-32.495 I-1.118 J0.104 F#100
N10715 X-12.645 Y-31.691 I-1.425 J-0.479
N10720 X-14.828 Y-31.503 I-1.257 J-1.832
N10725 X-15.879 Y-32.635 I0.933 J-1.92
N10730 G1 X-15.96 Y-32.886
N10735 X-16.009 Y-33.145
N10740 X-16.025 Y-33.408
N10745 Y-33.599
N10750 G3 X-15.972 Y-33.825 I0.595 J0.021 F#104
N10755 X-15.248 Y-34.145 I0.541 J0.247 F#105
N10760 G1 X-12.387 Y-33.222
N10765 G3 X-12.028 Y-32.903 I-0.183 J0.566
N10770 X-11.975 Y-32.677 I-0.541 J0.247 F#103
N10775 X-12.002 Y-32.308 I-1.108 J0.104 F#100
N10780 X-12.645 Y-31.503 I-1.424 J-0.479
N10785 X-14.83 Y-31.316 I-1.258 J-1.836
N10790 X-15.879 Y-32.446 I0.932 J-1.918
N10795 G1 X-15.96 Y-32.697
N10800 X-16.009 Y-32.955
N10805 X-16.025 Y-33.217
N10810 Y-33.408
N10815 G3 X-15.972 Y-33.634 I0.595 J0.021 F#104
N10820 X-15.248 Y-33.953 I0.541 J0.247 F#105
N10825 G1 X-12.387 Y-33.033
N10830 G3 X-12.028 Y-32.713 I-0.182 J0.566
N10835 X-11.975 Y-32.487 I-0.541 J0.247 F#103
N10840 X-12.002 Y-32.12 I-1.102 J0.103 F#100
N10845 X-12.644 Y-31.316 I-1.423 J-0.478
N10850 X-14.831 Y-31.128 I-1.26 J-1.838
N10855 X-15.879 Y-32.258 I0.932 J-1.917
N10860 G1 X-15.96 Y-32.508
N10865 X-16.009 Y-32.766
N10870 X-16.025 Y-33.028
N10875 Y-33.217
N10880 G3 X-15.972 Y-33.443 I0.595 J0.021 F#104
N10885 X-15.249 Y-33.763 I0.541 J0.247 F#105
N10890 G1 X-12.388 Y-32.845
N10895 G3 X-12.028 Y-32.525 I-0.182 J0.567
N10900 X-11.975 Y-32.299 I-0.541 J0.247 F#103
N10905 X-12.017 Y-31.885 I-1.056 J0.103 F#100
N10910 X-12.735 Y-31.07 I-1.476 J-0.578
N10915 X-14.587 Y-30.843 I-1.174 J-1.91
N10920 X-16.025 Y-32.839 I0.668 J-1.997
N10925 G1 Y-33.028
N10930 G3 X-15.972 Y-33.254 I0.595 J0.021 F#104
N10935 X-15.251 Y-33.574 I0.541 J0.247 F#105
N10940 G1 X-12.39 Y-32.667
N10945 G3 X-12.028 Y-32.347 I-0.18 J0.567
N10950 X-11.975 Y-32.121 I-0.541 J0.247 F#103
N10955 X-11.996 Y-31.767 I-1.182 J0.106 F#100
N10960 X-12.601 Y-30.972 I-1.393 J-0.431
N10965 X-14.832 Y-30.752 I-1.305 J-1.809
N10970 X-15.88 Y-31.881 I0.931 J-1.915
N10975 G1 X-15.96 Y-32.131
N10980 X-16.009 Y-32.388
N10985 X-16.025 Y-32.65
N10990 Y-32.839
N10995 G3 X-15.972 Y-33.065 I0.595 J0.021 F#104
N11000 X-15.249 Y-33.385 I0.541 J0.247 F#105
N11005 G1 X-12.389 Y-32.472
N11010 G3 X-12.028 Y-32.151 I-0.181 J0.567
N11015 X-11.975 Y-31.925 I-0.541 J0.247 F#103
N11020 X-12.009 Y-31.534 I-1.077 J0.104 F#100
N11025 X-12.689 Y-30.724 I-1.451 J-0.528
N11030 X-14.589 Y-30.468 I-1.221 J-1.881
N11035 X-16.025 Y-32.462 I0.667 J-1.995
N11040 G1 Y-32.65
N11045 G3 X-15.972 Y-32.876 I0.595 J0.021 F#104
N11050 X-15.25 Y-33.196 I0.541 J0.247 F#105
N11055 G1 X-12.389 Y-32.287
N11060 G3 X-12.028 Y-31.966 I-0.18 J0.567
N11065 X-11.975 Y-31.741 I-0.541 J0.247 F#103
N11070 X-12.002 Y-31.37 I-1.109 J0.105 F#100
N11075 X-12.645 Y-30.566 I-1.423 J-0.479
N11080 X-14.589 Y-30.28 I-1.266 J-1.85
N11085 X-16.025 Y-32.273 I0.666 J-1.994
N11090 G1 Y-32.462
N11095 G3 X-15.972 Y-32.688 I0.595 J0.021 F#104
N11100 X-15.249 Y-33.008 I0.541 J0.247 F#105
N11105 G1 X-12.389 Y-32.095
N11110 G3 X-12.028 Y-31.775 I-0.181 J0.567
N11115 X-11.975 Y-31.549 I-0.541 J0.247 F#103
N11120 X-12.017 Y-31.136 I-1.052 J0.103 F#100
N11125 X-12.736 Y-30.32 I-1.478 J-0.578
N11130 X-14.589 Y-30.092 I-1.176 J-1.911
N11135 X-16.025 Y-32.085 I0.667 J-1.994
N11140 G1 Y-32.273
N11145 G3 X-15.972 Y-32.499 I0.595 J0.021 F#104
N11150 X-15.251 Y-32.82 I0.541 J0.247 F#105
N11155 G1 X-12.391 Y-31.917
N11160 G3 X-12.028 Y-31.596 I-0.179 J0.567
N11165 X-11.975 Y-31.37 I-0.541 J0.247 F#103
N11170 X-12.002 Y-30.995 I-1.142 J0.105 F#100
N11175 X-12.645 Y-30.191 I-1.425 J-0.48
N11180 X-14.59 Y-29.904 I-1.266 J-1.851
N11185 X-16.025 Y-31.896 I0.666 J-1.993
N11190 G1 Y-32.085
N11195 G3 X-15.972 Y-32.311 I0.595 J0.021 F#104
N11200 X-15.251 Y-32.631 I0.541 J0.247 F#105
N11205 G1 X-12.39 Y-31.727
N11210 G3 X-12.028 Y-31.407 I-0.179 J0.567
N11215 X-11.975 Y-31.181 I-0.541 J0.247 F#103
N11220 X-12.002 Y-30.808 I-1.135 J0.104 F#100
N11225 X-12.645 Y-30.003 I-1.425 J-0.48
N11230 X-14.59 Y-29.717 I-1.266 J-1.851
N11235 X-16.025 Y-31.708 I0.666 J-1.993
N11240 G1 Y-31.896
N11245 G3 X-15.972 Y-32.122 I0.595 J0.021 F#104
N11250 X-15.251 Y-32.443 I0.541 J0.247 F#105
N11255 G1 X-12.39 Y-31.54
N11260 G3 X-12.028 Y-31.219 I-0.179 J0.567
N11265 X-11.975 Y-30.993 I-0.541 J0.247 F#103
N11270 X-12.002 Y-30.62 I-1.131 J0.105 F#100
N11275 X-12.646 Y-29.815 I-1.425 J-0.48
N11280 X-14.59 Y-29.529 I-1.266 J-1.851
N11285 X-16.025 Y-31.52 I0.666 J-1.992
N11290 G1 Y-31.708
N11295 G3 X-15.972 Y-31.934 I0.595 J0.021 F#104
N11300 X-15.251 Y-32.255 I0.541 J0.247 F#105
N11305 G1 X-12.39 Y-31.351
N11310 G3 X-12.028 Y-31.03 I-0.179 J0.567
N11315 X-11.975 Y-30.804 I-0.541 J0.247 F#103
N11320 X-12.002 Y-30.433 I-1.122 J0.105 F#100
N11325 X-12.646 Y-29.628 I-1.426 J-0.48
N11330 X-14.59 Y-29.341 I-1.266 J-1.851
N11335 X-16.025 Y-31.332 I0.666 J-1.992
N11340 G1 Y-31.52
N11345 G3 X-15.972 Y-31.746 I0.595 J0.021 F#104
N11350 X-15.251 Y-32.066 I0.541 J0.247 F#105
N11355 G1 X-12.39 Y-31.161
N11360 G3 X-12.028 Y-30.841 I-0.179 J0.567
N11365 X-11.975 Y-30.615 I-0.541 J0.247 F#103
N11370 X-12.002 Y-30.245 I-1.117 J0.104 F#100
N11375 X-12.646 Y-29.44 I-1.426 J-0.48
N11380 X-14.639 Y-29.168 I-1.268 J-1.854
N11385 X-16.025 Y-31.141 I0.714 J-1.975
N11390 G1 Y-31.332
N11395 G3 X-15.972 Y-31.558 I0.595 J0.021 F#104
N11400 X-15.251 Y-31.878 I0.541 J0.247 F#105
N11405 G1 X-12.39 Y-30.974
N11410 G3 X-12.028 Y-30.653 I-0.179 J0.567
N11415 X-11.975 Y-30.427 I-0.541 J0.247 F#103
N11420 X-12.002 Y-30.057 I-1.119 J0.104 F#100
N11425 X-12.646 Y-29.252 I-1.426 J-0.48
N11430 X-14.642 Y-28.98 I-1.269 J-1.858
N11435 X-16.025 Y-30.948 I0.712 J-1.97
N11440 G1 Y-31.141
N11445 G3 X-15.972 Y-31.367 I0.595 J0.021 F#104
N11450 X-15.252 Y-31.688 I0.541 J0.247 F#105
N11455 G1 X-12.391 Y-30.787
N11460 G3 X-12.028 Y-30.466 I-0.179 J0.568
N11465 X-11.975 Y-30.24 I-0.541 J0.247 F#103
N11470 X-12.002 Y-29.869 I-1.125 J0.103 F#100
N11475 X-12.646 Y-29.064 I-1.426 J-0.48
N11480 X-14.753 Y-28.837 I-1.264 J-1.841
N11485 X-15.749 Y-29.728 I0.849 J-1.952
N11490 X-16.025 Y-30.768 I1.828 J-1.041
N11495 G1 Y-30.948
N11500 G3 X-15.972 Y-31.174 I0.595 J0.021 F#104
N11505 X-15.253 Y-31.495 I0.541 J0.247 F#105
N11510 G1 X-12.392 Y-30.601
N11515 G3 X-12.028 Y-30.28 I-0.178 J0.568
N11520 X-11.975 Y-30.054 I-0.541 J0.247 F#103
N11525 X-12.002 Y-29.682 I-1.132 J0.104 F#100
N11530 X-12.646 Y-28.876 I-1.427 J-0.481
N11535 X-14.536 Y-28.574 I-1.264 J-1.842
N11540 X-16.025 Y-30.59 I0.622 J-2.017
N11545 G1 Y-30.768
N11550 G3 X-15.972 Y-30.994 I0.595 J0.021 F#104
N11555 X-15.252 Y-31.315 I0.541 J0.247 F#105
N11560 G1 X-12.391 Y-30.413
N11565 G3 X-12.028 Y-30.093 I-0.179 J0.568
N11570 X-11.975 Y-29.867 I-0.541 J0.247 F#103
N11575 X-12.002 Y-29.494 I-1.138 J0.104 F#100
N11580 X-12.647 Y-28.688 I-1.428 J-0.481
N11585 X-14.583 Y-28.402 I-1.261 J-1.84
N11590 X-16.025 Y-30.403 I0.67 J-2.003
N11595 G1 Y-30.59
N11600 G3 X-15.972 Y-30.815 I0.595 J0.021 F#104
N11605 X-15.25 Y-31.136 I0.541 J0.247 F#105
N11610 G1 X-12.39 Y-30.227
N11615 G3 X-12.028 Y-29.907 I-0.18 J0.567
N11620 X-11.975 Y-29.681 I-0.541 J0.247 F#103
N11625 X-12.002 Y-29.306 I-1.132 J0.106 F#100
N11630 X-12.647 Y-28.5 I-1.428 J-0.481
N11635 X-14.748 Y-28.277 I-1.257 J-1.83
N11640 X-15.955 Y-29.674 I0.838 J-1.944
N11645 G1 X-16.007 Y-29.942
N11650 X-16.025 Y-30.214
N11655 Y-30.403
N11660 G3 X-15.972 Y-30.629 I0.595 J0.021 F#104
N11665 X-15.249 Y-30.949 I0.541 J0.247 F#105
N11670 G1 X-12.389 Y-30.035
N11675 G3 X-12.028 Y-29.715 I-0.181 J0.567
N11680 X-11.975 Y-29.489 I-0.541 J0.247 F#103
N11685 X-12.002 Y-29.119 I-1.109 J0.105 F#100
N11690 X-12.646 Y-28.313 I-1.427 J-0.48
N11695 X-14.783 Y-28.107 I-1.255 J-1.826
N11700 X-15.873 Y-29.247 I0.893 J-1.944
N11705 G1 X-15.957 Y-29.503
N11710 X-16.008 Y-29.767
N11715 X-16.025 Y-30.036
N11720 Y-30.214
N11725 G3 X-15.972 Y-30.44 I0.595 J0.021 F#104
N11730 X-15.249 Y-30.76 I0.541 J0.247 F#105
N11735 G1 X-12.388 Y-29.843
N11740 G3 X-12.028 Y-29.523 I-0.182 J0.567
N11745 X-11.975 Y-29.297 I-0.541 J0.247 F#103
N11750 X-12.017 Y-28.883 I-1.054 J0.103 F#100
N11755 X-12.737 Y-28.067 I-1.479 J-0.579
N11760 X-14.579 Y-27.841 I-1.167 J-1.896
N11765 X-16.025 Y-29.848 I0.672 J-2.009
N11770 G1 Y-30.036
N11775 G3 X-15.972 Y-30.262 I0.595 J0.021 F#104
N11780 X-15.249 Y-30.582 I0.541 J0.247 F#105
N11785 G1 X-12.388 Y-29.664
N11790 G3 X-12.028 Y-29.345 I-0.182 J0.567
N11795 X-11.975 Y-29.119 I-0.541 J0.247 F#103
N11800 X-12.002 Y-28.742 I-1.147 J0.105 F#100
N11805 X-12.645 Y-27.938 I-1.425 J-0.48
N11810 X-14.827 Y-27.751 I-1.256 J-1.832
N11815 X-15.96 Y-29.135 I0.929 J-1.916
N11820 G1 X-16.009 Y-29.394
N11825 X-16.025 Y-29.657
N11830 Y-29.848
N11835 G3 X-15.972 Y-30.074 I0.595 J0.021 F#104
N11840 X-15.248 Y-30.394 I0.541 J0.247 F#105
N11845 G1 X-12.388 Y-29.475
N11850 G3 X-12.028 Y-29.155 I-0.182 J0.566
N11855 X-11.975 Y-28.929 I-0.541 J0.247 F#103
N11860 X-12.002 Y-28.555 I-1.137 J0.105 F#100
N11865 X-12.644 Y-27.751 I-1.424 J-0.479
N11870 X-14.829 Y-27.564 I-1.258 J-1.836
N11875 X-15.879 Y-28.695 I0.932 J-1.919
N11880 G1 X-15.96 Y-28.946
N11885 X-16.009 Y-29.204
N11890 X-16.025 Y-29.466
N11895 Y-29.657
N11900 G3 X-15.972 Y-29.883 I0.595 J0.021 F#104
N11905 X-15.249 Y-30.202 I0.541 J0.247 F#105
N11910 G1 X-12.388 Y-29.285
N11915 G3 X-12.028 Y-28.966 I-0.182 J0.567
N11920 X-11.975 Y-28.74 I-0.541 J0.247 F#103
N11925 X-12.002 Y-28.367 I-1.13 J0.104 F#100
N11930 X-12.644 Y-27.564 I-1.422 J-0.479
N11935 X-14.83 Y-27.376 I-1.259 J-1.838
N11940 X-15.879 Y-28.506 I0.932 J-1.917
N11945 G1 X-15.96 Y-28.756
N11950 X-16.009 Y-29.015
N11955 X-16.025 Y-29.277
N11960 Y-29.466
N11965 G3 X-15.972 Y-29.692 I0.595 J0.021 F#104
N11970 X-15.249 Y-30.012 I0.541 J0.247 F#105
N11975 G1 X-12.388 Y-29.098
N11980 G3 X-12.028 Y-28.778 I-0.181 J0.567
N11985 X-11.975 Y-28.552 I-0.541 J0.247 F#103
N11990 X-12.002 Y-28.18 I-1.128 J0.104 F#100
N11995 X-12.644 Y-27.377 I-1.422 J-0.479
N12000 X-14.831 Y-27.188 I-1.261 J-1.839
N12005 X-15.879 Y-28.318 I0.933 J-1.917
N12010 G1 X-15.96 Y-28.568
N12015 X-16.009 Y-28.826
N12020 X-16.025 Y-29.088
N12025 Y-29.277
N12030 G3 X-15.972 Y-29.503 I0.595 J0.021 F#104
N12035 X-15.249 Y-29.823 I0.541 J0.247 F#105
N12040 G1 X-12.389 Y-28.91
N12045 G3 X-12.028 Y-28.59 I-0.181 J0.567
N12050 X-11.975 Y-28.364 I-0.541 J0.247 F#103
N12055 X-12.002 Y-27.993 I-1.112 J0.105 F#100
N12060 X-12.644 Y-27.19 I-1.422 J-0.478
N12065 X-14.588 Y-26.904 I-1.265 J-1.849
N12070 X-16.025 Y-28.899 I0.667 J-1.996
N12075 G1 Y-29.088
N12080 G3 X-15.972 Y-29.314 I0.595 J0.021 F#104
N12085 X-15.249 Y-29.634 I0.541 J0.247 F#105
N12090 G1 X-12.388 Y-28.717
N12095 G3 X-12.028 Y-28.397 I-0.181 J0.567
N12100 X-11.975 Y-28.171 I-0.541 J0.247 F#103
N12105 X-12.017 Y-27.758 I-1.053 J0.103 F#100
N12110 X-12.736 Y-26.943 I-1.476 J-0.578
N12115 X-14.588 Y-26.716 I-1.175 J-1.911
N12120 X-16.025 Y-28.71 I0.668 J-1.996
N12125 G1 Y-28.899
N12130 G3 X-15.972 Y-29.125 I0.595 J0.021 F#104
N12135 X-15.251 Y-29.445 I0.541 J0.247 F#105
N12140 G1 X-12.39 Y-28.54
N12145 G3 X-12.028 Y-28.219 I-0.18 J0.567
N12150 X-11.975 Y-27.993 I-0.541 J0.247 F#103
N12155 X-12.002 Y-27.618 I-1.136 J0.106 F#100
N12160 X-12.645 Y-26.814 I-1.423 J-0.479
N12165 X-14.589 Y-26.528 I-1.265 J-1.85
N12170 X-16.025 Y-28.522 I0.666 J-1.994
N12175 G1 Y-28.71
N12180 G3 X-15.972 Y-28.936 I0.595 J0.021 F#104
N12185 X-15.25 Y-29.256 I0.541 J0.247 F#105
N12190 G1 X-12.389 Y-28.348
N12195 G3 X-12.028 Y-28.027 I-0.18 J0.567
N12200 X-11.975 Y-27.801 I-0.541 J0.247 F#103
N12205 X-12.002 Y-27.431 I-1.117 J0.104 F#100
N12210 X-12.645 Y-26.627 I-1.423 J-0.479
N12215 X-14.589 Y-26.34 I-1.266 J-1.851
N12220 X-16.025 Y-28.333 I0.666 J-1.994
N12225 G1 Y-28.522
N12230 G3 X-15.972 Y-28.748 I0.595 J0.021 F#104
N12235 X-15.25 Y-29.068 I0.541 J0.247 F#105
N12240 G1 X-12.389 Y-28.158
N12245 G3 X-12.028 Y-27.838 I-0.18 J0.567
N12250 X-11.975 Y-27.612 I-0.541 J0.247 F#103
N12255 X-12.009 Y-27.22 I-1.094 J0.102 F#100
N12260 X-12.69 Y-26.409 I-1.452 J-0.529
N12265 X-14.59 Y-26.152 I-1.221 J-1.882
N12270 X-16.025 Y-28.145 I0.667 J-1.994
N12275 G1 Y-28.333
N12280 G3 X-15.972 Y-28.559 I0.595 J0.021 F#104
N12285 X-15.252 Y-28.88 I0.541 J0.247 F#105
N12290 G1 X-12.391 Y-27.98
N12295 G3 X-12.028 Y-27.659 I-0.179 J0.568
N12300 X-11.975 Y-27.433 I-0.541 J0.247 F#103
N12305 X-11.996 Y-27.078 I-1.182 J0.107 F#100
N12310 X-12.56 Y-26.312 I-1.375 J-0.421
N12315 X-14.59 Y-25.965 I-1.351 J-1.789
N12320 X-16.025 Y-27.956 I0.665 J-1.992
N12325 G1 Y-28.145
N12330 G3 X-15.972 Y-28.371 I0.595 J0.021 F#104
N12335 X-15.25 Y-28.691 I0.541 J0.247 F#105
N12340 G1 X-12.389 Y-27.781
N12345 G3 X-12.028 Y-27.461 I-0.18 J0.567
N12350 X-11.975 Y-27.235 I-0.541 J0.247 F#103
N12355 X-12.017 Y-26.821 I-1.056 J0.103 F#100
N12360 X-12.737 Y-26.005 I-1.479 J-0.579
N12365 X-14.59 Y-25.776 I-1.176 J-1.912
N12370 X-16.025 Y-27.768 I0.667 J-1.994
N12375 G1 Y-27.956
N12380 G3 X-15.972 Y-28.182 I0.595 J0.021 F#104
N12385 X-15.252 Y-28.503 I0.541 J0.247 F#105
N12390 G1 X-12.391 Y-27.603
N12395 G3 X-12.028 Y-27.283 I-0.179 J0.568
N12400 X-11.975 Y-27.057 I-0.541 J0.247 F#103
N12405 X-12.002 Y-26.68 I-1.147 J0.106 F#100
N12410 X-12.646 Y-25.876 I-1.426 J-0.48
N12415 X-14.59 Y-25.589 I-1.266 J-1.851
N12420 X-16.025 Y-27.58 I0.666 J-1.992
N12425 G1 Y-27.768
N12430 G3 X-15.972 Y-27.994 I0.595 J0.021 F#104
N12435 X-15.252 Y-28.315 I0.541 J0.247 F#105
N12440 G1 X-12.391 Y-27.414
N12445 G3 X-12.028 Y-27.093 I-0.179 J0.568
N12450 X-11.975 Y-26.867 I-0.541 J0.247 F#103
N12455 X-12.002 Y-26.493 I-1.142 J0.105 F#100
N12460 X-12.646 Y-25.688 I-1.426 J-0.48
N12465 X-14.639 Y-25.417 I-1.267 J-1.854
N12470 X-16.025 Y-27.389 I0.714 J-1.975
N12475 G1 Y-27.58
N12480 G3 X-15.972 Y-27.806 I0.595 J0.021 F#104
N12485 X-15.252 Y-28.127 I0.541 J0.247 F#105
N12490 G1 X-12.391 Y-27.227
N12495 G3 X-12.028 Y-26.906 I-0.179 J0.568
N12500 X-11.975 Y-26.68 I-0.541 J0.247 F#103
N12505 X-11.996 Y-26.328 I-1.172 J0.105 F#100
N12510 X-12.56 Y-25.561 I-1.377 J-0.422
N12515 X-14.757 Y-25.275 I-1.349 J-1.784
N12520 X-15.869 Y-26.406 I0.836 J-1.935
N12525 G1 X-15.955 Y-26.663
N12530 X-16.007 Y-26.929
N12535 X-16.025 Y-27.199
N12540 Y-27.389
N12545 G3 X-15.972 Y-27.615 I0.595 J0.021 F#104
N12550 X-15.251 Y-27.936 I0.541 J0.247 F#105
N12555 G1 X-12.39 Y-27.032
N12560 G3 X-12.028 Y-26.711 I-0.179 J0.567
N12565 X-11.975 Y-26.485 I-0.541 J0.247 F#103
N12570 X-12.017 Y-26.07 I-1.058 J0.103 F#100
N12575 X-12.738 Y-25.253 I-1.481 J-0.58
N12580 X-14.541 Y-25.01 I-1.175 J-1.908
N12585 X-16.025 Y-27.02 I0.621 J-2.012
N12590 G1 Y-27.199
N12595 G3 X-15.972 Y-27.425 I0.595 J0.021 F#104
N12600 X-15.253 Y-27.746 I0.541 J0.247 F#105
N12605 G1 X-12.392 Y-26.854
N12610 G3 X-12.028 Y-26.533 I-0.177 J0.568
N12615 X-11.975 Y-26.307 I-0.541 J0.247 F#103
N12620 X-11.996 Y-25.952 I-1.187 J0.106 F#100
N12625 X-12.56 Y-25.185 I-1.377 J-0.422
N12630 X-14.585 Y-24.838 I-1.348 J-1.784
N12635 X-16.025 Y-26.836 I0.668 J-1.999
N12640 G1 Y-27.02
N12645 G3 X-15.972 Y-27.246 I0.595 J0.021 F#104
N12650 X-15.25 Y-27.567 I0.541 J0.247 F#105
N12655 G1 X-12.39 Y-26.658
N12660 G3 X-12.028 Y-26.338 I-0.18 J0.567
N12665 X-11.975 Y-26.112 I-0.541 J0.247 F#103
N12670 X-12.002 Y-25.742 I-1.118 J0.103 F#100
N12675 X-12.646 Y-24.937 I-1.427 J-0.48
N12680 X-14.749 Y-24.713 I-1.259 J-1.833
N12685 X-15.868 Y-25.85 I0.84 J-1.945
N12690 G1 X-15.955 Y-26.109
N12695 X-16.007 Y-26.376
N12700 X-16.025 Y-26.648
N12705 Y-26.836
N12710 G3 X-15.972 Y-27.062 I0.595 J0.021 F#104
N12715 X-15.25 Y-27.382 I0.541 J0.247 F#105
N12720 G1 X-12.389 Y-26.471
N12725 G3 X-12.028 Y-26.151 I-0.18 J0.567
N12730 X-11.975 Y-25.925 I-0.541 J0.247 F#103
N12735 X-12.009 Y-25.531 I-1.093 J0.104 F#100
N12740 X-12.691 Y-24.719 I-1.455 J-0.529
N12745 X-14.532 Y-24.449 I-1.215 J-1.868
N12750 X-16.025 Y-26.47 I0.623 J-2.022
N12755 G1 Y-26.648
N12760 G3 X-15.972 Y-26.874 I0.595 J0.021 F#104
N12765 X-15.251 Y-27.194 I0.541 J0.247 F#105
N12770 G1 X-12.39 Y-26.288
N12775 G3 X-12.028 Y-25.968 I-0.18 J0.567
N12780 X-11.975 Y-25.742 I-0.541 J0.247 F#103
N12785 X-12.002 Y-25.367 I-1.134 J0.106 F#100
N12790 X-12.646 Y-24.561 I-1.426 J-0.48
N12795 X-14.58 Y-24.277 I-1.258 J-1.837
N12800 X-16.025 Y-26.283 I0.671 J-2.007
N12805 G1 Y-26.47
N12810 G3 X-15.972 Y-26.696 I0.595 J0.021 F#104
N12815 X-15.248 Y-27.015 I0.541 J0.247 F#105
N12820 G1 X-12.387 Y-26.095
N12825 G3 X-12.028 Y-25.776 I-0.182 J0.566
N12830 X-11.975 Y-25.55 I-0.541 J0.247 F#103
N12835 X-12.002 Y-25.179 I-1.117 J0.104 F#100
N12840 X-12.645 Y-24.374 I-1.425 J-0.479
N12845 X-14.828 Y-24.187 I-1.257 J-1.832
N12850 X-15.879 Y-25.319 I0.933 J-1.92
N12855 G1 X-15.96 Y-25.57
N12860 X-16.009 Y-25.828
N12865 X-16.025 Y-26.091
N12870 Y-26.283
N12875 G3 X-15.972 Y-26.509 I0.595 J0.021 F#104
N12880 X-15.248 Y-26.828 I0.541 J0.247 F#105
N12885 G1 X-12.387 Y-25.906
N12890 G3 X-12.028 Y-25.586 I-0.183 J0.566
N12895 X-11.975 Y-25.36 I-0.541 J0.247 F#103
N12900 X-12.002 Y-24.991 I-1.108 J0.104 F#100
N12905 X-12.645 Y-24.187 I-1.424 J-0.479
N12910 X-14.83 Y-23.999 I-1.258 J-1.836
N12915 X-15.879 Y-25.13 I0.932 J-1.918
N12920 G1 X-15.96 Y-25.38
N12925 X-16.009 Y-25.639
N12930 X-16.025 Y-25.901
N12935 Y-26.091
N12940 G3 X-15.972 Y-26.317 I0.595 J0.021 F#104
N12945 X-15.248 Y-26.637 I0.541 J0.247 F#105
N12950 G1 X-12.387 Y-25.716
N12955 G3 X-12.028 Y-25.397 I-0.182 J0.566
N12960 X-11.975 Y-25.171 I-0.541 J0.247 F#103
N12965 X-12.002 Y-24.804 I-1.101 J0.103 F#100
N12970 X-12.644 Y-24. I-1.423 J-0.478
N12975 X-14.831 Y-23.811 I-1.26 J-1.838
N12980 X-15.879 Y-24.941 I0.932 J-1.917
N12985 G1 X-15.96 Y-25.191
N12990 X-16.009 Y-25.45
N12995 X-16.025 Y-25.712
N13000 Y-25.901
N13005 G3 X-15.972 Y-26.127 I0.595 J0.021 F#104
N13010 X-15.249 Y-26.447 I0.541 J0.247 F#105
N13015 G1 X-12.388 Y-25.529
N13020 G3 X-12.028 Y-25.209 I-0.182 J0.567
N13025 X-11.975 Y-24.983 I-0.541 J0.247 F#103
N13030 X-12.017 Y-24.569 I-1.056 J0.103 F#100
N13035 X-12.735 Y-23.754 I-1.476 J-0.578
N13040 X-14.587 Y-23.527 I-1.174 J-1.91
N13045 X-16.025 Y-25.523 I0.668 J-1.997
N13050 G1 Y-25.712
N13055 G3 X-15.972 Y-25.938 I0.595 J0.021 F#104
N13060 X-15.25 Y-26.258 I0.541 J0.247 F#105
N13065 G1 X-12.39 Y-25.351
N13070 G3 X-12.028 Y-25.03 I-0.18 J0.567
N13075 X-11.975 Y-24.804 I-0.541 J0.247 F#103
N13080 X-11.996 Y-24.451 I-1.181 J0.106 F#100
N13085 X-12.601 Y-23.656 I-1.393 J-0.431
N13090 X-14.832 Y-23.436 I-1.305 J-1.809
N13095 X-15.88 Y-24.564 I0.931 J-1.915
N13100 G1 X-15.96 Y-24.814
N13105 X-16.009 Y-25.072
N13110 X-16.025 Y-25.334
N13115 Y-25.523
N13120 G3 X-15.972 Y-25.749 I0.595 J0.021 F#104
N13125 X-15.249 Y-26.069 I0.541 J0.247 F#105
N13130 G1 X-12.389 Y-25.155
N13135 G3 X-12.028 Y-24.835 I-0.181 J0.567
N13140 X-11.975 Y-24.609 I-0.541 J0.247 F#103
N13145 X-12.009 Y-24.218 I-1.076 J0.104 F#100
N13150 X-12.689 Y-23.408 I-1.451 J-0.528
N13155 X-14.589 Y-23.151 I-1.221 J-1.881
N13160 X-16.025 Y-25.145 I0.667 J-1.995
N13165 G1 Y-25.334
N13170 G3 X-15.972 Y-25.56 I0.595 J0.021 F#104
N13175 X-15.25 Y-25.88 I0.541 J0.247 F#105
N13180 G1 X-12.389 Y-24.97
N13185 G3 X-12.028 Y-24.65 I-0.18 J0.567
N13190 X-11.975 Y-24.424 I-0.541 J0.247 F#103
N13195 X-12.002 Y-24.054 I-1.109 J0.105 F#100
N13200 X-12.645 Y-23.25 I-1.423 J-0.479
N13205 X-14.589 Y-22.964 I-1.266 J-1.85
N13210 X-16.025 Y-24.957 I0.666 J-1.994
N13215 G1 Y-25.145
N13220 G3 X-15.972 Y-25.371 I0.595 J0.021 F#104
N13225 X-15.249 Y-25.691 I0.541 J0.247 F#105
N13230 G1 X-12.389 Y-24.778
N13235 G3 X-12.028 Y-24.458 I-0.181 J0.567
N13240 X-11.975 Y-24.232 I-0.541 J0.247 F#103
N13245 X-12.017 Y-23.819 I-1.052 J0.102 F#100
N13250 X-12.736 Y-23.003 I-1.478 J-0.578
N13255 X-14.59 Y-22.776 I-1.176 J-1.911
N13260 X-16.025 Y-24.768 I0.667 J-1.994
N13265 G1 Y-24.957
N13270 G3 X-15.972 Y-25.183 I0.595 J0.021 F#104
N13275 X-15.251 Y-25.503 I0.541 J0.247 F#105
N13280 G1 X-12.391 Y-24.6
N13285 G3 X-12.028 Y-24.28 I-0.179 J0.567
N13290 X-11.975 Y-24.054 I-0.541 J0.247 F#103
N13295 X-12.002 Y-23.679 I-1.141 J0.105 F#100
N13300 X-12.645 Y-22.874 I-1.425 J-0.48
N13305 X-14.59 Y-22.588 I-1.266 J-1.851
N13310 X-16.025 Y-24.58 I0.666 J-1.993
N13315 G1 Y-24.768
N13320 G3 X-15.972 Y-24.994 I0.595 J0.021 F#104
N13325 X-15.251 Y-25.315 I0.541 J0.247 F#105
N13330 G1 X-12.39 Y-24.411
N13335 G3 X-12.028 Y-24.09 I-0.179 J0.567
N13340 X-11.975 Y-23.864 I-0.541 J0.247 F#103
N13345 X-12.002 Y-23.491 I-1.135 J0.104 F#100
N13350 X-12.645 Y-22.687 I-1.425 J-0.48
N13355 X-14.59 Y-22.4 I-1.266 J-1.851
N13360 X-16.025 Y-24.392 I0.666 J-1.993
N13365 G1 Y-24.58
N13370 G3 X-15.972 Y-24.806 I0.595 J0.021 F#104
N13375 X-15.251 Y-25.127 I0.541 J0.247 F#105
N13380 G1 X-12.39 Y-24.223
N13385 G3 X-12.028 Y-23.903 I-0.179 J0.567
N13390 X-11.975 Y-23.677 I-0.541 J0.247 F#103
N13395 X-12.002 Y-23.304 I-1.13 J0.105 F#100
N13400 X-12.646 Y-22.499 I-1.425 J-0.48
N13405 X-14.59 Y-22.212 I-1.266 J-1.851
N13410 X-16.025 Y-24.203 I0.666 J-1.992
N13415 G1 Y-24.392
N13420 G3 X-15.972 Y-24.618 I0.595 J0.021 F#104
N13425 X-15.251 Y-24.938 I0.541 J0.247 F#105
N13430 G1 X-12.39 Y-24.034
N13435 G3 X-12.028 Y-23.714 I-0.179 J0.567
N13440 X-11.975 Y-23.488 I-0.541 J0.247 F#103
N13445 X-12.002 Y-23.116 I-1.121 J0.104 F#100
N13450 X-12.646 Y-22.311 I-1.426 J-0.48
N13455 X-14.59 Y-22.024 I-1.266 J-1.851
N13460 X-16.025 Y-24.015 I0.666 J-1.992
N13465 G1 Y-24.203
N13470 G3 X-15.972 Y-24.429 I0.595 J0.021 F#104
N13475 X-15.251 Y-24.75 I0.541 J0.247 F#105
N13480 G1 X-12.39 Y-23.845
N13485 G3 X-12.028 Y-23.524 I-0.18 J0.567
N13490 X-11.975 Y-23.298 I-0.541 J0.247 F#103
N13495 X-12.002 Y-22.928 I-1.117 J0.104 F#100
N13500 X-12.646 Y-22.123 I-1.426 J-0.48
N13505 X-14.639 Y-21.852 I-1.268 J-1.854
N13510 X-16.025 Y-23.825 I0.714 J-1.975
N13515 G1 Y-24.015
N13520 G3 X-15.972 Y-24.241 I0.595 J0.021 F#104
N13525 X-15.251 Y-24.562 I0.541 J0.247 F#105
N13530 G1 X-12.39 Y-23.657
N13535 G3 X-12.028 Y-23.337 I-0.179 J0.567
N13540 X-11.975 Y-23.111 I-0.541 J0.247 F#103
N13545 X-12.002 Y-22.741 I-1.118 J0.104 F#100
N13550 X-12.646 Y-21.935 I-1.426 J-0.48
N13555 X-14.642 Y-21.664 I-1.269 J-1.858
N13560 X-16.025 Y-23.632 I0.712 J-1.97
N13565 G1 Y-23.825
N13570 G3 X-15.972 Y-24.051 I0.595 J0.021 F#104
N13575 X-15.252 Y-24.371 I0.541 J0.247 F#105
N13580 G1 X-12.391 Y-23.47
