%
(1)
(T13  D=5.95 CR=0. - ZMIN=-6. - FLAT END MILL)
N10 G90 G94 G17 G91.1
N15 G21
N20 G53 G0 Z0.
(2D POCKET1)
N25 M9
N30 T13 M6
N35 S4000 M3
N40 G54
N45 M8
N55 G0 X-11.544 Y-55.997
N60 G43 Z4. H13
N65 #100=1000. (CUTTING)
N70 #103=1000. (ENTRY)
N75 #104=1000. (EXIT)
N80 #106=450. (REDUCED)
N85 #107=800. (RAMPING)
N90 G0 Z3.095
N95 G1 X-11.546 Y-55.995 Z3.029 F#107
N100 X-11.553 Y-55.986 Z2.965
N105 X-11.565 Y-55.973 Z2.902
N110 X-11.581 Y-55.955 Z2.842
N115 X-11.601 Y-55.932 Z2.784
N120 X-11.614 Y-55.918 Z2.758
N125 X-11.627 Y-55.905 Z2.731
N130 X-11.641 Y-55.889 Z2.706
N135 X-11.656 Y-55.874 Z2.681
N140 X-11.673 Y-55.857 Z2.659
N145 X-11.69 Y-55.84 Z2.637
N150 X-11.708 Y-55.821 Z2.618
N155 X-11.727 Y-55.803 Z2.598
N160 X-11.747 Y-55.784 Z2.582
N165 X-11.768 Y-55.765 Z2.565
N170 X-11.79 Y-55.744 Z2.552
N175 X-11.812 Y-55.725 Z2.539
N180 X-11.836 Y-55.704 Z2.529
N185 X-11.859 Y-55.684 Z2.519
N190 X-11.884 Y-55.663 Z2.512
N195 X-11.908 Y-55.643 Z2.506
N200 X-11.934 Y-55.623 Z2.503
N205 X-11.959 Y-55.603 Z2.5
N210 G3 X-15.414 Y-60.077 Z2.19 I-1.727 J-2.237
N215 X-11.959 Y-55.603 Z1.88 I1.727 J2.237
N220 X-15.414 Y-60.077 Z1.57 I-1.727 J-2.237
N225 X-11.959 Y-55.603 Z1.26 I1.727 J2.237
N230 X-15.414 Y-60.077 Z0.95 I-1.727 J-2.237
N235 X-11.959 Y-55.603 Z0.64 I1.727 J2.237
N240 X-15.414 Y-60.077 Z0.33 I-1.727 J-2.237
N245 X-11.959 Y-55.603 Z0.02 I1.727 J2.237
N250 X-15.414 Y-60.077 Z-0.291 I-1.727 J-2.237
N255 X-11.959 Y-55.603 Z-0.601 I1.727 J2.237
N260 X-15.414 Y-60.077 Z-0.911 I-1.727 J-2.237
N265 X-11.959 Y-55.603 Z-1.221 I1.727 J2.237
N270 X-15.414 Y-60.077 Z-1.531 I-1.727 J-2.237
N275 X-11.959 Y-55.603 Z-1.841 I1.727 J2.237
N280 X-15.414 Y-60.077 Z-2.151 I-1.727 J-2.237
N285 X-11.959 Y-55.603 Z-2.461 I1.727 J2.237
N290 X-15.414 Y-60.077 Z-2.771 I-1.727 J-2.237
N295 X-11.959 Y-55.603 Z-3.081 I1.727 J2.237
N300 X-15.414 Y-60.077 Z-3.391 I-1.727 J-2.237
N305 X-11.959 Y-55.603 Z-3.701 I1.727 J2.237
N310 X-15.414 Y-60.077 Z-4.011 I-1.727 J-2.237
N315 X-11.959 Y-55.603 Z-4.321 I1.727 J2.237
N320 X-15.414 Y-60.077 Z-4.631 I-1.727 J-2.237
N325 X-11.959 Y-55.603 Z-4.941 I1.727 J2.237
N330 X-15.414 Y-60.077 Z-5.251 I-1.727 J-2.237
N335 X-11.959 Y-55.603 Z-5.562 I1.727 J2.237
N340 X-15.414 Y-60.077 Z-5.872 I-1.727 J-2.237
N345 X-11.991 Y-60.101 Z-6. I1.727 J2.237
N350 X-11.655 Y-57.745 I-1.01 J1.346
N355 X-14.01 Y-57.408 I-1.346 J-1.01
N360 X-13.918 Y-57.532 I0.046 J-0.062 F#106
N365 X-14.01 Y-57.408 I-0.046 J0.062
N370 G2 X-14.283 Y-57.484 I-0.234 J0.312 F#100
N375 G3 X-14.44 Y-57.719 I-0.016 J-0.16
N380 G1 X-14.146 Y-58.271
N385 G3 X-13.831 Y-58.277 I0.159 J0.085 F#106
N390 G1 X-13.486 Y-57.687 F#100
N395 G3 X-13.473 Y-57.285 I-0.364 J0.213
N400 G2 X-13.836 Y-56.484 I9.906 J4.973
N405 G3 X-14.105 Y-56.485 I-0.134 J-0.055 F#106
N410 G2 X-14.464 Y-57.306 I-11.575 J4.58 F#100
N415 G3 X-14.457 Y-57.688 I0.38 J-0.184
N420 G1 X-14.44 Y-57.719
N425 G2 X-14.476 Y-58.078 I-0.287 J-0.153
N430 G3 X-14.511 Y-58.437 I0.251 J-0.206
N435 G1 X-14.162 Y-59.091
N440 G3 X-13.847 Y-59.097 I0.159 J0.085 F#106
N445 G1 X-13.122 Y-57.858 F#100
N450 G3 X-13.099 Y-57.138 I-0.651 J0.381
N455 G2 X-13.854 Y-55.221 I10.17 J5.11
N460 G3 X-14.104 Y-55.222 I-0.125 J-0.036 F#106
N465 G2 X-14.82 Y-57.123 I-10.784 J2.976 F#100
N470 G3 X-14.805 Y-57.886 I0.758 J-0.367
N475 G1 X-14.511 Y-58.437
N480 X-14.467 Y-58.519 Z-5.993 F#104
N485 X-14.424 Y-58.599 Z-5.971
N490 X-14.384 Y-58.675 Z-5.935
N495 X-14.346 Y-58.746 Z-5.886
N500 X-14.313 Y-58.808 Z-5.826
N505 X-14.284 Y-58.862 Z-5.755
N510 X-14.261 Y-58.905 Z-5.675
N515 X-14.245 Y-58.936 Z-5.589
N520 X-14.234 Y-58.956 Z-5.498
N525 X-14.231 Y-58.962 Z-5.405
N530 G0 Z3.095
N535 X-11.186 Y-13.769
N540 G1 X-11.185 Y-13.765 Z3.029 F#107
N545 X-11.184 Y-13.755 Z2.965
N550 X-11.183 Y-13.737 Z2.902
N555 X-11.181 Y-13.713 Z2.842
N560 X-11.179 Y-13.682 Z2.784
N565 X-11.178 Y-13.663 Z2.758
N570 X-11.177 Y-13.645 Z2.731
N575 X-11.176 Y-13.624 Z2.706
N580 Y-13.602 Z2.681
N585 X-11.175 Y-13.578 Z2.659
N590 Y-13.555 Z2.637
N595 X-11.174 Y-13.528 Z2.618
N600 Y-13.502 Z2.598
N605 X-11.175 Y-13.474 Z2.582
N610 Y-13.446 Z2.565
N615 X-11.176 Y-13.416 Z2.552
N620 X-11.177 Y-13.386 Z2.539
N625 X-11.179 Y-13.355 Z2.529
N630 X-11.181 Y-13.324 Z2.519
N635 X-11.183 Y-13.292 Z2.512
N640 X-11.186 Y-13.26 Z2.506
N645 X-11.189 Y-13.228 Z2.503
N650 X-11.193 Y-13.196 Z2.5
N655 G3 X-16.809 Y-13.837 Z2.19 I-2.808 J-0.321
N660 X-11.193 Y-13.196 Z1.88 I2.808 J0.321
N665 X-16.809 Y-13.837 Z1.57 I-2.808 J-0.321
N670 X-11.193 Y-13.196 Z1.26 I2.808 J0.321
N675 X-16.809 Y-13.837 Z0.95 I-2.808 J-0.321
N680 X-11.193 Y-13.196 Z0.64 I2.808 J0.321
N685 X-16.809 Y-13.837 Z0.33 I-2.808 J-0.321
N690 X-11.193 Y-13.196 Z0.02 I2.808 J0.321
N695 X-16.809 Y-13.837 Z-0.291 I-2.808 J-0.321
N700 X-11.193 Y-13.196 Z-0.601 I2.808 J0.321
N705 X-16.809 Y-13.837 Z-0.911 I-2.808 J-0.321
N710 X-11.193 Y-13.196 Z-1.221 I2.808 J0.321
N715 X-16.809 Y-13.837 Z-1.531 I-2.808 J-0.321
N720 X-11.193 Y-13.196 Z-1.841 I2.808 J0.321
N725 X-16.809 Y-13.837 Z-2.151 I-2.808 J-0.321
N730 X-11.193 Y-13.196 Z-2.461 I2.808 J0.321
N735 X-16.809 Y-13.837 Z-2.771 I-2.808 J-0.321
N740 X-11.193 Y-13.196 Z-3.081 I2.808 J0.321
N745 X-16.809 Y-13.837 Z-3.391 I-2.808 J-0.321
N750 X-11.193 Y-13.196 Z-3.701 I2.808 J0.321
N755 X-16.809 Y-13.837 Z-4.011 I-2.808 J-0.321
N760 X-11.193 Y-13.196 Z-4.321 I2.808 J0.321
N765 X-16.809 Y-13.837 Z-4.631 I-2.808 J-0.321
N770 X-11.193 Y-13.196 Z-4.941 I2.808 J0.321
N775 X-16.809 Y-13.837 Z-5.251 I-2.808 J-0.321
N780 X-11.193 Y-13.196 Z-5.562 I2.808 J0.321
N785 X-16.809 Y-13.837 Z-5.872 I-2.808 J-0.321
N790 X-14.44 Y-16.308 Z-6. I2.808 J0.321
N795 X-13.939 Y-13.122 I0.251 J1.593
N800 G1 X-13.973 Y-13.116 F#100
N805 G3 X-14.167 Y-13.361 I-0.028 J-0.177 F#106
N810 G1 X-14.105 Y-13.515 F#100
N815 G3 X-13.836 Y-13.517 I0.135 J0.053 F#106
N820 G2 X-13.774 Y-13.368 I10.068 J-4.112 F#100
N825 G3 X-13.909 Y-13.127 I-0.161 J0.069 F#106
N830 G1 X-13.939 Y-13.122 F#100
N835 G2 X-14.206 Y-12.873 I0.051 J0.323
N840 G3 X-14.467 Y-12.618 I-0.331 J-0.077
N845 G2 X-14.741 Y-12.557 I2.415 J11.504
N850 G3 X-14.887 Y-12.742 I-0.03 J-0.127 F#106
N855 G2 X-14.099 Y-14.797 I-10.175 J-5.08 F#100
N860 G3 X-13.86 Y-14.799 I0.12 J0.033 F#106
N865 G2 X-13.217 Y-13.102 I11.012 J-3.203 F#100
N870 G3 X-13.389 Y-12.792 I-0.197 J0.093 F#106
N875 G2 X-14.467 Y-12.618 I1.336 J11.679 F#100
N880 X-14.696 Y-12.379 I0.06 J0.287
N885 G3 X-14.925 Y-12.139 I-0.289 J-0.048
N890 X-15.328 Y-12.674 I-0.076 J-0.362
N895 G2 X-14.37 Y-15.218 I-9.471 J-5.017
N900 X-14.054 Y-17.918 I-11.384 J-2.7
N905 G1 Y-52.204
N910 G2 X-15.327 Y-57.326 I-10.946 J0.
N915 G3 Y-57.673 I0.326 J-0.173
N920 G2 X-14.744 Y-58.808 I-35.785 J-19.08
N925 G3 X-14.162 Y-59.943 I36.38 J17.952
N930 X-13.881 Y-59.948 I0.142 J0.076 F#106
N935 G1 X-12.634 Y-57.817 F#100
N940 G3 X-12.622 Y-57.188 I-0.555 J0.325
N945 G2 X-13.601 Y-54.703 I10.118 J5.421
N950 X-13.946 Y-52.055 I10.006 J2.648
N955 G1 Y-17.918
N960 G2 X-13.584 Y-15.224 I10.207 J0.
N965 X-12.564 Y-12.705 I11.175 J-3.057
N970 G3 X-12.708 Y-12.447 I-0.153 J0.084 F#106
N975 G2 X-13.815 Y-12.352 I0.845 J16.347 F#100
N980 X-14.907 Y-12.144 I0.969 J8.062
N985 G1 X-14.925 Y-12.139
N990 G2 X-15.104 Y-11.981 I0.049 J0.235
N995 G3 X-15.326 Y-11.893 I-0.148 J-0.05
N1000 X-15.611 Y-12.824 I0.325 J-0.609
N1005 G2 X-14.681 Y-15.295 I-9.189 J-4.867
N1010 X-14.375 Y-17.918 I-11.073 J-2.622
N1015 G1 Y-52.204
N1020 G2 X-15.61 Y-57.176 I-10.625 J0.
N1025 G3 X-15.609 Y-57.824 I0.61 J-0.323
N1030 G2 X-14.901 Y-59.201 I-47.029 J-25.075
N1035 G3 X-14.192 Y-60.578 I47.755 J23.707
N1040 X-13.877 Y-60.585 I0.159 J0.085 F#106
N1045 X-13.048 Y-59.124 I-54.068 J31.641 F#100
N1050 G2 X-12.22 Y-57.664 I54.896 J-30.18
N1055 G3 X-12.218 Y-57.339 I-0.28 J0.164
N1060 G2 X-13.625 Y-52.055 I9.218 J5.283
N1065 G1 Y-17.918
N1070 G2 X-12.218 Y-12.661 I10.522 J0.
N1075 G3 X-12.489 Y-12.175 I-0.282 J0.161
N1080 G2 X-14.826 Y-11.834 I0.359 J10.618
N1085 G3 X-15.326 Y-11.893 I-0.175 J-0.668
N1090 G2 X-15.638 Y-11.879 I-0.144 J0.27
N1095 G3 X-15.942 Y-11.95 I-0.118 J-0.18
N1100 X-15.964 Y-13.011 I0.941 J-0.551
N1105 G2 X-15.069 Y-15.392 I-8.836 J-4.68
N1110 X-14.775 Y-17.918 I-10.686 J-2.526
N1115 G1 Y-52.204
N1120 G2 X-15.964 Y-56.989 I-10.225 J0.
N1125 G3 X-15.962 Y-58.012 I0.963 J-0.51
N1130 G2 X-15.085 Y-59.705 I-71.26 J-37.995
N1135 G3 X-14.208 Y-61.398 I72.17 J36.319
N1140 X-13.893 Y-61.404 I0.159 J0.085 F#106
N1145 X-12.884 Y-59.635 I-79.569 J46.564 F#100
N1150 G2 X-11.874 Y-57.866 I80.578 J-44.795
N1155 G3 X-11.871 Y-57.14 I-0.626 J0.366
N1160 G2 X-13.225 Y-52.055 I8.871 J5.085
N1165 G1 Y-17.918
N1170 G2 X-11.871 Y-12.86 I10.122 J0.
N1175 G3 X-12.475 Y-11.776 I-0.629 J0.36
N1180 G2 X-14.724 Y-11.447 I0.346 J10.218
N1185 G3 X-15.942 Y-11.95 I-0.277 J-1.054
N1190 G2 X-16.229 Y-12.104 I-0.269 J0.158
N1195 G3 X-16.479 Y-12.312 I-0.014 J-0.238
N1200 X-16.318 Y-13.199 I1.478 J-0.189
N1205 G2 X-15.458 Y-15.488 I-8.483 J-4.493
N1210 X-15.175 Y-17.918 I-10.299 J-2.429
N1215 G1 Y-52.204
N1220 G2 X-16.317 Y-56.802 I-9.825 J0.
N1225 G3 X-16.315 Y-58.2 I1.317 J-0.697
N1230 G2 X-15.27 Y-60.209 I-100.507 J-53.589
N1235 G3 X-14.224 Y-62.218 I101.607 J51.608
N1240 X-13.909 Y-62.224 I0.159 J0.085 F#106
N1245 X-12.719 Y-60.146 I-109.982 J64.361 F#100
N1250 G2 X-11.529 Y-58.068 I111.172 J-62.283
N1255 G3 X-11.524 Y-56.941 I-0.971 J0.568
N1260 G2 X-12.825 Y-52.055 I8.524 J4.886
N1265 G1 Y-17.918
N1270 G2 X-11.524 Y-13.059 I9.722 J0.
N1275 G3 X-12.462 Y-11.376 I-0.976 J0.559
N1280 G2 X-14.623 Y-11.06 I0.332 J9.818
N1285 G3 X-16.479 Y-12.312 I-0.378 J-1.441
N1290 X-16.484 Y-12.379 Z-5.996 I0.59 J-0.075 F#104
N1295 X-16.481 Y-12.444 Z-5.985 I0.595 J-0.009
N1300 X-16.472 Y-12.508 Z-5.967 I0.592 J0.057
N1305 X-16.456 Y-12.567 Z-5.941 I0.583 J0.12
N1310 X-16.436 Y-12.622 Z-5.909 I0.567 J0.18
N1315 X-16.412 Y-12.671 Z-5.87 I0.547 J0.234
N1320 G1 X-16.387 Y-12.714 Z-5.826
N1325 X-16.361 Y-12.75 Z-5.776
N1330 X-16.336 Y-12.78 Z-5.722
N1335 X-16.314 Y-12.804 Z-5.663
N1340 X-16.296 Y-12.821 Z-5.602
N1345 X-16.283 Y-12.834 Z-5.537
N1350 X-16.274 Y-12.841 Z-5.472
N1355 X-16.271 Y-12.844 Z-5.405
N1360 G0 Z3.095
N1365 X-14.53 Y-63.315
N1370 G1 Z-5.702 F#103
N1375 X-14.523 Y-63.314 Z-5.769
N1380 X-14.502 Y-63.308 Z-5.832
N1385 X-14.467 Y-63.299 Z-5.888
N1390 X-14.422 Y-63.287 Z-5.935
N1395 X-14.367 Y-63.273 Z-5.971
N1400 X-14.306 Y-63.257 Z-5.993
N1405 X-14.242 Y-63.24 Z-6.
N1410 G3 X-13.879 Y-62.965 I-0.151 J0.576
N1415 X-12.555 Y-60.657 I-145.352 J84.955 F#100
N1420 G2 X-11.184 Y-58.27 I146.677 J-82.647
N1425 G3 X-11.177 Y-56.742 I-1.316 J0.77
N1430 G2 X-12.425 Y-52.055 I8.177 J4.687
N1435 G1 Y-17.918
N1440 G2 X-11.177 Y-13.258 I9.323 J0.
N1445 G3 X-12.448 Y-10.976 I-1.323 J0.758
N1450 G2 X-14.521 Y-10.673 I0.319 J9.419
N1455 G3 X-16.671 Y-13.386 I-0.48 J-1.828
N1460 G2 X-15.846 Y-15.585 I-8.13 J-4.307
N1465 X-15.575 Y-17.918 I-9.912 J-2.333
N1470 G1 Y-52.204
N1475 G2 X-16.671 Y-56.615 I-9.425 J0.
N1480 G3 X-16.668 Y-58.389 I1.67 J-0.885
N1485 G2 X-15.454 Y-60.713 I-134.767 J-71.856
N1490 G3 X-14.279 Y-62.965 I136.065 J69.575
N1495 X-14.008 Y-63.122 I0.263 J0.14
N1500 G1 X-13.657 Y-63.112
N1505 G3 X-13.41 Y-62.964 I-0.009 J0.297
N1510 G1 X-10.796 Y-58.497
N1515 G3 X-10.787 Y-56.518 I-1.704 J0.997
N1520 G2 X-11.975 Y-52.055 I7.787 J4.463
N1525 G1 Y-17.945
N1530 G2 X-10.787 Y-13.482 I8.975 J0.
N1535 G3 X-12.433 Y-10.526 I-1.713 J0.982
N1540 G2 X-14.407 Y-10.238 I0.304 J8.97
N1545 G3 X-17.069 Y-13.597 I-0.594 J-2.263
N1550 G2 X-16.025 Y-17.798 I-7.931 J-4.201
N1555 G1 Y-52.204
N1560 G2 X-17.068 Y-56.404 I-8.975 J0.
N1565 G3 X-17.065 Y-58.6 I2.068 J-1.095
N1570 G1 X-14.739 Y-62.964
N1575 G3 X-14.704 Y-63.021 Z-5.996 I0.525 J0.28 F#104
N1580 X-14.664 Y-63.073 Z-5.985 I0.49 J0.337
N1585 X-14.62 Y-63.119 Z-5.967 I0.45 J0.389
N1590 X-14.573 Y-63.158 Z-5.941 I0.406 J0.435
N1595 X-14.524 Y-63.191 Z-5.909 I0.359 J0.475
N1600 X-14.477 Y-63.218 Z-5.87 I0.31 J0.508
N1605 G1 X-14.431 Y-63.238 Z-5.826
N1610 X-14.389 Y-63.252 Z-5.776
N1615 X-14.352 Y-63.263 Z-5.722
N1620 X-14.32 Y-63.269 Z-5.663
N1625 X-14.295 Y-63.273 Z-5.602
N1630 X-14.277 Y-63.275 Z-5.537
N1635 X-14.266 Y-63.277 Z-5.472
N1640 X-14.262 Z-5.405
N1645 G0 Z4.
N1655 M9
N1660 G53 Z0.
N1665 M30
%
