%
(X NUT CONNECTOR)
(T3  D=2.5 CR=0. TAPER=118DEG - ZMIN=-10.051 - DRILL)
N10 G90 G94 G17 G91.1
N15 G21
N20 G53 G0 Z0.
(DRILL1)
N25 M9
N30 T3 M6
N35 S1910 M3
N40 G54
N45 M8
N55 G0 X-65. Y-45.
N60 G43 Z6. H3
N70 G0 Z3.
N75 G98 G83 X-65. Y-45. Z-10.051 R3. Q2. F30.34
N80 Y-25.
N85 Y-5.
N90 X-45.
N95 X-41. Y-16.
N100 X-26.
N105 X-25. Y-5.
N110 X-5.
N115 Y-25.
N120 Y-45.
N125 X-26. Y-54.
N130 X-41.
N135 G80
N140 G0 Z6.
N150 M9
N155 G53 Z0.
N160 M30
%
