%
(1)
(T1  D=6. CR=0. - ZMIN=-19.9 - FLAT END MILL)
N10 G90 G94 G17 G91.1
N15 G21
N20 G53 G0 Z0.
(2D ADAPTIVE1 2)
N25 M9
N30 T1 M6
N35 S3300 M3
N40 G54
N45 M8
N55 G0 X-1.115 Y-29.209
N60 G43 Z4. H1
N65 G0 Z2.71
N70 G1 Z2.605 F900.
N75 S2800
N80 G3 X1.115 Y-26.791 Z2.425 I1.115 J1.209 F700.
N85 X-1.115 Y-29.209 Z2.244 I-1.115 J-1.209
N90 X1.115 Y-26.791 Z2.064 I1.115 J1.209
N95 X-1.115 Y-29.209 Z1.883 I-1.115 J-1.209
N100 X1.115 Y-26.791 Z1.703 I1.115 J1.209
N105 X-1.115 Y-29.209 Z1.522 I-1.115 J-1.209
N110 X1.115 Y-26.791 Z1.342 I1.115 J1.209
N115 X-1.115 Y-29.209 Z1.162 I-1.115 J-1.209
N120 X1.115 Y-26.791 Z0.981 I1.115 J1.209
N125 X-1.115 Y-29.209 Z0.801 I-1.115 J-1.209
N130 X1.115 Y-26.791 Z0.62 I1.115 J1.209
N135 X-1.115 Y-29.209 Z0.44 I-1.115 J-1.209
N140 X1.115 Y-26.791 Z0.26 I1.115 J1.209
N145 X-1.115 Y-29.209 Z0.079 I-1.115 J-1.209
N150 X1.115 Y-26.791 Z-0.101 I1.115 J1.209
N155 X-1.115 Y-29.209 Z-0.282 I-1.115 J-1.209
N160 X1.115 Y-26.791 Z-0.462 I1.115 J1.209
N165 X-1.115 Y-29.209 Z-0.643 I-1.115 J-1.209
N170 X1.115 Y-26.791 Z-0.823 I1.115 J1.209
N175 X-1.115 Y-29.209 Z-1.003 I-1.115 J-1.209
N180 X1.115 Y-26.791 Z-1.184 I1.115 J1.209
N185 X-1.115 Y-29.209 Z-1.364 I-1.115 J-1.209
N190 X1.115 Y-26.791 Z-1.545 I1.115 J1.209
N195 X-1.115 Y-29.209 Z-1.725 I-1.115 J-1.209
N200 X1.115 Y-26.791 Z-1.905 I1.115 J1.209
N205 X-1.115 Y-29.209 Z-2.086 I-1.115 J-1.209
N210 X1.115 Y-26.791 Z-2.266 I1.115 J1.209
N215 X-1.115 Y-29.209 Z-2.447 I-1.115 J-1.209
N220 X1.115 Y-26.791 Z-2.627 I1.115 J1.209
N225 X-1.115 Y-29.209 Z-2.808 I-1.115 J-1.209
N230 X1.115 Y-26.791 Z-2.988 I1.115 J1.209
N235 X-1.115 Y-29.209 Z-3.168 I-1.115 J-1.209
N240 X1.115 Y-26.791 Z-3.349 I1.115 J1.209
N245 X-1.115 Y-29.209 Z-3.529 I-1.115 J-1.209
N250 X1.115 Y-26.791 Z-3.71 I1.115 J1.209
N255 X-1.115 Y-29.209 Z-3.89 I-1.115 J-1.209
N260 X1.115 Y-26.791 Z-4.071 I1.115 J1.209
N265 X-1.115 Y-29.209 Z-4.251 I-1.115 J-1.209
N270 X1.115 Y-26.791 Z-4.431 I1.115 J1.209
N275 X-1.115 Y-29.209 Z-4.612 I-1.115 J-1.209
N280 X1.115 Y-26.791 Z-4.792 I1.115 J1.209
N285 X-1.115 Y-29.209 Z-4.973 I-1.115 J-1.209
N290 X1.115 Y-26.791 Z-5.153 I1.115 J1.209
N295 X-1.115 Y-29.209 Z-5.333 I-1.115 J-1.209
N300 X1.115 Y-26.791 Z-5.514 I1.115 J1.209
N305 X-1.115 Y-29.209 Z-5.694 I-1.115 J-1.209
N310 X1.115 Y-26.791 Z-5.875 I1.115 J1.209
N315 X-1.115 Y-29.209 Z-6.055 I-1.115 J-1.209
N320 X1.115 Y-26.791 Z-6.236 I1.115 J1.209
N325 X-1.115 Y-29.209 Z-6.416 I-1.115 J-1.209
N330 X1.115 Y-26.791 Z-6.596 I1.115 J1.209
N335 X-1.115 Y-29.209 Z-6.777 I-1.115 J-1.209
N340 X1.115 Y-26.791 Z-6.957 I1.115 J1.209
N345 X-1.115 Y-29.209 Z-7.138 I-1.115 J-1.209
N350 X1.115 Y-26.791 Z-7.318 I1.115 J1.209
N355 X-1.115 Y-29.209 Z-7.498 I-1.115 J-1.209
N360 X1.115 Y-26.791 Z-7.679 I1.115 J1.209
N365 X-1.115 Y-29.209 Z-7.859 I-1.115 J-1.209
N370 X1.115 Y-26.791 Z-8.04 I1.115 J1.209
N375 X-1.115 Y-29.209 Z-8.22 I-1.115 J-1.209
N380 X1.115 Y-26.791 Z-8.401 I1.115 J1.209
N385 X-1.115 Y-29.209 Z-8.581 I-1.115 J-1.209
N390 X1.115 Y-26.791 Z-8.761 I1.115 J1.209
N395 X-1.115 Y-29.209 Z-8.942 I-1.115 J-1.209
N400 X1.115 Y-26.791 Z-9.122 I1.115 J1.209
N405 X-1.115 Y-29.209 Z-9.303 I-1.115 J-1.209
N410 X1.115 Y-26.791 Z-9.483 I1.115 J1.209
N415 X-1.115 Y-29.209 Z-9.664 I-1.115 J-1.209
N420 X1.115 Y-26.791 Z-9.844 I1.115 J1.209
N425 X-1.115 Y-29.209 Z-10.024 I-1.115 J-1.209
N430 X1.115 Y-26.791 Z-10.205 I1.115 J1.209
N435 X-1.115 Y-29.209 Z-10.385 I-1.115 J-1.209
N440 X1.115 Y-26.791 Z-10.566 I1.115 J1.209
N445 X-1.115 Y-29.209 Z-10.746 I-1.115 J-1.209
N450 X1.115 Y-26.791 Z-10.926 I1.115 J1.209
N455 X-1.115 Y-29.209 Z-11.107 I-1.115 J-1.209
N460 X1.115 Y-26.791 Z-11.287 I1.115 J1.209
N465 X-1.115 Y-29.209 Z-11.468 I-1.115 J-1.209
N470 X1.115 Y-26.791 Z-11.648 I1.115 J1.209
N475 X-1.115 Y-29.209 Z-11.829 I-1.115 J-1.209
N480 X1.115 Y-26.791 Z-12.009 I1.115 J1.209
N485 X-1.115 Y-29.209 Z-12.189 I-1.115 J-1.209
N490 X1.115 Y-26.791 Z-12.37 I1.115 J1.209
N495 X-1.115 Y-29.209 Z-12.55 I-1.115 J-1.209
N500 X1.115 Y-26.791 Z-12.731 I1.115 J1.209
N505 X-1.115 Y-29.209 Z-12.911 I-1.115 J-1.209
N510 X1.115 Y-26.791 Z-13.091 I1.115 J1.209
N515 X-1.115 Y-29.209 Z-13.272 I-1.115 J-1.209
N520 X1.115 Y-26.791 Z-13.452 I1.115 J1.209
N525 X-1.115 Y-29.209 Z-13.633 I-1.115 J-1.209
N530 X1.115 Y-26.791 Z-13.813 I1.115 J1.209
N535 X-1.115 Y-29.209 Z-13.994 I-1.115 J-1.209
N540 X1.115 Y-26.791 Z-14.174 I1.115 J1.209
N545 X-1.115 Y-29.209 Z-14.354 I-1.115 J-1.209
N550 X1.115 Y-26.791 Z-14.535 I1.115 J1.209
N555 X-1.115 Y-29.209 Z-14.715 I-1.115 J-1.209
N560 X1.115 Y-26.791 Z-14.896 I1.115 J1.209
N565 X-1.115 Y-29.209 Z-15.076 I-1.115 J-1.209
N570 X1.115 Y-26.791 Z-15.257 I1.115 J1.209
N575 X-1.115 Y-29.209 Z-15.437 I-1.115 J-1.209
N580 X1.115 Y-26.791 Z-15.617 I1.115 J1.209
N585 X-1.115 Y-29.209 Z-15.798 I-1.115 J-1.209
N590 X1.115 Y-26.791 Z-15.978 I1.115 J1.209
N595 X-1.115 Y-29.209 Z-16.159 I-1.115 J-1.209
N600 X1.115 Y-26.791 Z-16.339 I1.115 J1.209
N605 X-1.115 Y-29.209 Z-16.519 I-1.115 J-1.209
N610 X1.115 Y-26.791 Z-16.7 I1.115 J1.209
N615 X-1.115 Y-29.209 Z-16.88 I-1.115 J-1.209
N620 X1.115 Y-26.791 Z-17.061 I1.115 J1.209
N625 X-1.115 Y-29.209 Z-17.241 I-1.115 J-1.209
N630 X1.115 Y-26.791 Z-17.422 I1.115 J1.209
N635 X-1.115 Y-29.209 Z-17.602 I-1.115 J-1.209
N640 X1.115 Y-26.791 Z-17.782 I1.115 J1.209
N645 X-1.115 Y-29.209 Z-17.963 I-1.115 J-1.209
N650 X1.115 Y-26.791 Z-18.143 I1.115 J1.209
N655 X-1.115 Y-29.209 Z-18.324 I-1.115 J-1.209
N660 X1.115 Y-26.791 Z-18.504 I1.115 J1.209
N665 X-1.115 Y-29.209 Z-18.684 I-1.115 J-1.209
N670 X1.115 Y-26.791 Z-18.865 I1.115 J1.209
N675 X-1.115 Y-29.209 Z-19.045 I-1.115 J-1.209
N680 X1.115 Y-26.791 Z-19.226 I1.115 J1.209
N685 X-1.115 Y-29.209 Z-19.406 I-1.115 J-1.209
N690 X1.115 Y-26.791 Z-19.587 I1.115 J1.209
N695 X-1.115 Y-29.209 Z-19.767 I-1.115 J-1.209
N700 X1.645 Y-28. Z-19.9 I1.115 J1.209
N705 X-1.645 I-1.645 J0.
N710 X1.645 I1.645 J0.
N715 S3300
N720 G1 X1.646 Y-27.715 F1000.
N725 X1.653 Y-27.445
N730 X1.605 Y-27.179
N735 X1.506 Y-26.928
N740 X1.358 Y-26.702
N745 G3 X0.269 Y-26.127 I-1.289 J-1.123
N750 X-0.27 Y-29.877 I-0.269 J-1.875
N755 X1.168 Y-26.511 I0.269 J1.875
N760 G1 X1.141 Y-26.507
N765 X1.115 Y-26.517
N770 X1.037 Y-26.57 Z-19.893
N775 X0.962 Y-26.622 Z-19.871
N780 X0.89 Y-26.671 Z-19.835
N785 X0.824 Y-26.716 Z-19.785
N790 X0.765 Y-26.757 Z-19.724
N795 X0.714 Y-26.791 Z-19.653
N800 X0.674 Y-26.819 Z-19.572
N805 X0.644 Y-26.839 Z-19.485
N810 X0.626 Y-26.852 Z-19.394
N815 X0.62 Y-26.856 Z-19.3
N820 G0 Z4.
N830 M9
N835 G53 Z0.
N840 M30
%
