%
(1)
(T1  D=6. CR=0. - ZMIN=-17. - FLAT END MILL)
N10 G90 G94 G17 G91.1
N15 G21
N20 G53 G0 Z0.
(2D ADAPTIVE1 2)
N25 M9
N30 T1 M6
N35 S3300 M3
N40 G54
N45 M8
N55 G0 X11.458 Y-24.07
N60 G43 Z4. H1
N65 G0 Z2.505
N70 G1 Z2.5 F900.
N75 S2800
N80 G3 X8.54 Y-25.93 Z2.31 I-1.459 J-0.93 F700.
N85 X11.458 Y-24.07 Z2.12 I1.459 J0.93
N90 X8.54 Y-25.93 Z1.93 I-1.459 J-0.93
N95 X11.458 Y-24.07 Z1.741 I1.459 J0.93
N100 X8.54 Y-25.93 Z1.551 I-1.459 J-0.93
N105 X11.458 Y-24.07 Z1.361 I1.459 J0.93
N110 X8.54 Y-25.93 Z1.171 I-1.459 J-0.93
N115 X11.458 Y-24.07 Z0.981 I1.459 J0.93
N120 X8.54 Y-25.93 Z0.791 I-1.459 J-0.93
N125 X11.458 Y-24.07 Z0.602 I1.459 J0.93
N130 X8.54 Y-25.93 Z0.412 I-1.459 J-0.93
N135 X11.458 Y-24.07 Z0.222 I1.459 J0.93
N140 X8.54 Y-25.93 Z0.032 I-1.459 J-0.93
N145 X11.458 Y-24.07 Z-0.158 I1.459 J0.93
N150 X8.54 Y-25.93 Z-0.348 I-1.459 J-0.93
N155 X11.458 Y-24.07 Z-0.537 I1.459 J0.93
N160 X8.54 Y-25.93 Z-0.727 I-1.459 J-0.93
N165 X11.458 Y-24.07 Z-0.917 I1.459 J0.93
N170 X8.54 Y-25.93 Z-1.107 I-1.459 J-0.93
N175 X11.458 Y-24.07 Z-1.297 I1.459 J0.93
N180 X8.54 Y-25.93 Z-1.487 I-1.459 J-0.93
N185 X11.458 Y-24.07 Z-1.676 I1.459 J0.93
N190 X8.54 Y-25.93 Z-1.866 I-1.459 J-0.93
N195 X11.458 Y-24.07 Z-2.056 I1.459 J0.93
N200 X8.54 Y-25.93 Z-2.246 I-1.459 J-0.93
N205 X11.458 Y-24.07 Z-2.436 I1.459 J0.93
N210 X8.54 Y-25.93 Z-2.626 I-1.459 J-0.93
N215 X11.458 Y-24.07 Z-2.815 I1.459 J0.93
N220 X8.54 Y-25.93 Z-3.005 I-1.459 J-0.93
N225 X11.458 Y-24.07 Z-3.195 I1.459 J0.93
N230 X8.54 Y-25.93 Z-3.385 I-1.459 J-0.93
N235 X11.458 Y-24.07 Z-3.575 I1.459 J0.93
N240 X8.54 Y-25.93 Z-3.765 I-1.459 J-0.93
N245 X11.458 Y-24.07 Z-3.954 I1.459 J0.93
N250 X8.54 Y-25.93 Z-4.144 I-1.459 J-0.93
N255 X11.458 Y-24.07 Z-4.334 I1.459 J0.93
N260 X8.54 Y-25.93 Z-4.524 I-1.459 J-0.93
N265 X11.458 Y-24.07 Z-4.714 I1.459 J0.93
N270 X8.54 Y-25.93 Z-4.904 I-1.459 J-0.93
N275 X11.458 Y-24.07 Z-5.094 I1.459 J0.93
N280 X8.54 Y-25.93 Z-5.283 I-1.459 J-0.93
N285 X11.458 Y-24.07 Z-5.473 I1.459 J0.93
N290 X8.54 Y-25.93 Z-5.663 I-1.459 J-0.93
N295 X11.458 Y-24.07 Z-5.853 I1.459 J0.93
N300 X8.54 Y-25.93 Z-6.043 I-1.459 J-0.93
N305 X11.458 Y-24.07 Z-6.233 I1.459 J0.93
N310 X8.54 Y-25.93 Z-6.422 I-1.459 J-0.93
N315 X11.458 Y-24.07 Z-6.612 I1.459 J0.93
N320 X8.54 Y-25.93 Z-6.802 I-1.459 J-0.93
N325 X11.458 Y-24.07 Z-6.992 I1.459 J0.93
N330 X8.54 Y-25.93 Z-7.182 I-1.459 J-0.93
N335 X11.458 Y-24.07 Z-7.372 I1.459 J0.93
N340 X8.54 Y-25.93 Z-7.561 I-1.459 J-0.93
N345 X11.458 Y-24.07 Z-7.751 I1.459 J0.93
N350 X8.54 Y-25.93 Z-7.941 I-1.459 J-0.93
N355 X11.458 Y-24.07 Z-8.131 I1.459 J0.93
N360 X8.54 Y-25.93 Z-8.321 I-1.459 J-0.93
N365 X11.458 Y-24.07 Z-8.511 I1.459 J0.93
N370 X8.54 Y-25.93 Z-8.7 I-1.459 J-0.93
N375 X11.458 Y-24.07 Z-8.89 I1.459 J0.93
N380 X8.54 Y-25.93 Z-9.08 I-1.459 J-0.93
N385 X11.458 Y-24.07 Z-9.27 I1.459 J0.93
N390 X8.54 Y-25.93 Z-9.46 I-1.459 J-0.93
N395 X11.458 Y-24.07 Z-9.65 I1.459 J0.93
N400 X8.54 Y-25.93 Z-9.839 I-1.459 J-0.93
N405 X11.729 Y-25. Z-9.995 I1.459 J0.93
N410 X8.269 I-1.73 J0.
N415 X11.729 I1.73 J0.
N420 S3300
N425 G1 X11.73 Y-24.719 F1000.
N430 X11.738 Y-24.445
N435 X11.695 Y-24.174
N440 X11.603 Y-23.916
N445 X11.465 Y-23.68
N450 X11.285 Y-23.473
N455 G3 X8.716 Y-26.526 I-1.284 J-1.527
N460 X11.378 Y-26.442 I1.284 J1.527
N465 X11.546 Y-23.739 I-1.379 J1.442
N470 G1 X11.376 Y-23.56
N475 X11.285 Y-23.473
N480 X11.261 Y-23.468 Z-9.989
N485 X11.245 Y-23.473 Z-9.977
N490 X11.234 Y-23.475 Z-9.959
N495 X11.23 Y-23.476 Z-9.939
N500 G0 Z2.505
N505 X11.691 Y-25.364
N510 Z-6.895
N515 G1 Z-7.495 F900.
N520 S2800
N525 G3 X8.307 Y-24.635 Z-7.685 I-1.692 J0.365 F700.
N530 X11.691 Y-25.364 Z-7.875 I1.692 J-0.365
N535 X8.307 Y-24.635 Z-8.065 I-1.692 J0.365
N540 X11.691 Y-25.364 Z-8.254 I1.692 J-0.365
N545 X8.307 Y-24.635 Z-8.444 I-1.692 J0.365
N550 X11.691 Y-25.364 Z-8.634 I1.692 J-0.365
N555 X8.307 Y-24.635 Z-8.824 I-1.692 J0.365
N560 X11.691 Y-25.364 Z-9.014 I1.692 J-0.365
N565 X8.307 Y-24.635 Z-9.204 I-1.692 J0.365
N570 X11.691 Y-25.364 Z-9.393 I1.692 J-0.365
N575 X8.307 Y-24.635 Z-9.583 I-1.692 J0.365
N580 X11.691 Y-25.364 Z-9.773 I1.692 J-0.365
N585 X8.307 Y-24.635 Z-9.963 I-1.692 J0.365
N590 X11.691 Y-25.364 Z-10.153 I1.692 J-0.365
N595 X8.307 Y-24.635 Z-10.343 I-1.692 J0.365
N600 X11.691 Y-25.364 Z-10.532 I1.692 J-0.365
N605 X8.307 Y-24.635 Z-10.722 I-1.692 J0.365
N610 X11.691 Y-25.364 Z-10.912 I1.692 J-0.365
N615 X8.307 Y-24.635 Z-11.102 I-1.692 J0.365
N620 X11.691 Y-25.364 Z-11.292 I1.692 J-0.365
N625 X8.307 Y-24.635 Z-11.482 I-1.692 J0.365
N630 X11.691 Y-25.364 Z-11.672 I1.692 J-0.365
N635 X8.307 Y-24.635 Z-11.861 I-1.692 J0.365
N640 X11.691 Y-25.364 Z-12.051 I1.692 J-0.365
N645 X8.307 Y-24.635 Z-12.241 I-1.692 J0.365
N650 X11.691 Y-25.364 Z-12.431 I1.692 J-0.365
N655 X8.307 Y-24.635 Z-12.621 I-1.692 J0.365
N660 X11.691 Y-25.364 Z-12.811 I1.692 J-0.365
N665 X8.307 Y-24.635 Z-13. I-1.692 J0.365
N670 X11.691 Y-25.364 Z-13.19 I1.692 J-0.365
N675 X8.307 Y-24.635 Z-13.38 I-1.692 J0.365
N680 X11.691 Y-25.364 Z-13.57 I1.692 J-0.365
N685 X8.307 Y-24.635 Z-13.76 I-1.692 J0.365
N690 X11.691 Y-25.364 Z-13.95 I1.692 J-0.365
N695 X8.307 Y-24.635 Z-14.14 I-1.692 J0.365
N700 X11.691 Y-25.364 Z-14.329 I1.692 J-0.365
N705 X8.307 Y-24.635 Z-14.519 I-1.692 J0.365
N710 X11.691 Y-25.364 Z-14.709 I1.692 J-0.365
N715 X8.307 Y-24.635 Z-14.899 I-1.692 J0.365
N720 X11.691 Y-25.364 Z-15.089 I1.692 J-0.365
N725 X8.307 Y-24.635 Z-15.279 I-1.692 J0.365
N730 X11.691 Y-25.364 Z-15.468 I1.692 J-0.365
N735 X8.307 Y-24.635 Z-15.658 I-1.692 J0.365
N740 X11.691 Y-25.364 Z-15.848 I1.692 J-0.365
N745 X8.307 Y-24.635 Z-16.038 I-1.692 J0.365
N750 X11.691 Y-25.364 Z-16.228 I1.692 J-0.365
N755 X8.307 Y-24.635 Z-16.418 I-1.692 J0.365
N760 X11.691 Y-25.364 Z-16.607 I1.692 J-0.365
N765 X8.307 Y-24.635 Z-16.797 I-1.692 J0.365
N770 X9.816 Y-26.72 Z-16.899 I1.692 J-0.365
N775 X11.729 Y-25. Z-17. I0.183 J1.721
N780 X8.269 I-1.73 J0.
N785 X11.729 I1.73 J0.
N790 S3300
N795 G1 X11.73 Y-24.718 F1000.
N800 X11.738 Y-24.445
N805 X11.695 Y-24.174
N810 X11.603 Y-23.916
N815 X11.465 Y-23.68
N820 X11.285 Y-23.474
N825 G3 X8.716 Y-26.526 I-1.285 J-1.526
N830 X11.378 Y-26.442 I1.285 J1.526
N835 X11.546 Y-23.739 I-1.379 J1.442
N840 G1 X11.376 Y-23.56
N845 X11.285 Y-23.474
N850 G3 X11.231 Y-23.477 I-0.024 J-0.055
N855 G1 X11.15 Y-23.524 Z-16.993
N860 X11.071 Y-23.571 Z-16.971
N865 X10.996 Y-23.615 Z-16.935
N870 X10.926 Y-23.655 Z-16.885
N875 X10.865 Y-23.692 Z-16.824
N880 X10.812 Y-23.722 Z-16.753
N885 X10.77 Y-23.747 Z-16.672
N890 X10.738 Y-23.766 Z-16.585
N895 X10.719 Y-23.777 Z-16.494
N900 X10.713 Y-23.78 Z-16.4
N905 G0 Z4.
N915 M9
N920 G53 Z0.
N925 M30
%
