%
(1)
(T1  D=6. CR=0. - ZMIN=-18. - FLAT END MILL)
N5 G64 P0.05
N10 G90 G94 G17 G91.1
N15 G21
N20 G53 G0 Z0.
(FACE3)
N25 M9
N30 T1 M6
N35 S3300 M3
N40 G54
N45 M8
N55 G0 X15.283 Y-21.236
N60 G43 Z4. H1
N65 G0 Z2.
N70 G1 Z0.6 F900.
N75 G18 G3 X14.683 Z0. I-0.6 K0.
N80 G1 X12.566
N85 X-12.566 F1000.
N90 X-13.
N95 G17 G2 Y-17.511 I0. J1.862
N100 G1 X13.
N105 G3 Y-13.787 I0. J1.862
N110 G1 X-13.
N115 G2 Y-10.063 I0. J1.862
N120 G1 X13.
N125 G3 Y-6.339 I0. J1.862
N130 G1 X-13.
N135 G2 Y-2.614 I0. J1.862
N140 G1 X13.
N145 G3 Y1.11 I0. J1.862
N150 G1 X12.996
N155 X-12.996
N160 G18 G3 X-13.596 Z0.6 I0. K0.6
N165 G0 Z4.
N170 G17
(2D POCKET4)
N175 M8
N180 G0 X-28.033 Y-0.569
N185 Z4.
N190 Z2.8
N195 G1 Z-17.7 F900.
N200 X-28.032 Y-0.562 Z-17.767
N205 X-28.03 Y-0.54 Z-17.83
N210 X-28.025 Y-0.504 Z-17.887
N215 X-28.019 Y-0.457 Z-17.935
N220 X-28.011 Y-0.401 Z-17.97
N225 X-28.003 Y-0.338 Z-17.992
N230 X-27.994 Y-0.272 Z-18.
N235 X-27.99 Y-0.242
N240 G2 X-27.716 Y1.231 I14.653 J-1.958 F1000.
N245 G3 X-27.794 Y1.455 I-0.214 J0.051
N250 G1 X-27.852 Y1.5
N255 G2 X-27.582 Y1.846 I0.135 J0.173
N260 X-27.505 Y1.616 I-0.135 J-0.173
N265 G3 X-27.99 Y-1.434 I14.168 J-3.816
N270 G2 X-28.048 Y-1.529 I-0.117 J0.006
N275 G1 X-28.282 Y-1.666
N280 G3 X-28.34 Y-1.767 I0.059 J-0.101
N285 G1 X-28.275 Y-20.295
N290 G3 X-28.193 Y-20.407 I0.118 J0.
N295 G1 X-28.012 Y-20.465
N300 G2 X-27.935 Y-20.542 I-0.036 J-0.113
N305 G3 X-27.631 Y-21.412 I14.935 J4.742
N310 G2 X-27.695 Y-21.702 I-0.252 J-0.096
N315 G1 X-27.766 Y-21.771
N320 G3 X-27.393 Y-22.159 I0.187 J-0.194
N325 X-27.331 Y-21.86 I-0.187 J0.194
N330 G2 X-27.99 Y-19.975 I14.331 J6.06
N335 G3 X-28.164 Y-19.819 I-0.208 J-0.058
N340 G1 X-28.233 Y-19.808
N345 G2 X-28.166 Y-19.382 I0.034 J0.213
N350 X-27.99 Y-19.543 I-0.034 J-0.213
N355 G3 X-27.093 Y-22.132 I14.99 J3.743
N360 G2 X-27.103 Y-22.258 I-0.119 J-0.053
N365 G1 X-27.121 Y-22.284
N370 G3 X-26.904 Y-22.429 I0.108 J-0.073
N375 X-26.894 Y-22.301 I-0.108 J0.073
N380 G2 X-27.99 Y-19.06 I13.894 J6.501
N385 G3 X-28.214 Y-18.842 I-0.276 J-0.06
N390 G1 X-28.319 Y-18.823
N395 G2 X-28.216 Y-18.267 I0.052 J0.278
N400 X-27.99 Y-18.495 I-0.052 J-0.278
N405 G3 X-26.699 Y-22.455 I14.99 J2.695
N410 G2 Y-22.544 I-0.092 J-0.045
N415 G1 X-26.708 Y-22.562
N420 G3 X-26.524 Y-22.651 I0.092 J-0.045
N425 Y-22.561 I-0.092 J0.045
N430 G2 X-27.99 Y-17.78 I13.524 J6.761
N435 G3 X-28.026 Y-17.673 I-0.297 J-0.039
N440 G1 X-28.551 Y-16.737
N445 G2 X-28.028 Y-16.443 I0.262 J0.147
N450 X-27.99 Y-16.575 I-0.262 J-0.147
N455 G3 X-26.347 Y-22.667 I14.99 J0.775
N460 G2 X-26.342 Y-22.733 I-0.076 J-0.039
N465 G1 X-26.346 Y-22.746
N470 G3 X-26.183 Y-22.799 I0.081 J-0.026
N475 X-26.189 Y-22.733 I-0.081 J0.026
N480 G2 X-27.9 Y-15.8 I13.189 J6.933
N485 G1 Y-2.2
N490 G2 X-27.318 Y1.875 I14.563 J0.
N495 G3 X-27.349 Y2.006 I-0.131 J0.038
N500 G1 X-27.372 Y2.031
N505 G2 X-27.171 Y2.216 I0.101 J0.092
N510 X-27.141 Y2.083 I-0.101 J-0.092
N515 G3 X-27.79 Y-2.2 I13.805 J-4.283
N520 G1 Y-15.8
N525 G3 X-26.029 Y-22.799 I14.79 J0.
N530 G2 X-26.022 Y-22.86 I-0.073 J-0.039
N535 G1 X-26.026 Y-22.873
N540 G3 X-25.866 Y-22.917 I0.08 J-0.022
N545 X-25.874 Y-22.855 I-0.08 J0.022
N550 G2 X-27.68 Y-15.8 I12.874 J7.055
N555 G1 Y-2.2
N560 G2 X-26.979 Y2.229 I14.344 J0.
N565 G3 X-26.993 Y2.323 I-0.101 J0.033
N570 G1 X-27.006 Y2.341
N575 G2 X-26.831 Y2.463 I0.087 J0.061
N580 X-26.817 Y2.368 I-0.087 J-0.061
N585 G3 X-27.57 Y-2.2 I13.481 J-4.568
N590 G1 Y-15.8
N595 G3 X-25.728 Y-22.89 I14.57 J0.
N600 G2 X-25.72 Y-22.939 I-0.065 J-0.036
N605 G1 X-25.722 Y-22.95
N610 G3 X-25.574 Y-22.975 I0.074 J-0.013
N615 X-25.583 Y-22.925 I-0.074 J0.013
N620 G2 X-27.46 Y-15.8 I12.583 J7.125
N625 G1 Y-2.2
N630 G2 X-26.664 Y2.475 I14.124 J0.
N635 G3 X-26.668 Y2.544 I-0.083 J0.029
N640 G1 X-26.675 Y2.557
N645 G2 X-26.518 Y2.637 I0.078 J0.04
N650 X-26.514 Y2.567 I-0.078 J-0.04
N655 G3 X-27.35 Y-2.2 I13.179 J-4.767
N660 G1 Y-15.8
N665 G3 X-25.439 Y-22.955 I14.35 J0.
N670 G2 X-25.43 Y-22.99 I-0.058 J-0.033
N675 G1 Y-22.998
N680 G3 X-25.297 Y-23.002 I0.067 J-0.002
N685 X-25.306 Y-22.966 I-0.067 J0.002
N690 G2 X-27.24 Y-15.8 I12.306 J7.166
N695 G1 Y-2.2
N700 G2 X-26.363 Y2.661 I13.905 J0.
N705 G3 X-26.362 Y2.711 I-0.071 J0.026
N710 G1 X-26.365 Y2.721
N715 G2 X-26.222 Y2.769 I0.071 J0.024
N720 X-26.224 Y2.718 I-0.071 J-0.024
N725 G3 X-27.13 Y-2.2 I12.889 J-4.918
N730 G1 Y-15.8
N735 G3 X-25.173 Y-22.975 I14.13 J0.
N740 G2 X-25.163 Y-23.011 I-0.058 J-0.034
N745 G1 X-25.164 Y-23.019
N750 G3 X-25.029 Y-23.022 I0.067 J-0.002
N755 X-25.038 Y-22.986 I-0.067 J0.002
N760 G2 X-27.02 Y-15.8 I12.038 J7.186
N765 G1 Y-2.2
N770 G2 X-26.083 Y2.777 I13.685 J0.
N775 G3 X-26.082 Y2.829 I-0.071 J0.028
N780 G1 X-26.085 Y2.84
N785 G2 X-25.94 Y2.888 I0.073 J0.024
N790 X-25.942 Y2.835 I-0.073 J-0.024
N795 G3 X-26.91 Y-2.2 I12.607 J-5.035
N800 G1 Y-15.8
N805 G3 X-24.908 Y-22.99 I13.91 J0.
N810 G2 X-24.899 Y-23.019 I-0.055 J-0.033
N815 G1 X-24.898 Y-23.025
N820 G3 X-24.771 Y-23.018 I0.064 J0.004
N825 X-24.78 Y-22.989 I-0.064 J-0.004
N830 G2 X-26.8 Y-15.8 I11.78 J7.189
N835 G1 Y-2.2
N840 G2 X-25.809 Y2.871 I13.466 J0.
N845 G3 X-25.805 Y2.908 I-0.063 J0.026
N850 G1 X-25.806 Y2.916
N855 G2 X-25.673 Y2.94 I0.067 J0.012
N860 X-25.677 Y2.902 I-0.067 J-0.012
N865 G3 X-26.69 Y-2.2 I12.343 J-5.102
N870 G1 Y-15.8
N875 G3 X-24.651 Y-22.989 I13.69 J0.
N880 G2 X-24.641 Y-23.02 I-0.055 J-0.034
N885 G1 Y-23.026
N890 G3 X-24.511 Y-23.02 I0.065 J0.003
N895 X-24.521 Y-22.989 I-0.065 J-0.003
N900 G2 X-26.58 Y-15.8 I11.521 J7.189
N905 G1 Y-2.2
N910 G2 X-25.545 Y2.934 I13.246 J0.
N915 G3 X-25.54 Y2.967 I-0.06 J0.025
N920 G1 X-25.541 Y2.974
N925 G2 X-25.411 Y2.989 I0.065 J0.008
N930 X-25.416 Y2.956 I-0.065 J-0.008
N935 G3 X-26.47 Y-2.2 I12.083 J-5.156
N940 G1 Y-15.8
N945 G3 X-24.391 Y-22.989 I13.47 J0.
N950 G2 X-24.381 Y-23.02 I-0.055 J-0.035
N955 G1 Y-23.027
N960 G3 X-24.251 Y-23.02 I0.065 J0.003
N965 X-24.261 Y-22.989 I-0.065 J-0.003
N970 G2 X-26.36 Y-15.8 I11.261 J7.189
N975 G1 Y-2.2
N980 G2 X-25.292 Y2.966 I13.027 J0.
N985 G3 X-25.287 Y2.993 I-0.057 J0.025
N990 G1 Y2.999
N995 G2 X-25.162 Y3.003 I0.062 J0.002
N1000 X-25.168 Y2.976 I-0.062 J-0.002
N1005 G3 X-26.25 Y-2.2 I11.835 J-5.176
N1010 G1 Y-15.8
N1015 G3 X-24.13 Y-22.99 I13.25 J0.
N1020 G2 X-24.119 Y-23.022 I-0.055 J-0.035
N1025 G1 Y-23.029
N1030 G3 X-23.988 Y-23.021 I0.065 J0.004
N1035 X-23.999 Y-22.989 I-0.065 J-0.004
N1040 G2 X-26.14 Y-15.8 I10.999 J7.189
N1045 G1 Y-2.2
N1050 G2 X-25.06 Y2.948 I12.807 J0.
N1055 G1 X-25.043 Y2.985
N1060 G3 X-25.038 Y3.009 I-0.056 J0.025
N1065 G1 Y3.014
N1070 G2 X-24.916 Y3.013 I0.061 J-0.001
N1075 X-24.922 Y2.988 I-0.061 J0.001
N1080 G3 X-24.958 Y2.906 I12.895 J-5.762
N1085 X-26.03 Y-2.2 I11.626 J-5.106
N1090 G1 Y-15.8
N1095 G3 X-23.867 Y-22.99 I13.03 J0.
N1100 G2 X-23.856 Y-23.022 I-0.055 J-0.036
N1105 G1 Y-23.029
N1110 G3 X-23.724 Y-23.021 I0.066 J0.004
N1115 X-23.735 Y-22.989 I-0.066 J-0.004
N1120 G2 X-25.92 Y-15.8 I10.735 J7.189
N1125 G1 Y-2.2
N1130 G2 X-24.856 Y2.864 I12.588 J0.
N1135 X-24.8 Y2.99 I12.83 J-5.638
N1140 G3 X-24.795 Y3.012 I-0.055 J0.025
N1145 G1 Y3.017
N1150 G2 X-24.674 Y3.012 I0.06 J-0.002
N1155 X-24.68 Y2.99 I-0.06 J0.002
N1160 G3 X-24.755 Y2.822 I12.654 J-5.764
N1165 X-25.81 Y-2.2 I11.423 J-5.022
N1170 G1 Y-15.8
N1175 G3 X-23.603 Y-22.989 I12.81 J0.
N1180 G2 X-23.591 Y-23.023 I-0.055 J-0.037
N1185 G1 Y-23.03
N1190 G3 X-23.458 Y-23.023 I0.066 J0.004
N1195 X-23.469 Y-22.989 I-0.066 J-0.004
N1200 G2 X-25.7 Y-15.8 I10.469 J7.189
N1205 G1 Y-2.2
N1210 G2 X-24.653 Y2.78 I12.369 J0.
N1215 X-24.559 Y2.989 I12.627 J-5.554
N1220 G3 X-24.554 Y3.012 I-0.055 J0.025
N1225 G1 X-24.553 Y3.017
N1230 G2 X-24.433 Y3.012 I0.06 J-0.002
N1235 X-24.438 Y2.989 I-0.06 J0.002
N1240 G3 X-24.552 Y2.738 I12.413 J-5.763
N1245 X-25.59 Y-2.2 I11.221 J-4.938
N1250 G1 Y-15.8
N1255 G3 X-23.336 Y-22.989 I12.59 J0.
N1260 G2 X-23.324 Y-23.024 I-0.055 J-0.039
N1265 G1 X-23.323 Y-23.032
N1270 G3 X-23.189 Y-23.025 I0.067 J0.003
N1275 X-23.201 Y-22.99 I-0.067 J-0.003
N1280 G2 X-25.48 Y-15.8 I10.201 J7.19
N1285 G1 Y-2.2
N1290 G2 X-24.45 Y2.696 I12.149 J0.
N1295 X-24.316 Y2.99 I12.425 J-5.471
N1300 G3 X-24.311 Y3.013 I-0.055 J0.026
N1305 G1 X-24.31 Y3.018
N1310 G2 X-24.189 Y3.013 I0.061 J-0.003
N1315 X-24.195 Y2.989 I-0.061 J0.003
N1320 G3 X-24.348 Y2.654 I12.17 J-5.764
N1325 X-25.37 Y-2.2 I11.018 J-4.854
N1330 G1 Y-15.8
N1335 G3 X-23.067 Y-22.989 I12.37 J0.
N1340 G2 X-23.054 Y-23.025 I-0.055 J-0.039
N1345 G1 Y-23.033
N1350 G3 X-22.918 Y-23.026 I0.068 J0.004
N1355 X-22.931 Y-22.989 I-0.068 J-0.004
N1360 G2 X-25.26 Y-15.8 I9.931 J7.189
N1365 G1 Y-2.2
N1370 G2 X-24.247 Y2.612 I11.93 J0.
N1375 X-24.073 Y2.989 I12.222 J-5.387
N1380 G3 X-24.067 Y3.013 I-0.055 J0.026
N1385 G1 Y3.018
N1390 G2 X-23.945 Y3.014 I0.061 J-0.002
N1395 X-23.951 Y2.99 I-0.061 J0.002
N1400 G3 X-24.145 Y2.569 I11.927 J-5.765
N1405 X-25.15 Y-2.2 I10.815 J-4.769
N1410 G1 Y-15.8
N1415 G3 X-22.794 Y-22.99 I12.15 J0.
N1420 G2 X-22.781 Y-23.026 I-0.055 J-0.04
N1425 G1 Y-23.035
N1430 G3 X-22.644 Y-23.026 I0.068 J0.004
N1435 X-22.658 Y-22.99 I-0.068 J-0.004
N1440 G2 X-25.04 Y-15.8 I9.658 J7.19
N1445 G1 Y-2.2
N1450 G2 X-24.043 Y2.527 I11.711 J0.
N1455 X-23.829 Y2.989 I12.019 J-5.303
N1460 G3 X-23.823 Y3.013 I-0.055 J0.027
N1465 G1 Y3.019
N1470 G2 X-23.7 Y3.014 I0.061 J-0.002
N1475 X-23.706 Y2.989 I-0.061 J0.002
N1480 G3 X-23.942 Y2.485 I11.683 J-5.766
N1485 X-24.93 Y-2.2 I10.613 J-4.685
N1490 G1 Y-15.8
N1495 G3 X-22.521 Y-22.989 I11.93 J0.
N1500 G2 X-22.507 Y-23.027 I-0.055 J-0.042
N1505 G1 X-22.506 Y-23.036
N1510 G3 X-22.368 Y-23.028 I0.069 J0.004
N1515 X-22.382 Y-22.99 I-0.069 J-0.004
N1520 G2 X-24.82 Y-15.8 I9.382 J7.19
N1525 G1 Y-2.2
N1530 G2 X-23.84 Y2.443 I11.491 J0.
N1535 X-23.583 Y2.99 I11.817 J-5.22
N1540 G3 X-23.577 Y3.014 I-0.055 J0.027
N1545 G1 Y3.019
N1550 G2 X-23.454 Y3.013 I0.061 J-0.003
N1555 X-23.461 Y2.989 I-0.061 J0.003
N1560 G3 X-23.739 Y2.401 I11.438 J-5.766
N1565 X-24.71 Y-2.2 I10.41 J-4.601
N1570 G1 Y-15.8
N1575 G3 X-22.244 Y-22.989 I11.71 J0.
N1580 G2 X-22.229 Y-23.027 I-0.055 J-0.043
N1585 G1 Y-23.036
N1590 G3 X-22.089 Y-23.027 I0.07 J0.005
N1595 X-22.104 Y-22.989 I-0.07 J-0.005
N1600 G2 X-24.6 Y-15.8 I9.104 J7.189
N1605 G1 Y-2.2
N1610 G2 X-23.637 Y2.359 I11.272 J0.
N1615 X-23.337 Y2.989 I11.614 J-5.136
N1620 G3 X-23.331 Y3.015 I-0.055 J0.028
N1625 G1 X-23.33 Y3.02
N1630 G2 X-23.207 Y3.015 I0.062 J-0.003
N1635 X-23.213 Y2.99 I-0.062 J0.003
N1640 G3 X-23.535 Y2.317 I11.191 J-5.767
N1645 X-24.49 Y-2.2 I10.208 J-4.517
N1650 G1 Y-15.8
N1655 G3 X-21.963 Y-22.99 I11.49 J0.
N1660 G2 X-21.947 Y-23.029 I-0.055 J-0.044
N1665 G1 Y-23.038
N1670 G3 X-21.806 Y-23.028 I0.07 J0.005
N1675 X-21.822 Y-22.989 I-0.07 J-0.005
N1680 G2 X-24.38 Y-15.8 I8.822 J7.189
N1685 G1 Y-2.2
N1690 G2 X-23.434 Y2.275 I11.053 J0.
N1695 X-23.09 Y2.99 I11.412 J-5.053
N1700 G3 X-23.083 Y3.016 I-0.055 J0.029
N1705 G1 X-23.082 Y3.021
N1710 G2 X-22.958 Y3.016 I0.062 J-0.003
N1715 X-22.965 Y2.99 I-0.062 J0.003
N1720 G3 X-23.332 Y2.233 I10.944 J-5.768
N1725 X-24.27 Y-2.2 I10.005 J-4.433
N1730 G1 Y-15.8
N1735 G3 X-21.679 Y-22.989 I11.27 J0.
N1740 G2 X-21.663 Y-23.029 I-0.055 J-0.046
N1745 G1 X-21.662 Y-23.04
N1750 G3 X-21.52 Y-23.03 I0.071 J0.005
N1755 X-21.536 Y-22.989 I-0.071 J-0.005
N1760 G2 X-24.16 Y-15.8 I8.536 J7.189
N1765 G1 Y-2.2
N1770 G2 X-23.23 Y2.191 I10.833 J0.
N1775 X-22.841 Y2.99 I11.209 J-4.969
N1780 G3 X-22.834 Y3.016 I-0.055 J0.029
N1785 G1 X-22.833 Y3.022
N1790 G2 X-22.709 Y3.016 I0.062 J-0.003
N1795 X-22.716 Y2.989 I-0.062 J0.003
N1800 G3 X-23.129 Y2.149 I10.695 J-5.768
N1805 X-24.05 Y-2.2 I9.803 J-4.349
N1810 G1 Y-15.8
N1815 G3 X-21.391 Y-22.989 I11.05 J0.
N1820 G2 X-21.374 Y-23.031 I-0.055 J-0.047
N1825 G1 X-21.373 Y-23.042
N1830 G3 X-21.228 Y-23.032 I0.073 J0.005
N1835 X-21.246 Y-22.989 I-0.073 J-0.005
N1840 G2 X-23.94 Y-15.8 I8.246 J7.189
N1845 G1 Y-2.2
N1850 G2 X-23.027 Y2.106 I10.614 J0.
N1855 X-22.591 Y2.989 I11.006 J-4.886
N1860 G3 X-22.584 Y3.016 I-0.055 J0.03
N1865 G1 X-22.583 Y3.022
N1870 G2 X-22.458 Y3.016 I0.063 J-0.003
N1875 X-22.466 Y2.989 I-0.063 J0.003
N1880 G3 X-22.926 Y2.064 I10.446 J-5.768
N1885 X-23.83 Y-2.2 I9.6 J-4.264
N1890 G1 Y-15.8
N1895 G3 X-21.1 Y-22.989 I10.83 J0.
N1900 G2 X-21.081 Y-23.033 I-0.055 J-0.049
N1905 G1 X-21.08 Y-23.044
N1910 G3 X-20.933 Y-23.034 I0.074 J0.005
N1915 X-20.952 Y-22.989 I-0.074 J-0.005
N1920 G2 X-23.72 Y-15.8 I7.952 J7.189
N1925 G1 Y-2.2
N1930 G2 X-22.824 Y2.022 I10.395 J0.
N1935 X-22.34 Y2.99 I10.804 J-4.802
N1940 G3 X-22.332 Y3.017 I-0.055 J0.031
N1945 G1 X-22.331 Y3.023
N1950 G2 X-22.206 Y3.016 I0.063 J-0.003
N1955 X-22.214 Y2.989 I-0.063 J0.003
N1960 G3 X-22.722 Y1.98 I10.194 J-5.769
N1965 X-23.61 Y-2.2 I9.398 J-4.18
N1970 G1 Y-15.8
N1975 G3 X-20.803 Y-22.989 I10.61 J0.
N1980 G2 X-20.783 Y-23.035 I-0.055 J-0.051
N1985 G1 X-20.782 Y-23.047
N1990 G3 X-20.632 Y-23.036 I0.075 J0.006
N1995 X-20.652 Y-22.99 I-0.075 J-0.006
N2000 G2 X-23.5 Y-15.8 I7.652 J7.19
N2005 G1 Y-2.2
N2010 G2 X-22.621 Y1.938 I10.176 J0.
N2015 X-22.087 Y2.99 I10.601 J-4.719
N2020 G3 X-22.079 Y3.017 I-0.055 J0.031
N2025 G1 X-22.078 Y3.024
N2030 G2 X-21.952 Y3.017 I0.063 J-0.004
N2035 X-21.961 Y2.989 I-0.063 J0.004
N2040 G3 X-22.519 Y1.896 I9.942 J-5.77
N2045 X-23.39 Y-2.2 I9.195 J-4.096
N2050 G1 Y-15.8
N2055 G3 X-20.501 Y-22.99 I10.39 J0.
N2060 G2 X-20.48 Y-23.036 I-0.055 J-0.053
N2065 G1 X-20.479 Y-23.049
N2070 G3 X-20.327 Y-23.036 I0.076 J0.007
N2075 X-20.348 Y-22.989 I-0.076 J-0.007
N2080 G2 X-23.28 Y-15.8 I7.348 J7.189
N2085 G1 Y-2.2
N2090 G2 X-22.417 Y1.854 I9.957 J0.
N2095 X-21.833 Y2.989 I10.399 J-4.636
N2100 G3 X-21.824 Y3.018 I-0.055 J0.032
N2105 G1 Y3.025
N2110 G2 X-21.696 Y3.019 I0.064 J-0.003
N2115 X-21.705 Y2.989 I-0.064 J0.003
N2120 G3 X-22.316 Y1.812 I9.687 J-5.771
N2125 X-23.17 Y-2.2 I8.993 J-4.012
N2130 G1 Y-15.8
N2135 G3 X-20.193 Y-22.99 I10.17 J0.
N2140 G2 X-20.17 Y-23.039 I-0.055 J-0.055
N2145 G1 X-20.169 Y-23.052
N2150 G3 X-20.013 Y-23.039 I0.078 J0.006
N2155 X-20.036 Y-22.99 I-0.078 J-0.006
N2160 G2 X-20.113 Y-22.913 I7.819 J7.972
N2165 X-23.06 Y-15.8 I7.113 J7.113
N2170 G1 Y-2.2
N2175 G2 X-22.214 Y1.77 I9.738 J0.
N2180 X-21.577 Y2.989 I10.197 J-4.552
N2185 G3 X-21.568 Y3.019 I-0.055 J0.033
N2190 G1 X-21.567 Y3.026
N2195 G2 X-21.439 Y3.019 I0.064 J-0.004
N2200 X-21.448 Y2.989 I-0.064 J0.004
N2205 G3 X-22.112 Y1.728 I9.431 J-5.772
N2210 X-22.95 Y-2.2 I8.791 J-3.928
N2215 G1 Y-15.8
N2220 G3 X-20.036 Y-22.836 I9.95 J0.
N2225 X-19.879 Y-22.99 I7.819 J7.819
N2230 G2 X-19.855 Y-23.04 I-0.055 J-0.057
N2235 G1 X-19.853 Y-23.054
N2240 G3 X-19.695 Y-23.04 I0.079 J0.007
N2245 X-19.72 Y-22.989 I-0.079 J-0.007
N2250 G2 X-19.958 Y-22.758 I7.503 J7.972
N2255 X-22.84 Y-15.8 I6.958 J6.958
N2260 G1 Y-2.2
N2265 G2 X-22.011 Y1.685 I9.519 J0.
N2270 X-21.319 Y2.988 I9.994 J-4.469
N2275 G3 X-21.31 Y3.02 I-0.055 J0.034
N2280 G1 X-21.309 Y3.027
N2285 G2 X-21.179 Y3.021 I0.065 J-0.003
N2290 X-21.189 Y2.989 I-0.065 J0.003
N2295 G3 X-21.909 Y1.643 I9.173 J-5.773
N2300 X-22.73 Y-2.2 I8.588 J-3.843
N2305 G1 Y-15.8
N2310 G3 X-19.88 Y-22.68 I9.73 J0.
N2315 X-19.558 Y-22.99 I7.664 J7.664
N2320 G2 X-19.532 Y-23.043 I-0.055 J-0.06
N2325 G1 X-19.53 Y-23.057
N2330 G3 X-19.368 Y-23.043 I0.081 J0.007
N2335 X-19.394 Y-22.99 I-0.081 J-0.007
N2340 G2 X-19.802 Y-22.602 I7.179 J7.974
N2345 X-22.62 Y-15.8 I6.802 J6.802
N2350 G1 Y-2.2
N2355 G2 X-21.808 Y1.601 I9.3 J0.
N2360 X-21.059 Y2.988 I9.792 J-4.386
N2365 G3 X-21.049 Y3.02 I-0.055 J0.035
N2370 G1 Y3.028
N2375 G2 X-20.918 Y3.021 I0.065 J-0.004
N2380 X-20.928 Y2.989 I-0.065 J0.004
N2385 G3 X-21.706 Y1.559 I8.913 J-5.774
N2390 X-22.51 Y-2.2 I8.386 J-3.759
N2395 G1 Y-15.8
N2400 G3 X-19.725 Y-22.525 I9.51 J0.
N2405 X-19.229 Y-22.99 I7.509 J7.509
N2410 G2 X-19.201 Y-23.044 I-0.055 J-0.063
N2415 G1 X-19.199 Y-23.06
N2420 G3 X-19.033 Y-23.044 I0.083 J0.008
N2425 X-19.062 Y-22.989 I-0.083 J-0.008
N2430 G2 X-19.647 Y-22.447 I6.847 J7.974
N2435 X-22.4 Y-15.8 I6.647 J6.647
N2440 G1 Y-2.2
N2445 G2 X-21.604 Y1.517 I9.081 J0.
N2450 X-20.797 Y2.989 I9.59 J-4.302
N2455 G3 X-20.786 Y3.021 I-0.055 J0.036
N2460 G1 Y3.03
N2465 G2 X-20.654 Y3.022 I0.066 J-0.004
N2470 X-20.665 Y2.989 I-0.066 J0.004
N2475 G3 X-21.503 Y1.475 I8.651 J-5.775
N2480 X-22.29 Y-2.2 I8.184 J-3.675
N2485 G1 Y-15.8
N2490 G3 X-19.569 Y-22.369 I9.29 J0.
N2495 X-18.892 Y-22.989 I7.355 J7.355
N2500 G2 X-18.861 Y-23.047 I-0.056 J-0.066
N2505 G1 X-18.859 Y-23.065
N2510 G3 X-18.687 Y-23.048 I0.086 J0.008
N2515 X-18.719 Y-22.989 I-0.086 J-0.008
N2520 G2 X-19.491 Y-22.291 I6.505 J7.976
N2525 X-22.18 Y-15.8 I6.491 J6.491
N2530 G1 Y-2.2
N2535 G2 X-21.401 Y1.433 I8.862 J0.
N2540 X-20.533 Y2.989 I9.387 J-4.219
N2545 G3 X-20.521 Y3.023 I-0.055 J0.038
N2550 G1 Y3.031
N2555 G2 X-20.387 Y3.024 I0.067 J-0.004
N2560 X-20.399 Y2.99 I-0.067 J0.004
N2565 G3 X-21.299 Y1.391 I8.386 J-5.777
N2570 X-22.07 Y-2.2 I7.982 J-3.591
N2575 G1 Y-15.8
N2580 G3 X-19.413 Y-22.213 I9.07 J0.
N2585 X-18.543 Y-22.99 I7.2 J7.2
N2590 G2 X-18.51 Y-23.05 I-0.055 J-0.07
N2595 G1 X-18.508 Y-23.069
N2600 G3 X-18.33 Y-23.051 I0.089 J0.009
N2605 X-18.365 Y-22.989 I-0.089 J-0.009
N2610 G2 X-19.336 Y-22.136 I6.152 J7.977
N2615 X-21.96 Y-15.8 I6.336 J6.336
N2620 G1 Y-2.2
N2625 G2 X-21.198 Y1.349 I8.643 J0.
N2630 X-20.266 Y2.989 I9.185 J-4.136
N2635 G3 X-20.254 Y3.023 I-0.055 J0.039
N2640 G1 X-20.253 Y3.032
N2645 G2 X-20.119 Y3.024 I0.067 J-0.004
N2650 X-20.131 Y2.989 I-0.067 J0.004
N2655 G3 X-21.096 Y1.307 I8.119 J-5.777
N2660 X-21.85 Y-2.2 I7.78 J-3.507
N2665 G1 Y-15.8
N2670 G3 X-19.258 Y-22.058 I8.85 J0.
N2675 X-18.182 Y-22.99 I7.046 J7.046
N2680 G2 X-18.145 Y-23.054 I-0.056 J-0.074
N2685 G1 X-18.143 Y-23.075
N2690 G3 X-17.959 Y-23.055 I0.092 J0.01
N2695 X-17.997 Y-22.99 I-0.092 J-0.01
N2700 G2 X-19.18 Y-21.98 I5.785 J7.979
N2705 X-21.74 Y-15.8 I6.18 J6.18
N2710 G1 Y-2.2
N2715 G2 X-20.995 Y1.265 I8.424 J0.
N2720 X-19.996 Y2.989 I8.983 J-4.053
N2725 G3 X-19.983 Y3.025 I-0.055 J0.04
N2730 G1 X-19.982 Y3.035
N2735 G2 X-19.845 Y3.026 I0.068 J-0.004
N2740 X-19.859 Y2.99 I-0.068 J0.004
N2745 G3 X-20.893 Y1.222 I7.848 J-5.779
N2750 X-21.63 Y-2.2 I7.578 J-3.422
N2755 G1 Y-15.8
N2760 G3 X-19.102 Y-21.902 I8.63 J0.
N2765 X-17.808 Y-22.989 I6.891 J6.891
N2770 G2 X-17.767 Y-23.058 I-0.056 J-0.08
N2775 G1 X-17.765 Y-23.081
N2780 G3 X-17.572 Y-23.06 I0.097 J0.011
N2785 X-17.614 Y-22.99 I-0.097 J-0.011
N2790 G2 X-19.025 Y-21.825 I5.404 J7.979
N2795 X-21.52 Y-15.8 I6.025 J6.025
N2800 G1 Y-2.2
N2805 G2 X-20.791 Y1.18 I8.205 J0.
N2810 X-19.722 Y2.989 I8.781 J-3.97
N2815 G3 X-19.709 Y3.026 I-0.055 J0.041
N2820 G1 X-19.708 Y3.036
N2825 G2 X-19.57 Y3.026 I0.069 J-0.005
N2830 X-19.584 Y2.989 I-0.069 J0.005
N2835 G3 X-20.69 Y1.138 I7.575 J-5.78
N2840 X-21.41 Y-2.2 I7.376 J-3.338
N2845 G1 Y-15.8
N2850 G3 X-18.947 Y-21.747 I8.41 J0.
N2855 X-17.415 Y-22.99 I6.737 J6.737
N2860 G2 X-17.369 Y-23.063 I-0.056 J-0.085
N2865 G1 X-17.366 Y-23.088
N2870 G3 X-17.163 Y-23.064 I0.101 J0.012
N2875 X-17.211 Y-22.99 I-0.101 J-0.012
N2880 G2 X-18.869 Y-21.669 I5.002 J7.981
N2885 X-21.3 Y-15.8 I5.869 J5.869
N2890 G1 Y-2.2
N2895 G2 X-20.588 Y1.096 I7.987 J0.
N2900 X-19.446 Y2.989 I8.579 J-3.887
N2905 G3 X-19.431 Y3.027 I-0.055 J0.043
N2910 G1 X-19.43 Y3.038
N2915 G2 X-19.29 Y3.029 I0.07 J-0.005
N2920 X-19.305 Y2.99 I-0.07 J0.005
N2925 G3 X-20.486 Y1.054 I7.297 J-5.782
N2930 X-21.19 Y-2.2 I7.174 J-3.254
N2935 G1 Y-15.8
N2940 G3 X-18.791 Y-21.591 I8.19 J0.
N2945 X-17.002 Y-22.989 I6.583 J6.583
N2950 G2 X-16.95 Y-23.069 I-0.056 J-0.093
N2955 G1 X-16.946 Y-23.097
N2960 G3 X-16.731 Y-23.07 I0.108 J0.014
N2965 X-16.784 Y-22.989 I-0.108 J-0.014
N2970 G2 X-18.713 Y-21.513 I4.577 J7.982
N2975 X-21.08 Y-15.8 I5.713 J5.713
N2980 G1 Y-2.2
N2985 G2 X-20.385 Y1.012 I7.768 J0.
N2990 X-19.165 Y2.989 I8.377 J-3.804
N2995 G3 X-19.149 Y3.029 I-0.056 J0.045
N3000 G1 Y3.04
N3005 G2 X-19.006 Y3.031 I0.071 J-0.005
N3010 X-19.022 Y2.99 I-0.071 J0.005
N3015 G3 X-20.283 Y0.97 I7.015 J-5.783
N3020 X-20.97 Y-2.2 I6.972 J-3.17
N3025 G1 Y-15.8
N3030 G3 X-18.636 Y-21.436 I7.97 J0.
N3035 X-16.558 Y-22.99 I6.429 J6.429
N3040 G2 X-16.498 Y-23.077 I-0.056 J-0.103
N3045 G1 X-16.494 Y-23.11
N3050 G3 X-16.261 Y-23.078 I0.116 J0.016
N3055 X-16.323 Y-22.99 I-0.116 J-0.016
N3060 G2 X-18.558 Y-21.358 I4.117 J7.983
N3065 X-20.86 Y-15.8 I5.558 J5.558
N3070 G1 Y-2.2
N3075 G2 X-20.182 Y0.928 I7.549 J0.
N3080 X-18.88 Y2.989 I8.175 J-3.722
N3085 G3 X-18.863 Y3.03 I-0.055 J0.046
N3090 G1 X-18.862 Y3.042
N3095 G2 X-18.718 Y3.031 I0.072 J-0.006
N3100 X-18.735 Y2.989 I-0.072 J0.006
N3105 G3 X-20.08 Y0.886 I6.73 J-5.784
N3110 X-20.75 Y-2.2 I6.77 J-3.086
N3115 G1 Y-15.8
N3120 G3 X-18.48 Y-21.28 I7.75 J0.
N3125 X-16.078 Y-22.99 I6.275 J6.275
N3130 G2 X-16.006 Y-23.086 I-0.056 J-0.116
N3135 G1 X-16. Y-23.127
N3140 G3 X-15.745 Y-23.088 I0.128 J0.019
N3145 X-15.819 Y-22.989 I-0.128 J-0.019
N3150 G1 X-15.844 Y-22.978
N3155 G2 X-18.402 Y-21.202 I3.639 J7.974
N3160 X-20.64 Y-15.8 I5.402 J5.402
N3165 G1 Y-2.2
N3170 G2 X-19.978 Y0.844 I7.331 J0.
N3175 X-18.589 Y2.99 I7.974 J-3.639
N3180 G3 X-18.571 Y3.032 I-0.055 J0.048
N3185 G1 X-18.57 Y3.044
N3190 G2 X-18.424 Y3.031 I0.073 J-0.007
N3195 X-18.443 Y2.989 I-0.073 J0.007
N3200 G3 X-19.877 Y0.801 I6.439 J-5.785
N3205 X-20.53 Y-2.2 I6.568 J-3.001
N3210 G1 Y-15.8
N3215 G3 X-18.325 Y-21.125 I7.53 J0.
N3220 X-15.801 Y-22.877 I6.121 J6.121
N3225 X-15.54 Y-22.99 I3.001 J6.568
N3230 G2 X-15.449 Y-23.102 I-0.058 J-0.14
N3235 G1 X-15.438 Y-23.16
N3240 G3 X-15.14 Y-23.104 I0.149 J0.028
N3245 X-15.237 Y-22.989 I-0.149 J-0.028
N3250 G2 X-15.759 Y-22.775 I2.437 J6.682
N3255 X-18.247 Y-21.047 I3.556 J7.772
N3260 X-20.42 Y-15.8 I5.247 J5.247
N3265 G1 Y-2.2
N3270 G2 X-19.775 Y0.759 I7.112 J0.
N3275 X-18.294 Y2.989 I7.772 J-3.556
N3280 G3 X-18.274 Y3.034 I-0.055 J0.051
N3285 G1 X-18.273 Y3.047
N3290 G2 X-18.123 Y3.034 I0.075 J-0.006
N3295 X-18.143 Y2.989 I-0.075 J0.006
N3300 G3 X-19.673 Y0.717 I6.141 J-5.787
N3305 X-20.31 Y-2.2 I6.367 J-2.917
N3310 G1 Y-15.8
N3315 G3 X-18.169 Y-20.969 I7.31 J0.
N3320 X-15.717 Y-22.673 I5.967 J5.967
N3325 X-14.894 Y-22.99 I2.917 J6.367
N3330 G2 X-14.757 Y-23.138 I-0.06 J-0.193
N3335 G1 X-14.736 Y-23.23
N3340 G3 X-14.343 Y-23.141 I0.197 J0.044
N3345 X-14.49 Y-22.99 I-0.197 J-0.044
N3350 G2 X-15.675 Y-22.572 I1.69 J6.684
N3355 X-18.091 Y-20.891 I3.474 J7.57
N3360 X-20.2 Y-15.8 I5.091 J5.091
N3365 G1 Y-2.2
N3370 G2 X-19.572 Y0.675 I6.894 J0.
N3375 X-17.991 Y2.99 I7.57 J-3.474
N3380 G3 X-17.97 Y3.036 I-0.055 J0.053
N3385 G1 X-17.968 Y3.05
N3390 G2 X-17.816 Y3.035 I0.076 J-0.007
N3395 X-17.838 Y2.989 I-0.076 J0.007
N3400 G3 X-19.47 Y0.633 I5.837 J-5.788
N3405 X-20.09 Y-2.2 I6.165 J-2.833
N3410 G1 Y-15.8
N3415 G3 X-18.013 Y-20.813 I7.09 J0.
N3420 X-15.633 Y-22.47 I5.813 J5.813
N3425 X-13.961 Y-22.99 I2.833 J6.165
N3430 G2 X-13.784 Y-23.09 I-0.051 J-0.296
N3435 G1 X-10.713 Y-26.661
N3440 G3 X-10.457 Y-26.764 I0.227 J0.196
N3445 G1 X27.409 Y-23.054
N3450 G3 X27.679 Y-22.739 I-0.029 J0.299
N3455 G1 X27.612 Y-21.535
N3460 G2 X27.631 Y-21.411 I0.3 J0.017
N3465 G3 X27.936 Y-20.541 I-14.631 J5.611
N3470 G2 X28.163 Y-20.338 I0.286 J-0.091
N3475 G1 X28.337 Y-20.303
N3480 G3 X28.22 Y-19.715 I-0.058 J0.294
N3485 X27.99 Y-19.927 I0.058 J-0.294
N3490 G2 X27.295 Y-21.874 I-14.652 J4.127
N3495 G1 X27.271 Y-21.931
N3500 G3 X27.295 Y-22.106 I0.155 J-0.068
N3505 G1 X27.324 Y-22.142
N3510 G2 X27.061 Y-22.356 I-0.131 J-0.107
N3515 X27.039 Y-22.178 I0.131 J0.107
N3520 G3 X27.194 Y-21.832 I-15.008 J6.947
N3525 X27.99 Y-19.502 I-13.856 J6.032
N3530 G2 X28.181 Y-19.325 I0.232 J-0.059
N3535 G1 X28.264 Y-19.311
N3540 G3 X28.183 Y-18.839 I-0.04 J0.236
N3545 X27.99 Y-19.023 I0.04 J-0.236
N3550 G2 X27.092 Y-21.79 I-14.652 J3.223
N3555 X26.835 Y-22.352 I-15.061 J6.559
N3560 G3 X26.841 Y-22.435 I0.076 J-0.037
N3565 G1 X26.846 Y-22.443
N3570 G2 X26.706 Y-22.537 I-0.07 J-0.047
N3575 X26.7 Y-22.453 I0.07 J0.047
N3580 G3 X27.99 Y-18.493 I-13.7 J6.653
N3585 G2 X28.106 Y-18.305 I0.295 J-0.053
N3590 G1 X28.466 Y-18.039
N3595 G3 X28.108 Y-17.557 I-0.179 J0.241
N3600 X27.99 Y-17.758 I0.179 J-0.241
N3605 G2 X26.889 Y-21.706 I-14.653 J1.958
N3610 X26.469 Y-22.595 I-14.858 J6.475
N3615 G3 X26.467 Y-22.678 I0.087 J-0.045
N3620 G1 X26.474 Y-22.695
N3625 G2 X26.294 Y-22.773 I-0.09 J-0.039
N3630 X26.297 Y-22.688 I0.09 J0.039
N3635 G3 X26.787 Y-21.664 I-14.267 J7.458
N3640 X27.99 Y-16.566 I-13.45 J5.864
N3645 G1 Y-16.551
N3650 X27.992 Y-0.259
N3655 G3 X27.99 Y-0.22 I-0.3 J0.
N3660 X27.737 Y1.18 I-14.99 J-1.98
N3665 G2 X27.822 Y1.413 I0.222 J0.051
N3670 G1 X27.884 Y1.459
N3675 G3 X27.608 Y1.823 I-0.138 J0.182
N3680 X27.525 Y1.584 I0.138 J-0.182
N3685 G2 X27.99 Y-1.425 I-14.525 J-3.784
N3690 G3 X28.327 Y-1.707 I0.3 J0.015
N3695 X28.584 Y-1.351 I-0.037 J0.298
N3700 G1 X27.922 Y1.99
N3705 G3 X27.558 Y2.224 I-0.294 J-0.058
N3710 X27.339 Y1.85 I0.07 J-0.292
N3715 G2 X27.9 Y-2.2 I-14.339 J-4.05
N3720 G1 Y-15.8
N3725 G2 X26.686 Y-21.622 I-14.563 J0.
N3730 X26.138 Y-22.754 I-14.655 J6.392
N3735 G3 X26.134 Y-22.802 I0.052 J-0.028
N3740 G1 X26.136 Y-22.807
N3745 G2 X26.026 Y-22.847 I-0.055 J-0.02
N3750 X26.029 Y-22.799 I0.055 J0.02
N3755 G3 X27.79 Y-15.8 I-13.029 J6.999
N3760 G1 Y-2.2
N3765 G3 X27.165 Y2.055 I-14.79 J0.
N3770 G2 X27.183 Y2.155 I0.107 J0.032
N3775 G1 X27.198 Y2.174
N3780 G3 X27.02 Y2.311 I-0.089 J0.068
N3785 X27.002 Y2.209 I0.089 J-0.068
N3790 G2 X27.68 Y-2.2 I-14.002 J-4.409
N3795 G1 Y-15.8
N3800 G2 X26.482 Y-21.538 I-14.344 J0.
N3805 X25.827 Y-22.866 I-14.453 J6.308
N3810 G3 X25.819 Y-22.916 I0.066 J-0.036
N3815 G1 X25.82 Y-22.926
N3820 G2 X25.672 Y-22.952 I-0.074 J-0.013
N3825 X25.681 Y-22.902 I0.074 J0.013
N3830 G3 X26.381 Y-21.496 I-13.651 J7.672
N3835 X27.57 Y-15.8 I-13.045 J5.696
N3840 G1 Y-2.2
N3845 G3 X26.843 Y2.346 I-14.57 J0.
N3850 G2 X26.852 Y2.426 I0.091 J0.03
N3855 G1 X26.861 Y2.441
N3860 G3 X26.697 Y2.541 I-0.082 J0.05
N3865 X26.688 Y2.46 I0.082 J-0.05
N3870 G2 X27.46 Y-2.2 I-13.688 J-4.66
N3875 G1 Y-15.8
N3880 G2 X26.279 Y-21.453 I-14.124 J0.
N3885 X25.535 Y-22.936 I-14.25 J6.224
N3890 G3 X25.529 Y-22.967 I0.042 J-0.024
N3895 G1 X25.53 Y-22.972
N3900 G2 X25.433 Y-22.985 I-0.048 J-0.007
N3905 X25.439 Y-22.954 I0.048 J0.007
N3910 G3 X27.35 Y-15.8 I-12.439 J7.154
N3915 G1 Y-2.2
N3920 G3 X26.541 Y2.551 I-14.35 J0.
N3925 G2 X26.545 Y2.619 I0.083 J0.029
N3930 G1 X26.552 Y2.633
N3935 G3 X26.395 Y2.712 I-0.078 J0.04
N3940 X26.391 Y2.643 I0.078 J-0.04
N3945 G2 X27.24 Y-2.2 I-13.391 J-4.843
N3950 G1 Y-15.8
N3955 G2 X26.076 Y-21.369 I-13.905 J0.
N3960 X25.262 Y-22.969 I-14.047 J6.14
N3965 G3 X25.253 Y-23.004 I0.058 J-0.034
N3970 G1 Y-23.011
N3975 G2 X25.119 Y-23.014 I-0.067 J-0.002
N3980 X25.129 Y-22.979 I0.067 J0.002
N3985 G3 X25.974 Y-21.327 I-13.1 J7.75
N3990 X27.13 Y-15.8 I-12.639 J5.527
N3995 G1 Y-2.2
N4000 G3 X26.251 Y2.707 I-14.13 J0.
N4005 G2 X26.25 Y2.758 I0.071 J0.026
N4010 G1 X26.253 Y2.768
N4015 G3 X26.11 Y2.817 I-0.072 J0.025
N4020 X26.111 Y2.766 I0.072 J-0.025
N4025 G2 X27.02 Y-2.2 I-13.111 J-4.966
N4030 G1 Y-15.8
N4035 G2 X25.873 Y-21.285 I-13.685 J0.
N4040 X24.995 Y-22.989 I-13.844 J6.056
N4045 G3 X24.989 Y-23.009 I0.037 J-0.022
N4050 G1 X24.988 Y-23.013
N4055 G2 X24.902 Y-23.009 I-0.043 J0.002
N4060 X24.908 Y-22.989 I0.043 J-0.002
N4065 G3 X26.91 Y-15.8 I-11.908 J7.189
N4070 G1 Y-2.2
N4075 G3 X25.971 Y2.823 I-13.91 J0.
N4080 G2 X25.969 Y2.864 I0.065 J0.025
N4085 G1 X25.971 Y2.873
N4090 G3 X25.835 Y2.905 I-0.068 J0.016
N4095 X25.838 Y2.863 I0.068 J-0.016
N4100 G2 X26.8 Y-2.2 I-12.838 J-5.063
N4105 G1 Y-15.8
N4110 G2 X25.669 Y-21.201 I-13.466 J0.
N4115 X24.738 Y-22.988 I-13.641 J5.973
N4120 G3 X24.728 Y-23.02 I0.055 J-0.034
N4125 G1 Y-23.026
N4130 G2 X24.598 Y-23.021 I-0.065 J0.002
N4135 X24.608 Y-22.99 I0.065 J-0.002
N4140 G3 X25.568 Y-21.159 I-12.58 J7.762
N4145 X26.69 Y-15.8 I-12.234 J5.359
N4150 G1 Y-2.2
N4155 G3 X25.707 Y2.895 I-13.69 J0.
N4160 G2 X25.703 Y2.932 I0.063 J0.025
N4165 G1 X25.704 Y2.94
N4170 G3 X25.571 Y2.964 I-0.066 J0.012
N4175 X25.575 Y2.926 I0.066 J-0.012
N4180 G2 X26.58 Y-2.2 I-12.575 J-5.126
N4185 G1 Y-15.8
N4190 G2 X25.466 Y-21.117 I-13.246 J0.
N4195 X24.479 Y-22.989 I-13.438 J5.889
N4200 G3 X24.472 Y-23.01 I0.037 J-0.023
N4205 G1 Y-23.015
N4210 G2 X24.384 Y-23.01 I-0.044 J0.002
N4215 X24.391 Y-22.989 I0.044 J-0.002
N4220 G3 X26.47 Y-15.8 I-11.391 J7.189
N4225 G1 Y-2.2
N4230 G3 X25.445 Y2.954 I-13.47 J0.
N4235 G2 X25.44 Y2.98 I0.057 J0.024
N4240 G1 X25.441 Y2.985
N4245 G3 X25.317 Y2.99 I-0.062 J0.002
N4250 X25.322 Y2.964 I0.062 J-0.002
N4255 G2 X26.36 Y-2.2 I-12.322 J-5.164
N4260 G1 Y-15.8
N4265 G2 X25.263 Y-21.033 I-13.027 J0.
N4270 X24.219 Y-22.989 I-13.236 J5.805
N4275 G3 X24.209 Y-23.021 I0.055 J-0.035
N4280 G1 X24.208 Y-23.028
N4285 G2 X24.078 Y-23.022 I-0.065 J0.003
N4290 X24.088 Y-22.99 I0.065 J-0.003
N4295 G3 X25.161 Y-20.99 I-12.061 J7.763
N4300 X26.25 Y-15.8 I-11.828 J5.19
N4305 G1 Y-2.2
N4310 G3 X25.198 Y2.973 I-13.25 J0.
N4315 G2 X25.193 Y3. I0.057 J0.024
N4320 G1 X25.194 Y3.005
N4325 G3 X25.07 Y3.01 I-0.062 J0.002
N4330 X25.075 Y2.983 I0.062 J-0.002
N4335 G2 X26.14 Y-2.2 I-12.075 J-5.183
N4340 G1 Y-15.8
N4345 G2 X25.06 Y-20.948 I-12.807 J0.
N4350 X23.958 Y-22.988 I-13.033 J5.722
N4355 G3 X23.95 Y-23.011 I0.038 J-0.025
N4360 G1 Y-23.017
N4365 G2 X23.86 Y-23.012 I-0.045 J0.002
N4370 X23.867 Y-22.99 I0.045 J-0.002
N4375 G3 X26.03 Y-15.8 I-10.867 J7.19
N4380 G1 Y-2.2
N4385 G3 X24.952 Y2.989 I-13.03 J0.
N4390 G2 X24.947 Y3.011 I0.055 J0.024
N4395 G1 Y3.016
N4400 G3 X24.827 Y3.012 I-0.06 J-0.002
N4405 X24.832 Y2.99 I0.06 J0.002
N4410 G2 X25.92 Y-2.2 I-11.832 J-5.19
N4415 G1 Y-15.8
N4420 G2 X24.856 Y-20.864 I-12.588 J0.
N4425 X23.694 Y-22.989 I-12.83 J5.638
N4430 G3 X23.683 Y-23.023 I0.055 J-0.037
N4435 G1 Y-23.03
N4440 G2 X23.55 Y-23.024 I-0.067 J0.003
N4445 X23.561 Y-22.99 I0.067 J-0.003
N4450 G3 X24.755 Y-20.822 I-11.535 J7.764
N4455 X25.81 Y-15.8 I-11.423 J5.022
N4460 G1 Y-2.2
N4465 G3 X24.712 Y2.988 I-12.81 J0.
N4470 G2 X24.707 Y3.011 I0.055 J0.024
N4475 G1 Y3.016
N4480 G3 X24.586 Y3.012 I-0.06 J-0.002
N4485 X24.592 Y2.989 I0.06 J0.002
N4490 G2 X25.7 Y-2.2 I-11.592 J-5.189
N4495 G1 Y-15.8
N4500 G2 X24.653 Y-20.78 I-12.369 J0.
N4505 X23.429 Y-22.989 I-12.627 J5.554
N4510 G3 X23.421 Y-23.012 I0.039 J-0.026
N4515 G1 X23.42 Y-23.02
N4520 G2 X23.327 Y-23.013 I-0.047 J0.003
N4525 X23.335 Y-22.99 I0.047 J-0.003
N4530 G3 X25.59 Y-15.8 I-10.335 J7.19
N4535 G1 Y-2.2
N4540 G3 X24.471 Y2.989 I-12.59 J0.
N4545 G2 X24.465 Y3.012 I0.055 J0.025
N4550 G1 Y3.017
N4555 G3 X24.344 Y3.013 I-0.06 J-0.002
N4560 X24.35 Y2.99 I0.06 J0.002
N4565 G2 X25.48 Y-2.2 I-11.35 J-5.19
N4570 G1 Y-15.8
N4575 G2 X24.45 Y-20.696 I-12.149 J0.
N4580 X23.162 Y-22.989 I-12.425 J5.471
N4585 G3 X23.15 Y-23.024 I0.055 J-0.038
N4590 G1 X23.149 Y-23.032
N4595 G2 X23.015 Y-23.025 I-0.067 J0.004
N4600 X23.027 Y-22.99 I0.067 J-0.004
N4605 G3 X24.348 Y-20.654 I-11.002 J7.765
N4610 X25.37 Y-15.8 I-11.018 J4.854
N4615 G1 Y-2.2
N4620 G3 X24.229 Y2.988 I-12.37 J0.
N4625 G2 X24.224 Y3.011 I0.055 J0.025
N4630 G1 Y3.017
N4635 G3 X24.102 Y3.012 I-0.061 J-0.002
N4640 X24.108 Y2.989 I0.061 J0.002
N4645 G2 X25.26 Y-2.2 I-11.108 J-5.189
N4650 G1 Y-15.8
N4655 G2 X24.247 Y-20.612 I-11.93 J0.
N4660 X22.892 Y-22.99 I-12.222 J5.387
N4665 G3 X22.883 Y-23.013 I0.039 J-0.028
N4670 G1 X22.882 Y-23.022
N4675 G2 X22.786 Y-23.013 I-0.048 J0.005
N4680 X22.795 Y-22.989 I0.048 J-0.005
N4685 G3 X25.15 Y-15.8 I-9.795 J7.189
N4690 G1 Y-2.2
N4695 G3 X23.986 Y2.989 I-12.15 J0.
N4700 G2 X23.981 Y3.012 I0.055 J0.026
N4705 G1 X23.98 Y3.017
N4710 G3 X23.859 Y3.012 I-0.061 J-0.003
N4715 X23.865 Y2.989 I0.061 J0.003
N4720 G2 X25.04 Y-2.2 I-10.865 J-5.189
N4725 G1 Y-15.8
N4730 G2 X24.043 Y-20.527 I-11.711 J0.
N4735 X22.621 Y-22.989 I-12.019 J5.303
N4740 G3 X22.608 Y-23.025 I0.055 J-0.04
N4745 G1 X22.607 Y-23.033
N4750 G2 X22.471 Y-23.025 I-0.068 J0.004
N4755 X22.485 Y-22.989 I0.068 J-0.004
N4760 G3 X23.942 Y-20.485 I-10.461 J7.765
N4765 X24.93 Y-15.8 I-10.613 J4.685
N4770 G1 Y-2.2
N4775 G3 X23.743 Y2.989 I-11.93 J0.
N4780 G2 X23.737 Y3.012 I0.055 J0.027
N4785 G1 X23.736 Y3.018
N4790 G3 X23.614 Y3.012 I-0.061 J-0.003
N4795 X23.62 Y2.988 I0.061 J0.003
N4800 G2 X24.82 Y-2.2 I-10.62 J-5.188
N4805 G1 Y-15.8
N4810 G2 X23.84 Y-20.443 I-11.491 J0.
N4815 X22.347 Y-22.989 I-11.817 J5.22
N4820 G3 X22.337 Y-23.015 I0.041 J-0.031
N4825 G1 X22.336 Y-23.025
N4830 G2 X22.233 Y-23.015 I-0.051 J0.005
N4835 X22.244 Y-22.989 I0.051 J-0.005
N4840 G3 X24.71 Y-15.8 I-9.244 J7.189
N4845 G1 Y-2.2
N4850 G3 X23.497 Y2.99 I-11.71 J0.
N4855 G2 X23.491 Y3.014 I0.055 J0.027
N4860 G1 Y3.02
N4865 G3 X23.368 Y3.014 I-0.061 J-0.003
N4870 X23.375 Y2.989 I0.061 J0.003
N4875 G2 X24.6 Y-2.2 I-10.375 J-5.189
N4880 G1 Y-15.8
N4885 G2 X23.637 Y-20.359 I-11.272 J0.
N4890 X22.07 Y-22.989 I-11.614 J5.136
N4895 G3 X22.056 Y-23.027 I0.055 J-0.043
N4900 G1 X22.055 Y-23.036
N4905 G2 X21.917 Y-23.027 I-0.069 J0.005
N4910 X21.931 Y-22.989 I0.069 J-0.005
N4915 G3 X23.535 Y-20.317 I-9.909 J7.766
N4920 X24.49 Y-15.8 I-10.208 J4.517
N4925 G1 Y-2.2
N4930 G3 X23.252 Y2.989 I-11.49 J0.
N4935 G2 X23.245 Y3.014 I0.055 J0.028
N4940 G1 Y3.02
N4945 G3 X23.121 Y3.016 I-0.062 J-0.002
N4950 X23.128 Y2.99 I0.062 J0.002
N4955 G2 X24.38 Y-2.2 I-10.128 J-5.19
N4960 G1 Y-15.8
N4965 G2 X23.434 Y-20.275 I-11.053 J0.
N4970 X21.791 Y-22.989 I-11.412 J5.053
N4975 G3 X21.779 Y-23.018 I0.043 J-0.035
N4980 G1 X21.777 Y-23.03
N4985 G2 X21.667 Y-23.018 I-0.055 J0.006
N4990 X21.68 Y-22.989 I0.055 J-0.006
N4995 G3 X24.27 Y-15.8 I-8.68 J7.189
N5000 G1 Y-2.2
N5005 G3 X23.004 Y2.989 I-11.27 J0.
N5010 G2 X22.997 Y3.015 I0.055 J0.029
N5015 G1 Y3.021
N5020 G3 X22.873 Y3.016 I-0.062 J-0.003
N5025 X22.88 Y2.99 I0.062 J0.003
N5030 G2 X24.16 Y-2.2 I-9.88 J-5.19
N5035 G1 Y-15.8
N5040 G2 X23.23 Y-20.191 I-10.833 J0.
N5045 X21.508 Y-22.989 I-11.209 J4.969
N5050 G3 X21.492 Y-23.03 I0.055 J-0.045
N5055 G1 X21.491 Y-23.039
N5060 G2 X21.349 Y-23.029 I-0.071 J0.005
N5065 X21.366 Y-22.989 I0.071 J-0.005
N5070 G3 X23.129 Y-20.149 I-9.345 J7.768
N5075 X24.05 Y-15.8 I-9.803 J4.349
N5080 G1 Y-2.2
N5085 G3 X22.756 Y2.989 I-11.05 J0.
N5090 G2 X22.749 Y3.015 I0.055 J0.029
N5095 G1 X22.748 Y3.022
N5100 G3 X22.623 Y3.016 I-0.062 J-0.003
N5105 X22.631 Y2.989 I0.062 J0.003
N5110 G2 X23.94 Y-2.2 I-9.631 J-5.189
N5115 G1 Y-15.8
N5120 G2 X23.027 Y-20.106 I-10.614 J0.
N5125 X21.222 Y-22.989 I-11.006 J4.886
N5130 G3 X21.208 Y-23.022 I0.047 J-0.04
N5135 G1 X21.206 Y-23.037
N5140 G2 X21.084 Y-23.023 I-0.061 J0.007
N5145 X21.099 Y-22.99 I0.061 J-0.007
N5150 G3 X23.83 Y-15.8 I-8.099 J7.19
N5155 G1 Y-2.2
N5160 G3 X22.506 Y2.99 I-10.83 J0.
N5165 G2 X22.498 Y3.017 I0.055 J0.03
N5170 G1 Y3.023
N5175 G3 X22.372 Y3.017 I-0.063 J-0.003
N5180 X22.38 Y2.99 I0.063 J0.003
N5185 G2 X23.72 Y-2.2 I-9.38 J-5.19
N5190 G1 Y-15.8
N5195 G2 X22.824 Y-20.022 I-10.395 J0.
N5200 X20.932 Y-22.989 I-10.804 J4.802
N5205 G3 X20.914 Y-23.032 I0.055 J-0.048
N5210 G1 Y-23.043
N5215 G2 X20.767 Y-23.033 I-0.073 J0.005
N5220 X20.785 Y-22.989 I0.073 J-0.005
N5225 G3 X22.722 Y-19.98 I-8.766 J7.77
N5230 X23.61 Y-15.8 I-9.398 J4.18
N5235 G1 Y-2.2
N5240 G3 X22.254 Y2.99 I-10.61 J0.
N5245 G2 X22.246 Y3.017 I0.055 J0.031
N5250 G1 Y3.024
N5255 G3 X22.12 Y3.018 I-0.063 J-0.003
N5260 X22.128 Y2.99 I0.063 J0.003
N5265 G2 X23.5 Y-2.2 I-9.128 J-5.19
N5270 G1 Y-15.8
N5275 G2 X22.621 Y-19.938 I-10.176 J0.
N5280 X20.638 Y-22.989 I-10.601 J4.719
N5285 G3 X20.621 Y-23.026 I0.051 J-0.046
N5290 G1 X20.618 Y-23.046
N5295 G2 X20.483 Y-23.027 I-0.068 J0.009
N5300 X20.501 Y-22.989 I0.068 J-0.009
N5305 G3 X23.39 Y-15.8 I-7.501 J7.189
N5310 G1 Y-2.2
N5315 G3 X22.001 Y2.989 I-10.39 J0.
N5320 G2 X21.993 Y3.017 I0.055 J0.032
N5325 G1 X21.992 Y3.024
N5330 G3 X21.866 Y3.017 I-0.063 J-0.004
N5335 X21.874 Y2.989 I0.063 J0.004
N5340 G2 X23.28 Y-2.2 I-8.874 J-5.189
N5345 G1 Y-15.8
N5350 G2 X22.417 Y-19.854 I-9.957 J0.
N5355 X20.34 Y-22.989 I-10.399 J4.636
N5360 G3 X20.32 Y-23.035 I0.056 J-0.052
N5365 G1 X20.319 Y-23.048
N5370 G2 X20.167 Y-23.037 I-0.076 J0.005
N5375 X20.188 Y-22.99 I0.076 J-0.005
N5380 G3 X22.316 Y-19.812 I-8.17 J7.772
N5385 X23.17 Y-15.8 I-8.993 J4.012
N5390 G1 Y-2.2
N5395 G3 X21.746 Y2.99 I-10.17 J0.
N5400 G2 X21.737 Y3.018 I0.055 J0.033
N5405 G1 Y3.026
N5410 G3 X21.61 Y3.018 I-0.064 J-0.004
N5415 X21.619 Y2.989 I0.064 J0.004
N5420 G2 X23.06 Y-2.2 I-8.619 J-5.189
N5425 G1 Y-15.8
N5430 G2 X22.214 Y-19.77 I-9.738 J0.
N5435 X20.036 Y-22.989 I-10.197 J4.552
N5440 G3 X20.015 Y-23.033 I0.057 J-0.055
N5445 G1 X20.011 Y-23.058
N5450 G2 X19.855 Y-23.035 I-0.078 J0.011
N5455 X19.879 Y-22.99 I0.078 J-0.011
N5460 G3 X20.036 Y-22.836 I-7.662 J7.973
N5465 X22.95 Y-15.8 I-7.036 J7.036
N5470 G1 Y-2.2
N5475 G3 X21.49 Y2.989 I-9.95 J0.
N5480 G2 X21.48 Y3.019 I0.055 J0.034
N5485 G1 Y3.027
N5490 G3 X21.351 Y3.02 I-0.065 J-0.004
N5495 X21.36 Y2.989 I0.065 J0.004
N5500 G2 X22.84 Y-2.2 I-8.36 J-5.189
N5505 G1 Y-15.8
N5510 G2 X22.011 Y-19.685 I-9.519 J0.
N5515 X19.758 Y-22.958 I-9.994 J4.469
N5520 G1 X19.727 Y-22.989
N5525 G3 X19.704 Y-23.038 I0.055 J-0.056
N5530 G1 X19.703 Y-23.052
N5535 G2 X19.546 Y-23.038 I-0.078 J0.007
N5540 X19.57 Y-22.989 I0.078 J-0.007
N5545 G3 X19.68 Y-22.88 I-6.77 J6.989
N5550 X21.909 Y-19.643 I-7.664 J7.664
N5555 X22.73 Y-15.8 I-8.588 J3.843
N5560 G1 Y-2.2
N5565 G3 X21.231 Y2.989 I-9.73 J0.
N5570 G2 X21.221 Y3.02 I0.055 J0.035
N5575 G1 X21.22 Y3.028
N5580 G3 X21.09 Y3.02 I-0.065 J-0.004
N5585 X21.1 Y2.989 I0.065 J0.004
N5590 G2 X22.62 Y-2.2 I-8.1 J-5.189
N5595 G1 Y-15.8
N5600 G2 X21.808 Y-19.601 I-9.3 J0.
N5605 X19.602 Y-22.802 I-9.792 J4.386
N5610 X19.41 Y-22.989 I-6.802 J6.802
N5615 G3 X19.383 Y-23.041 I0.062 J-0.066
N5620 G1 X19.379 Y-23.07
N5625 G2 X19.2 Y-23.043 I-0.089 J0.014
N5630 X19.23 Y-22.989 I0.089 J-0.014
N5635 G3 X19.725 Y-22.525 I-7.014 J7.974
N5640 X22.51 Y-15.8 I-6.725 J6.725
N5645 G1 Y-2.2
N5650 G3 X20.97 Y2.989 I-9.51 J0.
N5655 G2 X20.959 Y3.021 I0.055 J0.036
N5660 G1 Y3.03
N5665 G3 X20.827 Y3.022 I-0.066 J-0.004
N5670 X20.838 Y2.989 I0.066 J0.004
N5675 G2 X22.4 Y-2.2 I-7.838 J-5.189
N5680 G1 Y-15.8
N5685 G2 X21.604 Y-19.517 I-9.081 J0.
N5690 X19.447 Y-22.647 I-9.59 J4.302
N5695 X19.086 Y-22.989 I-6.647 J6.647
N5700 G3 X19.059 Y-23.043 I0.056 J-0.062
N5705 G1 X19.057 Y-23.06
N5710 G2 X18.891 Y-23.045 I-0.083 J0.008
N5715 X18.92 Y-22.99 I0.083 J-0.008
N5720 G3 X19.369 Y-22.569 I-6.12 J6.99
N5725 X21.503 Y-19.475 I-7.355 J7.355
N5730 X22.29 Y-15.8 I-8.184 J3.675
N5735 G1 Y-2.2
N5740 G3 X20.705 Y2.99 I-9.29 J0.
N5745 G2 X20.694 Y3.023 I0.055 J0.037
N5750 G1 X20.693 Y3.032
N5755 G3 X20.561 Y3.023 I-0.066 J-0.004
N5760 X20.572 Y2.99 I0.066 J0.004
N5765 G2 X22.18 Y-2.2 I-7.572 J-5.19
N5770 G1 Y-15.8
N5775 G2 X21.401 Y-19.433 I-8.862 J0.
N5780 X19.291 Y-22.491 I-9.387 J4.219
N5785 X18.752 Y-22.989 I-6.491 J6.491
N5790 G3 X18.716 Y-23.053 I0.068 J-0.079
N5795 G1 X18.711 Y-23.087
N5800 G2 X18.505 Y-23.055 I-0.103 J0.016
N5805 X18.543 Y-22.989 I0.103 J-0.016
N5810 G3 X19.413 Y-22.213 I-6.33 J7.976
N5815 X22.07 Y-15.8 I-6.413 J6.413
N5820 G1 Y-2.2
N5825 G3 X20.439 Y2.99 I-9.07 J0.
N5830 G2 X20.427 Y3.023 I0.055 J0.038
N5835 G1 X20.426 Y3.033
N5840 G3 X20.292 Y3.023 I-0.067 J-0.005
N5845 X20.304 Y2.989 I0.067 J0.005
N5850 G2 X21.96 Y-2.2 I-7.304 J-5.189
N5855 G1 Y-15.8
N5860 G2 X21.198 Y-19.349 I-8.643 J0.
N5865 X19.136 Y-22.336 I-9.185 J4.136
N5870 X18.406 Y-22.99 I-6.336 J6.336
N5875 G3 X18.373 Y-23.05 I0.055 J-0.069
N5880 G1 X18.371 Y-23.069
N5885 G2 X18.194 Y-23.05 I-0.088 J0.009
N5890 X18.228 Y-22.99 I0.088 J-0.009
N5895 G3 X19.058 Y-22.258 I-5.428 J6.99
N5900 X21.096 Y-19.307 I-7.046 J7.046
N5905 X21.85 Y-15.8 I-7.78 J3.507
N5910 G1 Y-2.2
N5915 G3 X20.169 Y2.99 I-8.85 J0.
N5920 G2 X20.156 Y3.025 I0.055 J0.04
N5925 G1 X20.155 Y3.035
N5930 G3 X20.019 Y3.025 I-0.068 J-0.005
N5935 X20.032 Y2.99 I0.068 J0.005
N5940 G2 X21.74 Y-2.2 I-7.032 J-5.19
N5945 G1 Y-15.8
N5950 G2 X20.995 Y-19.265 I-8.424 J0.
N5955 X18.98 Y-22.18 I-8.983 J4.053
N5960 X18.048 Y-22.989 I-6.18 J6.18
N5965 G3 X18.001 Y-23.067 I0.072 J-0.096
N5970 G1 X17.996 Y-23.105
N5975 G2 X17.758 Y-23.069 I-0.119 J0.018
N5980 X17.808 Y-22.989 I0.119 J-0.018
N5985 G3 X19.102 Y-21.902 I-5.597 J7.978
N5990 X21.63 Y-15.8 I-6.102 J6.102
N5995 G1 Y-2.2
N6000 G3 X19.895 Y2.989 I-8.63 J0.
N6005 G2 X19.882 Y3.025 I0.055 J0.041
N6010 G1 X19.881 Y3.036
N6015 G3 X19.744 Y3.025 I-0.069 J-0.005
N6020 X19.758 Y2.989 I0.069 J0.005
N6025 G2 X21.52 Y-2.2 I-6.758 J-5.189
N6030 G1 Y-15.8
N6035 G2 X20.791 Y-19.18 I-8.205 J0.
N6040 X18.825 Y-22.025 I-8.781 J3.97
N6045 X17.672 Y-22.989 I-6.025 J6.025
N6050 G3 X17.631 Y-23.058 I0.056 J-0.08
N6055 G1 X17.628 Y-23.083
N6060 G2 X17.434 Y-23.06 I-0.097 J0.011
N6065 X17.477 Y-22.99 I0.097 J-0.011
N6070 G3 X18.747 Y-21.947 I-4.677 J6.99
N6075 X20.69 Y-19.138 I-6.737 J6.737
N6080 X21.41 Y-15.8 I-7.376 J3.338
N6085 G1 Y-2.2
N6090 G3 X19.618 Y2.989 I-8.41 J0.
N6095 G2 X19.604 Y3.027 I0.056 J0.044
N6100 G1 X19.603 Y3.039
N6105 G3 X19.462 Y3.029 I-0.07 J-0.005
N6110 X19.477 Y2.99 I0.07 J0.005
N6115 G2 X21.3 Y-2.2 I-6.477 J-5.19
N6120 G1 Y-15.8
N6125 G2 X20.588 Y-19.096 I-7.987 J0.
N6130 X18.669 Y-21.869 I-8.579 J3.887
N6135 X17.276 Y-22.99 I-5.869 J5.869
N6140 G3 X17.214 Y-23.085 I0.074 J-0.116
N6145 G1 X17.208 Y-23.128
N6150 G2 X16.936 Y-23.087 I-0.136 J0.02
N6155 X17.001 Y-22.99 I0.136 J-0.02
N6160 G3 X18.791 Y-21.591 I-4.793 J7.981
N6165 X21.19 Y-15.8 I-5.791 J5.791
N6170 G1 Y-2.2
N6175 G3 X19.336 Y2.989 I-8.19 J0.
N6180 G2 X19.32 Y3.029 I0.055 J0.045
N6185 G1 X19.319 Y3.041
N6190 G3 X19.177 Y3.029 I-0.071 J-0.006
N6195 X19.194 Y2.989 I0.071 J0.006
N6200 G2 X21.08 Y-2.2 I-6.194 J-5.189
N6205 G1 Y-15.8
N6210 G2 X20.385 Y-19.012 I-7.768 J0.
N6215 X18.513 Y-21.713 I-8.377 J3.804
N6220 X16.854 Y-22.99 I-5.713 J5.713
N6225 G3 X16.799 Y-23.07 I0.056 J-0.097
N6230 G1 X16.795 Y-23.103
N6235 G2 X16.574 Y-23.071 I-0.111 J0.016
N6240 X16.63 Y-22.989 I0.111 J-0.016
N6245 G3 X18.436 Y-21.636 I-3.83 J6.989
N6250 X20.283 Y-18.97 I-6.429 J6.429
N6255 X20.97 Y-15.8 I-6.972 J3.17
N6260 G1 Y-2.2
N6265 G3 X19.049 Y2.99 I-7.97 J0.
N6270 G2 X19.031 Y3.031 I0.055 J0.047
N6275 G1 X19.03 Y3.044
N6280 G3 X18.885 Y3.032 I-0.073 J-0.006
N6285 X18.903 Y2.99 I0.073 J0.006
N6290 G2 X20.86 Y-2.2 I-5.903 J-5.19
N6295 G1 Y-15.8
N6300 G2 X20.182 Y-18.928 I-7.549 J0.
N6305 X18.358 Y-21.558 I-8.175 J3.722
N6310 X16.395 Y-22.99 I-5.558 J5.558
N6315 G3 X16.31 Y-23.109 I0.073 J-0.141
N6320 G1 X16.304 Y-23.155
N6325 G2 X15.989 Y-23.111 I-0.157 J0.022
N6330 X16.077 Y-22.99 I0.157 J-0.022
N6335 G3 X18.48 Y-21.28 I-3.872 J7.984
N6340 X20.75 Y-15.8 I-5.48 J5.48
N6345 G1 Y-2.2
N6350 G3 X18.757 Y2.989 I-7.75 J0.
N6355 G2 X18.738 Y3.032 I0.055 J0.05
N6360 G1 X18.736 Y3.046
N6365 G3 X18.588 Y3.033 I-0.074 J-0.007
N6370 X18.608 Y2.989 I0.074 J0.007
N6375 G2 X20.64 Y-2.2 I-5.608 J-5.189
N6380 G1 Y-15.8
N6385 G2 X19.978 Y-18.844 I-7.331 J0.
N6390 X18.202 Y-21.402 I-7.974 J3.639
N6395 X15.884 Y-22.99 I-5.402 J5.402
N6400 G3 X15.802 Y-23.095 I0.057 J-0.129
N6405 G1 X15.793 Y-23.145
N6410 G2 X15.514 Y-23.097 I-0.139 J0.024
N6415 X15.601 Y-22.99 I0.139 J-0.024
N6420 G3 X18.125 Y-21.325 I-2.801 J6.99
N6425 X19.877 Y-18.801 I-6.121 J6.121
N6430 X20.53 Y-15.8 I-6.568 J3.001
N6435 G1 Y-2.2
N6440 G3 X18.457 Y2.989 I-7.53 J0.
N6445 G2 X18.436 Y3.035 I0.056 J0.053
N6450 G1 X18.434 Y3.05
N6455 G3 X18.282 Y3.036 I-0.076 J-0.007
N6460 X18.303 Y2.99 I0.076 J0.007
N6465 G2 X20.42 Y-2.2 I-5.303 J-5.19
N6470 G1 Y-15.8
N6475 G2 X19.775 Y-18.759 I-7.112 J0.
N6480 X18.047 Y-21.247 I-7.772 J3.556
N6485 X15.29 Y-22.99 I-5.247 J5.247
N6490 G3 X15.161 Y-23.14 I0.067 J-0.187
N6495 G1 X15.147 Y-23.215
N6500 G2 X14.758 Y-23.143 I-0.195 J0.036
N6505 X14.893 Y-22.99 I0.195 J-0.036
N6510 G3 X15.717 Y-22.673 I-2.093 J6.683
N6515 X18.169 Y-20.969 I-3.515 J7.671
N6520 X20.31 Y-15.8 I-5.169 J5.169
N6525 G1 Y-2.2
N6530 G3 X18.169 Y2.969 I-7.31 J0.
N6535 G1 X18.148 Y2.99
N6540 G2 X18.125 Y3.038 I0.055 J0.056
N6545 G1 X18.124 Y3.053
N6550 G3 X17.968 Y3.038 I-0.078 J-0.007
N6555 X17.991 Y2.989 I0.078 J0.007
N6560 G2 X18.091 Y2.891 I-5.79 J-5.988
N6565 X20.2 Y-2.2 I-5.091 J-5.091
N6570 G1 Y-15.8
N6575 G2 X19.572 Y-18.675 I-6.894 J0.
N6580 X17.891 Y-21.091 I-7.57 J3.474
N6585 X14.528 Y-22.99 I-5.091 J5.091
N6590 G3 X14.332 Y-23.183 I0.065 J-0.262
N6595 G1 X14.294 Y-23.325
N6600 G2 X13.772 Y-23.187 I-0.261 J0.069
N6605 X13.988 Y-22.99 I0.261 J-0.069
N6610 G3 X17.813 Y-21.013 I-1.188 J6.99
N6615 X19.47 Y-18.633 I-5.813 J5.813
N6620 X20.09 Y-15.8 I-6.165 J2.833
N6625 G1 Y-2.2
N6630 G3 X18.013 Y2.813 I-7.09 J0.
N6635 X17.832 Y2.989 I-5.813 J-5.813
N6640 G2 X17.807 Y3.04 I0.055 J0.059
N6645 G1 X17.806 Y3.057
N6650 G3 X17.645 Y3.041 I-0.08 J-0.008
N6655 X17.671 Y2.989 I0.08 J0.008
N6660 G2 X17.936 Y2.736 I-5.471 J-5.989
N6665 X19.98 Y-2.2 I-4.936 J-4.936
N6670 G1 Y-15.8
N6675 G2 X19.369 Y-18.591 I-6.676 J0.
N6680 X17.736 Y-20.936 I-7.369 J3.391
N6685 X12.8 Y-22.98 I-4.936 J4.936
N6690 G1 X-12.8
N6695 G2 X-15.591 Y-22.369 I0. J6.676
N6700 X-17.936 Y-20.736 I3.391 J7.369
N6705 X-19.98 Y-15.8 I4.936 J4.936
N6710 G1 Y-2.2
N6715 G2 X-19.369 Y0.591 I6.676 J0.
N6720 X-17.736 Y2.936 I7.369 J-3.391
N6725 X-17.681 Y2.989 I4.936 J-4.936
N6730 G3 X-17.658 Y3.038 I-0.056 J0.057
N6735 G1 X-17.656 Y3.056
N6740 G2 X-17.498 Y3.04 I0.079 J-0.008
N6745 X-17.522 Y2.99 I-0.079 J0.008
N6750 G3 X-17.658 Y2.858 I4.722 J-4.99
N6755 X-19.267 Y0.549 I5.659 J-5.659
N6760 X-19.87 Y-2.2 I5.964 J-2.749
N6765 G1 Y-15.8
N6770 G3 X-17.858 Y-20.658 I6.87 J0.
N6775 X-15.549 Y-22.267 I5.659 J5.659
N6780 X-12.8 Y-22.87 I2.749 J5.964
N6785 G1 X12.8
N6790 G3 X15.549 Y-22.267 I0. J6.567
N6795 X17.858 Y-20.658 I-3.35 J7.268
N6800 X19.87 Y-15.8 I-4.858 J4.858
N6805 G1 Y-2.2
N6810 G3 X17.858 Y2.658 I-6.87 J0.
N6815 X17.506 Y2.989 I-5.659 J-5.659
N6820 G2 X17.478 Y3.043 I0.056 J0.063
N6825 G1 X17.477 Y3.061
N6830 G3 X17.31 Y3.044 I-0.084 J-0.009
N6835 X17.338 Y2.989 I0.084 J0.009
N6840 G2 X17.78 Y2.58 I-5.141 J-5.992
N6845 X19.76 Y-2.2 I-4.78 J-4.78
N6850 G1 Y-15.8
N6855 G2 X19.165 Y-18.507 I-6.458 J0.
N6860 X17.58 Y-20.78 I-7.168 J3.309
N6865 X12.8 Y-22.76 I-4.78 J4.78
N6870 G1 X-12.8
N6875 G2 X-15.507 Y-22.165 I0. J6.458
N6880 X-17.78 Y-20.58 I3.309 J7.168
N6885 X-19.76 Y-15.8 I4.78 J4.78
N6890 G1 Y-2.2
N6895 G2 X-19.165 Y0.507 I6.458 J0.
N6900 X-17.58 Y2.78 I7.168 J-3.309
N6905 X-17.362 Y2.989 I4.78 J-4.78
N6910 G3 X-17.335 Y3.041 I-0.056 J0.061
N6915 G1 X-17.333 Y3.06
N6920 G2 X-17.17 Y3.042 I0.082 J-0.009
N6925 X-17.197 Y2.989 I-0.082 J0.009
N6930 G3 X-17.502 Y2.702 I4.397 J-4.989
N6935 X-19.064 Y0.465 I5.506 J-5.506
N6940 X-19.65 Y-2.2 I5.762 J-2.665
N6945 G1 Y-15.8
N6950 G3 X-17.702 Y-20.502 I6.65 J0.
N6955 X-15.465 Y-22.064 I5.506 J5.506
N6960 X-12.8 Y-22.65 I2.665 J5.762
N6965 G1 X12.8
N6970 G3 X17.502 Y-20.702 I0. J6.65
N6975 X19.064 Y-18.465 I-5.506 J5.506
N6980 X19.65 Y-15.8 I-5.762 J2.665
N6985 G1 Y-2.2
N6990 G3 X17.702 Y2.502 I-6.65 J0.
N6995 X17.168 Y2.989 I-5.506 J-5.506
N7000 G2 X17.137 Y3.046 I0.055 J0.067
N7005 G1 X17.135 Y3.066
N7010 G3 X16.962 Y3.047 I-0.086 J-0.01
N7015 X16.994 Y2.989 I0.086 J0.01
N7020 G2 X17.624 Y2.424 I-4.798 J-5.993
N7025 X19.54 Y-2.2 I-4.624 J-4.624
N7030 G1 Y-15.8
N7035 G2 X18.962 Y-18.423 I-6.24 J0.
N7040 X17.424 Y-20.624 I-6.966 J3.227
N7045 X12.8 Y-22.54 I-4.624 J4.624
N7050 G1 X-12.8
N7055 G2 X-15.423 Y-21.962 I0. J6.24
N7060 X-17.624 Y-20.424 I3.227 J6.966
N7065 X-19.54 Y-15.8 I4.624 J4.624
N7070 G1 Y-2.2
N7075 G2 X-18.962 Y0.423 I6.24 J0.
N7080 X-17.424 Y2.624 I6.966 J-3.227
N7085 X-17.028 Y2.99 I4.624 J-4.624
N7090 G3 X-16.998 Y3.045 I-0.056 J0.066
N7095 G1 X-16.996 Y3.067
N7100 G2 X-16.824 Y3.046 I0.086 J-0.01
N7105 X-16.856 Y2.99 I-0.086 J0.01
N7110 G3 X-17.347 Y2.547 I4.056 J-4.99
N7115 X-18.86 Y0.381 I5.352 J-5.352
N7120 X-19.43 Y-2.2 I5.561 J-2.581
N7125 G1 Y-15.8
N7130 G3 X-17.547 Y-20.347 I6.43 J0.
N7135 X-15.381 Y-21.86 I5.352 J5.352
N7140 X-12.8 Y-22.43 I2.581 J5.561
N7145 G1 X12.8
N7150 G3 X15.381 Y-21.86 I0. J6.131
N7155 X17.547 Y-20.347 I-3.186 J6.866
N7160 X19.43 Y-15.8 I-4.547 J4.547
N7165 G1 Y-2.2
N7170 G3 X17.547 Y2.347 I-6.43 J0.
N7175 X16.816 Y2.989 I-5.352 J-5.352
N7180 G2 X16.781 Y3.051 I0.056 J0.072
N7185 G1 X16.778 Y3.073
N7190 G3 X16.597 Y3.052 I-0.091 J-0.011
N7195 X16.633 Y2.989 I0.091 J0.011
N7200 G2 X17.469 Y2.269 I-4.44 J-5.996
N7205 X19.32 Y-2.2 I-4.469 J-4.469
N7210 G1 Y-15.8
N7215 G2 X18.759 Y-18.338 I-6.022 J0.
N7220 X17.269 Y-20.469 I-6.765 J3.145
N7225 X12.8 Y-22.32 I-4.469 J4.469
N7230 G1 X-12.8
N7235 G2 X-15.338 Y-21.759 I0. J6.022
N7240 X-17.469 Y-20.269 I3.145 J6.765
N7245 X-19.32 Y-15.8 I4.469 J4.469
N7250 G1 Y-2.2
N7255 G2 X-18.759 Y0.338 I6.022 J0.
N7260 X-17.269 Y2.469 I6.765 J-3.145
N7265 X-16.679 Y2.99 I4.469 J-4.469
N7270 G3 X-16.644 Y3.05 I-0.056 J0.072
N7275 G1 X-16.641 Y3.075
N7280 G2 X-16.461 Y3.051 I0.09 J-0.012
N7285 X-16.497 Y2.99 I-0.09 J0.012
N7290 G3 X-17.191 Y2.391 I3.697 J-4.99
N7295 X-18.657 Y0.296 I5.199 J-5.199
N7300 X-19.21 Y-2.2 I5.36 J-2.496
N7305 G1 Y-15.8
N7310 G3 X-17.391 Y-20.191 I6.21 J0.
N7315 X-15.296 Y-21.657 I5.199 J5.199
N7320 X-12.8 Y-22.21 I2.496 J5.36
N7325 G1 X12.8
N7330 G3 X17.191 Y-20.391 I0. J6.21
N7335 X18.657 Y-18.296 I-5.199 J5.199
N7340 X19.21 Y-15.8 I-5.36 J2.496
N7345 G1 Y-2.2
N7350 G3 X17.391 Y2.191 I-6.21 J0.
N7355 X16.445 Y2.99 I-5.199 J-5.199
N7360 G2 X16.406 Y3.056 I0.056 J0.079
N7365 G1 X16.402 Y3.081
N7370 G3 X16.211 Y3.057 I-0.096 J-0.012
N7375 X16.253 Y2.989 I0.096 J0.012
N7380 G2 X17.313 Y2.113 I-4.062 J-5.998
N7385 X19.1 Y-2.2 I-4.313 J-4.313
N7390 G1 Y-15.8
N7395 G2 X18.556 Y-18.254 I-5.804 J0.
N7400 X17.113 Y-20.313 I-6.565 J3.063
N7405 X12.8 Y-22.1 I-4.313 J4.313
N7410 G1 X-12.8
N7415 G2 X-15.254 Y-21.556 I0. J5.804
N7420 X-17.313 Y-20.113 I3.063 J6.565
N7425 X-19.1 Y-15.8 I4.313 J4.313
N7430 G1 Y-2.2
N7435 G2 X-18.556 Y0.254 I5.804 J0.
N7440 X-17.113 Y2.313 I6.565 J-3.063
N7445 X-16.309 Y2.989 I4.313 J-4.313
N7450 G3 X-16.269 Y3.056 I-0.056 J0.08
N7455 G1 X-16.265 Y3.085
N7460 G2 X-16.071 Y3.058 I0.097 J-0.013
N7465 X-16.114 Y2.99 I-0.097 J0.013
N7470 G3 X-17.036 Y2.236 I3.314 J-4.99
N7475 X-18.454 Y0.212 I5.046 J-5.046
N7480 X-18.99 Y-2.2 I5.159 J-2.412
N7485 G1 Y-15.8
N7490 G3 X-17.236 Y-20.036 I5.99 J0.
N7495 X-15.212 Y-21.454 I5.046 J5.046
N7500 X-12.8 Y-21.99 I2.412 J5.159
N7505 G1 X12.8
N7510 G3 X15.212 Y-21.454 I0. J5.695
N7515 X17.236 Y-20.036 I-3.022 J6.464
N7520 X18.99 Y-15.8 I-4.236 J4.236
N7525 G1 Y-2.2
N7530 G3 X17.236 Y2.036 I-5.99 J0.
N7535 X16.053 Y2.989 I-5.046 J-5.046
N7540 G2 X16.007 Y3.063 I0.056 J0.087
N7545 G1 X16.003 Y3.093
N7550 G3 X15.796 Y3.065 I-0.103 J-0.014
N7555 X15.845 Y2.99 I0.103 J0.014
N7560 G2 X17.158 Y1.958 I-3.657 J-6.001
N7565 X18.88 Y-2.2 I-4.158 J-4.158
N7570 G1 Y-15.8
N7575 G2 X18.352 Y-18.17 I-5.586 J0.
N7580 X16.958 Y-20.158 I-6.364 J2.982
N7585 X12.8 Y-21.88 I-4.158 J4.158
N7590 G1 X-12.8
N7595 G2 X-15.17 Y-21.352 I0. J5.586
N7600 X-17.158 Y-19.958 I2.982 J6.364
N7605 X-18.88 Y-15.8 I4.158 J4.158
N7610 G1 Y-2.2
N7615 G2 X-18.352 Y0.17 I5.586 J0.
N7620 X-16.958 Y2.158 I6.364 J-2.982
N7625 X-15.911 Y2.99 I4.158 J-4.158
N7630 G3 X-15.862 Y3.063 I-0.056 J0.09
N7635 G1 X-15.856 Y3.098
N7640 G2 X-15.647 Y3.064 I0.105 J-0.017
N7645 X-15.698 Y2.989 I-0.105 J0.017
N7650 G3 X-16.88 Y2.08 I2.898 J-4.989
N7655 X-18.251 Y0.128 I4.893 J-4.893
N7660 X-18.77 Y-2.2 I4.958 J-2.328
N7665 G1 Y-15.8
N7670 G3 X-17.08 Y-19.88 I5.77 J0.
N7675 X-15.128 Y-21.251 I4.893 J4.893
N7680 X-12.8 Y-21.77 I2.328 J4.958
N7685 G1 X12.8
N7690 G3 X16.88 Y-20.08 I0. J5.77
N7695 X18.251 Y-18.128 I-4.893 J4.893
N7700 X18.77 Y-15.8 I-4.958 J2.328
N7705 G1 Y-2.2
N7710 G3 X17.08 Y1.88 I-5.77 J0.
N7715 X15.63 Y2.989 I-4.893 J-4.893
N7720 G2 X15.574 Y3.071 I0.056 J0.098
N7725 G1 X15.569 Y3.106
N7730 G3 X15.345 Y3.072 I-0.112 J-0.017
N7735 X15.404 Y2.989 I0.112 J0.017
N7740 G2 X17.002 Y1.802 I-3.218 J-6.004
N7745 X18.66 Y-2.2 I-4.002 J-4.002
N7750 G1 Y-15.8
N7755 G2 X18.149 Y-18.086 I-5.369 J0.
N7760 X16.802 Y-20.002 I-6.163 J2.9
N7765 X12.8 Y-21.66 I-4.002 J4.002
N7770 G1 X-12.8
N7775 G2 X-15.086 Y-21.149 I0. J5.369
N7780 X-17.002 Y-19.802 I2.9 J6.163
N7785 X-18.66 Y-15.8 I4.002 J4.002
N7790 G1 Y-2.2
N7795 G2 X-18.149 Y0.086 I5.369 J0.
N7800 X-16.802 Y2.002 I6.163 J-2.9
N7805 X-15.473 Y2.989 I4.002 J-4.002
N7810 G3 X-15.411 Y3.075 I-0.057 J0.107
N7815 G1 X-15.403 Y3.119
N7820 G2 X-15.164 Y3.078 I0.119 J-0.021
N7825 X-15.23 Y2.99 I-0.119 J0.021
N7830 G3 X-16.724 Y1.924 I2.43 J-4.99
N7835 X-18.047 Y0.044 I4.74 J-4.74
N7840 X-18.55 Y-2.2 I4.757 J-2.244
N7845 G1 Y-15.8
N7850 G3 X-16.924 Y-19.724 I5.55 J0.
N7855 X-15.044 Y-21.047 I4.74 J4.74
N7860 X-12.8 Y-21.55 I2.244 J4.757
N7865 G1 X12.8
N7870 G3 X15.044 Y-21.047 I0. J5.26
N7875 X16.924 Y-19.724 I-2.86 J6.063
N7880 X18.55 Y-15.8 I-3.924 J3.924
N7885 G1 Y-2.2
N7890 G3 X16.924 Y1.724 I-5.55 J0.
N7895 X15.163 Y2.99 I-4.74 J-4.74
N7900 G2 X15.093 Y3.082 I0.057 J0.115
N7905 G1 X15.085 Y3.13
N7910 G3 X14.832 Y3.084 I-0.126 J-0.023
N7915 X14.906 Y2.99 I0.126 J0.023
N7920 G2 X15.002 Y2.946 I-2.106 J-4.701
N7925 X16.847 Y1.647 I-2.819 J-5.963
N7930 X18.44 Y-2.2 I-3.847 J-3.847
N7935 G1 Y-15.8
N7940 G2 X17.946 Y-18.002 I-5.151 J0.
N7945 X16.647 Y-19.847 I-5.963 J2.819
N7950 X12.8 Y-21.44 I-3.847 J3.847
N7955 G1 X-12.8
N7960 G2 X-15.002 Y-20.946 I0. J5.151
N7965 X-16.847 Y-19.647 I2.819 J5.963
N7970 X-18.44 Y-15.8 I3.847 J3.847
N7975 G1 Y-2.2
N7980 G2 X-17.946 Y0.002 I5.151 J0.
N7985 X-16.647 Y1.847 I5.963 J-2.819
N7990 X-14.967 Y2.99 I3.847 J-3.847
N7995 G3 X-14.882 Y3.094 I-0.058 J0.134
N8000 G1 X-14.869 Y3.157
N8005 G2 X-14.582 Y3.097 I0.143 J-0.03
N8010 X-14.674 Y2.99 I-0.143 J0.03
N8015 G3 X-16.569 Y1.769 I1.874 J-4.99
N8020 X-17.844 Y-0.04 I4.588 J-4.588
N8025 X-18.33 Y-2.2 I4.557 J-2.16
N8030 G1 Y-15.8
N8035 G3 X-16.769 Y-19.569 I5.33 J0.
N8040 X-14.96 Y-20.844 I4.588 J4.588
N8045 X-12.8 Y-21.33 I2.16 J4.557
N8050 G1 X12.8
N8055 G3 X16.569 Y-19.769 I0. J5.33
N8060 X17.844 Y-17.96 I-4.588 J4.588
N8065 X18.33 Y-15.8 I-4.557 J2.16
N8070 G1 Y-2.2
N8075 G3 X16.769 Y1.569 I-5.33 J0.
N8080 X14.96 Y2.844 I-4.588 J-4.588
N8085 X14.62 Y2.99 I-2.16 J-4.557
N8090 G2 X14.519 Y3.106 I0.059 J0.154
N8095 G1 X14.501 Y3.184
N8100 G3 X14.18 Y3.109 I-0.16 J-0.038
N8105 X14.291 Y2.989 I0.16 J0.038
N8110 G2 X14.917 Y2.743 I-1.491 J-4.704
N8115 X16.691 Y1.491 I-2.738 J-5.763
N8120 X18.22 Y-2.2 I-3.691 J-3.691
N8125 G1 Y-15.8
N8130 G2 X17.743 Y-17.917 I-4.934 J0.
N8135 X16.491 Y-19.691 I-5.763 J2.738
N8140 X12.8 Y-21.22 I-3.691 J3.691
N8145 G1 X-12.8
N8150 G2 X-14.917 Y-20.743 I0. J4.934
N8155 X-16.691 Y-19.491 I2.738 J5.763
N8160 X-18.22 Y-15.8 I3.691 J3.691
N8165 G1 Y-2.2
N8170 G2 X-17.743 Y-0.083 I4.934 J0.
N8175 X-16.491 Y1.691 I5.763 J-2.738
N8180 X-14.334 Y2.99 I3.691 J-3.691
N8185 G3 X-14.189 Y3.139 I-0.063 J0.206
N8190 G1 X-14.157 Y3.257
N8195 G2 X-13.74 Y3.144 I0.208 J-0.057
N8200 X-13.902 Y2.99 I-0.208 J0.057
N8205 G3 X-16.413 Y1.613 I1.102 J-4.99
N8210 X-17.641 Y-0.125 I4.436 J-4.436
N8215 X-18.11 Y-2.2 I4.357 J-2.075
N8220 G1 Y-15.8
N8225 G3 X-16.613 Y-19.413 I5.11 J0.
N8230 X-14.875 Y-20.641 I4.436 J4.436
N8235 X-12.8 Y-21.11 I2.075 J4.357
N8240 G1 X12.8
N8245 G3 X14.875 Y-20.641 I0. J4.826
N8250 X16.613 Y-19.413 I-2.698 J5.663
N8255 X18.11 Y-15.8 I-3.613 J3.613
N8260 G1 Y-2.2
N8265 G3 X16.613 Y1.413 I-5.11 J0.
N8270 X14.875 Y2.641 I-4.436 J-4.436
N8275 X13.871 Y2.99 I-2.075 J-4.357
N8280 G2 X13.714 Y3.082 I0.067 J0.293
N8285 G1 X13.351 Y3.489
N8290 G3 X12.903 Y3.09 I-0.224 J-0.2
N8295 X13.108 Y2.99 I0.224 J0.2
N8300 G2 X14.833 Y2.539 I-0.308 J-4.707
N8305 X16.536 Y1.336 I-2.658 J-5.564
N8310 X18. Y-2.2 I-3.536 J-3.536
N8315 G1 Y-15.8
N8320 G2 X17.539 Y-17.833 I-4.717 J0.
N8325 X16.336 Y-19.536 I-5.564 J2.658
N8330 X12.8 Y-21. I-3.536 J3.536
N8335 G1 X-12.8
N8340 G2 X-14.833 Y-20.539 I0. J4.717
N8345 X-16.536 Y-19.336 I2.658 J5.564
N8350 X-18. Y-15.8 I3.536 J3.536
N8355 G1 Y-2.2
N8360 G2 X-17.539 Y-0.167 I4.717 J0.
N8365 X-16.336 Y1.536 I5.564 J-2.658
N8370 X-13.117 Y2.99 I3.536 J-3.536
N8375 X-13.03 Y2.94 I0.006 J-0.089
N8380 G3 X-12.945 Y2.888 I0.083 J0.04
N8385 G2 X-12.8 Y2.89 I0.145 J-4.888
N8390 G1 X12.8
N8395 G2 X14.791 Y2.438 I0. J-4.609
N8400 X16.458 Y1.258 I-2.618 J-5.464
N8405 X17.89 Y-2.2 I-3.458 J-3.458
N8410 G1 Y-15.8
N8415 G2 X17.438 Y-17.791 I-4.609 J0.
N8420 X16.258 Y-19.458 I-5.464 J2.618
N8425 X12.8 Y-20.89 I-3.458 J3.458
N8430 G1 X-12.8
N8435 G2 X-14.791 Y-20.438 I0. J4.609
N8440 X-16.458 Y-19.258 I2.618 J5.464
N8445 X-17.89 Y-15.8 I3.458 J3.458
N8450 G1 Y-2.2
N8455 G2 X-17.438 Y-0.209 I4.609 J0.
N8460 X-16.258 Y1.458 I5.464 J-2.618
N8465 X-12.945 Y2.888 I3.458 J-3.458
N8470 X-12.86 Y2.835 I0.003 J-0.089
N8475 G3 X-12.777 Y2.78 I0.084 J0.037
N8480 G1 X12.8
N8485 G2 X14.749 Y2.336 I0. J-4.501
N8490 X16.38 Y1.18 I-2.578 J-5.364
N8495 X17.78 Y-2.2 I-3.38 J-3.38
N8500 G1 Y-15.8
N8505 G2 X17.336 Y-17.749 I-4.501 J0.
N8510 X16.18 Y-19.38 I-5.364 J2.578
N8515 X12.8 Y-20.78 I-3.38 J3.38
N8520 G1 X-12.8
N8525 G2 X-14.749 Y-20.336 I0. J4.501
N8530 X-16.38 Y-19.18 I2.578 J5.364
N8535 X-17.78 Y-15.8 I3.38 J3.38
N8540 G1 Y-2.2
N8545 G2 X-17.336 Y-0.251 I4.501 J0.
N8550 X-16.18 Y1.38 I5.364 J-2.578
N8555 X-12.8 Y2.78 I3.38 J-3.38
N8560 G1 X-12.777
N8565 G2 X-12.694 Y2.725 I0. J-0.089
N8570 G3 X-12.612 Y2.67 I0.083 J0.034
N8575 G1 X12.8
N8580 G2 X14.707 Y2.234 I0. J-4.392
N8585 X16.302 Y1.102 I-2.538 J-5.265
N8590 X17.67 Y-2.2 I-3.302 J-3.302
N8595 G1 Y-15.8
N8600 G2 X16.302 Y-19.102 I-4.67 J0.
N8605 X14.707 Y-20.234 I-4.133 J4.133
N8610 X12.8 Y-20.67 I-1.907 J3.957
N8615 G1 X-12.8
N8620 G2 X-14.707 Y-20.234 I0. J4.392
N8625 X-16.302 Y-19.102 I2.538 J5.265
N8630 X-17.67 Y-15.8 I3.302 J3.302
N8635 G1 Y-2.2
N8640 G2 X-17.234 Y-0.293 I4.392 J0.
N8645 X-16.102 Y1.302 I5.265 J-2.538
N8650 X-12.8 Y2.67 I3.302 J-3.302
N8655 G1 X-12.612
N8660 G2 X-12.529 Y2.615 I0. J-0.089
N8665 G3 X-12.447 Y2.56 I0.083 J0.034
N8670 G1 X12.8
N8675 G2 X14.665 Y2.133 I0. J-4.284
N8680 X16.224 Y1.024 I-2.498 J-5.166
N8685 X17.56 Y-2.2 I-3.224 J-3.224
N8690 G1 Y-15.8
N8695 G2 X17.133 Y-17.665 I-4.284 J0.
N8700 X16.024 Y-19.224 I-5.166 J2.498
N8705 X12.8 Y-20.56 I-3.224 J3.224
N8710 G1 X-12.8
N8715 G2 X-14.665 Y-20.133 I0. J4.284
N8720 X-16.224 Y-19.024 I2.498 J5.166
N8725 X-17.56 Y-15.8 I3.224 J3.224
N8730 G1 Y-2.2
N8735 G2 X-17.133 Y-0.335 I4.284 J0.
N8740 X-16.024 Y1.224 I5.166 J-2.498
N8745 X-12.8 Y2.56 I3.224 J-3.224
N8750 G1 X-12.447
N8755 G2 X-12.364 Y2.505 I0. J-0.089
N8760 G3 X-12.282 Y2.45 I0.083 J0.034
N8765 G1 X12.8
N8770 G2 X14.623 Y2.031 I0. J-4.176
N8775 X16.147 Y0.947 I-2.458 J-5.066
N8780 X17.45 Y-2.2 I-3.147 J-3.147
N8785 G1 Y-15.8
N8790 G2 X17.031 Y-17.623 I-4.176 J0.
N8795 X15.947 Y-19.147 I-5.066 J2.458
N8800 X12.8 Y-20.45 I-3.147 J3.147
N8805 G1 X-12.8
N8810 G2 X-14.623 Y-20.031 I0. J4.176
N8815 X-16.147 Y-18.947 I2.458 J5.066
N8820 X-17.45 Y-15.8 I3.147 J3.147
N8825 G1 Y-2.2
N8830 G2 X-17.031 Y-0.377 I4.176 J0.
N8835 X-15.947 Y1.147 I5.066 J-2.458
N8840 X-12.8 Y2.45 I3.147 J-3.147
N8845 G1 X-12.282
N8850 G2 X-12.199 Y2.395 I0. J-0.089
N8855 G3 X-12.117 Y2.34 I0.083 J0.034
N8860 G1 X12.8
N8865 G2 X14.581 Y1.93 I0. J-4.068
N8870 X16.069 Y0.869 I-2.418 J-4.967
N8875 X17.34 Y-2.2 I-3.069 J-3.069
N8880 G1 Y-15.8
N8885 G2 X16.93 Y-17.581 I-4.068 J0.
N8890 X15.869 Y-19.069 I-4.967 J2.418
N8895 X12.8 Y-20.34 I-3.069 J3.069
N8900 G1 X-12.8
N8905 G2 X-14.581 Y-19.93 I0. J4.068
N8910 X-16.069 Y-18.869 I2.418 J4.967
N8915 X-17.34 Y-15.8 I3.069 J3.069
N8920 G1 Y-2.2
N8925 G2 X-16.93 Y-0.419 I4.068 J0.
N8930 X-15.869 Y1.069 I4.967 J-2.418
N8935 X-12.8 Y2.34 I3.069 J-3.069
N8940 G1 X-12.117
N8945 G2 X-12.034 Y2.285 I0. J-0.089
N8950 G3 X-11.952 Y2.23 I0.083 J0.034
N8955 G1 X12.8
N8960 G2 X14.539 Y1.828 I0. J-3.96
N8965 X15.991 Y0.791 I-2.379 J-4.868
N8970 X17.23 Y-2.2 I-2.991 J-2.991
N8975 G1 Y-15.8
N8980 G2 X15.991 Y-18.791 I-4.23 J0.
N8985 X14.539 Y-19.828 I-3.831 J3.831
N8990 X12.8 Y-20.23 I-1.739 J3.558
N8995 G1 X-12.8
N9000 G2 X-14.539 Y-19.828 I0. J3.96
N9005 X-15.991 Y-18.791 I2.379 J4.868
N9010 X-17.23 Y-15.8 I2.991 J2.991
N9015 G1 Y-2.2
N9020 G2 X-16.828 Y-0.461 I3.96 J0.
N9025 X-15.791 Y0.991 I4.868 J-2.379
N9030 X-12.8 Y2.23 I2.991 J-2.991
N9035 G1 X-11.952
N9040 G2 X-11.869 Y2.175 I0. J-0.089
N9045 G3 X-11.787 Y2.12 I0.083 J0.034
N9050 G1 X12.8
N9055 G2 X14.497 Y1.726 I0. J-3.852
N9060 X15.913 Y0.713 I-2.34 J-4.77
N9065 X17.12 Y-2.2 I-2.913 J-2.913
N9070 G1 Y-15.8
N9075 G2 X16.726 Y-17.497 I-3.852 J0.
N9080 X15.713 Y-18.913 I-4.77 J2.34
N9085 X12.8 Y-20.12 I-2.913 J2.913
N9090 G1 X-12.8
N9095 G2 X-14.497 Y-19.726 I0. J3.852
N9100 X-15.913 Y-18.713 I2.34 J4.77
N9105 X-17.12 Y-15.8 I2.913 J2.913
N9110 G1 Y-2.2
N9115 G2 X-16.726 Y-0.503 I3.852 J0.
N9120 X-15.713 Y0.913 I4.77 J-2.34
N9125 X-12.8 Y2.12 I2.913 J-2.913
N9130 G1 X-11.787
N9135 G2 X-11.704 Y2.065 I0. J-0.089
N9140 G3 X-11.622 Y2.01 I0.083 J0.034
N9145 G1 X12.8
N9150 G2 X14.454 Y1.625 I0. J-3.744
N9155 X15.835 Y0.635 I-2.301 J-4.671
N9160 X17.01 Y-2.2 I-2.835 J-2.835
N9165 G1 Y-15.8
N9170 G2 X16.625 Y-17.454 I-3.744 J0.
N9175 X15.635 Y-18.835 I-4.671 J2.301
N9180 X12.8 Y-20.01 I-2.835 J2.835
N9185 G1 X-12.8
N9190 G2 X-14.454 Y-19.625 I0. J3.744
N9195 X-15.835 Y-18.635 I2.301 J4.671
N9200 X-17.01 Y-15.8 I2.835 J2.835
N9205 G1 Y-2.2
N9210 G2 X-16.625 Y-0.546 I3.744 J0.
N9215 X-15.635 Y0.835 I4.671 J-2.301
N9220 X-12.8 Y2.01 I2.835 J-2.835
N9225 G1 X-11.622
N9230 G2 X-11.539 Y1.955 I0. J-0.089
N9235 G3 X-11.457 Y1.9 I0.082 J0.034
N9240 G1 X12.8
N9245 G2 X14.412 Y1.523 I0. J-3.637
N9250 X15.758 Y0.558 I-2.262 J-4.572
N9255 X16.9 Y-2.2 I-2.758 J-2.758
N9260 G1 Y-15.8
N9265 G2 X16.523 Y-17.412 I-3.637 J0.
N9270 X15.558 Y-18.758 I-4.572 J2.262
N9275 X12.8 Y-19.9 I-2.758 J2.758
N9280 G1 X-12.8
N9285 G2 X-14.412 Y-19.523 I0. J3.637
N9290 X-15.758 Y-18.558 I2.262 J4.572
N9295 X-16.9 Y-15.8 I2.758 J2.758
N9300 G1 Y-2.2
N9305 G2 X-16.523 Y-0.588 I3.637 J0.
N9310 X-15.558 Y0.758 I4.572 J-2.262
N9315 X-12.8 Y1.9 I2.758 J-2.758
N9320 G1 X-11.457
N9325 G2 X-11.374 Y1.845 I0. J-0.089
N9330 G3 X-11.292 Y1.79 I0.082 J0.034
N9335 G1 X12.8
N9340 G2 X14.37 Y1.421 I0. J-3.529
N9345 X15.68 Y0.48 I-2.223 J-4.474
N9350 X16.79 Y-2.2 I-2.68 J-2.68
N9355 G1 Y-15.8
N9360 G2 X15.68 Y-18.48 I-3.79 J0.
N9365 X14.37 Y-19.421 I-3.533 J3.533
N9370 X12.8 Y-19.79 I-1.57 J3.16
N9375 G1 X-12.8
N9380 G2 X-14.37 Y-19.421 I0. J3.529
N9385 X-15.68 Y-18.48 I2.223 J4.474
N9390 X-16.79 Y-15.8 I2.68 J2.68
N9395 G1 Y-2.2
N9400 G2 X-16.421 Y-0.63 I3.529 J0.
N9405 X-15.48 Y0.68 I4.474 J-2.223
N9410 X-12.8 Y1.79 I2.68 J-2.68
N9415 G1 X-11.292
N9420 G2 X-11.209 Y1.735 I0. J-0.089
N9425 G3 X-11.127 Y1.68 I0.082 J0.034
N9430 G1 X12.8
N9435 G2 X14.328 Y1.32 I0. J-3.421
N9440 X15.602 Y0.402 I-2.185 J-4.376
N9445 X16.68 Y-2.2 I-2.602 J-2.602
N9450 G1 Y-15.8
N9455 G2 X16.32 Y-17.328 I-3.421 J0.
N9460 X15.402 Y-18.602 I-4.376 J2.185
N9465 X12.8 Y-19.68 I-2.602 J2.602
N9470 G1 X-12.8
N9475 G2 X-14.328 Y-19.32 I0. J3.421
N9480 X-15.602 Y-18.402 I2.185 J4.376
N9485 X-16.68 Y-15.8 I2.602 J2.602
N9490 G1 Y-2.2
N9495 G2 X-16.32 Y-0.672 I3.421 J0.
N9500 X-15.402 Y0.602 I4.376 J-2.185
N9505 X-12.8 Y1.68 I2.602 J-2.602
N9510 G1 X-11.127
N9515 G2 X-11.044 Y1.625 I0. J-0.089
N9520 G3 X-10.962 Y1.57 I0.082 J0.034
N9525 G1 X12.8
N9530 G2 X14.286 Y1.218 I0. J-3.314
N9535 X15.524 Y0.324 I-2.146 J-4.278
N9540 X16.57 Y-2.2 I-2.524 J-2.524
N9545 G1 Y-15.8
N9550 G2 X16.218 Y-17.286 I-3.314 J0.
N9555 X15.324 Y-18.524 I-4.278 J2.146
N9560 X12.8 Y-19.57 I-2.524 J2.524
N9565 G1 X-12.8
N9570 G2 X-14.286 Y-19.218 I0. J3.314
N9575 X-15.524 Y-18.324 I2.146 J4.278
N9580 X-16.57 Y-15.8 I2.524 J2.524
N9585 G1 Y-2.2
N9590 G2 X-16.218 Y-0.714 I3.314 J0.
N9595 X-15.324 Y0.524 I4.278 J-2.146
N9600 X-12.8 Y1.57 I2.524 J-2.524
N9605 G1 X-10.962
N9610 G2 X-10.879 Y1.515 I0. J-0.089
N9615 G3 X-10.797 Y1.46 I0.082 J0.034
N9620 G1 X12.8
N9625 G2 X14.244 Y1.117 I0. J-3.207
N9630 X15.447 Y0.247 I-2.108 J-4.181
N9635 X16.46 Y-2.2 I-2.447 J-2.447
N9640 G1 Y-15.8
N9645 G2 X16.117 Y-17.244 I-3.207 J0.
N9650 X15.247 Y-18.447 I-4.181 J2.108
N9655 X12.8 Y-19.46 I-2.447 J2.447
N9660 G1 X-12.8
N9665 G2 X-14.244 Y-19.117 I0. J3.207
N9670 X-15.447 Y-18.247 I2.108 J4.181
N9675 X-16.46 Y-15.8 I2.447 J2.447
N9680 G1 Y-2.2
N9685 G2 X-16.117 Y-0.756 I3.207 J0.
N9690 X-15.247 Y0.447 I4.181 J-2.108
N9695 X-12.8 Y1.46 I2.447 J-2.447
N9700 G1 X-10.797
N9705 G2 X-10.714 Y1.405 I0. J-0.089
N9710 G3 X-10.632 Y1.35 I0.082 J0.034
N9715 G1 X12.8
N9720 G2 X14.202 Y1.015 I0. J-3.1
N9725 X15.369 Y0.169 I-2.071 J-4.084
N9730 X16.35 Y-2.2 I-2.369 J-2.369
N9735 G1 Y-15.8
N9740 G2 X15.369 Y-18.169 I-3.35 J0.
N9745 X14.202 Y-19.015 I-3.238 J3.238
N9750 X12.8 Y-19.35 I-1.402 J2.765
N9755 G1 X-12.8
N9760 G2 X-14.202 Y-19.015 I0. J3.1
N9765 X-15.369 Y-18.169 I2.071 J4.084
N9770 X-16.35 Y-15.8 I2.369 J2.369
N9775 G1 Y-2.2
N9780 G2 X-16.015 Y-0.798 I3.1 J0.
N9785 X-15.169 Y0.369 I4.084 J-2.071
N9790 X-12.8 Y1.35 I2.369 J-2.369
N9795 G1 X-10.632
N9800 G2 X-10.519 Y1.275 I0. J-0.122
N9805 G3 X-10.407 Y1.2 I0.113 J0.047
N9810 G1 X12.8
N9815 G2 X15.063 Y0.263 I0. J-3.2
N9820 G1 X15.263 Y0.063
N9825 G2 X16.2 Y-2.2 I-2.263 J-2.263
N9830 G1 Y-15.8
N9835 G2 X15.263 Y-18.063 I-3.2 J0.
N9840 G1 X15.063 Y-18.263
N9845 G2 X12.8 Y-19.2 I-2.263 J2.263
N9850 G1 X-12.8
N9855 G2 X-15.063 Y-18.263 I0. J3.2
N9860 G1 X-15.263 Y-18.063
N9865 G2 X-16.2 Y-15.8 I2.263 J2.263
N9870 G1 Y-2.2
N9875 G2 X-15.263 Y0.063 I3.2 J0.
N9880 G1 X-15.063 Y0.263
N9885 G2 X-12.8 Y1.2 I2.263 J-2.263
N9890 G1 X-10.407
N9895 G2 X-10.354 Y1.165 I0. J-0.057
N9900 G3 X-10.302 Y1.13 I0.052 J0.022
N9905 G1 X12.8
N9910 G2 X15.013 Y0.213 I0. J-3.13
N9915 G1 X15.213 Y0.013
N9920 G2 X16.13 Y-2.2 I-2.213 J-2.213
N9925 G1 Y-15.8
N9930 G2 X15.213 Y-18.013 I-3.13 J0.
N9935 G1 X15.013 Y-18.213
N9940 G2 X12.8 Y-19.13 I-2.213 J2.213
N9945 G1 X-12.8
N9950 G2 X-15.013 Y-18.213 I0. J3.13
N9955 G1 X-15.213 Y-18.013
N9960 G2 X-16.13 Y-15.8 I2.213 J2.213
N9965 G1 Y-2.2
N9970 G2 X-15.213 Y0.013 I3.13 J0.
N9975 G1 X-15.013 Y0.213
N9980 G2 X-12.8 Y1.13 I2.213 J-2.213
N9985 G1 X-10.302
N9990 G2 X-10.249 Y1.095 I0. J-0.057
N9995 G3 X-10.197 Y1.06 I0.052 J0.022
N10000 G1 X12.8
N10005 G2 X14.964 Y0.164 I0. J-3.06
N10010 G1 X15.164 Y-0.036
N10015 G2 X16.06 Y-2.2 I-2.164 J-2.164
N10020 G1 Y-15.8
N10025 G2 X15.164 Y-17.964 I-3.06 J0.
N10030 G1 X14.964 Y-18.164
N10035 G2 X12.8 Y-19.06 I-2.164 J2.164
N10040 G1 X-12.8
N10045 G2 X-14.964 Y-18.164 I0. J3.06
N10050 G1 X-15.164 Y-17.964
N10055 G2 X-16.06 Y-15.8 I2.164 J2.164
N10060 G1 Y-2.2
N10065 G2 X-15.164 Y-0.036 I3.06 J0.
N10070 G1 X-14.964 Y0.164
N10075 G2 X-12.8 Y1.06 I2.164 J-2.164
N10080 G1 X-10.197
N10085 G3 X-9.985 Y1.148 I0. J0.3
N10090 G1 X-8.145 Y2.987
N10095 X-8.098 Y3.035 Z-17.992
N10100 X-8.053 Y3.079 Z-17.97
N10105 X-8.013 Y3.12 Z-17.935
N10110 X-7.979 Y3.153 Z-17.887
N10115 X-7.954 Y3.179 Z-17.83
N10120 X-7.938 Y3.194 Z-17.767
N10125 X-7.933 Y3.2 Z-17.7
N10130 G0 Z4.
(2D CONTOUR10)
N10140 M8
N10145 G0 X16.9 Y-8.7
N10150 Z4.
N10155 Z2.
N10160 G1 Z1. F900.
N10165 Z-17.7 F400.
N10170 G18 G3 X16.6 Z-18. I-0.3 K0.
N10175 G1 X16.3 F900.
N10180 G17 G3 X16. Y-9. I0. J-0.3
N10185 G1 Y-15.8 F1000.
N10190 G2 X15.121 Y-17.921 I-3. J0.
N10195 G1 X14.921 Y-18.121
N10200 G2 X12.8 Y-19. I-2.121 J2.121
N10205 G1 X-12.8
N10210 G2 X-14.921 Y-18.121 I0. J3.
N10215 G1 X-15.121 Y-17.921
N10220 G2 X-16. Y-15.8 I2.121 J2.121
N10225 G1 Y-2.2
N10230 G2 X-15.121 Y-0.079 I3. J0.
N10235 G1 X-14.921 Y0.121
N10240 G2 X-12.8 Y1. I2.121 J-2.121
N10245 G1 X12.8
N10250 G2 X14.921 Y0.121 I0. J-3.
N10255 G1 X15.121 Y-0.079
N10260 G2 X16. Y-2.2 I-2.121 J-2.121
N10265 G1 Y-9.
N10270 G3 X16.3 Y-9.3 I0.3 J0.
N10275 G1 X16.6
N10280 G18 G2 X16.9 Z-17.7 I0. K0.3
N10285 G0 Z4.
N10290 G17
(PARALLEL3)
N10295 M8
N10300 G0 X16.063 Y-17.996
N10305 Z4.
N10310 Z-3.707
N10315 G1 Z-5.375 F900.
N10320 G18 G3 X15.039 Z-5.799 I-0.6 K0.
N10325 G1 X9.242 Z-0.001 F1000.
N10330 X9.21 Y-17.994 Z0.031
N10335 X9.181 Y-17.989 Z0.064
N10340 X9.152 Y-17.98 Z0.097
N10345 X9.125 Y-17.968 Z0.131
N10350 X9.1 Y-17.953 Z0.165
N10355 X9.077 Y-17.935 Z0.199
N10360 X9.056 Y-17.914 Z0.232
N10365 X9.037 Y-17.89 Z0.265
N10370 X9.021 Y-17.863 Z0.297
N10375 X9.007 Y-17.834 Z0.328
N10380 X8.996 Y-17.803 Z0.358
N10385 X8.988 Y-17.769 Z0.386
N10390 X8.982 Y-17.734 Z0.413
N10395 X8.979 Y-17.696 Z0.437
N10400 Y-17.658 Z0.46
N10405 X8.982 Y-17.618 Z0.481
N10410 X8.987 Y-17.578 Z0.499
N10415 X8.995 Y-17.537 Z0.515
N10420 X9.006 Y-17.496 Z0.529
N10425 X9.02 Y-17.454 Z0.54
N10430 X9.036 Y-17.413 Z0.548
N10435 X9.054 Y-17.373 Z0.553
N10440 X9.075 Y-17.333 Z0.556
N10445 X9.098 Y-17.295
N10450 X9.122 Y-17.258 Z0.553
N10455 X9.149 Y-17.222 Z0.547
N10460 X9.177 Y-17.189 Z0.539
N10465 X9.207 Y-17.157 Z0.528
N10470 X9.238 Y-17.128 Z0.514
N10475 X9.27 Y-17.101 Z0.498
N10480 X9.303 Y-17.077 Z0.479
N10485 X9.336 Y-17.056 Z0.458
N10490 X9.37 Y-17.038 Z0.435
N10495 X9.404 Y-17.023 Z0.41
N10500 X9.438 Y-17.011 Z0.383
N10505 X9.471 Y-17.003 Z0.354
N10510 X9.504 Y-16.998 Z0.325
N10515 X9.536 Y-16.996 Z0.293
N10520 X9.831 Z-0.001
N10525 X15.621 Z-5.791
N10530 X15.75 Z-5.997
N10535 G2 X16.304 Z-5.838 I0.254 K0.159
N10540 G1 Z-5.788
N10545 X16.305 Y-16.988 Z-5.7
N10550 X16.31 Y-16.966 Z-5.614
N10555 X16.317 Y-16.929 Z-5.533
N10560 X16.328 Y-16.879 Z-5.461
N10565 X16.34 Y-16.817 Z-5.398
N10570 X16.355 Y-16.746 Z-5.347
N10575 X16.37 Y-16.667 Z-5.309
N10580 X16.388 Y-16.583 Z-5.286
N10585 X16.405 Y-16.496 Z-5.279
N10590 X16.423 Y-16.409 Z-5.286
N10595 X16.44 Y-16.325 Z-5.309
N10600 X16.456 Y-16.246 Z-5.347
N10605 X16.47 Y-16.175 Z-5.398
N10610 X16.483 Y-16.113 Z-5.461
N10615 X16.493 Y-16.063 Z-5.533
N10620 X16.5 Y-16.027 Z-5.614
N10625 X16.505 Y-16.004 Z-5.7
N10630 X16.506 Y-15.997 Z-5.788
N10635 G3 X15.992 Z-5.999 I-0.3 K0. F900.
N10640 G1 X15.638 Z-5.638 F1000.
N10645 X10.001 Z-0.001
N10650 X9.97 Y-15.995 Z0.03
N10655 X9.939 Y-15.989 Z0.061
N10660 X9.909 Y-15.979 Z0.091
N10665 X9.88 Y-15.966 Z0.12
N10670 X9.851 Y-15.95 Z0.149
N10675 X9.824 Y-15.93 Z0.176
N10680 X9.798 Y-15.906 Z0.202
N10685 X9.774 Y-15.88 Z0.226
N10690 X9.751 Y-15.85 Z0.249
N10695 X9.73 Y-15.818 Z0.27
N10700 X9.711 Y-15.783 Z0.289
N10705 X9.695 Y-15.747 Z0.305
N10710 X9.68 Y-15.708 Z0.32
N10715 X9.669 Y-15.668 Z0.331
N10720 X9.659 Y-15.626 Z0.341
N10725 X9.653 Y-15.584 Z0.347
N10730 X9.649 Y-15.54 Z0.351
N10735 X9.647 Y-15.497 Z0.353
N10740 X9.649 Y-15.453 Z0.351
N10745 X9.653 Y-15.41 Z0.347
N10750 X9.659 Y-15.367 Z0.341
N10755 X9.669 Y-15.326 Z0.331
N10760 X9.68 Y-15.286 Z0.32
N10765 X9.695 Y-15.247 Z0.305
N10770 X9.711 Y-15.21 Z0.289
N10775 X9.73 Y-15.176 Z0.27
N10780 X9.751 Y-15.143 Z0.249
N10785 X9.774 Y-15.114 Z0.226
N10790 X9.798 Y-15.087 Z0.202
N10795 X9.824 Y-15.064 Z0.176
N10800 X9.851 Y-15.044 Z0.149
N10805 X9.88 Y-15.027 Z0.12
N10810 X9.909 Y-15.014 Z0.091
N10815 X9.939 Y-15.005 Z0.061
N10820 X9.97 Y-14.999 Z0.03
N10825 X10.001 Y-14.997 Z-0.001
N10830 X16. Z-6.
N10835 G2 X16.212 Z-6.088 I0.212 K0.212
N10840 G17 G3 Y-13.998 I0. J0.5
N10845 G18 G3 X16. Z-6. I0. K0.3
N10850 G1 X10.001 Z-0.001
N10855 X9.97 Y-13.996 Z0.03
N10860 X9.939 Y-13.99 Z0.061
N10865 X9.909 Y-13.98 Z0.091
N10870 X9.88 Y-13.967 Z0.12
N10875 X9.851 Y-13.951 Z0.149
N10880 X9.824 Y-13.931 Z0.176
N10885 X9.798 Y-13.907 Z0.202
N10890 X9.774 Y-13.881 Z0.226
N10895 X9.751 Y-13.851 Z0.249
N10900 X9.73 Y-13.819 Z0.27
N10905 X9.711 Y-13.784 Z0.289
N10910 X9.695 Y-13.748 Z0.305
N10915 X9.68 Y-13.709 Z0.32
N10920 X9.669 Y-13.669 Z0.331
N10925 X9.659 Y-13.627 Z0.341
N10930 X9.653 Y-13.585 Z0.347
N10935 X9.649 Y-13.541 Z0.351
N10940 X9.647 Y-13.498 Z0.353
N10945 X9.649 Y-13.454 Z0.351
N10950 X9.653 Y-13.411 Z0.347
N10955 X9.659 Y-13.368 Z0.341
N10960 X9.669 Y-13.327 Z0.331
N10965 X9.68 Y-13.287 Z0.32
N10970 X9.695 Y-13.248 Z0.305
N10975 X9.711 Y-13.211 Z0.289
N10980 X9.73 Y-13.177 Z0.27
N10985 X9.751 Y-13.144 Z0.249
N10990 X9.774 Y-13.115 Z0.226
N10995 X9.798 Y-13.088 Z0.202
N11000 X9.824 Y-13.065 Z0.176
N11005 X9.851 Y-13.045 Z0.149
N11010 X9.88 Y-13.028 Z0.12
N11015 X9.909 Y-13.015 Z0.091
N11020 X9.939 Y-13.006 Z0.061
N11025 X9.97 Y-13. Z0.03
N11030 X10.001 Y-12.998 Z-0.001
N11035 X16. Z-6.
N11040 G2 X16.212 Z-6.088 I0.212 K0.212
N11045 G17 G3 Y-11.999 I0. J0.5
N11050 G18 G3 X16. Z-6. I0. K0.3
N11055 G1 X10.001 Z-0.001
N11060 X9.97 Y-11.997 Z0.03
N11065 X9.939 Y-11.991 Z0.061
N11070 X9.909 Y-11.981 Z0.091
N11075 X9.88 Y-11.968 Z0.12
N11080 X9.851 Y-11.952 Z0.149
N11085 X9.824 Y-11.932 Z0.176
N11090 X9.798 Y-11.908 Z0.202
N11095 X9.774 Y-11.882 Z0.226
N11100 X9.751 Y-11.852 Z0.249
N11105 X9.73 Y-11.82 Z0.27
N11110 X9.711 Y-11.785 Z0.289
N11115 X9.695 Y-11.749 Z0.305
N11120 X9.68 Y-11.71 Z0.32
N11125 X9.669 Y-11.67 Z0.331
N11130 X9.659 Y-11.628 Z0.341
N11135 X9.653 Y-11.586 Z0.347
N11140 X9.649 Y-11.542 Z0.351
N11145 X9.647 Y-11.499 Z0.353
N11150 X9.649 Y-11.455 Z0.351
N11155 X9.653 Y-11.412 Z0.347
N11160 X9.659 Y-11.369 Z0.341
N11165 X9.669 Y-11.328 Z0.331
N11170 X9.68 Y-11.288 Z0.32
N11175 X9.695 Y-11.249 Z0.305
N11180 X9.711 Y-11.212 Z0.289
N11185 X9.73 Y-11.178 Z0.27
N11190 X9.751 Y-11.145 Z0.249
N11195 X9.774 Y-11.116 Z0.226
N11200 X9.798 Y-11.089 Z0.202
N11205 X9.824 Y-11.066 Z0.176
N11210 X9.851 Y-11.046 Z0.149
N11215 X9.88 Y-11.029 Z0.12
N11220 X9.909 Y-11.016 Z0.091
N11225 X9.939 Y-11.007 Z0.061
N11230 X9.97 Y-11.001 Z0.03
N11235 X10.001 Y-10.999 Z-0.001
N11240 X16. Z-6.
N11245 G2 X16.212 Z-6.088 I0.212 K0.212
N11250 G17 G3 Y-10. I0. J0.5
N11255 G18 G3 X16. Z-6. I0. K0.3
N11260 G1 X10.001 Z-0.001
N11265 X9.97 Y-9.998 Z0.03
N11270 X9.939 Y-9.992 Z0.061
N11275 X9.909 Y-9.982 Z0.091
N11280 X9.88 Y-9.969 Z0.12
N11285 X9.851 Y-9.953 Z0.149
N11290 X9.824 Y-9.933 Z0.176
N11295 X9.798 Y-9.909 Z0.202
N11300 X9.774 Y-9.883 Z0.226
N11305 X9.751 Y-9.853 Z0.249
N11310 X9.73 Y-9.821 Z0.27
N11315 X9.711 Y-9.786 Z0.289
N11320 X9.695 Y-9.75 Z0.305
N11325 X9.68 Y-9.711 Z0.32
N11330 X9.669 Y-9.671 Z0.331
N11335 X9.659 Y-9.629 Z0.341
N11340 X9.653 Y-9.587 Z0.347
N11345 X9.649 Y-9.543 Z0.351
N11350 X9.647 Y-9.5 Z0.353
N11355 X9.649 Y-9.456 Z0.351
N11360 X9.653 Y-9.413 Z0.347
N11365 X9.659 Y-9.37 Z0.341
N11370 X9.669 Y-9.329 Z0.331
N11375 X9.68 Y-9.289 Z0.32
N11380 X9.695 Y-9.25 Z0.305
N11385 X9.711 Y-9.213 Z0.289
N11390 X9.73 Y-9.179 Z0.27
N11395 X9.751 Y-9.146 Z0.249
N11400 X9.774 Y-9.117 Z0.226
N11405 X9.798 Y-9.09 Z0.202
N11410 X9.824 Y-9.067 Z0.176
N11415 X9.851 Y-9.047 Z0.149
N11420 X9.88 Y-9.03 Z0.12
N11425 X9.909 Y-9.017 Z0.091
N11430 X9.939 Y-9.008 Z0.061
N11435 X9.97 Y-9.002 Z0.03
N11440 X10.001 Y-9. Z-0.001
N11445 X16. Z-6.
N11450 G2 X16.212 Z-6.088 I0.212 K0.212
N11455 G17 G3 Y-8.001 I0. J0.5
N11460 G18 G3 X16. Z-6. I0. K0.3
N11465 G1 X10.001 Z-0.001
N11470 X9.97 Y-7.999 Z0.03
N11475 X9.939 Y-7.993 Z0.061
N11480 X9.909 Y-7.983 Z0.091
N11485 X9.88 Y-7.97 Z0.12
N11490 X9.851 Y-7.954 Z0.149
N11495 X9.824 Y-7.934 Z0.176
N11500 X9.798 Y-7.91 Z0.202
N11505 X9.774 Y-7.884 Z0.226
N11510 X9.751 Y-7.854 Z0.249
N11515 X9.73 Y-7.822 Z0.27
N11520 X9.711 Y-7.787 Z0.289
N11525 X9.695 Y-7.751 Z0.305
N11530 X9.68 Y-7.712 Z0.32
N11535 X9.669 Y-7.672 Z0.331
N11540 X9.659 Y-7.63 Z0.341
N11545 X9.653 Y-7.588 Z0.347
N11550 X9.649 Y-7.544 Z0.351
N11555 X9.647 Y-7.501 Z0.353
N11560 X9.649 Y-7.457 Z0.351
N11565 X9.653 Y-7.414 Z0.347
N11570 X9.659 Y-7.371 Z0.341
N11575 X9.669 Y-7.33 Z0.331
N11580 X9.68 Y-7.29 Z0.32
N11585 X9.695 Y-7.251 Z0.305
N11590 X9.711 Y-7.214 Z0.289
N11595 X9.73 Y-7.18 Z0.27
N11600 X9.751 Y-7.147 Z0.249
N11605 X9.774 Y-7.118 Z0.226
N11610 X9.798 Y-7.091 Z0.202
N11615 X9.824 Y-7.068 Z0.176
N11620 X9.851 Y-7.048 Z0.149
N11625 X9.88 Y-7.031 Z0.12
N11630 X9.909 Y-7.018 Z0.091
N11635 X9.939 Y-7.009 Z0.061
N11640 X9.97 Y-7.003 Z0.03
N11645 X10.001 Y-7.001 Z-0.001
N11650 X16. Z-6.
N11655 G2 X16.212 Z-6.088 I0.212 K0.212
N11660 G17 G3 Y-6.002 I0. J0.5
N11665 G18 G3 X16. Z-6. I0. K0.3
N11670 G1 X10. Z0.
N11675 X9.969 Y-6. Z0.031
N11680 X9.939 Y-5.994 Z0.061
N11685 X9.909 Y-5.984 Z0.091
N11690 X9.879 Y-5.971 Z0.121
N11695 X9.851 Y-5.955 Z0.149
N11700 X9.824 Y-5.935 Z0.176
N11705 X9.798 Y-5.911 Z0.202
N11710 X9.773 Y-5.885 Z0.227
N11715 X9.75 Y-5.855 Z0.25
N11720 X9.73 Y-5.823 Z0.27
N11725 X9.711 Y-5.788 Z0.289
N11730 X9.694 Y-5.752 Z0.306
N11735 X9.68 Y-5.713 Z0.32
N11740 X9.668 Y-5.673 Z0.332
N11745 X9.659 Y-5.631 Z0.341
N11750 X9.652 Y-5.589 Z0.348
N11755 X9.648 Y-5.545 Z0.352
N11760 X9.647 Y-5.502 Z0.353
N11765 X9.648 Y-5.458 Z0.352
N11770 X9.652 Y-5.415 Z0.348
N11775 X9.659 Y-5.372 Z0.341
N11780 X9.668 Y-5.331 Z0.332
N11785 X9.68 Y-5.291 Z0.32
N11790 X9.694 Y-5.252 Z0.306
N11795 X9.711 Y-5.215 Z0.289
N11800 X9.73 Y-5.181 Z0.27
N11805 X9.75 Y-5.148 Z0.25
N11810 X9.773 Y-5.119 Z0.227
N11815 X9.798 Y-5.092 Z0.202
N11820 X9.824 Y-5.069 Z0.176
N11825 X9.851 Y-5.049 Z0.149
N11830 X9.879 Y-5.032 Z0.121
N11835 X9.909 Y-5.019 Z0.091
N11840 X9.939 Y-5.01 Z0.061
N11845 X9.969 Y-5.004 Z0.031
N11850 X10. Y-5.002 Z0.
N11855 X16. Z-6.
N11860 G2 X16.212 Z-6.088 I0.212 K0.212
N11865 G17 G3 Y-4.003 I0. J0.5
N11870 G18 G3 X16. Z-6. I0. K0.3
N11875 G1 X10. Z0.
N11880 X9.969 Y-4.001 Z0.031
N11885 X9.939 Y-3.995 Z0.061
N11890 X9.909 Y-3.985 Z0.091
N11895 X9.879 Y-3.972 Z0.121
N11900 X9.851 Y-3.956 Z0.149
N11905 X9.824 Y-3.936 Z0.176
N11910 X9.798 Y-3.912 Z0.202
N11915 X9.773 Y-3.886 Z0.227
N11920 X9.75 Y-3.856 Z0.25
N11925 X9.73 Y-3.824 Z0.27
N11930 X9.711 Y-3.789 Z0.289
N11935 X9.694 Y-3.753 Z0.306
N11940 X9.68 Y-3.714 Z0.32
N11945 X9.668 Y-3.674 Z0.332
N11950 X9.659 Y-3.632 Z0.341
N11955 X9.652 Y-3.59 Z0.348
N11960 X9.648 Y-3.546 Z0.352
N11965 X9.647 Y-3.503 Z0.353
N11970 X9.648 Y-3.459 Z0.352
N11975 X9.652 Y-3.416 Z0.348
N11980 X9.659 Y-3.373 Z0.341
N11985 X9.668 Y-3.332 Z0.332
N11990 X9.68 Y-3.292 Z0.32
N11995 X9.694 Y-3.253 Z0.306
N12000 X9.711 Y-3.216 Z0.289
N12005 X9.73 Y-3.182 Z0.27
N12010 X9.75 Y-3.149 Z0.25
N12015 X9.773 Y-3.12 Z0.227
N12020 X9.798 Y-3.093 Z0.202
N12025 X9.824 Y-3.07 Z0.176
N12030 X9.851 Y-3.05 Z0.149
N12035 X9.879 Y-3.033 Z0.121
N12040 X9.909 Y-3.02 Z0.091
N12045 X9.939 Y-3.011 Z0.061
N12050 X9.969 Y-3.005 Z0.031
N12055 X10. Y-3.003 Z0.
N12060 X16. Z-6.
N12065 G2 X16.212 Z-6.088 I0.212 K0.212
N12070 G1 X16.256 Y-3.001
N12075 X16.299 Y-2.995
N12080 X16.341 Y-2.986
N12085 X16.383 Y-2.973
N12090 X16.423 Y-2.956
N12095 X16.462 Y-2.936
N12100 X16.499 Y-2.913
N12105 X16.533 Y-2.886
N12110 X16.566 Y-2.857
N12115 X16.595 Y-2.824
N12120 X16.622 Y-2.79
N12125 X16.645 Y-2.753
N12130 X16.665 Y-2.714
N12135 X16.682 Y-2.674
N12140 X16.695 Y-2.633 Z-6.089
N12145 X16.704 Y-2.59
N12150 X16.71 Y-2.547
N12155 X16.712 Y-2.503
N12160 X16.71 Y-2.46
N12165 X16.704 Y-2.416
N12170 X16.695 Y-2.374
N12175 X16.682 Y-2.332
N12180 X16.665 Y-2.292
N12185 X16.645 Y-2.253
N12190 X16.622 Y-2.217
N12195 X16.595 Y-2.182
N12200 X16.566 Y-2.15
N12205 X16.533 Y-2.12 Z-6.09
N12210 X16.499 Y-2.094
N12215 X16.462 Y-2.07
N12220 X16.423 Y-2.05
N12225 X16.383 Y-2.034
N12230 X16.341 Y-2.021
N12235 X16.299 Y-2.011
N12240 X16.256 Y-2.005
N12245 X16.212 Y-2.004
N12250 X16.208
N12255 G3 X15.994 Z-6. I0. K0.3
N12260 G1 X15.992 Z-5.999
N12265 X15.638 Z-5.638
N12270 X10.001 Z-0.001
N12275 X9.916 Z0.084
N12280 X9.885 Y-2.002 Z0.115
N12285 X9.853 Y-1.996 Z0.145
N12290 X9.822 Y-1.986 Z0.175
N12295 X9.791 Y-1.973 Z0.203
N12300 X9.761 Y-1.957 Z0.231
N12305 X9.732 Y-1.937 Z0.257
N12310 X9.704 Y-1.913 Z0.281
N12315 X9.677 Y-1.887 Z0.303
N12320 X9.652 Y-1.857 Z0.323
N12325 X9.628 Y-1.825 Z0.342
N12330 X9.606 Y-1.79 Z0.358
N12335 X9.586 Y-1.754 Z0.371
N12340 X9.569 Y-1.715 Z0.382
N12345 X9.553 Y-1.675 Z0.391
N12350 X9.54 Y-1.633 Z0.397
N12355 X9.53 Y-1.591 Z0.4
N12360 X9.522 Y-1.547
N12365 X9.517 Y-1.504 Z0.398
N12370 X9.515 Y-1.46 Z0.393
N12375 Y-1.417 Z0.385
N12380 X9.518 Y-1.374 Z0.375
N12385 X9.524 Y-1.333 Z0.362
N12390 X9.533 Y-1.293 Z0.346
N12395 X9.544 Y-1.254 Z0.329
N12400 X9.557 Y-1.217 Z0.309
N12405 X9.573 Y-1.183 Z0.287
N12410 X9.591 Y-1.15 Z0.263
N12415 X9.612 Y-1.121 Z0.238
N12420 X9.634 Y-1.094 Z0.211
N12425 X9.658 Y-1.071 Z0.183
N12430 X9.684 Y-1.051 Z0.154
N12435 X9.711 Y-1.034 Z0.123
N12440 X9.74 Y-1.021 Z0.093
N12445 X9.77 Y-1.012 Z0.062
N12450 X9.8 Y-1.006 Z0.03
N12455 X9.831 Y-1.004 Z-0.001
N12460 X15.621 Z-5.791
N12465 X15.75 Z-5.997
N12470 G2 X16.304 Z-5.838 I0.254 K0.159
N12475 G1 Z-5.587
N12480 X16.299 Y-0.998 Z-5.489
N12485 X16.285 Y-0.98 Z-5.393
N12490 X16.263 Y-0.95 Z-5.303
N12495 X16.232 Y-0.909 Z-5.219
N12500 X16.194 Y-0.858 Z-5.144
N12505 X16.149 Y-0.798 Z-5.081
N12510 X16.098 Y-0.731 Z-5.029
N12515 X16.044 Y-0.659 Z-4.992
N12520 X15.986 Y-0.582 Z-4.969
N12525 X15.927 Y-0.504 Z-4.961
N12530 X15.869 Y-0.426 Z-4.969
N12535 X15.811 Y-0.35 Z-4.992
N12540 X15.757 Y-0.277 Z-5.029
N12545 X15.706 Y-0.211 Z-5.081
N12550 X15.661 Y-0.151 Z-5.144
N12555 X15.623 Y-0.1 Z-5.219
N12560 X15.592 Y-0.059 Z-5.303
N12565 X15.569 Y-0.029 Z-5.393
N12570 X15.556 Y-0.011 Z-5.489
N12575 X15.551 Y-0.005 Z-5.587
N12580 G3 X15.039 Z-5.799 I-0.3 K0. F900.
N12585 G1 X9.242 Z-0.001 F1000.
N12590 G3 X9.066 Z0.423 I0.424 K0.424
N12595 G0 Z2.
N12600 X-9.064 Y-17.996
N12605 G1 Z0.424 F900.
N12610 G3 X-9.24 Z0. I-0.6 K0.
N12615 G1 X-15.04 Z-5.8 F1000.
N12620 G3 X-15.552 Z-5.588 I-0.212 K0.212
N12625 G1 X-15.557 Y-17.989 Z-5.49
N12630 X-15.571 Y-17.971 Z-5.394
N12635 X-15.593 Y-17.941 Z-5.304
N12640 X-15.624 Y-17.9 Z-5.22
N12645 X-15.663 Y-17.849 Z-5.145
N12650 X-15.708 Y-17.789 Z-5.081
N12655 X-15.758 Y-17.723 Z-5.03
N12660 X-15.813 Y-17.65 Z-4.993
N12665 X-15.87 Y-17.574 Z-4.97
N12670 X-15.929 Y-17.496 Z-4.962
N12675 X-15.988 Y-17.418 Z-4.97
N12680 X-16.046 Y-17.341 Z-4.993
N12685 X-16.1 Y-17.269 Z-5.03
N12690 X-16.151 Y-17.202 Z-5.081
N12695 X-16.196 Y-17.142 Z-5.145
N12700 X-16.234 Y-17.091 Z-5.22
N12705 X-16.265 Y-17.05 Z-5.304
N12710 X-16.288 Y-17.02 Z-5.394
N12715 X-16.302 Y-17.002 Z-5.49
N12720 X-16.306 Y-16.996 Z-5.588
N12725 Z-5.842
N12730 G2 X-15.75 Z-5.997 I0.3 K0. F900.
N12735 G1 X-15.639 Z-5.813 F1000.
N12740 X-9.83 Z0.
N12745 X-9.799 Y-16.994 Z0.031
N12750 X-9.769 Y-16.988 Z0.062
N12755 X-9.739 Y-16.979 Z0.094
N12760 X-9.711 Y-16.966 Z0.124
N12765 X-9.683 Y-16.949 Z0.154
N12770 X-9.658 Y-16.929 Z0.184
N12775 X-9.633 Y-16.906 Z0.212
N12780 X-9.611 Y-16.879 Z0.239
N12785 X-9.591 Y-16.85 Z0.264
N12790 X-9.573 Y-16.817 Z0.288
N12795 X-9.557 Y-16.783 Z0.31
N12800 X-9.543 Y-16.746 Z0.33
N12805 X-9.532 Y-16.707 Z0.347
N12810 X-9.524 Y-16.667 Z0.363
N12815 X-9.518 Y-16.626 Z0.375
N12820 X-9.515 Y-16.583 Z0.386
N12825 X-9.514 Y-16.54 Z0.394
N12830 X-9.517 Y-16.496 Z0.399
N12835 X-9.522 Y-16.453 Z0.401
N12840 X-9.529 Y-16.409
N12845 X-9.54 Y-16.367 Z0.397
N12850 X-9.553 Y-16.325 Z0.392
N12855 X-9.568 Y-16.285 Z0.383
N12860 X-9.586 Y-16.246 Z0.372
N12865 X-9.605 Y-16.21 Z0.359
N12870 X-9.627 Y-16.175 Z0.343
N12875 X-9.651 Y-16.143 Z0.324
N12880 X-9.676 Y-16.113 Z0.304
N12885 X-9.703 Y-16.087 Z0.282
N12890 X-9.731 Y-16.063 Z0.257
N12895 X-9.761 Y-16.043 Z0.232
N12900 X-9.791 Y-16.027 Z0.204
N12905 X-9.821 Y-16.014 Z0.176
N12910 X-9.853 Y-16.004 Z0.146
N12915 X-9.884 Y-15.998 Z0.116
N12920 X-9.915 Y-15.997 Z0.085
N12925 X-10.001 Z-0.001
N12930 X-15.934 Z-5.937
N12935 X-15.992 Z-5.999
N12940 X-15.994 Z-6.
N12945 G3 X-16.212 Z-6.094 I-0.218 K0.206
N12950 G1 X-16.256 Y-15.995
N12955 X-16.299 Y-15.989
N12960 X-16.341 Y-15.979
N12965 X-16.383 Y-15.966
N12970 X-16.423 Y-15.95
N12975 X-16.462 Y-15.93
N12980 X-16.499 Y-15.906 Z-6.093
N12985 X-16.533 Y-15.88
N12990 X-16.566 Y-15.85
N12995 X-16.595 Y-15.818
N13000 X-16.622 Y-15.783
N13005 X-16.645 Y-15.747 Z-6.092
N13010 X-16.665 Y-15.708
N13015 X-16.682 Y-15.668
N13020 X-16.695 Y-15.626
N13025 X-16.704 Y-15.584 Z-6.091
N13030 X-16.71 Y-15.54
N13035 X-16.712 Y-15.497
N13040 X-16.71 Y-15.453
N13045 X-16.704 Y-15.41 Z-6.09
N13050 X-16.695 Y-15.367
N13055 X-16.682 Y-15.326
N13060 X-16.665 Y-15.286
N13065 X-16.645 Y-15.247 Z-6.089
N13070 X-16.622 Y-15.21
N13075 X-16.595 Y-15.176
N13080 X-16.566 Y-15.143
N13085 X-16.533 Y-15.114
N13090 X-16.499 Y-15.087 Z-6.088
N13095 X-16.462 Y-15.064
N13100 X-16.423 Y-15.044
N13105 X-16.383 Y-15.027
N13110 X-16.341 Y-15.014
N13115 X-16.299 Y-15.005
N13120 X-16.256 Y-14.999
N13125 X-16.212 Y-14.997
N13130 G2 X-16. Z-6. I0. K0.3
N13135 G1 X-10.001 Z-0.001
N13140 X-9.97 Y-14.995 Z0.03
N13145 X-9.939 Y-14.989 Z0.061
N13150 X-9.909 Y-14.98 Z0.091
N13155 X-9.88 Y-14.967 Z0.12
N13160 X-9.851 Y-14.95 Z0.149
N13165 X-9.824 Y-14.93 Z0.176
N13170 X-9.798 Y-14.907 Z0.202
N13175 X-9.773 Y-14.88 Z0.227
N13180 X-9.751 Y-14.851 Z0.249
N13185 X-9.73 Y-14.818 Z0.27
N13190 X-9.711 Y-14.784 Z0.289
N13195 X-9.694 Y-14.747 Z0.306
N13200 X-9.68 Y-14.708 Z0.32
N13205 X-9.668 Y-14.668 Z0.332
N13210 X-9.659 Y-14.627 Z0.341
N13215 X-9.653 Y-14.584 Z0.348
N13220 X-9.648 Y-14.541 Z0.352
N13225 X-9.647 Y-14.497 Z0.353
N13230 X-9.648 Y-14.454 Z0.352
N13235 X-9.653 Y-14.41 Z0.348
N13240 X-9.659 Y-14.368 Z0.341
N13245 X-9.668 Y-14.326 Z0.332
N13250 X-9.68 Y-14.286 Z0.32
N13255 X-9.694 Y-14.247 Z0.306
N13260 X-9.711 Y-14.211 Z0.289
N13265 X-9.73 Y-14.176 Z0.27
N13270 X-9.751 Y-14.144 Z0.249
N13275 X-9.773 Y-14.114 Z0.227
N13280 X-9.798 Y-14.088 Z0.202
N13285 X-9.824 Y-14.064 Z0.176
N13290 X-9.851 Y-14.044 Z0.149
N13295 X-9.88 Y-14.028 Z0.12
N13300 X-9.909 Y-14.015 Z0.091
N13305 X-9.939 Y-14.005 Z0.061
N13310 X-9.97 Y-13.999 Z0.03
N13315 X-10.001 Y-13.998 Z-0.001
N13320 X-16. Z-6.
N13325 G3 X-16.212 Z-6.088 I-0.212 K0.212
N13330 G17 G2 Y-12.998 I0. J0.5
N13335 G18 G2 X-16. Z-6. I0. K0.3
N13340 G1 X-10. Z0.
N13345 X-9.969 Y-12.996 Z0.031
N13350 X-9.939 Y-12.99 Z0.061
N13355 X-9.909 Y-12.981 Z0.091
N13360 X-9.879 Y-12.968 Z0.121
N13365 X-9.851 Y-12.951 Z0.149
N13370 X-9.824 Y-12.931 Z0.176
N13375 X-9.798 Y-12.908 Z0.202
N13380 X-9.773 Y-12.881 Z0.227
N13385 X-9.75 Y-12.852 Z0.25
N13390 X-9.73 Y-12.819 Z0.27
N13395 X-9.711 Y-12.785 Z0.289
N13400 X-9.694 Y-12.748 Z0.306
N13405 X-9.68 Y-12.709 Z0.32
N13410 X-9.668 Y-12.669 Z0.332
N13415 X-9.659 Y-12.628 Z0.341
N13420 X-9.652 Y-12.585 Z0.348
N13425 X-9.648 Y-12.542 Z0.352
N13430 X-9.647 Y-12.498 Z0.353
N13435 X-9.648 Y-12.455 Z0.352
N13440 X-9.652 Y-12.411 Z0.348
N13445 X-9.659 Y-12.369 Z0.341
N13450 X-9.668 Y-12.327 Z0.332
N13455 X-9.68 Y-12.287 Z0.32
N13460 X-9.694 Y-12.248 Z0.306
N13465 X-9.711 Y-12.212 Z0.289
N13470 X-9.73 Y-12.177 Z0.27
N13475 X-9.75 Y-12.145 Z0.25
N13480 X-9.773 Y-12.115 Z0.227
N13485 X-9.798 Y-12.089 Z0.202
N13490 X-9.824 Y-12.065 Z0.176
N13495 X-9.851 Y-12.045 Z0.149
N13500 X-9.879 Y-12.029 Z0.121
N13505 X-9.909 Y-12.016 Z0.091
N13510 X-9.939 Y-12.006 Z0.061
N13515 X-9.969 Y-12. Z0.031
N13520 X-10. Y-11.999 Z0.
N13525 X-16. Z-6.
N13530 G3 X-16.212 Z-6.088 I-0.212 K0.212
N13535 G17 G2 Y-10.999 I0. J0.5
N13540 G18 G2 X-16. Z-6. I0. K0.3
N13545 G1 X-10. Z0.
N13550 X-9.969 Y-10.997 Z0.031
N13555 X-9.939 Y-10.991 Z0.061
N13560 X-9.909 Y-10.982 Z0.091
N13565 X-9.879 Y-10.969 Z0.121
N13570 X-9.851 Y-10.952 Z0.149
N13575 X-9.824 Y-10.932 Z0.176
N13580 X-9.798 Y-10.909 Z0.202
N13585 X-9.773 Y-10.882 Z0.227
N13590 X-9.75 Y-10.853 Z0.25
N13595 X-9.73 Y-10.82 Z0.27
N13600 X-9.711 Y-10.786 Z0.289
N13605 X-9.694 Y-10.749 Z0.306
N13610 X-9.68 Y-10.71 Z0.32
N13615 X-9.668 Y-10.67 Z0.332
N13620 X-9.659 Y-10.629 Z0.341
N13625 X-9.652 Y-10.586 Z0.348
N13630 X-9.648 Y-10.543 Z0.352
N13635 X-9.647 Y-10.499 Z0.353
N13640 X-9.648 Y-10.456 Z0.352
N13645 X-9.652 Y-10.412 Z0.348
N13650 X-9.659 Y-10.37 Z0.341
N13655 X-9.668 Y-10.328 Z0.332
N13660 X-9.68 Y-10.288 Z0.32
N13665 X-9.694 Y-10.249 Z0.306
N13670 X-9.711 Y-10.213 Z0.289
N13675 X-9.73 Y-10.178 Z0.27
N13680 X-9.75 Y-10.146 Z0.25
N13685 X-9.773 Y-10.116 Z0.227
N13690 X-9.798 Y-10.09 Z0.202
N13695 X-9.824 Y-10.066 Z0.176
N13700 X-9.851 Y-10.046 Z0.149
N13705 X-9.879 Y-10.03 Z0.121
N13710 X-9.909 Y-10.017 Z0.091
N13715 X-9.939 Y-10.007 Z0.061
N13720 X-9.969 Y-10.001 Z0.031
N13725 X-10. Y-10. Z0.
N13730 X-16. Z-6.
N13735 G3 X-16.212 Z-6.088 I-0.212 K0.212
N13740 G17 G2 Y-9. I0. J0.5
N13745 G18 G2 X-16. Z-6. I0. K0.3
N13750 G1 X-10. Z0.
N13755 X-9.969 Y-8.998 Z0.031
N13760 X-9.939 Y-8.992 Z0.061
N13765 X-9.909 Y-8.983 Z0.091
N13770 X-9.879 Y-8.97 Z0.121
N13775 X-9.851 Y-8.953 Z0.149
N13780 X-9.824 Y-8.933 Z0.176
N13785 X-9.798 Y-8.91 Z0.202
N13790 X-9.773 Y-8.883 Z0.227
N13795 X-9.75 Y-8.854 Z0.25
N13800 X-9.73 Y-8.821 Z0.27
N13805 X-9.711 Y-8.787 Z0.289
N13810 X-9.694 Y-8.75 Z0.306
N13815 X-9.68 Y-8.711 Z0.32
N13820 X-9.668 Y-8.671 Z0.332
N13825 X-9.659 Y-8.63 Z0.341
N13830 X-9.652 Y-8.587 Z0.348
N13835 X-9.648 Y-8.544 Z0.352
N13840 X-9.647 Y-8.5 Z0.353
N13845 X-9.648 Y-8.457 Z0.352
N13850 X-9.652 Y-8.413 Z0.348
N13855 X-9.659 Y-8.371 Z0.341
N13860 X-9.668 Y-8.329 Z0.332
N13865 X-9.68 Y-8.289 Z0.32
N13870 X-9.694 Y-8.25 Z0.306
N13875 X-9.711 Y-8.214 Z0.289
N13880 X-9.73 Y-8.179 Z0.27
N13885 X-9.75 Y-8.147 Z0.25
N13890 X-9.773 Y-8.117 Z0.227
N13895 X-9.798 Y-8.091 Z0.202
N13900 X-9.824 Y-8.067 Z0.176
N13905 X-9.851 Y-8.047 Z0.149
N13910 X-9.879 Y-8.031 Z0.121
N13915 X-9.909 Y-8.018 Z0.091
N13920 X-9.939 Y-8.008 Z0.061
N13925 X-9.969 Y-8.002 Z0.031
N13930 X-10. Y-8.001 Z0.
N13935 X-16. Z-6.
N13940 G3 X-16.212 Z-6.088 I-0.212 K0.212
N13945 G17 G2 Y-7.001 I0. J0.5
N13950 G18 G2 X-16. Z-6. I0. K0.3
N13955 G1 X-10. Z0.
N13960 X-9.969 Y-6.999 Z0.031
N13965 X-9.939 Y-6.993 Z0.061
N13970 X-9.909 Y-6.984 Z0.091
N13975 X-9.879 Y-6.971 Z0.121
N13980 X-9.851 Y-6.954 Z0.149
N13985 X-9.824 Y-6.934 Z0.176
N13990 X-9.798 Y-6.911 Z0.202
N13995 X-9.773 Y-6.884 Z0.227
N14000 X-9.75 Y-6.855 Z0.25
N14005 X-9.73 Y-6.822 Z0.27
N14010 X-9.711 Y-6.788 Z0.289
N14015 X-9.694 Y-6.751 Z0.306
N14020 X-9.68 Y-6.712 Z0.32
N14025 X-9.668 Y-6.672 Z0.332
N14030 X-9.659 Y-6.631 Z0.341
N14035 X-9.652 Y-6.588 Z0.348
N14040 X-9.648 Y-6.545 Z0.352
N14045 X-9.647 Y-6.501 Z0.353
N14050 X-9.648 Y-6.458 Z0.352
N14055 X-9.652 Y-6.414 Z0.348
N14060 X-9.659 Y-6.372 Z0.341
N14065 X-9.668 Y-6.33 Z0.332
N14070 X-9.68 Y-6.29 Z0.32
N14075 X-9.694 Y-6.251 Z0.306
N14080 X-9.711 Y-6.215 Z0.289
N14085 X-9.73 Y-6.18 Z0.27
N14090 X-9.75 Y-6.148 Z0.25
N14095 X-9.773 Y-6.118 Z0.227
N14100 X-9.798 Y-6.092 Z0.202
N14105 X-9.824 Y-6.068 Z0.176
N14110 X-9.851 Y-6.048 Z0.149
N14115 X-9.879 Y-6.032 Z0.121
N14120 X-9.909 Y-6.019 Z0.091
N14125 X-9.939 Y-6.009 Z0.061
N14130 X-9.969 Y-6.003 Z0.031
N14135 X-10. Y-6.002 Z0.
N14140 X-16. Z-6.
N14145 G3 X-16.212 Z-6.088 I-0.212 K0.212
N14150 G17 G2 Y-5.002 I0. J0.5
N14155 G18 G2 X-16. Z-6. I0. K0.3
N14160 G1 X-10. Z0.
N14165 X-9.969 Y-5. Z0.031
N14170 X-9.939 Y-4.994 Z0.061
N14175 X-9.909 Y-4.985 Z0.091
N14180 X-9.879 Y-4.972 Z0.121
N14185 X-9.851 Y-4.955 Z0.149
N14190 X-9.824 Y-4.935 Z0.176
N14195 X-9.798 Y-4.912 Z0.202
N14200 X-9.773 Y-4.885 Z0.227
N14205 X-9.75 Y-4.856 Z0.25
N14210 X-9.73 Y-4.823 Z0.27
N14215 X-9.711 Y-4.789 Z0.289
N14220 X-9.694 Y-4.752 Z0.306
N14225 X-9.68 Y-4.713 Z0.32
N14230 X-9.668 Y-4.673 Z0.332
N14235 X-9.659 Y-4.632 Z0.341
N14240 X-9.652 Y-4.589 Z0.348
N14245 X-9.648 Y-4.546 Z0.352
N14250 X-9.647 Y-4.502 Z0.353
N14255 X-9.648 Y-4.459 Z0.352
N14260 X-9.652 Y-4.415 Z0.348
N14265 X-9.659 Y-4.373 Z0.341
N14270 X-9.668 Y-4.331 Z0.332
N14275 X-9.68 Y-4.291 Z0.32
N14280 X-9.694 Y-4.252 Z0.306
N14285 X-9.711 Y-4.216 Z0.289
N14290 X-9.73 Y-4.181 Z0.27
N14295 X-9.75 Y-4.149 Z0.25
N14300 X-9.773 Y-4.119 Z0.227
N14305 X-9.798 Y-4.093 Z0.202
N14310 X-9.824 Y-4.069 Z0.176
N14315 X-9.851 Y-4.049 Z0.149
N14320 X-9.879 Y-4.033 Z0.121
N14325 X-9.909 Y-4.02 Z0.091
N14330 X-9.939 Y-4.01 Z0.061
N14335 X-9.969 Y-4.004 Z0.031
N14340 X-10. Y-4.003 Z0.
N14345 X-10.001 Z-0.001
N14350 X-16. Z-6.
N14355 G3 X-16.212 Z-6.088 I-0.212 K0.212
N14360 G17 G2 Y-3.003 I0. J0.5
N14365 G18 G2 X-16. Z-6. I0. K0.3
N14370 G1 X-10.001 Z-0.001
N14375 X-10. Z0.
N14380 X-9.969 Y-3.001 Z0.031
N14385 X-9.939 Y-2.995 Z0.061
N14390 X-9.909 Y-2.986 Z0.091
N14395 X-9.879 Y-2.973 Z0.121
N14400 X-9.851 Y-2.956 Z0.149
N14405 X-9.824 Y-2.936 Z0.177
N14410 X-9.798 Y-2.913 Z0.203
N14415 X-9.773 Y-2.886 Z0.227
N14420 X-9.75 Y-2.857 Z0.25
N14425 X-9.73 Y-2.824 Z0.271
N14430 X-9.711 Y-2.79 Z0.289
N14435 X-9.694 Y-2.753 Z0.306
N14440 X-9.68 Y-2.714 Z0.32
N14445 X-9.668 Y-2.674 Z0.332
N14450 X-9.659 Y-2.633 Z0.341
N14455 X-9.652 Y-2.59 Z0.348
N14460 X-9.648 Y-2.547 Z0.352
N14465 X-9.647 Y-2.503 Z0.353
N14470 X-9.648 Y-2.46 Z0.352
N14475 X-9.652 Y-2.416 Z0.348
N14480 X-9.659 Y-2.374 Z0.341
N14485 X-9.668 Y-2.332 Z0.332
N14490 X-9.68 Y-2.292 Z0.32
N14495 X-9.694 Y-2.253 Z0.306
N14500 X-9.711 Y-2.217 Z0.289
N14505 X-9.73 Y-2.182 Z0.271
N14510 X-9.75 Y-2.15 Z0.25
N14515 X-9.773 Y-2.12 Z0.227
N14520 X-9.798 Y-2.094 Z0.203
N14525 X-9.824 Y-2.07 Z0.177
N14530 X-9.851 Y-2.05 Z0.149
N14535 X-9.879 Y-2.034 Z0.121
N14540 X-9.909 Y-2.021 Z0.091
N14545 X-9.939 Y-2.011 Z0.061
N14550 X-9.969 Y-2.005 Z0.031
N14555 X-10. Y-2.004 Z0.
N14560 X-15.933 Z-5.936
N14565 X-15.992 Z-5.999
N14570 G3 X-16.51 Z-5.793 I-0.218 K0.206
N14575 G1 X-16.509 Y-1.996 Z-5.704
N14580 X-16.504 Y-1.973 Z-5.618
N14585 X-16.497 Y-1.937 Z-5.538
N14590 X-16.486 Y-1.887 Z-5.465
N14595 X-16.474 Y-1.825 Z-5.402
N14600 X-16.459 Y-1.754 Z-5.351
N14605 X-16.443 Y-1.675 Z-5.313
N14610 X-16.426 Y-1.591 Z-5.29
N14615 X-16.408 Y-1.504 Z-5.282
N14620 X-16.391 Y-1.417 Z-5.29
N14625 X-16.373 Y-1.333 Z-5.313
N14630 X-16.357 Y-1.254 Z-5.351
N14635 X-16.343 Y-1.183 Z-5.402
N14640 X-16.33 Y-1.121 Z-5.465
N14645 X-16.32 Y-1.071 Z-5.538
N14650 X-16.312 Y-1.034 Z-5.618
N14655 X-16.308 Y-1.012 Z-5.704
N14660 X-16.306 Y-1.004 Z-5.793
N14665 Z-5.842
N14670 G2 X-15.75 Z-5.997 I0.3 K0. F900.
N14675 G1 X-15.639 Z-5.813 F1000.
N14680 X-9.83 Z0.
N14685 X-9.535 Z0.295
N14690 X-9.503 Y-1.002 Z0.326
N14695 X-9.47 Y-0.997 Z0.356
N14700 X-9.437 Y-0.989 Z0.384
N14705 X-9.403 Y-0.977 Z0.411
N14710 X-9.369 Y-0.962 Z0.436
N14715 X-9.335 Y-0.944 Z0.459
N14720 X-9.302 Y-0.923 Z0.48
N14725 X-9.269 Y-0.899 Z0.499
N14730 X-9.237 Y-0.872 Z0.515
N14735 X-9.206 Y-0.843 Z0.529
N14740 X-9.176 Y-0.811 Z0.54
N14745 X-9.148 Y-0.778 Z0.549
N14750 X-9.121 Y-0.742 Z0.554
N14755 X-9.096 Y-0.705 Z0.557
N14760 X-9.074 Y-0.667 Z0.558
N14765 X-9.053 Y-0.627 Z0.555
N14770 X-9.034 Y-0.587 Z0.549
N14775 X-9.018 Y-0.546 Z0.541
N14780 X-9.005 Y-0.504 Z0.53
N14785 X-8.994 Y-0.463 Z0.517
N14790 X-8.986 Y-0.422 Z0.501
N14795 X-8.98 Y-0.382 Z0.483
N14800 X-8.978 Y-0.342 Z0.462
N14805 Y-0.304 Z0.439
N14810 X-8.981 Y-0.266 Z0.414
N14815 X-8.987 Y-0.231 Z0.387
N14820 X-8.995 Y-0.197 Z0.359
N14825 X-9.006 Y-0.166 Z0.329
N14830 X-9.02 Y-0.137 Z0.298
N14835 X-9.036 Y-0.11 Z0.266
N14840 X-9.055 Y-0.086 Z0.233
N14845 X-9.076 Y-0.065 Z0.2
N14850 X-9.099 Y-0.047 Z0.166
N14855 X-9.124 Y-0.032 Z0.132
N14860 X-9.151 Y-0.02 Z0.098
N14865 X-9.179 Y-0.011 Z0.065
N14870 X-9.209 Y-0.006 Z0.032
N14875 X-9.24 Y-0.005 Z0.
N14880 X-15.04 Z-5.8
N14885 G3 X-16.064 Z-5.376 I-0.424 K0.424
N14890 G0 Z4.
N14895 G17
N14900 M9
N14905 G53 G0 Z0.
N14910 M30
%
