%
(1)
(T1  D=6. CR=0. - ZMIN=-18. - FLAT END MILL)
N10 G90 G94 G17 G91.1
N15 G21
N20 G53 G0 Z0.
(2D ADAPTIVE2)
N25 M9
N30 T1 M6
N35 S3300 M3
N40 G54
N45 M8
N55 G0 X-25.589 Y-26.825
N60 G43 Z4. H1
N65 G0 Z-8.795
N70 G1 Z-9.395 F900.
N75 X-25.587 Y-26.818 Z-9.489
N80 X-25.581 Y-26.796 Z-9.58
N85 X-25.572 Y-26.761 Z-9.667
N90 X-25.56 Y-26.714 Z-9.748
N95 X-25.545 Y-26.654 Z-9.819
N100 X-25.527 Y-26.585 Z-9.88
N105 X-25.507 Y-26.507 Z-9.93
N110 X-25.486 Y-26.423 Z-9.966
N115 X-25.463 Y-26.334 Z-9.988
N120 X-25.44 Y-26.243 Z-9.995
N125 G3 X-24.97 Y-22.977 I-14.839 J3.801
N130 G1 Y-22.968 F450.
N135 G2 X-26.787 Y-21.68 I0.95 J3.265 F1000.
N140 X-27.576 Y-19.875 I3.717 J2.701
N145 X-27.788 Y-17.904 I9.772 J2.045
N150 X-27.816 Y-14.501 I91.953 J2.467
N155 G1 X-27.82 Y-13.65
N160 Y-11.098
N165 Y-0.888
N170 G2 X-27.228 Y0.972 I3.091 J0.04
N175 X-25.707 Y2.212 I3.072 J-2.215
N180 X-23.795 Y2.711 I2.403 J-5.303
N185 X-21.529 Y2.809 I2.011 J-20.107
N190 X-15.857 Y2.82 I3.785 J-497.997
N195 G1 X24.132
N200 G2 X25.988 Y2.216 I0.019 J-3.097
N205 X27.221 Y0.688 I-2.239 J-3.067
N210 X27.713 Y-1.225 I-5.35 J-2.396
N215 X27.809 Y-3.491 I-20.446 J-2.007
N220 X27.82 Y-9.163 I-507.676 J-3.784
N225 G1 Y-19.089
N230 G2 X27.242 Y-20.954 I-3.084 J-0.065
N235 X25.728 Y-22.203 I-3.077 J2.188
N240 X23.818 Y-22.708 I-2.411 J5.249
N245 X21.836 Y-22.807 I-1.873 J17.643
N250 X15.88 Y-22.82 I-4.019 J467.641
N255 G1 X-23.542
N260 G2 X-26.285 Y-21.54 I0.044 J3.674
N265 X-27.243 Y-19.818 I3.461 J3.054
N270 X-27.608 Y-17.586 I8.118 J2.474
N275 X-27.664 Y-15.035 I39.365 J2.133
N280 X-27.67 Y-10.213 I620.969 J3.224
N285 G1 Y-1.705
N290 G2 X-26.106 Y1.478 I3.827 J0.095
N295 X-24.325 Y2.326 I2.96 J-3.922
N300 X-22.081 Y2.623 I2.4 J-9.51
N305 X-19.246 Y2.665 I2.256 J-55.881
N310 X-14.991 Y2.67 I2.808 J-616.65
N315 G1 X-6.767
N320 X23.296
N325 G2 X26.479 Y1.105 I0.094 J-3.827
N330 X27.326 Y-0.676 I-3.923 J-2.959
N335 X27.623 Y-2.92 I-9.514 J-2.4
N340 X27.665 Y-5.755 I-55.926 J-2.256
N345 X27.67 Y-10.01 I-617.277 J-2.808
N350 G1 Y-18.234
N355 G2 X26.155 Y-21.442 I-3.828 J-0.153
N360 X24.11 Y-22.379 I-3.065 J3.987
N365 X22.143 Y-22.621 I-2.207 J9.807
N370 X19.024 Y-22.665 I-2.442 J62.408
N375 X15.337 Y-22.67 I-2.463 J494.81
N380 G1 X-22.667
N385 G2 X-24.341 Y-22.417 I-0.161 J4.596
N390 X-26.631 Y-20.399 I1.512 J4.025
N395 X-27.325 Y-18.253 I5.429 J2.942
N400 X-27.486 Y-16.276 I14.111 J2.148
N405 X-27.516 Y-11.738 I145.497 J3.208
N410 G1 X-27.52 Y-10.037
N415 Y-2.379
N420 G2 X-27.265 Y-0.706 I4.74 J0.133
N425 X-25.264 Y1.601 I4.068 J-1.508
N430 X-23.123 Y2.313 I2.981 J-5.381
N435 X-20.864 Y2.491 I2.31 J-14.915
N440 X-16.61 Y2.516 I3.026 J-150.754
N445 G1 X-14.908 Y2.52
N450 X-8.669
N455 X22.528
N460 G2 X23.935 Y2.376 I0.174 J-5.229
N465 X26.554 Y0.343 I-1.111 J-4.136
N470 X27.298 Y-1.786 I-5.184 J-3.006
N475 X27.488 Y-4.044 I-14.106 J-2.328
N480 X27.516 Y-8.298 I-139.15 J-3.034
N485 G1 X27.52 Y-13.119
N490 X27.516 Y-17.941
N495 G2 X25.476 Y-21.473 I-4.243 J0.094
N500 X23.367 Y-22.27 I-3.063 J4.918
N505 X21.395 Y-22.474 I-2.235 J11.952
N510 X17.425 Y-22.515 I-2.926 J92.572
N515 G1 X16.574 Y-22.52
N520 X14.872
N525 X-16.041
N530 X-21.997
N535 G2 X-23.408 Y-22.406 I-0.185 J6.471
N540 X-26.311 Y-20.304 I0.957 J4.378
N545 X-27.1 Y-18.19 I5.222 J3.153
N550 X-27.326 Y-15.936 I13.095 J2.455
N555 X-27.365 Y-11.966 I98.919 J2.944
N560 G1 X-27.37 Y-11.115
N565 Y-9.697
N570 Y-3.174
N575 G2 X-27.279 Y-1.76 I7.575 J0.223
N580 X-25.036 Y1.362 I4.451 J-0.831
N585 X-22.909 Y2.117 I3.119 J-5.417
N590 X-20.653 Y2.329 I2.435 J-13.759
N595 X-16.683 Y2.365 I2.939 J-105.491
N600 G1 X-15.832 Y2.37
N605 X-14.13
N610 X-8.742
N615 X21.888
N620 G2 X23.3 Y2.267 I0.197 J-7.062
N625 X26.248 Y0.225 I-0.884 J-4.424
N630 X27.074 Y-1.874 I-5.092 J-3.217
N635 X27.321 Y-4.126 I-12.372 J-2.496
N640 X27.365 Y-7.812 I-82.579 J-2.835
N645 G1 X27.372 Y-12.633
N650 X27.366 Y-17.455
N655 G2 X27.026 Y-19.115 I-5.089 J0.177
N660 X24.984 Y-21.394 I-4.25 J1.753
N665 X22.85 Y-22.128 I-3.114 J5.585
N670 X20.592 Y-22.331 I-2.425 J14.275
N675 X16.622 Y-22.365 I-2.934 J110.973
N680 G1 X15.771 Y-22.37
N685 X14.069
N690 X-16.844
N695 X-21.098
N700 G2 X-22.515 Y-22.329 I-0.297 J14.112
N705 X-24.87 Y-21.423 I0.484 J4.772
N710 X-26.545 Y-19.179 I3.123 J4.078
N715 X-27.067 Y-16.978 I7.459 J2.933
N720 X-27.2 Y-14.431 I23.111 J2.481
N725 X-27.22 Y-9.042 I330.065 J3.914
N730 G1 Y-3.937
N735 G2 X-27.177 Y-2.52 I13.943 J0.286
N740 X-26.278 Y-0.162 I4.818 J-0.486
N745 X-24.044 Y1.527 I4.107 J-3.111
N750 X-21.847 Y2.061 I2.959 J-7.386
N755 X-19.299 Y2.199 I2.499 J-22.515
N760 X-13.911 Y2.22 I3.921 J-313.775
N765 G1 X-7.104
N770 X21.257
N775 G2 X22.672 Y2.152 I0.226 J-10.116
N780 X26.243 Y-0.364 I-0.652 J-4.718
N785 X26.964 Y-2.504 I-5.846 J-3.161
N790 X27.176 Y-4.761 I-14.524 J-2.498
N795 X27.215 Y-8.731 I-101.858 J-2.995
N800 G1 X27.221 Y-12.701
N805 X27.219 Y-16.672
N810 G2 X27.008 Y-18.355 I-6.331 J-0.059
N815 X24.769 Y-21.17 I-4.567 J1.335
N820 X22.646 Y-21.937 I-3.232 J5.626
N825 X20.392 Y-22.17 I-2.536 J13.508
N830 X16.706 Y-22.215 I-2.883 J84.285
N835 G1 X16.138 Y-22.219
N840 X15.288 Y-22.22
N845 X13.87
N850 X5.928
N855 X-19.313
N860 G2 X-21.582 Y-22.211 I-0.79 J91.753
N865 X-23.523 Y-21.842 I0.11 J5.869
N870 X-26.151 Y-19.377 I1.867 J4.624
N875 X-26.826 Y-17.22 I6.358 J3.172
N880 X-27.033 Y-14.679 I16.85 J2.656
N885 X-27.066 Y-10.709 I121.612 J2.973
N890 G1 X-27.072 Y-7.163
N895 X-27.067 Y-3.618
N900 G2 X-26.838 Y-1.936 I6.744 J-0.062
N905 X-24.389 Y1.054 I4.749 J-1.391
N910 X-22.253 Y1.788 I3.259 J-6.009
N915 X-19.714 Y2.026 I2.713 J-15.249
N920 X-15.744 Y2.065 I2.997 J-103.767
N925 G1 X-15.177 Y2.069
N930 X-14.326 Y2.07
N935 X-12.625
N940 X-3.833
N945 X20.558
N950 G2 X22.257 Y2.006 I0.32 J-14.017
N955 X24.374 Y1.239 I-0.649 J-5.099
N960 X26.314 Y-1.145 I-2.912 J-4.35
N965 X26.881 Y-3.334 I-7.291 J-3.06
N970 X27.043 Y-5.88 I-20.652 J-2.586
N975 X27.066 Y-10.701 I-201.263 J-3.406
N980 Y-16.373 I-516.341 J-2.79
N985 X26.84 Y-18.055 I-6.672 J0.038
N990 X24.396 Y-21.05 I-4.749 J1.382
N995 X22.261 Y-21.786 I-3.261 J5.992
N1000 X19.723 Y-22.026 I-2.717 J15.204
N1005 X16.037 Y-22.065 I-2.872 J96.083
N1010 G1 X15.469 Y-22.069
N1015 X14.619 Y-22.07
N1020 X13.201
N1025 X5.827
N1030 X-19.982
N1035 G2 X-21.683 Y-22.031 I-0.351 J21.589
N1040 X-23.592 Y-21.524 I0.476 J5.646
N1045 X-25.956 Y-19.161 I2.273 J4.638
N1050 X-26.693 Y-16.73 I6.732 J3.37
N1055 X-26.877 Y-14.47 I17.024 J2.52
N1060 X-26.915 Y-10.216 I120.156 J3.205
N1065 Y-3.977 I610.603 J3.124
N1070 X-26.694 Y-2.293 I7.351 J-0.11
N1075 X-24.079 Y0.908 I4.927 J-1.356
N1080 X-21.939 Y1.629 I3.301 J-6.259
N1085 X-19.401 Y1.872 I2.769 J-15.545
N1090 X-15.147 Y1.914 I3.197 J-107.11
N1095 G1 X-14.58 Y1.919
N1100 X-13.729 Y1.92
N1105 X-12.027
N1110 X1.019
N1115 X20.021
N1120 G2 X21.721 Y1.873 I0.325 J-19.115
N1125 X23.625 Y1.346 I-0.531 J-5.623
N1130 X25.969 Y-1.038 I-2.342 J-4.647
N1135 X26.653 Y-3.192 I-6.578 J-3.273
N1140 X26.877 Y-5.732 I-16.614 J-2.744
N1145 X26.915 Y-9.986 I-117.404 J-3.184
N1150 X26.916 Y-15.941 I-689.537 J-3.16
N1155 X26.715 Y-17.628 I-7.609 J0.054
N1160 X24.152 Y-20.869 I-4.941 J1.272
N1165 X22.019 Y-21.614 I-3.337 J6.137
N1170 X19.482 Y-21.869 I-2.787 J14.963
N1175 X15.796 Y-21.915 I-2.931 J87.065
N1180 X12.109 Y-21.92 I-2.58 J524.826
N1185 G1 X-19.372
N1190 G2 X-21.356 Y-21.877 I-0.421 J26.577
N1195 X-23.271 Y-21.387 I0.519 J6.008
N1200 X-25.824 Y-18.83 I2.257 J4.808
N1205 X-26.497 Y-16.672 I6.775 J3.296
N1210 X-26.723 Y-14.132 I16.885 J2.784
N1215 X-26.765 Y-9.878 I113.362 J3.225
N1220 X-26.761 Y-4.206 I402.112 J2.61
N1225 X-26.52 Y-2.525 I7.713 J-0.25
N1230 X-23.916 Y0.692 I5.049 J-1.424
N1235 X-21.785 Y1.443 I3.408 J-6.273
N1240 X-19.25 Y1.712 I2.857 J-14.86
N1245 X-15.563 Y1.764 I2.984 J-80.321
N1250 X-11.593 Y1.77 I2.786 J-541.363
N1255 G1 X7.409
N1260 X19.321
N1265 G2 X21.305 Y1.729 I0.421 J-27.457
N1270 X23.223 Y1.249 I-0.504 J-6.083
N1275 X25.798 Y-1.287 I-2.22 J-4.831
N1280 X26.486 Y-3.44 I-6.688 J-3.322
N1285 X26.721 Y-5.979 I-16.424 J-2.801
N1290 X26.764 Y-10.233 I-107.967 J-3.234
N1295 Y-15.621 I-470.456 J-2.707
N1300 X26.564 Y-17.308 I-8.145 J0.112
N1305 X23.818 Y-20.744 I-5.099 J1.26
N1310 X21.676 Y-21.464 I-3.358 J6.441
N1315 X19.139 Y-21.716 I-2.83 J15.595
N1320 X15.453 Y-21.765 I-2.974 J86.589
N1325 X11.482 Y-21.77 I-2.782 J582.338
N1330 G1 X-18.864
N1335 G2 X-21.132 Y-21.717 I-0.48 J27.784
N1340 X-22.783 Y-21.323 I0.68 J6.514
N1345 X-25.615 Y-18.669 I2.025 J4.999
N1350 X-26.316 Y-16.52 I6.72 J3.379
N1355 X-26.564 Y-13.982 I16.133 J2.863
N1360 X-26.614 Y-10.296 I86.075 J3.006
N1365 X-26.612 Y-4.624 I450.771 J2.668
N1370 X-26.399 Y-2.938 I8.588 J-0.232
N1375 X-23.675 Y0.524 I5.216 J-1.301
N1380 X-21.266 Y1.329 I3.558 J-6.644
N1385 X-18.727 Y1.567 I2.827 J-16.489
N1390 X-15.041 Y1.614 I2.996 J-89.642
N1395 X-11.07 Y1.62 I2.799 J-593.757
N1400 G1 X5.663
N1405 X15.306
N1410 G2 X19.843 Y1.618 I1.903 J-802.898
N1415 X21.819 Y1.455 I0.139 J-10.409
N1420 X24.114 Y0.389 I-1.108 J-5.387
N1425 X25.894 Y-2.128 I-3.695 J-4.501
N1430 X26.421 Y-4.328 I-8.364 J-3.167
N1435 X26.591 Y-7.157 I-23.86 J-2.858
N1440 X26.616 Y-12.829 I-250.226 J-3.93
N1445 X26.599 Y-15.665 I-71.982 J-0.98
N1450 X26.321 Y-17.341 I-7.42 J0.371
N1455 X23.671 Y-20.527 I-5.134 J1.575
N1460 X21.54 Y-21.278 I-3.463 J6.426
N1465 X19.005 Y-21.556 I-2.916 J14.905
N1470 X15.319 Y-21.613 I-3.033 J76.069
N1475 X11.065 Y-21.62 I-2.982 J558.474
N1480 G1 X5.393
N1485 X-18.43
N1490 G2 X-20.698 Y-21.575 I-0.475 J33.325
N1495 X-22.625 Y-21.125 I0.549 J6.708
N1500 X-25.441 Y-18.448 I2.152 J5.084
N1505 X-26.148 Y-16.301 I6.834 J3.439
N1510 X-26.418 Y-13.481 I16.948 J3.045
N1515 X-26.464 Y-9.795 I90.881 J2.984
N1520 X-26.461 Y-4.973 I319.493 J2.177
N1525 X-26.261 Y-3.286 I9.22 J-0.236
N1530 X-23.381 Y0.39 I5.361 J-1.234
N1535 X-20.965 Y1.177 I3.583 J-6.899
N1540 X-18.426 Y1.415 I2.863 J-16.913
N1545 X-14.74 Y1.464 I3.035 J-88.548
N1550 X-11.053 Y1.47 I2.661 J-527.084
N1555 G1 X-5.948
N1560 X18.442
N1565 G2 X20.71 Y1.421 I0.46 J-31.502
N1570 X22.635 Y0.963 I-0.577 J-6.698
N1575 X25.444 Y-1.723 I-2.177 J-5.088
N1580 X26.148 Y-3.871 I-6.878 J-3.446
N1585 X26.418 Y-6.69 I-17.04 J-3.053
N1590 X26.465 Y-10.661 I-99.074 J-3.147
N1595 X26.463 Y-14.915 I-292.872 J-2.
N1600 X26.286 Y-16.605 I-9.612 J0.151
N1605 X23.481 Y-20.338 I-5.383 J1.125
N1610 X21.076 Y-21.157 I-3.638 J6.737
N1615 X18.539 Y-21.41 I-2.897 J16.228
N1620 X14.285 Y-21.464 I-3.349 J96.466
N1625 X9.18 Y-21.47 I-3.466 J778.003
N1630 G1 X-4.717
N1635 X-18.046
N1640 G2 X-20.314 Y-21.429 I-0.461 J37.45
N1645 X-22.251 Y-21.018 I0.503 J7.139
N1650 X-25.291 Y-18.188 I2.037 J5.236
N1655 X-25.991 Y-16.039 I6.975 J3.461
N1660 X-26.265 Y-13.219 I17.111 J3.083
N1665 X-26.314 Y-9.249 I95.68 J3.178
N1670 X-26.309 Y-5.279 I199.541 J1.701
N1675 X-26.115 Y-3.59 I9.632 J-0.25
N1680 X-23.053 Y0.276 I5.49 J-1.202
N1685 X-20.906 Y0.984 I3.48 J-6.946
N1690 X-18.087 Y1.263 I3.098 J-16.918
N1695 X-14.117 Y1.314 I3.189 J-93.833
N1700 X-8.728 Y1.32 I3.668 J-878.638
N1705 G1 X17.931
N1710 G2 X20.2 Y1.285 I0.467 J-43.489
N1715 X22.142 Y0.902 I-0.447 J-7.382
N1720 X25.237 Y-1.868 I-1.93 J-5.27
N1725 X26.019 Y-4.286 I-7.078 J-3.624
N1730 X26.261 Y-6.825 I-17.125 J-2.914
N1735 X26.314 Y-11.078 I-99.719 J-3.377
N1740 X26.307 Y-14.765 I-165.111 J-1.542
N1745 X26.105 Y-16.453 I-9.451 J0.276
N1750 X23.266 Y-20.166 I-5.465 J1.237
N1755 X20.863 Y-20.992 I-3.69 J6.832
N1760 X18.326 Y-21.254 I-2.948 J16.105
N1765 X14.64 Y-21.313 I-3.092 J78.188
N1770 G1 X10.528 Y-21.322
N1775 X6.416 Y-21.32
N1780 X-16.273
N1785 G2 X-19.676 Y-21.299 I-0.98 J117.636
N1790 X-21.36 Y-21.065 I0.406 J9.095
N1795 X-25.027 Y-18.16 I1.384 J5.515
N1800 X-25.84 Y-15.752 I6.988 J3.699
N1805 X-26.102 Y-13.216 I16.354 J2.97
N1810 X-26.163 Y-8.963 I89.863 J3.422
N1815 X-26.156 Y-5.559 I131.283 J1.415
N1820 X-25.899 Y-3.594 I9.23 J-0.207
N1825 X-22.959 Y0.047 I5.52 J-1.449
N1830 X-20.547 Y0.847 I3.69 J-7.094
N1835 X-18.01 Y1.103 I2.97 J-16.691
N1840 X-13.756 Y1.163 I3.424 J-92.122
N1845 G1 X-8.084 Y1.173
N1850 X-2.412 Y1.17
N1855 X17.441
N1860 G2 X19.993 Y1.128 I0.536 J-45.513
N1865 X21.664 Y0.824 I-0.602 J-8.033
N1870 X25.04 Y-2.027 I-1.696 J-5.433
N1875 X25.844 Y-4.438 I-7.062 J-3.695
N1880 X26.103 Y-6.975 I-16.636 J-2.978
N1885 X26.163 Y-11.229 I-91.067 J-3.422
N1890 X26.15 Y-14.632 I-101.065 J-1.295
N1895 X25.922 Y-16.316 I-9.235 J0.393
N1900 X23.041 Y-20.004 I-5.536 J1.355
N1905 X20.638 Y-20.83 I-3.732 J6.948
N1910 X18.102 Y-21.099 I-2.993 J16.114
N1915 X14.416 Y-21.162 I-3.133 J75.113
N1920 G1 X10.02 Y-21.173
N1925 X5.624 Y-21.17
N1930 X-17.064
N1935 G2 X-19.616 Y-21.134 I-0.535 J53.169
N1940 X-21.565 Y-20.778 I0.473 J8.094
N1945 X-24.9 Y-17.873 I1.843 J5.483
N1950 X-25.692 Y-15.458 I7.213 J3.705
N1955 X-25.951 Y-12.921 I16.82 J2.993
N1960 X-26.013 Y-8.668 I90.132 J3.451
N1965 X-25.993 Y-5.549 I73.856 J1.076
N1970 X-25.75 Y-3.867 I9.219 J-0.471
N1975 X-22.862 Y-0.179 I5.609 J-1.419
N1980 X-20.184 Y0.71 I3.881 J-7.204
N1985 X-17.929 Y0.943 I2.817 J-16.277
N1990 X-13.676 Y1.012 I3.493 J-83.491
N1995 G3 X-12.957 Y1.045 I-0.018 J8.284
N2000 G1 X-12.777 Y1.05
N2005 X-12.597
N2010 X12.597
N2015 G3 X18.067 Y1.022 I3.827 J216.217
N2020 G2 X20.05 Y0.945 I0.069 J-23.536
N2025 X21.971 Y0.469 I-0.729 J-7.071
N2030 X24.965 Y-2.419 I-2.277 J-5.356
N2035 X25.667 Y-4.569 I-7.235 J-3.551
N2040 X25.956 Y-7.387 I-17.203 J-3.186
N2045 X26.013 Y-11.073 I-81.664 J-3.109
N2050 X26.003 Y-14.193 I-106.997 J-1.23
N2055 X25.745 Y-16.158 I-9.519 J0.252
N2060 X22.84 Y-19.833 I-5.612 J1.45
N2065 X20.159 Y-20.715 I-3.879 J7.275
N2070 X17.904 Y-20.944 I-2.816 J16.511
N2075 X13.651 Y-21.013 I-3.487 J84.366
N2080 G1 X9.255 Y-21.022
N2085 X4.859 Y-21.02
N2090 X-16.696
N2095 G2 X-19.248 Y-20.988 I-0.526 J59.665
N2100 X-21.202 Y-20.664 I0.432 J8.656
N2105 X-24.761 Y-17.613 I1.726 J5.616
N2110 X-25.488 Y-15.472 I7.143 J3.619
N2115 X-25.797 Y-12.656 I16.463 J3.232
N2120 X-25.862 Y-8.97 I74.92 J3.154
N2125 X-25.842 Y-5.851 I74.064 J1.089
N2130 X-25.537 Y-3.893 I9.042 J-0.404
N2135 X-22.543 Y-0.286 I5.645 J-1.641
N2140 X-20.132 Y0.522 I3.769 J-7.251
N2145 X-17.313 Y0.805 I3.182 J-17.496
N2150 X-14.258 Y0.861 I2.793 J-68.805
N2155 G1 X-14.011 Y0.875
N2160 X-13.767 Y0.908
N2165 X-13.525 Y0.961
N2170 X-13.503 Y0.975
N2175 X-13.453 Y1.023
N2180 X-13.402 Y1.071
N2185 X-13.351 Y1.119
N2190 G2 X-10.913 Y3.068 I13.109 J-13.897 F30000.
N2195 X-10.58 Y3.171 I0.335 J-0.498
N2200 G1 X9.993 Y3.237
N2205 G2 X10.327 Y3.137 I0.002 J-0.6
N2210 X12.785 Y1.197 I-10.569 J-15.915
N2215 X12.93 Y1.06 I-13.026 J-13.975 F900.
N2220 G3 X12.962 Y1.045 I0.039 J0.041
N2225 G2 X13.663 Y0.954 I-0.924 J-9.8 F1000.
N2230 G3 X16.278 Y0.878 I2.106 J27.488
N2235 G2 X18.83 Y0.855 I-0.442 J-190.65
N2240 X20.799 Y0.62 I-0.231 J-10.311
N2245 X23.305 Y-0.65 I-1.379 J-5.83
N2250 X25.15 Y-3.464 I-4.289 J-4.823
N2255 X25.649 Y-5.672 I-9.499 J-3.309
N2260 X25.837 Y-8.784 I-26.799 J-3.178
N2265 X25.853 Y-13.889 I-145.702 J-3.012
N2270 X25.606 Y-15.855 I-10.167 J0.279
N2275 X24.311 Y-18.349 I-5.796 J1.428
N2280 X21.481 Y-20.169 I-4.804 J4.36
N2285 X19.27 Y-20.657 I-3.282 J9.626
N2290 X16.157 Y-20.838 I-3.165 J27.467
N2295 X10.769 Y-20.866 I-3.863 J229.367
N2300 G1 X9.351 Y-20.87
N2305 X5.38
N2310 X3.962
N2315 X-16.174
N2320 G2 X-19.01 Y-20.835 I-0.61 J66.245
N2325 X-20.965 Y-20.511 I0.488 J8.977
N2330 X-24.555 Y-17.491 I1.724 J5.694
N2335 X-25.363 Y-15.081 I7.351 J3.805
N2340 X-25.651 Y-12.262 I17.591 J3.223
N2345 X-25.712 Y-8.009 I91.93 J3.449
N2350 X-25.639 Y-5.459 I25.256 J0.549
N2355 X-25.178 Y-3.533 I7.546 J-0.787
N2360 X-22.364 Y-0.463 I5.521 J-2.236
N2365 X-19.957 Y0.355 I3.832 J-7.328
N2370 X-17.14 Y0.649 I3.236 J-17.349
N2375 X-14.723 Y0.707 I2.568 J-56.615
N2380 G3 X-13.677 Y0.922 I-0.121 J3.241
N2385 G1 X-13.525 Y0.961
N2390 X-13.503 Y0.975
N2395 X-13.453 Y1.023
N2400 X-13.402 Y1.071
N2405 X-13.351 Y1.119
N2410 G2 X-10.881 Y3.095 I13.275 J-14.069 F30000.
N2415 X-10.547 Y3.197 I0.335 J-0.498
N2420 G1 X10.345 Y3.229
N2425 G2 X10.679 Y3.128 I0.001 J-0.6
N2430 X13.158 Y1.158 I-10.755 J-16.078
N2435 X13.308 Y1.016 I-13.234 J-14.108 F900.
N2440 G1 X13.333 Y1.002
N2445 G2 X13.725 Y0.909 I-2.595 J-11.73 F1000.
N2450 G3 X15.283 Y0.755 I1.555 J7.795
N2455 X17.835 Y0.72 I2.246 J70.873
N2460 G2 X19.816 Y0.605 I-0.056 J-18.081
N2465 X21.977 Y-0.053 I-0.898 J-6.819
N2470 X24.661 Y-2.882 I-2.803 J-5.348
N2475 X25.405 Y-5.314 I-7.858 J-3.732
N2480 X25.661 Y-8.136 I-19.347 J-3.176
N2485 X25.695 Y-13.808 I-106.573 J-3.479
N2490 X25.481 Y-15.494 I-10.643 J0.494
N2495 X24.069 Y-18.238 I-5.913 J1.307
N2500 X21.216 Y-20.026 I-4.83 J4.538
N2505 X19.003 Y-20.506 I-3.309 J9.914
N2510 X15.891 Y-20.687 I-3.198 J28.049
N2515 X10.502 Y-20.716 I-3.892 J226.556
N2520 G1 X9.084 Y-20.72
N2525 X5.681
N2530 X2.845
N2535 X-15.874
N2540 G2 X-18.709 Y-20.686 I-0.592 J68.462
N2545 X-20.667 Y-20.377 I0.479 J9.389
N2550 X-24.319 Y-17.427 I1.655 J5.784
N2555 X-25.225 Y-14.754 I7.399 J3.998
N2560 X-25.491 Y-12.218 I17.073 J3.072
N2565 X-25.561 Y-7.965 I82.59 J3.489
N2570 X-25.451 Y-5.416 I19.558 J0.436
N2575 X-24.92 Y-3.51 I7.25 J-0.993
N2580 X-21.994 Y-0.541 I5.517 J-2.511
N2585 X-19.571 Y0.229 I3.778 J-7.692
N2590 X-16.751 Y0.503 I3.228 J-18.558
N2595 X-15.083 Y0.554 I3.238 J-78.288
N2600 G3 X-13.857 Y0.862 I-0.203 J3.405
N2605 G1 X-13.842 Y0.87
N2610 X-13.788 Y0.919
N2615 X-13.734 Y0.967
N2620 X-13.68 Y1.016
N2625 G2 X-10.984 Y3.032 I13.622 J-15.4 F30000.
N2630 X-10.666 Y3.124 I0.319 J-0.508
N2635 G1 X10.473 Y3.171
N2640 G2 X10.791 Y3.081 I0.001 J-0.6
N2645 X13.498 Y1.074 I-10.848 J-17.465
N2650 X13.659 Y0.932 I-13.556 J-15.459 F900.
N2655 G1 X13.677 Y0.921
N2660 G3 X14.91 Y0.666 I1.457 J3.938 F1000.
N2665 X17.006 Y0.582 I1.927 J21.811
N2670 G2 X19.273 Y0.491 I-0.115 J-31.145
N2675 X21.202 Y0.042 I-0.81 J-7.845
N2680 X24.446 Y-2.979 I-2.209 J-5.625
N2685 X25.17 Y-5.121 I-7.35 J-3.679
N2690 X25.489 Y-7.936 I-16.674 J-3.316
N2695 X25.56 Y-11.905 I-75.498 J-3.34
N2700 X25.468 Y-14.455 I-21.77 J-0.486
N2705 X24.972 Y-16.371 I-7.45 J0.905
N2710 X22.111 Y-19.401 I-5.553 J2.378
N2715 X19.699 Y-20.205 I-3.841 J7.497
N2720 X16.881 Y-20.498 I-3.262 J17.729
N2725 X12.627 Y-20.562 I-3.5 J90.119
N2730 G1 X7.239 Y-20.573
N2735 X1.85 Y-20.57
N2740 X-15.45
N2745 G2 X-18.286 Y-20.542 I-0.595 J84.758
N2750 X-20.25 Y-20.275 I0.409 J10.339
N2755 X-23.162 Y-18.598 I1.493 J5.959
N2760 X-24.719 Y-15.924 I5.056 J4.735
N2765 X-25.228 Y-13.429 I10.739 J3.491
N2770 X-25.39 Y-10.315 I31.418 J3.189
N2775 X-25.386 Y-6.628 I68.548 J1.775
N2780 X-25.099 Y-4.667 I10.049 J-0.471
N2785 X-23.378 Y-1.78 I5.92 J-1.573
N2790 X-20.686 Y-0.256 I4.711 J-5.18
N2795 X-18.187 Y0.237 I3.475 J-11.049
N2800 X-15.676 Y0.382 I2.987 J-29.768
N2805 G3 X-14.708 Y0.512 I-0.146 J4.76
N2810 G1 X-14.458 Y0.597
N2815 X-14.217 Y0.701
N2820 X-14.037 Y0.788
N2825 X-14.023 Y0.798
N2830 X-13.972 Y0.85
N2835 X-13.921 Y0.902
N2840 X-13.87 Y0.954
N2845 G2 X-11.452 Y3.017 I13.816 J-13.739 F30000.
N2850 X-11.102 Y3.131 I0.351 J-0.487
N2855 G1 X10.91 Y3.189
N2860 G2 X11.26 Y3.077 I0.002 J-0.6
N2865 X13.691 Y1.024 I-11.314 J-15.862
N2870 X13.842 Y0.871 I-13.745 J-13.809 F900.
N2875 G1 X13.859 Y0.86
N2880 G3 X15.015 Y0.558 I1.453 J3.201 F1000.
N2885 X16.854 Y0.443 I1.872 J15.126
N2890 G2 X19.12 Y0.33 I-0.367 J-30.279
N2895 X21.045 Y-0.136 I-0.884 J-7.849
N2900 X24.28 Y-3.17 I-2.281 J-5.674
N2905 X25.062 Y-5.59 I-7.711 J-3.831
N2910 X25.348 Y-8.408 I-18.272 J-3.273
N2915 X25.391 Y-13.229 I-74.716 J-3.089
N2920 X25.135 Y-15.194 I-10.524 J0.375
N2925 X23.681 Y-17.918 I-6.025 J1.467
N2930 X20.822 Y-19.698 I-4.905 J4.69
N2935 X18.329 Y-20.221 I-3.495 J10.467
N2940 X15.215 Y-20.388 I-3.2 J30.471
N2945 X8.409 Y-20.415 I-4.662 J317.802
N2950 G1 X5.289 Y-20.42
N2955 X1.035
N2960 X-15.131
N2965 G2 X-18.25 Y-20.381 I-0.652 J72.709
N2970 X-20.208 Y-20.073 I0.561 J9.931
N2975 X-24.048 Y-16.931 I1.654 J5.94
N2980 X-24.926 Y-14.248 I7.773 J4.027
N2985 X-25.188 Y-11.711 I17.739 J3.114
N2990 X-25.234 Y-6.891 I65.17 J3.039
N2995 X-24.955 Y-4.928 I10.378 J-0.474
N3000 X-23.469 Y-2.221 I6.046 J-1.557
N3005 X-20.601 Y-0.455 I4.932 J-4.799
N3010 X-18.108 Y0.067 I3.524 J-10.627
N3015 X-15.906 Y0.222 I3.141 J-28.84
N3020 G3 X-14.848 Y0.399 I-0.222 J4.568
N3025 G1 X-14.591 Y0.503
N3030 X-14.345 Y0.628
N3035 X-14.217 Y0.701
N3040 X-14.21 Y0.706
N3045 X-14.152 Y0.755
N3050 X-14.095 Y0.804
N3055 X-14.037 Y0.853
N3060 G2 X-9.452 Y3.811 I13.998 J-16.664 F30000.
N3065 X-9.194 Y3.87 I0.26 J-0.541
N3070 G1 X8.997 Y3.925
N3075 G2 X9.255 Y3.868 I0.002 J-0.6
N3080 X13.86 Y0.936 I-9.293 J-19.679
N3085 X14.032 Y0.792 I-13.899 J-16.747 F900.
N3090 G1 X14.042 Y0.785
N3095 G3 X15.094 Y0.456 I1.392 J2.605 F1000.
N3100 X16.913 Y0.303 I1.96 J12.364
N3105 G2 X18.894 Y0.18 I-1.002 J-32.209
N3110 X21.081 Y-0.394 I-0.859 J-7.725
N3115 X24.081 Y-3.293 I-2.555 J-5.647
N3120 X24.887 Y-5.705 I-7.654 J-3.899
N3125 X25.19 Y-8.521 I-17.727 J-3.33
N3130 X25.236 Y-13.058 I-62.04 J-2.891
N3135 X24.968 Y-15.022 I-10.492 J0.43
N3140 X23.505 Y-17.742 I-6.076 J1.515
N3145 X20.649 Y-19.528 I-4.945 J4.729
N3150 X18.159 Y-20.061 I-3.529 J10.422
N3155 X15.046 Y-20.236 I-3.235 J29.748
N3160 X8.523 Y-20.265 I-4.541 J283.543
N3165 G1 X6.254 Y-20.27
N3170 X0.298
N3175 X-14.733
N3180 G2 X-17.853 Y-20.237 I-0.654 J86.926
N3185 X-19.817 Y-19.965 I0.496 J10.8
N3190 X-22.542 Y-18.512 I1.532 J6.154
N3195 X-24.349 Y-15.669 I4.711 J4.991
N3200 X-24.898 Y-13.182 I10.324 J3.58
N3205 X-25.082 Y-10.069 I28.82 J3.273
N3210 X-25.07 Y-6.95 I42.578 J1.386
N3215 X-24.759 Y-4.993 I9.737 J-0.544
N3220 X-21.629 Y-1.14 I5.999 J-1.676
N3225 X-18.951 Y-0.244 I4.086 J-7.764
N3230 X-16.699 Y0.017 I3.096 J-16.859
N3235 G3 X-15.551 Y0.129 I-0.847 J14.585
N3240 X-14.434 Y0.573 I-0.51 J2.909
N3245 G1 X-14.427 Y0.579
N3250 X-14.373 Y0.632
N3255 X-14.319 Y0.685
N3260 X-14.265 Y0.737
N3265 G2 X-10.158 Y3.804 I14.221 J-14.759 F30000.
N3270 X-9.865 Y3.883 I0.296 J-0.522
N3275 G1 X9.618 Y3.969
N3280 G2 X9.912 Y3.894 I0.003 J-0.6
N3285 X14.048 Y0.861 I-9.956 J-17.915
N3290 X14.21 Y0.707 I-14.092 J-14.882 F900.
N3295 G1 X14.219 Y0.699
N3300 G3 X15.108 Y0.369 I1.293 J2.118 F1000.
N3305 X16.777 Y0.174 I1.975 J9.676
N3310 G2 X18.757 Y0.022 I-1.829 J-36.832
N3315 X20.937 Y-0.576 I-0.968 J-7.799
N3320 X23.923 Y-3.492 I-2.639 J-5.69
N3325 X24.78 Y-6.183 I-8.015 J-4.034
N3330 X25.037 Y-8.721 I-18.329 J-3.14
N3335 X25.075 Y-12.973 I-51.493 J-2.585
N3340 X24.779 Y-14.934 I-10.209 J0.537
N3345 X23.071 Y-17.83 I-6.054 J1.619
N3350 X20.127 Y-19.473 I-4.871 J5.267
N3355 X17.905 Y-19.912 I-3.334 J11.04
N3360 X14.508 Y-20.09 I-3.416 J32.685
N3365 X9.12 Y-20.116 I-3.913 J249.106
N3370 G1 X7.702 Y-20.12
N3375 X4.582
N3380 X-0.523
N3385 X-14.137
N3390 G2 X-17.539 Y-20.09 I-0.745 J108.837
N3395 X-19.506 Y-19.835 I0.497 J11.558
N3400 X-22.043 Y-18.618 I1.488 J6.354
N3405 X-24.131 Y-15.634 I4.278 J5.215
N3410 X-24.681 Y-13.438 I9.457 J3.534
N3415 X-24.918 Y-10.329 I23.991 J3.397
N3420 X-24.917 Y-7.211 I39.083 J1.546
N3425 X-24.537 Y-4.979 I9.458 J-0.464
N3430 X-21.286 Y-1.224 I6. J-1.909
N3435 X-18.872 Y-0.423 I3.933 J-7.823
N3440 X-16.622 Y-0.138 I3.439 J-18.072
N3445 G3 X-15.59 Y0.007 I-0.827 J9.638
N3450 X-14.577 Y0.479 I-0.594 J2.603
N3455 G1 X-14.434 Y0.573
N3460 X-14.427 Y0.579
N3465 X-14.373 Y0.632
N3470 X-14.319 Y0.685
N3475 X-14.265 Y0.737
N3480 G2 X-10.149 Y3.812 I14.254 J-14.792 F30000.
N3485 X-9.853 Y3.89 I0.296 J-0.522
N3490 G1 X9.785 Y3.916
N3495 G2 X10.08 Y3.838 I0.001 J-0.6
N3500 X14.207 Y0.772 I-10.091 J-17.893
N3505 X14.367 Y0.617 I-14.218 J-14.827 F900.
N3510 G1 X14.377 Y0.609
N3515 G3 X15.174 Y0.276 I1.216 J1.786 F1000.
N3520 X16.828 Y0.039 I2.063 J8.538
N3525 G2 X18.522 Y-0.12 I-3.442 J-45.762
N3530 X20.704 Y-0.715 I-1.02 J-8.032
N3535 X23.72 Y-3.602 I-2.623 J-5.76
N3540 X24.605 Y-6.284 I-7.895 J-4.092
N3545 X24.879 Y-8.819 I-17.699 J-3.191
N3550 X24.918 Y-12.788 I-43.313 J-2.413
N3555 X24.617 Y-14.747 I-10.164 J0.558
N3560 X22.91 Y-17.645 I-6.101 J1.644
N3565 X19.973 Y-19.301 I-4.916 J5.283
N3570 X17.753 Y-19.75 I-3.376 J10.984
N3575 X14.356 Y-19.937 I-3.45 J31.749
N3580 X8.968 Y-19.966 I-3.944 J235.312
N3585 G1 X7.833 Y-19.97
N3590 X5.564
N3595 X-1.242
N3600 X-14.005
N3605 G2 X-17.408 Y-19.934 I-0.717 J93.388
N3610 X-19.372 Y-19.663 I0.574 J11.399
N3615 X-22.115 Y-18.24 I1.536 J6.318
N3620 X-23.976 Y-15.431 I4.654 J5.104
N3625 X-24.564 Y-12.954 I10.031 J3.69
N3630 X-24.773 Y-9.843 I26.429 J3.338
N3635 X-24.731 Y-7.008 I26.539 J1.023
N3640 X-24.245 Y-4.799 I8.476 J-0.705
N3645 X-21.036 Y-1.355 I5.923 J-2.302
N3650 X-18.617 Y-0.569 I3.942 J-8.021
N3655 X-16.652 Y-0.296 I3.898 J-20.847
N3660 G3 X-15.611 Y-0.104 I-0.731 J6.874
N3665 X-14.701 Y0.382 I-0.959 J2.891
N3670 G1 X-14.695 Y0.389
N3675 X-14.646 Y0.446
N3680 X-14.596 Y0.503
N3685 X-14.546 Y0.56
N3690 G2 X-10.92 Y3.751 I14.507 J-12.828 F30000.
N3695 X-10.586 Y3.854 I0.337 J-0.496
N3700 G1 X10.334 Y3.967
N3705 G2 X10.669 Y3.867 I0.003 J-0.6
N3710 X14.331 Y0.712 I-10.708 J-16.135
N3715 X14.48 Y0.545 I-14.371 J-12.98 F900.
N3720 G1 X14.489 Y0.537
N3725 G3 X15.332 Y0.158 I1.296 J1.754 F1000.
N3730 X16.724 Y-0.08 I2.012 J7.586
N3735 G2 X18.415 Y-0.274 I-5.518 J-55.637
N3740 X20.587 Y-0.904 I-1.172 J-8.105
N3745 X23.577 Y-3.821 I-2.741 J-5.798
N3750 X24.453 Y-6.506 I-8.069 J-4.121
N3755 X24.74 Y-9.325 I-18.94 J-3.346
N3760 X24.752 Y-12.727 I-33.582 J-1.822
N3765 X24.421 Y-14.681 I-9.648 J0.627
N3770 X21.273 Y-18.525 I-6.08 J1.768
N3775 X18.599 Y-19.433 I-4.153 J7.835
N3780 X16.065 Y-19.721 I-3.237 J17.247
N3785 X11.813 Y-19.809 I-3.685 J74.723
N3790 X5.573 Y-19.82 I-4.381 J733.082
N3795 G1 X-2.084
N3800 X-13.429
N3805 G2 X-16.832 Y-19.797 I-0.734 J141.231
N3810 X-18.805 Y-19.589 I0.419 J13.475
N3815 X-21.402 Y-18.5 I1.297 J6.735
N3820 X-23.656 Y-15.642 I3.916 J5.405
N3825 X-24.344 Y-13.191 I9.013 J3.853
N3830 X-24.607 Y-10.085 I22.125 J3.438
N3835 X-24.577 Y-7.251 I25.047 J1.154
N3840 X-24.104 Y-5.038 I8.607 J-0.685
N3845 X-20.934 Y-1.557 I5.977 J-2.26
N3850 X-18.523 Y-0.745 I4.007 J-7.909
N3855 X-16.591 Y-0.439 I5.05 J-25.629
N3860 G3 X-15.695 Y-0.227 I-0.845 J5.586
N3865 X-14.76 Y0.336 I-1.042 J2.785
N3870 G1 X-14.754 Y0.343
N3875 X-14.708 Y0.403
N3880 X-14.662 Y0.463
N3885 X-14.616 Y0.523
N3890 G2 X-11.364 Y3.773 I14.582 J-11.338 F30000.
N3895 X-10.999 Y3.899 I0.368 J-0.474
N3900 G1 X10.801 Y3.996
N3905 G2 X11.167 Y3.873 I0.003 J-0.6
N3910 X14.45 Y0.649 I-11.201 J-14.688
N3915 X14.587 Y0.473 I-14.484 J-11.464 F900.
N3920 G1 X14.596 Y0.464
N3925 G3 X15.394 Y0.063 I1.264 J1.523 F1000.
N3930 X16.605 Y-0.189 I1.953 J6.351
N3935 G2 X18.291 Y-0.422 I-14.627 J-112.082
N3940 X20.455 Y-1.082 I-1.346 J-8.278
N3945 X23.548 Y-4.277 I-2.864 J-5.868
N3950 X24.299 Y-6.708 I-8.381 J-3.921
N3955 X24.597 Y-9.811 I-20.158 J-3.504
N3960 X24.561 Y-12.928 I-23.997 J-1.277
N3965 X24.139 Y-14.864 I-8.667 J0.875
N3970 X21.026 Y-18.396 I-5.999 J2.149
N3975 X18.347 Y-19.288 I-4.15 J7.997
N3980 X15.812 Y-19.57 I-3.249 J17.629
N3985 X11.56 Y-19.659 I-3.705 J75.632
N3990 X5.32 Y-19.67 I-4.397 J732.453
N3995 G1 X-2.905
N4000 X-13.115
N4005 G2 X-16.801 Y-19.639 I-0.798 J123.378
N4010 X-18.77 Y-19.4 I0.554 J12.789
N4015 X-21.341 Y-18.251 I1.438 J6.67
N4020 X-23.541 Y-15.349 I4.102 J5.394
N4025 X-24.205 Y-12.891 I9.349 J3.845
N4030 X-24.456 Y-9.784 I22.62 J3.39
N4035 X-24.366 Y-6.952 I18.49 J0.829
N4040 X-23.755 Y-4.775 I7.793 J-1.014
N4045 X-20.852 Y-1.77 I5.835 J-2.733
N4050 X-18.453 Y-0.925 I4.124 J-7.877
N4055 X-16.61 Y-0.589 I7.359 J-35.185
N4060 G3 X-15.791 Y-0.361 I-1.079 J5.452
N4065 X-14.762 Y0.339 I-1.225 J2.907
N4070 G1 X-14.754 Y0.343
N4075 X-14.708 Y0.403
N4080 X-14.662 Y0.463
N4085 X-14.616 Y0.523
N4090 G2 X-11.359 Y3.778 I14.608 J-11.358 F30000.
N4095 X-10.991 Y3.905 I0.368 J-0.474
N4100 G1 X10.941 Y3.93
N4105 G2 X11.309 Y3.804 I0.001 J-0.6
N4110 X14.576 Y0.553 I-11.317 J-14.639
N4115 X14.712 Y0.376 I-14.584 J-11.388 F900.
N4120 G1 X14.721 Y0.368
N4125 G3 X15.408 Y-0.016 I1.19 J1.326 F1000.
N4130 X16.851 Y-0.348 I2.275 J6.588
N4135 G2 X18.527 Y-0.639 I-5.786 J-38.206
N4140 X20.646 Y-1.431 I-1.671 J-7.701
N4145 X23.43 Y-4.551 I-3.318 J-5.765
N4150 X24.159 Y-6.99 I-8.687 J-3.924
N4155 X24.447 Y-10.093 I-20.536 J-3.468
N4160 X24.38 Y-12.926 I-19.205 J-0.967
N4165 X23.805 Y-15.113 I-7.951 J0.921
N4170 X20.709 Y-18.303 I-5.89 J2.62
N4175 X18.295 Y-19.105 I-4.007 J8.025
N4180 X15.197 Y-19.437 I-3.583 J18.808
N4185 X11.511 Y-19.509 I-3.318 J75.436
N4190 X4.988 Y-19.52 I-4.662 J828.161
N4195 G1 X-3.521
N4200 X-12.88
N4205 G2 X-16.566 Y-19.488 I-0.78 J122.607
N4210 X-18.536 Y-19.253 I0.569 J13.143
N4215 X-21.116 Y-18.123 I1.426 J6.77
N4220 X-23.348 Y-15.245 I4.06 J5.452
N4225 X-24.034 Y-12.794 I9.185 J3.894
N4230 X-24.303 Y-9.405 I22.089 J3.455
N4235 X-24.114 Y-6.58 I13.69 J0.505
N4240 X-23.335 Y-4.458 I7.129 J-1.415
N4245 X-20.449 Y-1.819 I5.681 J-3.315
N4250 X-18.031 Y-1.025 I4.21 J-8.74
N4255 G3 X-16.615 Y-0.731 I-98.74 J478.991
N4260 X-15.421 Y-0.241 I-0.768 J3.576
N4265 X-14.924 Y0.189 I-2.074 J2.895
N4270 G1 X-14.918 Y0.195
N4275 X-14.873 Y0.255
N4280 X-14.828 Y0.316
N4285 X-14.782 Y0.376
N4290 G2 X-11.55 Y3.674 I14.762 J-11.231 F30000.
N4295 X-11.18 Y3.804 I0.373 J-0.47
N4300 G1 X11.033 Y3.886
N4305 G2 X11.405 Y3.758 I0.002 J-0.6
N4310 X14.66 Y0.484 I-11.424 J-14.614
N4315 X14.798 Y0.304 I-14.68 J-11.339 F900.
N4320 G1 X14.804 Y0.297
N4325 G3 X15.544 Y-0.138 I1.269 J1.313 F1000.
N4330 X16.621 Y-0.43 I2.071 J5.511
N4335 G2 X18.291 Y-0.758 I-21.38 J-113.06
N4340 X20.41 Y-1.55 I-1.83 J-8.132
N4345 X23.229 Y-4.641 I-3.31 J-5.85
N4350 X23.983 Y-7.071 I-8.576 J-3.992
N4355 X24.287 Y-10.173 I-19.45 J-3.47
N4360 X24.184 Y-13.004 I-16.156 J-0.832
N4365 X23.533 Y-15.169 I-7.602 J1.107
N4370 X20.573 Y-18.119 I-5.828 J2.887
N4375 X17.886 Y-18.989 I-4.156 J8.249
N4380 X15.067 Y-19.282 I-3.414 J19.142
N4385 X10.814 Y-19.36 I-3.685 J85.184
N4390 X4.575 Y-19.37 I-4.403 J804.33
N4395 G1 X-4.217
N4400 X-12.442
N4405 G2 X-16.129 Y-19.345 I-0.802 J152.89
N4410 X-18.102 Y-19.147 I0.487 J14.783
N4415 X-20.484 Y-18.263 I1.306 J7.172
N4420 X-23.069 Y-15.327 I3.496 J5.685
N4425 X-23.875 Y-12.618 I8.833 J4.103
N4430 X-24.138 Y-9.513 I20.136 J3.269
N4435 X-23.938 Y-6.689 I12.987 J0.498
N4440 X-23.137 Y-4.576 I7.067 J-1.472
N4445 X-20.229 Y-1.96 I5.691 J-3.402
N4450 X-18.088 Y-1.223 I4.245 J-8.856
N4455 G3 X-16.697 Y-0.893 I-45.534 J194.925
N4460 X-15.534 Y-0.375 I-0.873 J3.529
N4465 G1 X-15.328 Y-0.208
N4470 X-15.137 Y-0.025
N4475 X-14.993 Y0.162
N4480 X-12.559 Y3.307 F30000.
N4485 G2 X-10.438 Y4.348 I2.032 J-1.457
N4490 G1 X9.898
N4495 G2 X11.526 Y3.666 I-0.09 J-2.498
N4500 G1 X14.747 Y0.368
N4505 X14.911 Y0.2 F900.
N4510 G3 X15.568 Y-0.221 I1.223 J1.187 F1000.
N4515 X16.707 Y-0.566 I2.274 J5.45
N4520 G2 X18.09 Y-0.879 I-42.896 J-193.346
N4525 X20.205 Y-1.682 I-2.005 J-8.467
N4530 X23.042 Y-4.759 I-3.345 J-5.929
N4535 X23.863 Y-7.463 I-8.808 J-4.15
N4540 X24.137 Y-10.852 I-20.018 J-3.324
N4545 X23.854 Y-13.666 I-11.277 J-0.289
N4550 X22.78 Y-15.966 I-6.631 J1.698
N4555 X19.896 Y-18.191 I-5.46 J4.095
N4560 X17.445 Y-18.878 I-3.904 J9.205
N4565 X14.34 Y-19.152 I-3.543 J22.452
N4570 X10.087 Y-19.212 I-3.619 J105.581
N4575 X4.414 Y-19.22 I-4.051 J873.093
N4580 G1 X-4.378
N4585 X-12.035
N4590 G2 X-16.005 Y-19.191 I-0.881 J152.396
N4595 X-17.978 Y-18.979 I0.579 J14.661
N4600 X-20.351 Y-18.075 I1.37 J7.164
N4605 X-22.921 Y-15.123 I3.571 J5.702
N4610 X-23.723 Y-12.413 I8.922 J4.114
N4615 X-23.926 Y-7.89 I19.103 J3.125
N4620 X-23.425 Y-5.684 I8.511 J-0.774
N4625 X-20.235 Y-2.213 I6.102 J-2.405
N4630 X-18.116 Y-1.418 I4.447 J-8.642
N4635 G3 X-16.768 Y-1.056 I-40.049 J151.498
N4640 X-15.482 Y-0.378 I-0.914 J3.296
N4645 G1 X-15.296 Y-0.193
N4650 X-15.218 Y-0.11
N4655 X-15.137 Y-0.025
N4660 X-14.993 Y0.162
N4665 X-12.559 Y3.307 F30000.
N4670 G2 X-10.438 Y4.348 I2.032 J-1.457
N4675 G1 X10.078
N4680 G2 X11.877 Y3.487 I-0.09 J-2.498
N4685 G1 X14.835 Y0.291
N4690 X14.995 Y0.118 F900.
N4695 G3 X15.681 Y-0.343 I1.315 J1.218 F1000.
N4700 X16.984 Y-0.757 I2.742 J6.373
N4705 G2 X18.625 Y-1.208 I-5.664 J-23.802
N4710 X21.095 Y-2.568 I-2.317 J-7.132
N4715 X23.157 Y-5.576 I-4.761 J-5.475
N4720 X23.809 Y-8.329 I-10.593 J-3.961
N4725 X23.931 Y-12.008 I-18.553 J-2.458
N4730 X23.46 Y-14.221 I-8.604 J0.675
N4735 X20.325 Y-17.74 I-6.116 J2.293
N4740 X17.929 Y-18.594 I-4.138 J7.821
N4745 X14.836 Y-18.968 I-3.702 J17.626
N4750 X13.012 Y-19.039 I-3.137 J57.459
N4755 G1 X12.957 Y-19.046
N4760 X12.777 Y-19.05
N4765 G2 X11.179 Y-19.061 I-1.116 J43.513
N4770 G1 X7.067 Y-19.07
N4775 X2.955
N4780 X-11.793
N4785 G2 X-15.763 Y-19.041 I-0.868 J153.127
N4790 X-17.737 Y-18.834 I0.572 J14.988
N4795 X-20.358 Y-17.799 I1.315 J7.165
N4800 X-22.84 Y-14.77 I3.844 J5.682
N4805 X-23.551 Y-12.326 I9.069 J3.962
N4810 X-23.762 Y-8.088 I17.316 J2.988
N4815 X-23.268 Y-5.88 I8.443 J-0.731
N4820 X-20.345 Y-2.527 I6.114 J-2.378
N4825 X-18.259 Y-1.65 I4.68 J-8.219
N4830 G3 X-16.888 Y-1.237 I-98.379 J329.154
N4835 X-15.717 Y-0.629 I-1.072 J3.496
N4840 G1 X-15.517 Y-0.441
N4845 X-15.333 Y-0.238
N4850 X-15.2 Y-0.043
N4855 X-12.957 Y3.253 F30000.
N4860 G2 X-10.977 Y4.348 I2.07 J-1.403
N4865 G1 X10.258
N4870 G2 X12.057 Y3.487 I-0.09 J-2.498
N4875 G1 X14.951 Y0.184
N4880 X15.106 Y0.007 F900.
N4885 G3 X15.766 Y-0.455 I1.323 J1.186 F1000.
N4890 X16.89 Y-0.858 I2.73 J5.844
N4895 G2 X18.518 Y-1.353 I-8.96 J-32.385
N4900 X20.749 Y-2.572 I-2.616 J-7.443
N4905 X23.008 Y-5.778 I-4.62 J-5.654
N4910 X23.618 Y-8.25 I-10.192 J-3.827
N4915 X23.757 Y-11.927 I-16.737 J-2.471
N4920 X23.261 Y-14.134 I-8.392 J0.726
N4925 X20.08 Y-17.614 I-6.116 J2.397
N4930 X17.678 Y-18.452 I-4.14 J8.007
N4935 X14.584 Y-18.819 I-3.707 J18.047
N4940 G3 X13.827 Y-18.887 I0.265 J-7.157
N4945 G1 X13.621 Y-18.936
N4950 X13.6 Y-18.941
N4955 X13.592 Y-18.945
N4960 G2 X13.475 Y-18.995 I-0.64 J1.313
N4965 G3 X13.383 Y-19.033 I0.896 J-2.334
N4970 X11.878 Y-21.149 I0.988 J-2.296 F30000.
N4975 G1 X11.871 Y-21.329
N4980 G3 X15.476 Y-23.572 I2.5 J-0.001
N4985 G1 X23.226 Y-19.53
N4990 X24.556 Y-18.272
N4995 X25.612 Y-16.833
N5000 X26.274 Y-15.477
N5005 X26.826 Y-13.776
N5010 X27.077 Y-11.978
N5015 X27.085 Y-9.699
N5020 X26.753 Y-6.905
N5025 X26.19 Y-4.785
N5030 X25.194 Y-2.703
N5035 X24.517 Y-1.728
N5040 X23.755 Y-0.863
N5045 X22.315 Y0.386
N5050 X20.677 Y1.329
N5055 X19.975 Y1.622
N5060 G3 X17.636 Y1.522 I-1.075 J-2.257
N5065 G1 X15.296 Y0.211
N5070 X15.219 Y0.111
N5075 X15.157 Y0.03 F900.
N5080 X15.204 Y-0.095
N5085 G3 X15.896 Y-0.593 I1.396 J1.209 F1000.
N5090 X16.978 Y-1.012 I2.961 J6.049
N5095 G2 X18.587 Y-1.565 I-8.152 J-26.312
N5100 X20.978 Y-3.063 I-2.858 J-7.218
N5105 X22.924 Y-6.151 I-5.281 J-5.486
N5110 X23.522 Y-8.917 I-11.214 J-3.872
N5115 X23.525 Y-12.312 I-13.752 J-1.706
N5120 X22.87 Y-14.476 I-7.62 J1.124
N5125 X19.924 Y-17.444 I-5.932 J2.942
N5130 X17.247 Y-18.346 I-4.271 J8.252
N5135 X14.697 Y-18.653 I-3.509 J18.388
N5140 G3 X13.875 Y-18.853 I0.309 J-3.06
N5145 G1 X13.71 Y-19.022
N5150 X13.564 Y-19.171 F30000.
N5155 X13.532 Y-19.53
N5160 X13.769 Y-19.89
N5165 X16.499 Y-21.329
N5170 G3 X18.356 Y-21.53 I1.178 J2.205
N5175 G1 X20.515 Y-20.813
N5180 X21.955 Y-20.105
N5185 X23.486 Y-18.991
N5190 X24.834 Y-17.555
N5195 X25.667 Y-16.294
N5200 X26.095 Y-15.395
N5205 X26.733 Y-13.148
N5210 X26.928 Y-11.259
N5215 X26.876 Y-9.101
N5220 X26.454 Y-6.386
N5225 X25.734 Y-4.247
N5230 X24.767 Y-2.448
N5235 X23.432 Y-0.829
N5240 X22.306 Y0.127
N5245 X20.875 Y1.007
N5250 X20.196 Y1.329
N5255 G3 X17.886 I-1.155 J-2.217
N5260 G1 X15.306 Y0.034
N5265 X15.296 Y0.029 F900.
N5270 X15.299 Y-0.196
N5275 G3 X15.867 Y-0.655 I1.273 J0.996 F1000.
N5280 X17.106 Y-1.184 I3.295 J6.
N5285 G2 X18.692 Y-1.801 I-7.791 J-22.374
N5290 X21.011 Y-3.406 I-3.196 J-7.098
N5295 X22.848 Y-6.564 I-5.714 J-5.436
N5300 X23.41 Y-9.625 I-11.981 J-3.781
N5305 X23.247 Y-12.73 I-10.968 J-0.984
N5310 X22.262 Y-15.07 I-6.851 J1.508
N5315 X19.479 Y-17.419 I-5.631 J3.847
N5320 X16.775 Y-18.244 I-4.205 J8.94
N5325 X15.036 Y-18.47 I-3.535 J20.43
N5330 G3 X14.136 Y-18.739 I0.421 J-3.042
N5335 X13.954 Y-18.887 I0.28 J-0.531
N5340 X14.217 Y-19.836 I0.462 J-0.383 F30000.
N5345 G1 X16.916 Y-21.098
N5350 G3 X18.716 Y-21.227 I1.066 J2.261
N5355 G1 X20.875 Y-20.425
N5360 X22.315 Y-19.603
N5365 X23.755 Y-18.41
N5370 X24.819 Y-17.193
N5375 X25.579 Y-15.934
N5380 X26.138 Y-14.675
N5385 X26.39 Y-13.776
N5390 X26.74 Y-11.439
N5395 X26.736 Y-9.707
N5400 X26.504 Y-7.582
N5405 X25.914 Y-5.259
N5410 X24.957 Y-3.167
N5415 X23.797 Y-1.548
N5420 X22.296 Y-0.11
N5425 X20.335 Y1.092
N5430 X19.975 Y1.242
N5435 G3 X17.996 Y1.181 I-0.919 J-2.325
N5440 G1 X15.476 Y0.015
N5445 X15.402 Y-0.077
N5450 X15.33 Y-0.168 F900.
N5455 X15.369 Y-0.281
N5460 G3 X15.928 Y-0.765 I1.316 J0.957 F1000.
N5465 X16.933 Y-1.248 I3.094 J5.15
N5470 G2 X18.503 Y-1.904 I-13.467 J-34.438
N5475 X20.817 Y-3.519 I-3.428 J-7.376
N5480 X22.67 Y-6.669 I-5.747 J-5.5
N5485 X23.254 Y-10.01 I-11.728 J-3.772
N5490 X22.938 Y-13.1 I-9.357 J-0.603
N5495 X21.39 Y-15.776 I-6.381 J1.905
N5500 X18.54 Y-17.581 I-5.266 J5.165
N5505 X16.063 Y-18.174 I-3.886 J10.75
N5510 G3 X15.05 Y-18.343 I1.634 J-12.946
N5515 X14.138 Y-18.743 I1.032 J-3.588
N5520 G1 X14.071 Y-18.783
N5525 X14.009 Y-18.831
N5530 X13.954 Y-18.887
N5535 G3 X14.217 Y-19.836 I0.462 J-0.383 F30000.
N5540 G1 X16.999 Y-20.969
N5545 G3 X18.536 Y-21.06 I0.91 J2.329
N5550 G1 X20.155 Y-20.523
N5555 X21.955 Y-19.57
N5560 X23.585 Y-18.272
N5565 X24.76 Y-16.875
N5570 X25.687 Y-15.215
N5575 X26.285 Y-13.417
N5580 X26.544 Y-11.618
N5585 X26.511 Y-8.921
N5590 X26.004 Y-6.224
N5595 X25.219 Y-4.115
N5600 X24.105 Y-2.268
N5605 X22.585 Y-0.649
N5610 X21.055 Y0.478
N5615 X19.795 Y1.08
N5620 X18.896 Y1.148
N5625 X18.196 Y0.969
N5630 X15.476 Y-0.127
N5635 X15.474 Y-0.146
N5640 X15.445 Y-0.38 F900.
N5645 G3 X15.984 Y-0.875 I1.332 J0.907 F1000.
N5650 X17.01 Y-1.408 I3.372 J5.238
N5655 G2 X18.555 Y-2.121 I-12.641 J-29.44
N5660 X20.807 Y-3.823 I-3.76 J-7.315
N5665 X22.572 Y-7.024 I-6.112 J-5.457
N5670 X23.04 Y-11.51 I-11.396 J-3.457
N5675 X22.239 Y-14.213 I-7.35 J0.709
N5680 X19.184 Y-17.073 I-5.915 J3.258
N5685 X16.767 Y-17.868 I-4.134 J8.495
N5690 X15.702 Y-18.068 I-6.14 J29.711
N5695 G3 X14.492 Y-18.533 I0.525 J-3.177
N5700 G1 X14.431 Y-18.583
N5705 X14.378 Y-18.641
N5710 X14.333 Y-18.705
N5715 G3 X14.577 Y-19.56 I0.509 J-0.317 F30000.
N5720 G1 X17.276 Y-20.682
N5725 G3 X18.896 Y-20.729 I0.879 J2.34
N5730 G1 X20.61 Y-20.07
N5735 X22.315 Y-19.043
N5740 X23.61 Y-17.912
N5745 X24.588 Y-16.704
N5750 X25.518 Y-15.035
N5755 X26.15 Y-13.057
N5760 X26.384 Y-11.079
N5765 X26.291 Y-8.561
N5770 X25.734 Y-6.
N5775 X24.834 Y-3.838
N5780 X23.819 Y-2.268
N5785 X22.855 Y-1.174
N5790 X21.771 Y-0.246
N5795 X20.515 Y0.562
N5800 G3 X18.331 Y0.789 I-1.325 J-2.12
N5805 G1 X15.56 Y-0.271
N5810 X15.51 Y-0.29 F900.
N5815 X15.513 Y-0.472
N5820 G3 X16.006 Y-0.967 I1.269 J0.773 F1000.
N5825 X16.877 Y-1.472 I3.07 J4.283
N5830 G2 X18.401 Y-2.23 I-28.674 J-59.607
N5835 X20.637 Y-3.953 I-4.076 J-7.604
N5840 X22.482 Y-7.427 I-6.279 J-5.56
N5845 X22.828 Y-11.641 I-10.542 J-2.985
N5850 X22.187 Y-13.809 I-7.34 J0.99
N5855 X19.253 Y-16.789 I-5.977 J2.949
N5860 X16.861 Y-17.656 I-4.296 J8.121
N5865 G3 X15.642 Y-17.937 I19.043 J-85.374
N5870 X14.614 Y-18.451 I0.761 J-2.807
N5875 X14.461 Y-18.629 I0.369 J-0.473
N5880 X14.757 Y-19.48 I0.522 J-0.296 F30000.
N5885 G1 X17.629 Y-20.43
N5890 G3 X19.156 Y-20.426 I0.757 J2.383
N5895 G1 X20.679 Y-19.777
N5900 X21.948 Y-19.023
N5905 X23.269 Y-17.912
N5910 X24.504 Y-16.43
N5915 X25.503 Y-14.495
N5920 X25.935 Y-13.097
N5925 X26.186 Y-11.259
N5930 X26.165 Y-9.281
N5935 X25.755 Y-6.763
N5940 X24.875 Y-4.426
N5945 X24.294 Y-3.327
N5950 X22.855 Y-1.481
N5955 X21.245 Y-0.11
N5960 X20.423 Y0.43
N5965 G3 X18.176 Y0.65 I-1.341 J-2.11
N5970 G1 X15.632 Y-0.29
N5975 X15.624 Y-0.321
N5980 X15.56 Y-0.548 F900.
N5985 G3 X16.078 Y-1.098 I1.41 J0.807 F1000.
N5990 X17.08 Y-1.707 I3.779 J5.093
N5995 G2 X18.572 Y-2.525 I-14.492 J-28.201
N6000 X20.713 Y-4.366 I-4.435 J-7.323
N6005 X22.407 Y-7.919 I-6.827 J-5.434
N6010 X22.63 Y-11.579 I-9.718 J-2.43
N6015 X21.689 Y-14.234 I-6.892 J0.949
N6020 X18.735 Y-16.803 I-5.769 J3.65
N6025 X16.593 Y-17.536 I-4.427 J9.444
N6030 G3 X15.533 Y-17.85 I2.333 J-9.801
N6035 X14.756 Y-18.339 I1.244 J-2.839
N6040 G1 X14.663 Y-18.452
N6045 G3 X14.62 Y-18.53 I0.504 J-0.326
N6050 X14.988 Y-19.351 I0.546 J-0.248 F30000.
N6055 G1 X17.456 Y-20.187
N6060 G3 X19.256 Y-20.168 I0.876 J2.341
N6065 G1 X20.515 Y-19.636
N6070 X21.841 Y-18.807
N6075 X23.215 Y-17.619
N6080 X24.307 Y-16.294
N6085 X25.094 Y-14.855
N6090 X25.712 Y-13.057
N6095 X26.002 Y-11.112
N6100 X26.004 Y-9.706
N6105 X25.548 Y-6.763
N6110 X24.581 Y-4.246
N6115 X23.814 Y-2.987
N6120 X22.782 Y-1.728
N6125 X21.503 Y-0.536
N6130 X20.934 Y-0.11
N6135 G3 X18.716 Y0.363 I-1.574 J-1.942
N6140 G1 X15.679 Y-0.457
N6145 X15.634 Y-0.47 F900.
N6150 X15.629 Y-0.658
N6155 G3 X16.127 Y-1.217 I1.405 J0.749 F1000.
N6160 X17.153 Y-1.884 I4.07 J5.138
N6165 G2 X18.614 Y-2.756 I-13.963 J-25.07
N6170 X21.016 Y-5.135 I-4.657 J-7.104
N6175 X22.46 Y-9.391 I-7.977 J-5.08
N6180 X22.134 Y-12.753 I-7.898 J-0.93
N6185 X19.101 Y-16.362 I-6.214 J2.143
N6190 X17.012 Y-17.233 I-4.581 J8.052
N6195 G3 X15.885 Y-17.59 I8.532 J-28.892
N6200 X14.76 Y-18.343 I1.149 J-2.935
N6205 G1 X14.663 Y-18.452
N6210 G3 X14.62 Y-18.53 I0.504 J-0.326
N6215 X14.988 Y-19.351 I0.546 J-0.248 F30000.
N6220 G1 X18.176 Y-20.003
N6225 G3 X19.795 Y-19.734 I0.422 J2.464
N6230 G1 X21.415 Y-18.831
N6235 X22.855 Y-17.647
N6240 X24.018 Y-16.282
N6245 X24.77 Y-15.035
N6250 X25.443 Y-13.237
N6255 X25.719 Y-11.798
N6260 X25.827 Y-10.18
N6265 X25.623 Y-8.022
N6270 X25.114 Y-6.044
N6275 X24.241 Y-4.066
N6280 X23.193 Y-2.515
N6285 X21.955 Y-1.164
N6290 X20.606 Y-0.11
N6295 G3 X18.462 Y0.25 I-1.444 J-2.041
N6300 G1 X15.836 Y-0.472
N6305 X15.762 Y-0.55
N6310 X15.658 Y-0.66 F900.
N6315 X15.677 Y-0.742
N6320 G3 X16.163 Y-1.332 I1.441 J0.692 F1000.
N6325 X17.168 Y-2.035 I4.245 J5.
N6330 G2 X18.599 Y-2.954 I-15.594 J-25.855
N6335 X20.937 Y-5.399 I-5.002 J-7.123
N6340 X22.273 Y-11.1 I-7.977 J-4.877
N6345 X21.412 Y-13.781 I-6.845 J0.719
N6350 X18.522 Y-16.422 I-5.823 J3.471
N6355 X16.949 Y-17.065 I-4.789 J9.465
N6360 G3 X15.978 Y-17.42 I5.024 J-15.276
N6365 X14.928 Y-18.187 I1.274 J-2.847
N6370 G1 X14.876 Y-18.245
N6375 X14.832 Y-18.31
N6380 X14.796 Y-18.38
N6385 G3 X15.296 Y-19.208 I0.554 J-0.23 F30000.
N6390 G1 X18.536 Y-19.668
N6395 G3 X20.013 Y-19.369 I0.266 J2.486
N6400 G1 X21.235 Y-18.669
N6405 X22.675 Y-17.483
N6410 X23.614 Y-16.442
N6415 X24.396 Y-15.215
N6420 X25.044 Y-13.776
N6425 X25.406 Y-12.517
N6430 X25.622 Y-10.719
N6435 X25.554 Y-9.098
N6440 X25.271 Y-7.303
N6445 X24.654 Y-5.407
N6450 X24.114 Y-4.264
N6455 X23.29 Y-2.987
N6460 X21.955 Y-1.451
N6465 X20.695 Y-0.386
N6470 G3 X18.536 Y0.106 I-1.577 J-1.94
N6475 G1 X15.796 Y-0.636
N6480 X15.748 Y-0.649 F900.
N6485 X15.725 Y-0.834
N6490 G3 X16.175 Y-1.429 I1.422 J0.607 F1000.
N6495 X17.061 Y-2.108 I4.009 J4.316
N6500 G2 X18.467 Y-3.067 I-25.725 J-39.231
N6505 X20.626 Y-5.298 I-5.414 J-7.398
N6510 X22.097 Y-10.681 I-7.542 J-4.953
N6515 X21.354 Y-13.397 I-6.839 J0.412
N6520 X18.819 Y-16.01 I-5.844 J3.135
N6525 X17.023 Y-16.849 I-5.319 J9.032
N6530 G3 X16.103 Y-17.228 I5.962 J-15.794
N6535 X15.23 Y-17.878 I1.292 J-2.647
N6540 X15.116 Y-18.082 I0.456 J-0.39
N6545 X15.656 Y-18.868 I0.57 J-0.186 F30000.
N6550 G1 X18.536 Y-19.367
N6555 G3 X20.307 Y-18.991 I0.401 J2.468
N6560 G1 X21.857 Y-17.912
N6565 X23.395 Y-16.33
N6570 X24.294 Y-14.893
N6575 X24.997 Y-13.237
N6580 X25.251 Y-12.158
N6585 X25.427 Y-10.539
N6590 X25.397 Y-9.281
N6595 X24.916 Y-6.763
N6600 X24.114 Y-4.729
N6605 X23.012 Y-2.949
N6610 X22.148 Y-1.908
N6615 X20.695 Y-0.605
N6620 X20.515 Y-0.482
N6625 G3 X18.682 Y-0.11 I-1.378 J-2.086
N6630 G1 X15.841 Y-0.721
N6635 X15.836 Y-0.722 F900.
N6640 X15.776 Y-0.944
N6645 G3 X16.219 Y-1.561 I1.511 J0.618 F1000.
N6650 X17.156 Y-2.319 I4.545 J4.666
N6655 G2 X18.527 Y-3.326 I-20.669 J-29.554
N6660 X20.746 Y-5.881 I-5.703 J-7.194
N6665 X21.903 Y-10.218 I-7.651 J-4.363
N6670 X21.3 Y-12.969 I-6.854 J0.059
N6675 X18.653 Y-15.849 I-5.962 J2.824
N6680 X17.135 Y-16.613 I-5.485 J8.999
N6685 G3 X16.07 Y-17.117 I4.008 J-9.866
N6690 X15.233 Y-17.88 I1.856 J-2.873
N6695 G1 X15.185 Y-17.942
N6700 X15.146 Y-18.01
N6705 X15.116 Y-18.082
N6710 G3 X15.656 Y-18.868 I0.57 J-0.186 F30000.
N6715 G1 X18.536 Y-19.148
N6720 G3 X20.181 Y-18.811 I0.35 J2.475
N6725 G1 X21.512 Y-17.883
N6730 X22.315 Y-17.154
N6735 X23.514 Y-15.754
N6740 X24.565 Y-13.776
N6745 X25.049 Y-11.978
N6750 X25.223 Y-10.
N6755 X25.042 Y-8.127
N6760 X24.705 Y-6.763
N6765 X23.847 Y-4.605
N6770 X22.78 Y-2.987
N6775 X21.415 Y-1.458
N6780 X20.713 Y-0.829
N6785 G3 X18.356 Y-0.232 I-1.715 J-1.819
N6790 G1 X15.905 Y-0.829
N6795 X15.903 Y-0.835
N6800 X15.827 Y-1.058 F900.
N6805 G3 X16.214 Y-1.648 I1.436 J0.52 F1000.
N6810 X17.19 Y-2.493 I4.704 J4.445
N6815 G2 X18.527 Y-3.546 I-22.1 J-29.448
N6820 X20.671 Y-6.165 I-6.044 J-7.134
N6825 X21.689 Y-10.25 I-7.445 J-4.025
N6830 X21.146 Y-12.729 I-6.744 J0.178
N6835 X18.787 Y-15.499 I-5.953 J2.68
N6840 X17.308 Y-16.337 I-5.725 J8.385
N6845 G3 X16.276 Y-16.864 I5.655 J-12.361
N6850 X15.36 Y-17.733 I1.584 J-2.585
N6855 G1 X15.319 Y-17.8
N6860 X15.287 Y-17.871
N6865 X15.264 Y-17.946
N6870 G3 X15.836 Y-18.679 I0.585 J-0.133 F30000.
N6875 G1 X18.896 Y-18.843
N6880 G3 X20.515 Y-18.337 I0.109 J2.498
N6885 G1 X22.149 Y-17.013
N6890 X23.088 Y-15.923
N6895 X23.934 Y-14.561
N6900 X24.678 Y-12.603
N6905 X24.943 Y-11.079
N6910 X24.935 Y-8.921
N6915 X24.548 Y-6.943
N6920 X23.755 Y-4.944
N6925 X22.924 Y-3.526
N6930 X21.789 Y-2.088
N6935 X20.695 Y-1.055
N6940 G3 X18.716 Y-0.521 I-1.584 J-1.934
N6945 G1 X16.016 Y-0.903
N6950 X15.968 Y-0.957
N6955 X15.852 Y-1.089 F900.
N6960 X15.862 Y-1.148
N6965 G3 X16.231 Y-1.76 I1.435 J0.447 F1000.
N6970 X17.156 Y-2.621 I4.698 J4.123
N6975 G2 X18.462 Y-3.712 I-28.548 J-35.493
N6980 X20.418 Y-6.125 I-6.477 J-7.251
N6985 X21.472 Y-9.914 I-7.197 J-4.043
N6990 X20.908 Y-12.672 I-6.568 J-0.092
N6995 X18.749 Y-15.254 I-5.931 J2.766
N7000 X17.048 Y-16.272 I-6.97 J9.712
N7005 G3 X16.15 Y-16.818 I3.326 J-6.479
N7010 X15.513 Y-17.525 I1.941 J-2.391
N7015 X15.435 Y-17.745 I0.516 J-0.307
N7020 X16.016 Y-18.432 I0.594 J-0.087 F30000.
N7025 G1 X19.076 Y-18.501
N7030 G3 X20.756 Y-17.912 I0.067 J2.499
N7035 G1 X21.988 Y-16.833
N7040 X23.278 Y-15.215
N7045 X24.117 Y-13.596
N7050 X24.549 Y-12.158
N7055 X24.763 Y-10.539
N7060 X24.692 Y-8.561
N7065 X24.263 Y-6.689
N7070 X23.363 Y-4.605
N7075 X22.283 Y-2.956
N7080 X20.782 Y-1.369
N7085 G3 X18.716 Y-0.661 I-1.762 J-1.773
N7090 G1 X16.016 Y-1.011
N7095 X16.005 Y-1.032
N7100 X15.893 Y-1.239 F900.
N7105 G3 X16.269 Y-1.905 I1.534 J0.428 F1000.
N7110 X17.043 Y-2.68 I4.459 J3.675
N7115 G2 X18.319 Y-3.805 I-59.045 J-68.288
N7120 X20.252 Y-6.239 I-6.832 J-7.409
N7125 X21.232 Y-9.472 I-7.076 J-3.912
N7130 X20.709 Y-12.517 I-6.404 J-0.467
N7135 X18.565 Y-15.113 I-6.002 J2.774
N7140 X17.135 Y-16.032 I-7.407 J9.944
N7145 G3 X16.257 Y-16.609 I3.77 J-6.708
N7150 X15.517 Y-17.527 I2.184 J-2.517
N7155 G1 X15.48 Y-17.596
N7160 X15.453 Y-17.669
N7165 X15.435 Y-17.745
N7170 G3 X16.016 Y-18.432 I0.594 J-0.087 F30000.
N7175 G1 X19.076 Y-18.286
N7180 G3 X20.335 Y-17.911 I-0.058 J2.499
N7185 G1 X21.775 Y-16.708
N7190 X23.035 Y-15.124
N7195 X23.865 Y-13.589
N7200 X24.321 Y-12.158
N7205 X24.535 Y-10.719
N7210 X24.529 Y-9.101
N7215 X24.28 Y-7.662
N7220 X23.639 Y-5.684
N7225 X22.675 Y-3.851
N7230 X21.285 Y-2.088
N7235 X20.524 Y-1.369
N7240 G3 X18.716 Y-0.892 I-1.496 J-2.003
N7245 G1 X16.028 Y-1.182
N7250 X15.965 Y-1.189 F900.
N7255 X15.929 Y-1.357
N7260 G3 X16.241 Y-1.972 I1.435 J0.341 F1000.
N7265 X17.176 Y-2.96 I5.042 J3.839
N7270 G2 X18.413 Y-4.128 I-34.607 J-37.878
N7275 X20.236 Y-6.645 I-7.049 J-7.023
N7280 X21.018 Y-9.643 I-6.884 J-3.397
N7285 X18.996 Y-14.456 I-6.168 J-0.24
N7290 X17.418 Y-15.653 I-6.601 J7.061
N7295 G3 X16.463 Y-16.301 I8.798 J-13.992
N7300 X15.703 Y-17.21 I1.858 J-2.324
N7305 X15.643 Y-17.437 I0.539 J-0.265
N7310 X16.196 Y-18.074 I0.599 J-0.039 F30000.
N7315 G1 X19.322 Y-17.884
N7320 G3 X20.871 Y-17.228 I-0.144 J2.496
N7325 G1 X22.298 Y-15.754
N7330 X23.337 Y-14.136
N7335 X23.968 Y-12.517
N7340 X24.323 Y-10.539
N7345 Y-9.281
N7350 X23.996 Y-7.28
N7355 X23.517 Y-5.864
N7360 X22.469 Y-3.886
N7365 X21.415 Y-2.521
N7370 X21.023 Y-2.088
N7375 G3 X19.256 Y-1.258 I-1.862 J-1.668
N7380 G1 X16.058 Y-1.266
N7385 X16.016 F900.
N7390 X15.953 Y-1.449
N7395 G3 X16.273 Y-2.123 I1.541 J0.319 F1000.
N7400 X17.102 Y-3.057 I5.025 J3.626
N7405 G2 X18.308 Y-4.257 I-51.441 J-52.911
N7410 X19.963 Y-6.549 I-7.484 J-7.146
N7415 X20.766 Y-9.253 I-6.758 J-3.478
N7420 X18.974 Y-14.152 I-6.083 J-0.553
N7425 X17.448 Y-15.415 I-6.829 J6.696
N7430 G3 X16.502 Y-16.117 I9.118 J-13.291
N7435 X15.757 Y-17.097 I1.933 J-2.241
N7440 X15.71 Y-17.326 I0.552 J-0.235
N7445 X16.376 Y-17.928 I0.6 J-0.006 F30000.
N7450 G1 X19.436 Y-17.625
N7455 G3 X20.875 Y-16.919 I-0.323 J2.479
N7460 G1 X22.135 Y-15.543
N7465 X23.218 Y-13.776
N7470 X23.81 Y-12.158
N7475 X24.065 Y-10.539
N7480 X24.088 Y-9.64
N7485 X23.891 Y-7.842
N7490 X23.215 Y-5.697
N7495 X22.424 Y-4.178
N7500 X21.131 Y-2.448
N7505 X20.801 Y-2.088
N7510 G3 X18.896 Y-1.262 I-1.858 J-1.673
N7515 G1 X16.094 Y-1.367
N7520 X16.057 Y-1.369 F900.
N7525 X15.978 Y-1.551
N7530 G3 X16.258 Y-2.213 I1.478 J0.235 F1000.
N7535 X17.119 Y-3.245 I5.182 J3.449
N7540 G2 X18.29 Y-4.48 I-50.76 J-49.259
N7545 X19.873 Y-6.823 I-7.564 J-6.818
N7550 X20.537 Y-9.274 I-6.583 J-3.1
N7555 X19.046 Y-13.726 I-6.014 J-0.461
N7560 X17.597 Y-15.076 I-6.78 J5.825
N7565 G3 X16.598 Y-15.869 I16.774 J-22.134
N7570 X15.83 Y-16.933 I1.986 J-2.245
N7575 G1 X15.807 Y-17.008
N7580 X15.794 Y-17.085
N7585 X15.791 Y-17.164
N7590 G3 X16.523 Y-17.732 I0.6 J0.017 F30000.
N7595 G1 X19.795 Y-17.065
N7600 G3 X21.181 Y-16.294 I-0.46 J2.457
N7605 G1 X22.342 Y-14.855
N7610 X23.108 Y-13.417
N7615 X23.755 Y-11.252
N7620 X23.86 Y-9.461
N7625 X23.671 Y-7.829
N7630 X23.035 Y-5.774
N7635 X22. Y-3.889
N7640 X20.754 Y-2.268
N7645 G3 X18.896 Y-1.458 I-1.842 J-1.69
N7650 G1 X16.185 Y-1.448
N7655 X16.144 Y-1.489
N7660 X15.997 Y-1.636 F900.
N7665 X16. Y-1.664
N7670 G3 X16.271 Y-2.35 I1.538 J0.211 F1000.
N7675 X16.949 Y-3.234 I4.673 J2.885
N7680 G2 X18.089 Y-4.497 I-687.37 J-621.24
N7685 X19.536 Y-6.593 I-8.128 J-7.163
N7690 X20.281 Y-9.021 I-6.442 J-3.304
N7695 X19.091 Y-13.288 I-5.939 J-0.644
N7700 X17.51 Y-14.906 I-7.156 J5.41
N7705 G3 X16.597 Y-15.699 I15.815 J-19.116
N7710 X15.838 Y-16.92 I1.922 J-2.043
N7715 G1 X15.831 Y-16.933
N7720 G3 X15.791 Y-17.164 I0.561 J-0.214
N7725 X16.523 Y-17.732 I0.6 J0.017 F30000.
N7730 G1 X19.795 Y-16.962
N7735 G3 X21.085 Y-16.114 I-0.661 J2.411
N7740 G1 X22.27 Y-14.495
N7745 X23.133 Y-12.697
N7750 X23.602 Y-10.539
N7755 X23.626 Y-9.461
N7760 X23.361 Y-7.483
N7765 X22.726 Y-5.581
N7770 X21.653 Y-3.706
N7775 X20.695 Y-2.474
N7780 G3 X18.896 Y-1.655 I-1.85 J-1.681
N7785 G1 X16.196 Y-1.561
N7790 X16.173 Y-1.588
N7795 X16.017 Y-1.765 F900.
N7800 G3 X16.25 Y-2.438 I1.478 J0.133 F1000.
N7805 X16.954 Y-3.414 I4.817 J2.735
N7810 G2 X18.059 Y-4.709 I-564.758 J-482.724
N7815 X19.439 Y-6.849 I-8.091 J-6.734
N7820 X20.068 Y-9.308 I-6.209 J-2.898
N7825 X18.8 Y-13.277 I-5.992 J-0.273
N7830 X17.445 Y-14.722 I-7.535 J5.71
N7835 G3 X16.588 Y-15.53 I13.988 J-15.68
N7840 X15.871 Y-16.834 I2.221 J-2.071
N7845 G1 X15.854 Y-16.91
N7850 X15.848 Y-16.988
N7855 X15.852 Y-17.067
N7860 G3 X16.556 Y-17.585 I0.596 J0.072 F30000.
N7865 G1 X19.514 Y-16.833
N7870 G3 X20.754 Y-16.114 I-0.582 J2.431
N7875 G1 X21.879 Y-14.675
N7880 X22.457 Y-13.596
N7885 X23.01 Y-12.158
N7890 X23.332 Y-10.539
N7895 X23.345 Y-8.921
N7900 X23.038 Y-7.123
N7905 X22.675 Y-6.026
N7910 X21.556 Y-3.886
N7915 X20.921 Y-2.987
N7920 G3 X19.256 Y-2.045 I-1.97 J-1.539
N7925 G1 X16.196 Y-1.678
N7930 X16.177 Y-1.7
N7935 X16.03 Y-1.864 F900.
N7940 X16.031 Y-1.88
N7945 G3 X16.243 Y-2.555 I1.469 J0.09 F1000.
N7950 X16.895 Y-3.523 I4.724 J2.48
N7955 X17.788 Y-4.625 I55.27 J43.872
N7960 G2 X19.176 Y-6.76 I-8.684 J-7.162
N7965 X19.799 Y-8.932 I-6.267 J-2.974
N7970 X18.737 Y-12.959 I-5.932 J-0.589
N7975 X17.45 Y-14.465 I-7.636 J5.225
N7980 G3 X16.537 Y-15.405 I12.735 J-13.272
N7985 X15.955 Y-16.542 I2.313 J-1.902
N7990 X15.95 Y-16.776 I0.586 J-0.13
N7995 X16.736 Y-17.24 I0.591 J0.104 F30000.
N8000 G1 X19.615 Y-16.429
N8005 G3 X21.08 Y-15.395 I-0.614 J2.423
N8010 G1 X22.192 Y-13.596
N8015 X22.866 Y-11.798
N8020 X23.08 Y-10.719
N8025 X23.112 Y-8.741
N8030 X22.873 Y-7.303
N8035 X22.283 Y-5.616
N8040 X21.354 Y-3.886
N8045 X20.707 Y-2.987
N8050 G3 X19.256 Y-2.221 I-1.828 J-1.706
N8055 G1 X16.196 Y-1.782
N8060 X16.189 Y-1.792
N8065 X16.039 Y-1.974 F900.
N8070 G3 X16.232 Y-2.672 I1.502 J0.04 F1000.
N8075 X16.841 Y-3.637 I4.72 J2.3
N8080 X17.875 Y-4.989 I83.006 J62.441
N8085 G2 X19.034 Y-6.934 I-8.498 J-6.381
N8090 X19.585 Y-9.41 I-5.957 J-2.625
N8095 X18.509 Y-12.878 I-6.071 J-0.017
N8100 X17.252 Y-14.411 I-8.565 J5.745
N8105 G3 X16.519 Y-15.242 I9.633 J-9.226
N8110 X15.978 Y-16.448 I2.351 J-1.78
N8115 X15.987 Y-16.682 I0.593 J-0.094
N8120 X16.736 Y-17.12 I0.584 J0.14 F30000.
N8125 G1 X19.615 Y-16.227
N8130 G3 X20.617 Y-15.574 I-0.825 J2.36
N8135 G1 X21.654 Y-14.102
N8140 X22.359 Y-12.517
N8145 X22.802 Y-10.719
N8150 X22.903 Y-9.101
N8155 X22.675 Y-7.447
N8160 X22.158 Y-5.864
N8165 X21.461 Y-4.426
N8170 X20.875 Y-3.526
N8175 G3 X19.076 Y-2.289 I-2.174 J-1.235
N8180 G1 X16.198 Y-1.913
N8185 X16.196 F900.
N8190 X16.047 Y-2.093
N8195 G3 X16.224 Y-2.8 I1.474 J-0.006 F1000.
N8200 X16.823 Y-3.805 I4.812 J2.184
N8205 X17.656 Y-4.953 I39.49 J27.778
N8210 G2 X18.802 Y-6.906 I-8.879 J-6.525
N8215 X19.339 Y-9.385 I-5.93 J-2.582
N8220 X18.403 Y-12.612 I-6.124 J0.028
N8225 X17.21 Y-14.195 I-8.882 J5.452
N8230 G3 X16.544 Y-15.009 I11.723 J-10.275
N8235 X15.982 Y-16.449 I2.577 J-1.834
N8240 G1 X15.974 Y-16.527
N8245 X15.975 Y-16.605
N8250 X15.987 Y-16.682
N8255 G3 X16.736 Y-17.12 I0.584 J0.14 F30000.
N8260 G1 X19.615 Y-15.957
N8265 G3 X20.75 Y-15.059 I-0.918 J2.326
N8270 G1 X21.358 Y-14.136
N8275 X22.298 Y-11.978
N8280 X22.58 Y-10.5
N8285 X22.639 Y-9.461
N8290 X22.495 Y-7.76
N8295 X22.007 Y-6.044
N8300 X21.254 Y-4.426
N8305 X20.875 Y-3.802
N8310 G3 X19.076 Y-2.525 I-2.198 J-1.191
N8315 G1 X16.199 Y-2.019
N8320 X16.196 Y-2.018 F900.
N8325 X16.049 Y-2.198
N8330 G3 X16.221 Y-2.95 I1.576 J-0.035 F1000.
N8335 X16.862 Y-4.067 I5.401 J2.361
N8340 G2 X17.819 Y-5.474 I-156.541 J-107.468
N8345 X18.806 Y-7.511 I-7.515 J-4.898
N8350 X18.372 Y-12.185 I-5.741 J-1.825
N8355 X17.275 Y-13.835 I-8.363 J4.374
N8360 G3 X16.484 Y-14.882 I13.696 J-11.16
N8365 X16.029 Y-16.134 I2.528 J-1.626
N8370 G1 X16.028 Y-16.213
N8375 X16.037 Y-16.291
N8380 X16.056 Y-16.367
N8385 G3 X16.916 Y-16.711 I0.572 J0.182 F30000.
N8390 G1 X19.795 Y-15.492
N8395 G3 X20.902 Y-14.473 I-1.062 J2.263
N8400 G1 X21.657 Y-12.952
N8405 X22.001 Y-11.978
N8410 X22.374 Y-10.18
N8415 X22.346 Y-8.202
N8420 X21.921 Y-6.404
N8425 X21.135 Y-4.605
N8430 X20.875 Y-4.125
N8435 G3 X19.256 Y-2.87 I-2.206 J-1.175
N8440 G1 X16.202 Y-2.147
N8445 X16.196 Y-2.146 F900.
N8450 X16.05 Y-2.322
N8455 G3 X16.213 Y-3.1 I1.658 J-0.059 F1000.
N8460 X16.738 Y-4.09 I5.107 J2.079
N8465 X17.506 Y-5.282 I166.2 J106.197
N8470 G2 X18.517 Y-7.307 I-8.039 J-5.277
N8475 X18.205 Y-11.995 I-5.776 J-1.969
N8480 X17.163 Y-13.681 I-8.824 J4.286
N8485 G3 X16.419 Y-14.764 I11.957 J-9.014
N8490 X16.032 Y-16.134 I2.636 J-1.485
N8495 G1 X16.03 Y-16.213
N8500 X16.038 Y-16.291
N8505 X16.056 Y-16.367
N8510 G3 X16.916 Y-16.711 I0.572 J0.182 F30000.
N8515 G1 X19.436 Y-15.581
N8520 G3 X20.515 Y-14.626 I-1.046 J2.271
N8525 G1 X21.369 Y-13.057
N8530 X21.955 Y-11.197
N8535 X22.166 Y-9.461
N8540 X22.083 Y-8.202
N8545 X21.707 Y-6.404
N8550 X21.037 Y-4.785
N8555 X20.63 Y-4.066
N8560 G3 X19.076 Y-2.913 I-2.151 J-1.275
N8565 G1 X16.203 Y-2.289
N8570 X16.196 Y-2.288 F900.
N8575 X16.05 Y-2.464
N8580 G3 X16.206 Y-3.263 I1.764 J-0.07 F1000.
N8585 X16.785 Y-4.389 I5.92 J2.334
N8590 G2 X17.658 Y-5.85 I-54.174 J-33.374
N8595 X18.472 Y-7.96 I-7.021 J-3.918
N8600 X18.021 Y-11.838 I-6.08 J-1.259
N8605 X17.033 Y-13.556 I-9.401 J4.264
N8610 G3 X16.37 Y-14.615 I10.814 J-7.506
N8615 X16.047 Y-15.904 I2.631 J-1.345
N8620 X16.097 Y-16.133 I0.6 J0.011
N8625 X16.916 Y-16.429 I0.55 J0.24 F30000.
N8630 G1 X19.552 Y-15.035
N8635 G3 X20.695 Y-13.944 I-1.066 J2.261
N8640 G1 X21.415 Y-12.293
N8645 X21.849 Y-10.36
N8650 X21.903 Y-8.886
N8655 X21.806 Y-7.755
N8660 X21.481 Y-6.404
N8665 X20.875 Y-4.897
N8670 X20.635 Y-4.426
N8675 G3 X18.896 Y-3.032 I-2.269 J-1.049
N8680 G1 X16.2 Y-2.451
N8685 X16.184 Y-2.448 F900.
N8690 X16.05 Y-2.621
N8695 G3 X16.223 Y-3.497 I1.929 J-0.073 F1000.
N8700 X16.84 Y-4.724 I7.007 J2.751
N8705 G2 X17.654 Y-6.218 I-22.518 J-13.24
N8710 X18.314 Y-8.38 I-6.654 J-3.213
N8715 X17.713 Y-11.968 I-6.416 J-0.77
N8720 X16.891 Y-13.456 I-10.569 J4.867
N8725 G3 X16.318 Y-14.464 I9.591 J-6.12
N8730 X16.051 Y-15.904 I2.804 J-1.264
N8735 G1 X16.057 Y-15.982
N8740 X16.072 Y-16.058
N8745 X16.097 Y-16.133
N8750 G3 X16.916 Y-16.429 I0.55 J0.24 F30000.
N8755 G1 X19.436 Y-14.973
N8760 G3 X20.515 Y-13.796 I-1.206 J2.19
N8765 G1 X21.245 Y-11.978
N8770 X21.611 Y-10.323
N8775 X21.655 Y-8.382
N8780 X21.159 Y-6.044
N8785 X20.695 Y-4.891
N8790 G3 X19.127 Y-3.526 I-2.277 J-1.033
N8795 G1 X16.196 Y-2.639
N8800 X16.158 Y-2.627 F900.
N8805 X16.05 Y-2.791
N8810 G3 X16.218 Y-3.686 I2.048 J-0.08 F1000.
N8815 X16.762 Y-4.845 I7.23 J2.688
N8820 G2 X17.527 Y-6.365 I-20.316 J-11.182
N8825 X18.122 Y-8.833 I-6.54 J-2.883
N8830 X17.52 Y-11.867 I-6.802 J-0.227
N8835 X16.6 Y-13.624 I-14.54 J6.491
N8840 G3 X16.198 Y-14.481 I5.845 J-3.266
N8845 X16.053 Y-15.678 I3.156 J-0.991
N8850 G1 X16.059 Y-15.756
N8855 X16.076 Y-15.833
N8860 X16.103 Y-15.906
N8865 G3 X16.916 Y-16.196 I0.547 J0.247 F30000.
N8870 G1 X19.436 Y-14.569
N8875 G3 X20.45 Y-13.417 I-1.279 J2.148
N8880 G1 X20.912 Y-12.278
N8885 X21.304 Y-10.719
N8890 X21.419 Y-9.281
N8895 X21.266 Y-7.303
N8900 X20.69 Y-5.325
N8905 G3 X19.256 Y-3.863 I-2.345 J-0.867
N8910 G1 X16.202 Y-2.796
N8915 X16.196 Y-2.794 F900.
N8920 X16.05 Y-2.971
N8925 G3 X16.213 Y-3.892 I2.19 J-0.087 F1000.
N8930 X16.824 Y-5.248 I9.21 J3.332
N8935 G2 X17.503 Y-6.807 I-13.222 J-6.69
N8940 X17.842 Y-9.881 I-6.393 J-2.261
N8945 X16.968 Y-12.565 I-8.188 J1.185
N8950 X16.477 Y-13.538 I-29.996 J14.521
N8955 G3 X16.082 Y-14.647 I3.541 J-1.884
N8960 G1 X16.059 Y-14.873
N8965 X16.05 Y-15.099
N8970 Y-15.405
N8975 G3 X16.104 Y-15.632 I0.6 J0.021
N8980 X16.916 Y-15.921 I0.546 J0.249 F30000.
N8985 G1 X19.436 Y-14.197
N8990 G3 X20.415 Y-12.941 I-1.379 J2.086
N8995 G1 X20.999 Y-11.079
N9000 X21.139 Y-10.18
N9005 X21.178 Y-8.561
N9010 X20.834 Y-6.327
N9015 X20.4 Y-5.145
N9020 G3 X18.896 Y-3.826 I-2.262 J-1.064
N9025 G1 X16.199 Y-2.993
N9030 X16.181 Y-2.987 F900.
N9035 X16.05 Y-3.159
N9040 G3 X16.209 Y-4.113 I2.359 J-0.097 F1000.
N9045 X16.768 Y-5.45 I10.467 J3.588
N9050 G2 X17.454 Y-7.311 I-10.769 J-5.028
N9055 X17.206 Y-11.493 I-6.777 J-1.696
N9060 X16.534 Y-13.055 I-13.077 J4.695
N9065 G3 X16.151 Y-13.996 I6.388 J-3.149
N9070 G1 X16.096 Y-14.25
N9075 X16.062 Y-14.507
N9080 X16.05 Y-14.766
N9085 Y-15.099
N9090 G3 X16.104 Y-15.327 I0.6 J0.021
N9095 X16.987 Y-15.574 I0.546 J0.249 F30000.
N9100 G1 X19.436 Y-13.796
N9105 G3 X20.211 Y-12.877 I-1.467 J2.025
N9110 G1 X20.695 Y-11.436
N9115 X20.968 Y-9.461
N9120 X20.935 Y-8.022
N9125 X20.542 Y-6.044
N9130 X20.415 Y-5.684
N9135 G3 X18.985 Y-4.246 I-2.336 J-0.892
N9140 G1 X16.202 Y-3.189
N9145 X16.196 Y-3.187 F900.
N9150 X16.05 Y-3.363
N9155 G3 X16.21 Y-4.368 I2.584 J-0.104 F1000.
N9160 X16.707 Y-5.667 I12.509 J4.04
N9165 G2 X17.306 Y-7.557 I-9.943 J-4.192
N9170 X17.084 Y-11.198 I-7.116 J-1.394
N9175 X16.366 Y-13.036 I-15.291 J4.909
N9180 G3 X16.09 Y-13.912 I4.279 J-1.834
N9185 G1 X16.06 Y-14.156
N9190 X16.05 Y-14.401
N9195 Y-14.766
N9200 G3 X16.104 Y-14.994 I0.6 J0.021
N9205 X17.023 Y-15.215 I0.546 J0.249 F30000.
N9210 G1 X19.438 Y-13.237
N9215 G3 X20.306 Y-11.978 I-1.513 J1.972
N9220 G1 X20.568 Y-10.899
N9225 X20.751 Y-9.281
N9230 X20.695 Y-7.863
N9235 X20.335 Y-6.019
N9240 X20.203 Y-5.684
N9245 G3 X18.716 Y-4.336 I-2.271 J-1.011
N9250 G1 X16.202 Y-3.407
N9255 X16.196 Y-3.404 F900.
N9260 X16.05 Y-3.581
N9265 G3 X16.212 Y-4.652 I2.861 J-0.116 F1000.
N9270 X16.661 Y-5.949 I17.691 J5.41
N9275 G2 X17.191 Y-8.15 I-9.187 J-3.374
N9280 X16.772 Y-11.501 I-7.878 J-0.717
N9285 X16.238 Y-12.958 I-25.91 J8.68
N9290 G3 X16.049 Y-13.998 I2.99 J-1.08
N9295 G1 X16.05 Y-14.401
N9300 G3 X16.104 Y-14.629 I0.6 J0.021
N9305 X17.017 Y-14.855 I0.546 J0.249 F30000.
N9310 G1 X19.342 Y-12.877
N9315 G3 X20.119 Y-11.618 I-1.545 J1.822
N9320 G1 X20.379 Y-10.36
N9325 X20.486 Y-8.561
N9330 X20.274 Y-6.943
N9335 G3 X19.436 Y-5.309 I-2.381 J-0.19
N9340 G1 X18.176 Y-4.246
N9345 G3 X16.736 Y-3.688 I-1.537 J-1.829
N9350 G1 X16.204 Y-3.652
N9355 X16.198 Y-3.653
N9360 X16.192 Y-3.654
N9365 X16.186 Y-3.656
N9370 G3 X16.05 Y-3.83 I0.052 J-0.18 F900.
N9375 X16.189 Y-4.889 I3.164 J-0.122 F1000.
N9380 X16.616 Y-6.293 I31.276 J8.742
N9385 G2 X17.011 Y-8.522 I-9.018 J-2.744
N9390 X16.541 Y-11.59 I-8.691 J-0.238
N9395 X16.205 Y-12.603 I-30.263 J9.456
N9400 G3 X16.05 Y-13.547 I2.897 J-0.963
N9405 X16.104 Y-13.774 I0.6 J0.021
N9410 X17.068 Y-13.956 I0.546 J0.249 F30000.
N9415 G1 X19.436 Y-11.681
N9420 G3 X20.059 Y-10.233 I-1.479 J1.495
N9425 G1 X20.078 Y-7.842
N9430 X19.919 Y-6.763
N9435 G3 X18.959 Y-5.505 I-2.029 J-0.552
N9440 G1 X16.202 Y-3.909
N9445 X16.196 Y-3.906 F900.
N9450 X16.05 Y-4.082
N9455 G3 X16.218 Y-5.359 I3.908 J-0.135 F1000.
N9460 X16.502 Y-6.457 I46.966 J11.58
N9465 G2 X16.796 Y-9.267 I-8.912 J-2.352
N9470 X16.297 Y-11.764 I-10.657 J0.831
N9475 G3 X16.095 Y-12.52 I8.492 J-2.681
N9480 G1 X16.061 Y-12.775
N9485 X16.05 Y-13.033
N9490 G3 X16.104 Y-13.26 I0.6 J0.021
N9495 G1 X16.372 Y-13.596 F30000.
N9500 G3 X19.922 Y-12.338 I1.58 J1.179
N9505 G1 X19.804 Y-7.662
N9510 G3 X19.036 Y-6.224 I-1.967 J-0.126
N9515 G1 X16.237 Y-4.208
N9520 X16.195 Y-4.222
N9525 X16.125 Y-4.246 F900.
N9530 X16.05 Y-4.389
N9535 G3 X16.169 Y-5.593 I4.54 J-0.16 F1000.
N9540 G2 X16.503 Y-7.261 I-42.18 J-9.311
N9545 X16.335 Y-10.921 I-9.26 J-1.409
N9550 X16.13 Y-11.756 I-26.072 J5.954
N9555 G1 X16.086 Y-11.979
N9560 X16.059 Y-12.205
N9565 X16.05 Y-12.433
N9570 G3 X16.104 Y-12.661 I0.6 J0.021
N9575 G1 X16.286 Y-12.877 F30000.
N9580 G3 X19.594 Y-11.798 I1.508 J0.987
N9585 G1 X19.506 Y-7.662
N9590 X19.256 Y-7.078
N9595 X17.996 Y-5.328
N9600 G3 X16.736 Y-4.588 I-1.464 J-1.052
N9605 G1 X16.204 Y-4.551
N9610 X16.198 Y-4.552
N9615 X16.192 Y-4.553
N9620 X16.186 Y-4.555
N9625 G3 X16.05 Y-4.729 I0.052 J-0.18 F900.
N9630 X16.183 Y-6.248 I6.718 J-0.175 F1000.
N9635 G2 X16.416 Y-8.218 I-16.068 J-2.895
N9640 X16.106 Y-11.118 I-11.054 J-0.284
N9645 G1 X16.076 Y-11.312
N9650 X16.057 Y-11.507
N9655 X16.05 Y-11.703
N9660 G3 X16.104 Y-11.931 I0.6 J0.021
N9665 X17.25 Y-11.682 I0.546 J0.249 F30000.
N9670 G1 Y-5.166
N9675 G3 X16.104 Y-4.917 I-0.6 J0.
N9680 X16.05 Y-5.145 I0.546 J-0.249 F900.
N9685 X16.171 Y-7.087 I13.064 J-0.164 F1000.
N9690 G2 X16.175 Y-9.635 I-12.476 J-1.295
N9695 G3 X16.051 Y-10.588 I28.829 J-4.218
N9700 G1 X16.05 Y-10.736
N9705 G3 X16.104 Y-10.964 I0.6 J0.021
N9710 X17.25 Y-10.715 I0.546 J0.249 F30000.
N9715 G1 Y-5.705
N9720 G3 X16.104 Y-5.456 I-0.6 J0.
N9725 X16.05 Y-5.684 I0.546 J-0.249 F900.
N9730 G1 Y-6.763 F1000.
N9735 G2 X16.049 Y-9.056 I-22.968 J-1.131
N9740 G1 X16.057 Y-9.134
N9745 X16.075 Y-9.21
N9750 X16.104 Y-9.284
N9755 G3 X17.25 Y-9.035 I0.546 J0.249 F30000.
N9760 G1 Y-6.784
N9765 G3 X16.104 Y-6.535 I-0.6 J0.
N9770 X16.05 Y-6.763 I0.546 J-0.249 F900.
N9775 G1 Y-13.998 F1000.
N9780 X16.062 Y-14.052 Z-9.988
N9785 X16.073 Y-14.103 Z-9.969
N9790 X16.083 Y-14.147 Z-9.938
N9795 X16.091 Y-14.184 Z-9.897
N9800 X16.097 Y-14.21 Z-9.848
N9805 X16.102 Y-14.222 Z-9.805
N9810 X16.104 Y-14.226 Z-9.759
N9815 G0 Z2.505
N9820 X12.83 Y-19.083
N9825 Z-9.395
N9830 G1 Z-9.995 F900.
N9835 G2 X12.733 Y-19.076 I-0.007 J0.6
N9840 X12.608 Y-19.052 I0.218 J1.444
N9845 G1 X12.597 Y-19.05
N9850 X-12.597 F1000.
N9855 G2 X-13.236 Y-19.018 I-0.124 J3.914
N9860 G3 X-15.48 Y-18.899 I-2.607 J-27.906
N9865 G2 X-17.454 Y-18.698 I0.692 J16.657
N9870 X-19.848 Y-17.846 I1.316 J7.478
N9875 X-22.626 Y-14.715 I3.444 J5.855
N9880 X-23.37 Y-12.282 I8.78 J4.014
N9885 X-23.574 Y-8.045 I15.45 J2.869
N9890 X-23.021 Y-5.852 I8.121 J-0.883
N9895 X-20.243 Y-2.727 I6.072 J-2.599
N9900 X-18.172 Y-1.814 I4.976 J-8.489
N9905 G3 X-16.785 Y-1.343 I-14.001 J43.482
N9910 X-15.425 Y-0.359 I-1.101 J2.953
N9915 G1 X-15.385 Y-0.292
N9920 X-15.353 Y-0.22
N9925 X-15.331 Y-0.144
N9930 X-15.341 Y0.43 F30000.
N9935 G3 X-19.436 Y2.364 I-2.5 J0.009
N9940 G1 X-23.755 Y-1.252
N9945 X-25.116 Y-2.807
N9950 X-26.094 Y-4.605
N9955 X-26.695 Y-6.579
N9960 X-26.937 Y-9.281
N9965 X-26.888 Y-10.899
N9970 X-26.612 Y-13.057
N9975 X-26.118 Y-14.855
N9980 X-25.272 Y-16.833
N9985 X-24.1 Y-18.532
N9990 X-22.495 Y-20.07
N9995 X-20.875 Y-21.039
N10000 X-19.076 Y-21.727
N10005 X-15.656 Y-21.79
N10010 G3 X-13.229 Y-19.89 I0.001 J2.5
N10015 G1 X-13.081 Y-19.195
N10020 X-13.082 Y-19.188
N10025 Y-19.182
N10030 X-13.083 Y-19.176
N10035 G3 X-13.236 Y-19.017 I-0.186 J-0.026 F900.
N10040 X-13.968 Y-18.876 I-8.903 J-44.268 F1000.
N10045 X-16.077 Y-18.708 I-4.383 J-41.634
N10050 G2 X-18.032 Y-18.371 I1.035 J11.841
N10055 X-20.756 Y-16.904 I1.83 J6.661
N10060 X-22.749 Y-13.849 I4.94 J5.4
N10065 X-23.328 Y-11.368 I10.46 J3.747
N10070 X-23.375 Y-7.974 I13.406 J1.885
N10075 X-22.755 Y-5.8 I7.703 J-1.023
N10080 X-20.116 Y-2.911 I6.026 J-2.853
N10085 X-18.059 Y-1.965 I5.347 J-8.915
N10090 G3 X-16.777 Y-1.478 I-8.655 J24.719
N10095 X-15.509 Y-0.47 I-1.213 J2.829
N10100 G1 X-15.47 Y-0.401
N10105 X-15.441 Y-0.328
N10110 X-15.422 Y-0.252
N10115 G3 X-16.016 Y0.463 I-0.589 J0.115 F30000.
N10120 G1 X-19.256 Y0.823
N10125 G3 X-20.695 Y0.522 I-0.23 J-2.489
N10130 G1 X-22.173 Y-0.29
N10135 X-23.714 Y-1.548
N10140 X-24.688 Y-2.627
N10145 X-25.554 Y-4.02
N10150 X-26.308 Y-5.864
N10155 X-26.701 Y-7.842
N10160 X-26.728 Y-10.719
N10165 X-26.454 Y-12.73
N10170 X-25.891 Y-14.94
N10175 X-25.014 Y-16.836
N10180 X-24.013 Y-18.272
N10185 X-22.495 Y-19.765
N10190 X-20.875 Y-20.801
N10195 X-19.615 Y-21.345
N10200 X-17.636 Y-21.859
N10205 G3 X-15.328 Y-21.149 I0.51 J2.447
N10210 G1 X-13.403 Y-19.149
N10215 X-13.394 Y-19.14 F900.
N10220 X-13.527 Y-18.961
N10225 G3 X-14.111 Y-18.795 I-3.915 J-12.68 F1000.
N10230 X-15.887 Y-18.575 I-2.88 J-15.945
N10235 G2 X-17.839 Y-18.223 I1.325 J12.951
N10240 X-20.35 Y-16.945 I1.892 J6.817
N10245 X-22.474 Y-13.981 I4.58 J5.526
N10250 X-23.161 Y-11.238 I9.942 J3.946
N10255 X-23.16 Y-7.846 I11.85 J1.692
N10260 X-22.453 Y-5.699 I7.354 J-1.232
N10265 X-19.94 Y-3.062 I5.98 J-3.183
N10270 X-17.895 Y-2.088 I5.893 J-9.742
N10275 G3 X-16.713 Y-1.581 I-5.545 J14.557
N10280 X-15.54 Y-0.518 I-1.354 J2.671
N10285 G1 X-15.506 Y-0.447
N10290 X-15.481 Y-0.372
N10295 X-15.466 Y-0.295
N10300 G3 X-16.016 Y0.382 I-0.595 J0.079 F30000.
N10305 G1 X-19.436 Y0.584
N10310 G3 X-20.77 Y0.25 I-0.084 J-2.499
N10315 G1 X-22.315 Y-0.652
N10320 X-23.588 Y-1.728
N10325 X-24.668 Y-2.987
N10330 X-25.762 Y-4.965
N10335 X-26.321 Y-6.763
N10340 X-26.577 Y-8.921
N10345 X-26.52 Y-11.079
N10350 X-26.127 Y-13.417
N10355 X-25.55 Y-15.215
N10360 X-24.529 Y-17.193
N10365 X-23.215 Y-18.819
N10370 X-22.119 Y-19.76
N10375 X-20.875 Y-20.556
N10380 X-19.052 Y-21.329
N10385 X-17.996 Y-21.586
N10390 G3 X-15.849 Y-20.969 I0.455 J2.458
N10395 G1 X-13.744 Y-19.171
N10400 X-13.722 Y-19.062
N10405 X-13.708 Y-18.991 F900.
N10410 X-13.82 Y-18.873
N10415 G3 X-14.973 Y-18.563 I-1.656 J-3.864 F1000.
N10420 X-16.095 Y-18.398 I-6.111 J-37.601
N10425 G2 X-18.296 Y-17.865 I1.363 J10.438
N10430 X-21.993 Y-14.516 I2.426 J6.393
N10435 X-22.927 Y-11.554 I8.571 J4.332
N10440 X-23.008 Y-8.164 I11.224 J1.964
N10445 X-22.221 Y-5.749 I7.227 J-1.02
N10450 X-19.667 Y-3.151 I6.028 J-3.369
N10455 X-17.891 Y-2.269 I6.296 J-10.455
N10460 G3 X-16.676 Y-1.694 I-4.896 J11.914
N10465 X-15.631 Y-0.663 I-1.498 J2.562
N10470 G1 X-15.598 Y-0.591
N10475 X-15.575 Y-0.516
N10480 X-15.561 Y-0.439
N10485 G3 X-16.196 Y0.225 I-0.596 J0.066 F30000.
N10490 G1 X-19.256 Y0.453
N10495 G3 X-20.515 Y0.172 I-0.103 J-2.498
N10500 G1 X-22.399 Y-1.009
N10505 X-23.786 Y-2.268
N10510 X-24.875 Y-3.719
N10515 X-25.756 Y-5.549
N10520 X-26.296 Y-7.662
N10525 X-26.401 Y-9.735
N10530 X-26.338 Y-11.079
N10535 X-25.971 Y-13.219
N10540 X-25.458 Y-14.855
N10545 X-24.599 Y-16.653
N10550 X-23.848 Y-17.732
N10555 X-22.675 Y-19.016
N10560 X-21.415 Y-19.972
N10565 X-19.795 Y-20.826
N10570 X-18.356 Y-21.306
N10575 G3 X-16.196 Y-20.817 I0.585 J2.431
N10580 G1 X-13.949 Y-18.998
N10585 X-13.941 Y-18.991 F900.
N10590 X-14.037 Y-18.788
N10595 G3 X-15.064 Y-18.45 I-1.562 J-3.016 F1000.
N10600 X-16.378 Y-18.201 I-6.84 J-32.557
N10605 G2 X-18.543 Y-17.54 I1.752 J9.616
N10610 X-21.899 Y-14.214 I2.903 J6.285
N10615 X-22.786 Y-11.237 I8.697 J4.212
N10620 X-22.75 Y-7.85 I9.929 J1.587
N10625 X-21.642 Y-5.26 I6.81 J-1.381
N10630 X-19.334 Y-3.196 I5.938 J-4.316
N10635 X-17.564 Y-2.3 I8.568 J-14.726
N10640 G3 X-16.461 Y-1.677 I-2.866 J6.361
N10645 X-15.674 Y-0.738 I-1.889 J2.383
N10650 G1 X-15.644 Y-0.665
N10655 X-15.624 Y-0.589
N10660 X-15.615 Y-0.511
N10665 G3 X-16.196 Y0.125 I-0.599 J0.036 F30000.
N10670 G1 X-19.615 Y0.083
N10675 G3 X-20.905 Y-0.29 I0.024 J-2.5
N10680 G1 X-22.588 Y-1.44
N10685 X-23.934 Y-2.816
N10690 X-25.017 Y-4.426
N10695 X-25.683 Y-6.044
N10700 X-25.949 Y-6.943
N10705 X-26.203 Y-8.904
N10710 X-26.121 Y-11.439
N10715 X-25.768 Y-13.237
N10720 X-25.086 Y-15.215
N10725 X-24.227 Y-16.833
N10730 X-23.035 Y-18.338
N10735 X-21.235 Y-19.834
N10740 X-19.615 Y-20.681
N10745 X-18.854 Y-20.969
N10750 G3 X-16.556 Y-20.703 I0.894 J2.335
N10755 G1 X-14.179 Y-18.991
N10760 X-14.157 Y-18.905
N10765 X-14.133 Y-18.811 F900.
N10770 X-14.217 Y-18.701
N10775 G3 X-15.173 Y-18.33 I-1.59 J-2.686 F1000.
N10780 X-16.442 Y-18.035 I-6.607 J-25.506
N10785 G2 X-18.582 Y-17.293 I2.113 J9.551
N10790 X-21.829 Y-13.857 I3.19 J6.267
N10795 X-22.645 Y-10.86 I8.773 J3.999
N10800 X-22.445 Y-7.483 I8.779 J1.173
N10805 X-19.898 Y-3.829 I6.534 J-1.84
N10810 X-17.95 Y-2.672 I6.842 J-9.296
N10815 G3 X-16.822 Y-2.056 I-6.89 J13.959
N10820 X-15.676 Y-0.737 I-1.539 J2.493
N10825 G1 X-15.646 Y-0.664
N10830 X-15.625 Y-0.589
N10835 X-15.615 Y-0.511
N10840 G3 X-16.196 Y0.125 I-0.599 J0.036 F30000.
N10845 G1 X-19.256 Y0.06
N10850 G3 X-20.497 Y-0.29 I0.033 J-2.5
N10855 G1 X-22.146 Y-1.369
N10860 X-23.755 Y-2.954
N10865 X-24.834 Y-4.575
N10870 X-25.4 Y-5.864
N10875 X-25.959 Y-8.202
N10880 X-26.015 Y-10.36
N10885 X-25.738 Y-12.517
N10890 X-25.081 Y-14.716
N10895 X-24.29 Y-16.294
N10900 X-23.035 Y-17.992
N10905 X-21.904 Y-19.069
N10910 X-20.515 Y-20.001
N10915 X-19.436 Y-20.551
N10920 G3 X-16.916 Y-20.493 I1.21 J2.188
N10925 G1 X-14.397 Y-18.957
N10930 X-14.302 Y-18.824
N10935 X-14.27 Y-18.78 F900.
N10940 X-14.357 Y-18.621
N10945 G3 X-15.211 Y-18.229 I-1.595 J-2.344 F1000.
N10950 X-16.598 Y-17.841 I-6.848 J-21.847
N10955 G2 X-18.698 Y-16.997 I2.513 J9.281
N10960 X-21.677 Y-13.674 I3.562 J6.19
N10965 X-22.43 Y-8.41 I8.728 J3.934
N10970 X-21.577 Y-6.018 I6.943 J-1.127
N10975 X-19.215 Y-3.611 I6.283 J-3.801
N10980 X-17.748 Y-2.751 I8.487 J-12.805
N10985 G3 X-16.699 Y-2.111 I-4.676 J8.838
N10990 X-15.725 Y-0.829 I-1.811 J2.388
N10995 G1 X-15.699 Y-0.755
N11000 X-15.682 Y-0.678
N11005 X-15.676 Y-0.6
N11010 G3 X-16.376 Y-0.006 I-0.6 J0.003 F30000.
N11015 G1 X-19.256 Y-0.145
N11020 G3 X-20.419 Y-0.47 I0.07 J-2.499
N11025 G1 X-22.008 Y-1.548
N11030 X-23.755 Y-3.325
N11035 X-24.758 Y-4.965
N11040 X-25.386 Y-6.493
N11045 X-25.792 Y-8.561
N11050 X-25.794 Y-10.899
N11055 X-25.374 Y-13.208
N11060 X-24.685 Y-15.035
N11065 X-23.934 Y-16.463
N11070 X-22.785 Y-17.92
N11075 X-21.595 Y-19.028
N11080 X-19.959 Y-20.07
N11085 X-19.256 Y-20.409
N11090 G3 X-16.923 Y-20.25 I1.015 J2.285
N11095 G1 X-14.466 Y-18.811
N11100 X-14.45 Y-18.743
N11105 X-14.425 Y-18.631 F900.
N11110 X-14.496 Y-18.532
N11115 G3 X-15.404 Y-18.074 I-1.763 J-2.365 F1000.
N11120 X-16.859 Y-17.601 I-13.824 J-40.031
N11125 G2 X-18.902 Y-16.627 I2.898 J8.714
N11130 X-21.677 Y-13.128 I4.078 J6.083
N11135 X-22.256 Y-8.675 I8.39 J3.355
N11140 X-19.818 Y-4.325 I6.748 J-0.923
N11145 X-17.943 Y-3.054 I7.507 J-9.053
N11150 G3 X-16.833 Y-2.351 I-7.269 J12.729
N11155 X-15.836 Y-1.08 I-1.922 J2.533
N11160 X-15.796 Y-0.85 I-0.56 J0.217
N11165 X-16.376 Y-0.263 I-0.6 J-0.013 F30000.
N11170 G1 X-19.256 Y-0.383
N11175 G3 X-20.515 Y-0.736 I0.021 J-2.5
N11180 G1 X-22.072 Y-1.908
N11185 X-23.62 Y-3.541
N11190 X-24.513 Y-4.965
N11195 X-25.194 Y-6.615
N11200 X-25.589 Y-8.561
N11205 X-25.606 Y-10.719
N11210 X-25.428 Y-11.978
N11215 X-25.071 Y-13.417
N11220 X-24.374 Y-15.215
N11225 X-23.362 Y-16.894
N11230 X-21.824 Y-18.558
N11235 X-20.128 Y-19.76
N11240 X-19.436 Y-20.123
N11245 G3 X-16.987 Y-20.07 I1.177 J2.206
N11250 G1 X-14.594 Y-18.652
N11255 X-14.56 Y-18.631 F900.
N11260 X-14.621 Y-18.446
N11265 G3 X-15.464 Y-17.96 I-1.748 J-2.057 F1000.
N11270 X-16.819 Y-17.452 I-9.985 J-24.601
N11275 G2 X-18.835 Y-16.423 I3.325 J8.998
N11280 X-21.55 Y-12.874 I4.276 J6.083
N11285 X-22.042 Y-8.693 I7.92 J3.052
N11290 X-19.756 Y-4.561 I6.73 J-1.025
N11295 X-18.16 Y-3.386 I7.226 J-8.148
N11300 G3 X-16.957 Y-2.595 I-11.548 J18.851
N11305 X-15.874 Y-1.19 I-1.874 J2.566
N11310 G1 X-15.855 Y-1.113
N11315 X-15.846 Y-1.035
N11320 X-15.848 Y-0.957
N11325 G3 X-16.556 Y-0.409 I-0.598 J-0.042 F30000.
N11330 G1 X-19.256 Y-0.569
N11335 G3 X-20.695 Y-1.09 I0.091 J-2.498
N11340 G1 X-22.447 Y-2.536
N11345 X-23.82 Y-4.246
N11350 X-24.759 Y-6.047
N11355 X-25.284 Y-8.022
N11360 X-25.433 Y-9.64
N11365 X-25.194 Y-12.245
N11370 X-24.603 Y-14.136
N11375 X-23.934 Y-15.581
N11380 X-23.035 Y-16.941
N11385 X-21.775 Y-18.314
N11390 X-19.975 Y-19.632
N11395 X-19.83 Y-19.71
N11400 G3 X-17.456 Y-19.813 I1.282 J2.146
N11405 G1 X-14.757 Y-18.61
N11410 X-14.737 Y-18.553
N11415 X-14.701 Y-18.452 F900.
N11420 X-14.759 Y-18.338
N11425 G3 X-15.533 Y-17.839 I-1.732 J-1.84 F1000.
N11430 X-16.831 Y-17.286 I-8.964 J-19.253
N11435 G2 X-18.811 Y-16.188 I3.795 J9.175
N11440 X-21.525 Y-12.301 I4.542 J6.061
N11445 X-21.761 Y-8.38 I7.41 J2.414
N11450 X-19.655 Y-4.762 I6.677 J-1.465
N11455 X-18.088 Y-3.548 I7.644 J-8.249
N11460 G3 X-16.911 Y-2.714 I-10.295 J15.761
N11465 X-15.895 Y-1.256 I-1.918 J2.42
N11470 G1 X-15.88 Y-1.178
N11475 X-15.875 Y-1.1
N11480 X-15.881 Y-1.021
N11485 G3 X-16.556 Y-0.502 I-0.595 J-0.076 F30000.
N11490 G1 X-19.795 Y-0.898
N11495 X-20.751 Y-1.369
N11500 X-22.391 Y-2.807
N11505 X-23.157 Y-3.706
N11510 X-24.06 Y-5.145
N11515 X-24.745 Y-6.763
N11520 X-25.094 Y-8.202
N11525 X-25.235 Y-10.18
N11530 X-25.014 Y-12.017
N11535 X-24.244 Y-14.495
N11540 X-23.11 Y-16.474
N11545 X-21.87 Y-17.912
N11550 X-20.515 Y-19.037
N11555 X-19.975 Y-19.391
N11560 G3 X-17.456 Y-19.68 I1.506 J1.996
N11565 G1 X-14.852 Y-18.459
N11570 X-14.836 Y-18.452 F900.
N11575 X-14.872 Y-18.237
N11580 G3 X-15.596 Y-17.717 I-1.82 J-1.771 F1000.
N11585 X-17.026 Y-17.034 I-12.112 J-23.501
N11590 G2 X-18.941 Y-15.827 I4.223 J8.827
N11595 X-21.637 Y-8.988 I5.013 J5.927
N11600 X-19.81 Y-5.224 I6.672 J-0.915
N11605 X-18.083 Y-3.759 I7.777 J-7.413
N11610 G3 X-16.902 Y-2.865 I-10.842 J15.55
N11615 X-16.088 Y-1.824 I-2.069 J2.456
N11620 G1 X-16.002 Y-1.599
N11625 X-15.933 Y-1.369
N11630 X-15.897 Y-1.255
N11635 G3 X-15.881 Y-1.021 I-0.579 J0.158
N11640 X-16.556 Y-0.502 I-0.595 J-0.076 F30000.
N11645 G1 X-19.795 Y-1.217
N11650 G3 X-20.875 Y-1.731 I0.503 J-2.449
N11655 G1 X-22.413 Y-3.167
N11660 X-23.49 Y-4.605
N11665 X-24.316 Y-6.224
N11670 X-24.843 Y-8.022
N11675 X-24.988 Y-9.617
N11680 X-24.866 Y-11.618
N11685 X-24.411 Y-13.417
N11690 X-23.756 Y-15.004
N11695 X-22.847 Y-16.474
N11700 X-21.91 Y-17.552
N11705 X-20.231 Y-18.991
N11710 X-19.952 Y-19.171
N11715 G3 X-17.636 Y-19.471 I1.443 J2.042
N11720 G1 X-15.117 Y-18.433
N11725 X-15.011 Y-18.319
N11730 X-14.944 Y-18.247 F900.
N11735 X-14.995 Y-18.118
N11740 G3 X-15.777 Y-17.524 I-2.096 J-1.947 F1000.
N11745 X-17.07 Y-16.839 I-14.714 J-26.204
N11750 G2 X-18.939 Y-15.56 I4.634 J8.774
N11755 X-21.475 Y-9.764 I5.092 J5.681
N11760 X-19.673 Y-5.403 I6.68 J-0.208
N11765 X-18.206 Y-4.071 I7.606 J-6.904
N11770 G3 X-16.939 Y-3.065 I-19.278 J25.574
N11775 X-16.04 Y-1.763 I-2.082 J2.398
N11780 G1 X-15.971 Y-1.521
N11785 X-15.933 Y-1.369
N11790 G3 X-15.929 Y-1.135 I-0.587 J0.126
N11795 X-16.607 Y-0.649 I-0.59 J-0.108 F30000.
N11800 G1 X-19.615 Y-1.278
N11805 G3 X-20.695 Y-1.839 I0.578 J-2.432
N11810 G1 X-21.75 Y-2.807
N11815 X-23.035 Y-4.32
N11820 X-23.99 Y-6.044
N11825 X-24.474 Y-7.532
N11830 X-24.735 Y-8.921
N11835 X-24.76 Y-10.539
N11840 X-24.476 Y-12.517
N11845 X-23.897 Y-14.189
N11850 X-23.192 Y-15.574
N11855 X-21.955 Y-17.222
N11860 X-20.841 Y-18.272
N11865 X-20.335 Y-18.683
N11870 G3 X-17.859 Y-19.171 I1.656 J1.873
N11875 G1 X-15.132 Y-18.194
N11880 X-15.117 Y-18.189 F900.
N11885 X-15.141 Y-17.971
N11890 G3 X-15.986 Y-17.3 I-2.36 J-2.103 F1000.
N11895 X-17.127 Y-16.632 I-17.938 J-29.349
N11900 G2 X-19.145 Y-15.08 I4.865 J8.408
N11905 X-21.23 Y-10.526 I5.403 J5.229
N11910 X-19.709 Y-5.786 I6.563 J0.509
N11915 X-18.087 Y-4.206 I7.96 J-6.551
N11920 G3 X-16.979 Y-3.273 I-23.535 J29.101
N11925 X-16.12 Y-2.064 I-2.255 J2.511
N11930 G1 X-16.04 Y-1.812
N11935 X-15.979 Y-1.556
N11940 G3 X-15.99 Y-1.322 I-0.593 J0.09
N11945 X-16.736 Y-0.888 I-0.583 J-0.144 F30000.
N11950 G1 X-19.436 Y-1.466
N11955 G3 X-20.689 Y-2.088 I0.44 J-2.461
N11960 G1 X-22.155 Y-3.526
N11965 X-22.96 Y-4.605
N11970 X-23.812 Y-6.224
N11975 X-24.331 Y-7.842
N11980 X-24.526 Y-9.101
N11985 Y-10.899
N11990 X-24.147 Y-12.877
N11995 X-23.512 Y-14.495
N12000 X-22.834 Y-15.754
N12005 X-21.775 Y-17.101
N12010 X-20.515 Y-18.311
N12015 G3 X-18.176 Y-18.83 I1.645 J1.883
N12020 G1 X-15.296 Y-18.091
N12025 X-15.281 Y-18.046
N12030 X-15.235 Y-17.912 F900.
N12035 X-15.277 Y-17.828
N12040 G3 X-15.952 Y-17.218 I-2.155 J-1.71 F1000.
N12045 X-17.155 Y-16.439 I-14.486 J-21.054
N12050 G2 X-18.92 Y-15.021 I5.62 J8.8
N12055 X-20.894 Y-11.316 I5.355 J5.231
N12060 X-20.572 Y-7.692 I6.374 J1.26
N12065 X-18.828 Y-5.132 I6.95 J-2.86
N12070 X-17.569 Y-3.988 I12.302 J-12.279
N12075 G3 X-16.699 Y-3.155 I-6.126 J7.27
N12080 X-15.981 Y-1.556 I-2.361 J2.02
N12085 G1 X-15.974 Y-1.478
N12090 X-15.977 Y-1.399
N12095 X-15.99 Y-1.322
N12100 G3 X-16.736 Y-0.888 I-0.583 J-0.144 F30000.
N12105 G1 X-19.975 Y-1.984
N12110 G3 X-20.991 Y-2.627 I0.791 J-2.371
N12115 G1 X-22.315 Y-4.078
N12120 X-23.395 Y-5.871
N12125 X-23.934 Y-7.359
N12130 X-24.214 Y-8.561
N12135 X-24.342 Y-10.18
N12140 X-24.158 Y-11.892
N12145 X-23.889 Y-12.989
N12150 X-23.368 Y-14.318
N12155 X-22.315 Y-16.123
N12160 X-21.132 Y-17.495
N12165 X-20.515 Y-18.045
N12170 G3 X-18.356 Y-18.607 I1.643 J1.884
N12175 G1 X-15.476 Y-18.008
N12180 X-15.41 Y-17.923
N12185 X-15.335 Y-17.826 F900.
N12190 X-15.37 Y-17.718
N12195 G3 X-16.027 Y-17.062 I-2.228 J-1.575 F1000.
N12200 X-17.184 Y-16.24 I-14.001 J-18.477
N12205 G2 X-18.896 Y-14.756 I6.124 J8.794
N12210 X-20.614 Y-11.537 I5.465 J4.986
N12215 X-19.608 Y-6.404 I6.217 J1.446
N12220 X-18.112 Y-4.705 I7.902 J-5.454
N12225 G3 X-17.058 Y-3.718 I-96.853 J104.395
N12230 X-16.3 Y-2.727 I-2.935 J3.032
N12235 X-16.018 Y-1.775 I-2.781 J1.341
N12240 X-16.045 Y-1.542 I-0.598 J0.051
N12245 X-16.736 Y-1.136 I-0.572 J-0.182 F30000.
N12250 G1 X-20.155 Y-2.219
N12255 X-21.096 Y-2.987
N12260 X-22.152 Y-4.246
N12265 X-23.024 Y-5.684
N12270 X-23.575 Y-6.94
N12275 X-23.79 Y-7.662
N12280 X-24.051 Y-9.281
N12285 X-24.002 Y-11.439
N12290 X-23.494 Y-13.417
N12295 X-22.855 Y-14.866
N12300 X-21.595 Y-16.699
N12305 X-20.597 Y-17.732
N12310 G3 X-18.356 Y-18.431 I1.778 J1.758
N12315 G1 X-15.641 Y-17.858
N12320 X-15.542 Y-17.758
N12325 X-15.454 Y-17.67 F900.
N12330 X-15.487 Y-17.564
N12335 G3 X-16.071 Y-16.924 I-2.073 J-1.306 F1000.
N12340 X-17.109 Y-16.114 I-10.699 J-12.651
N12345 G2 X-18.783 Y-14.587 I6.853 J9.188
N12350 X-20.287 Y-11.88 I5.567 J4.866
N12355 X-19.533 Y-6.709 I6.028 J1.761
N12360 X-18.104 Y-4.955 I7.824 J-4.912
N12365 G3 X-17.047 Y-3.903 I-200.24 J202.384
N12370 X-16.437 Y-3.141 I-4.077 J3.894
N12375 X-16.034 Y-1.908 I-2.272 J1.423
N12380 G1 X-16.018 Y-1.775
N12385 G3 X-16.045 Y-1.542 I-0.598 J0.051
N12390 X-16.887 Y-1.189 I-0.572 J-0.182 F30000.
N12395 G1 X-19.615 Y-2.162
N12400 G3 X-20.629 Y-2.807 I0.797 J-2.37
N12405 G1 X-21.448 Y-3.706
N12410 X-22.461 Y-5.145
N12415 X-23.035 Y-6.226
N12420 X-23.621 Y-8.022
N12425 X-23.842 Y-9.64
N12430 X-23.81 Y-11.079
N12435 X-23.445 Y-12.877
N12440 X-22.855 Y-14.36
N12445 X-21.92 Y-15.944
N12450 X-20.882 Y-17.193
N12455 G3 X-18.598 Y-18.092 I1.94 J1.577
N12460 G1 X-15.656 Y-17.726
N12465 X-15.611 Y-17.661
N12470 X-15.533 Y-17.55 F900.
N12475 X-15.559 Y-17.454
N12480 G3 X-16.216 Y-16.688 I-2.375 J-1.373 F1000.
N12485 X-17.136 Y-15.91 I-11.34 J-12.49
N12490 G2 X-18.75 Y-14.321 I7.269 J8.995
N12495 X-20.063 Y-11.827 I5.637 J4.561
N12500 X-19.525 Y-7.157 I5.95 J1.68
N12505 X-18.005 Y-5.118 I7.955 J-4.346
N12510 G3 X-16.979 Y-4.031 I-190.874 J181.277
N12515 X-16.309 Y-3.08 I-3.26 J3.003
N12520 X-16.035 Y-1.908 I-2.789 J1.271
N12525 G1 X-16.037 Y-1.83
N12530 X-16.05 Y-1.752
N12535 X-16.072 Y-1.677
N12540 G3 X-16.916 Y-1.358 I-0.562 J-0.21 F30000.
N12545 G1 X-19.795 Y-2.619
N12550 G3 X-20.966 Y-3.483 I0.835 J-2.357
N12555 G1 X-21.986 Y-4.798
N12560 X-22.855 Y-6.414
N12565 X-23.422 Y-8.202
N12570 X-23.624 Y-10.18
N12575 X-23.429 Y-11.978
N12580 X-22.85 Y-13.874
N12585 X-22.135 Y-15.248
N12590 X-20.875 Y-16.922
N12595 X-20.618 Y-17.193
N12600 G3 X-18.356 Y-17.961 I1.838 J1.695
N12605 G1 X-15.749 Y-17.552
N12610 X-15.721 Y-17.507
N12615 X-15.637 Y-17.373 F900.
N12620 X-15.656 Y-17.298
N12625 G3 X-16.173 Y-16.615 I-2.083 J-1.039 F1000.
N12630 X-17.093 Y-15.763 I-9.514 J-9.352
N12635 G2 X-18.657 Y-14.123 I7.947 J9.147
N12640 X-19.812 Y-11.862 I5.711 J4.342
N12645 X-19.278 Y-7.193 I5.9 J1.689
N12650 X-17.966 Y-5.35 I7.949 J-4.266
N12655 G3 X-16.945 Y-4.203 I-577.642 J515.691
N12660 X-16.255 Y-3.139 I-3.248 J2.861
N12665 X-16.047 Y-2.098 I-2.848 J1.11
N12670 X-16.097 Y-1.869 I-0.6 J-0.011
N12675 X-16.916 Y-1.572 I-0.55 J-0.24 F30000.
N12680 G1 X-19.975 Y-2.931
N12685 G3 X-20.895 Y-3.706 I1.104 J-2.243
N12690 G1 X-22.05 Y-5.325
N12695 X-22.861 Y-7.123
N12700 X-23.284 Y-8.921
N12705 X-23.33 Y-10.899
N12710 X-23.035 Y-12.676
N12715 X-22.416 Y-14.316
N12720 X-21.415 Y-15.934
N12725 X-20.72 Y-16.833
N12730 G3 X-18.536 Y-17.707 I1.911 J1.611
N12735 G1 X-15.836 Y-17.444
N12740 X-15.796 Y-17.391
N12745 X-15.699 Y-17.263 F900.
N12750 X-15.714 Y-17.19
N12755 G3 X-16.196 Y-16.477 I-2.13 J-0.92 F1000.
N12760 X-17.214 Y-15.459 I-11.411 J-10.388
N12765 G2 X-18.527 Y-13.972 I8.364 J8.709
N12770 X-19.683 Y-11.404 I5.545 J4.043
N12775 X-19.061 Y-7.28 I6.043 J1.197
N12780 X-17.96 Y-5.633 I7.874 J-4.069
N12785 X-16.937 Y-4.416 I65.811 J-54.292
N12790 G3 X-16.321 Y-3.489 I-4.245 J3.49
N12795 X-16.049 Y-2.098 I-2.778 J1.265
N12800 G1 X-16.055 Y-2.02
N12805 X-16.071 Y-1.943
N12810 X-16.097 Y-1.869
N12815 G3 X-16.916 Y-1.572 I-0.55 J-0.24 F30000.
N12820 G1 X-19.529 Y-2.807
N12825 G3 X-20.515 Y-3.541 I0.955 J-2.311
N12830 G1 X-21.886 Y-5.505
N12835 X-22.675 Y-7.327
N12840 X-23.084 Y-9.281
N12845 X-23.068 Y-11.259
N12850 X-22.747 Y-12.745
N12855 X-22.254 Y-14.136
N12860 X-21.445 Y-15.574
N12865 X-20.769 Y-16.474
N12870 G3 X-18.716 Y-17.434 I1.971 J1.538
N12875 G1 X-15.85 Y-17.255
N12880 X-15.836 Y-17.254 F900.
N12885 X-15.785 Y-17.038
N12890 G3 X-16.242 Y-16.306 I-2.196 J-0.862 F1000.
N12895 X-17.24 Y-15.228 I-12.221 J-10.307
N12900 G2 X-18.487 Y-13.686 I8.369 J8.043
N12905 X-19.498 Y-11.059 I5.521 J3.635
N12910 X-18.9 Y-7.475 I6.151 J0.815
N12915 X-17.673 Y-5.573 I8.599 J-4.2
N12920 G3 X-16.868 Y-4.554 I-150.664 J119.919
N12925 X-16.215 Y-3.442 I-3.575 J2.847
N12930 X-16.051 Y-2.268 I-3.051 J1.025
N12935 G1 X-16.058 Y-2.19
N12940 X-16.076 Y-2.113
N12945 X-16.103 Y-2.04
N12950 G3 X-16.916 Y-1.751 I-0.546 J-0.248 F30000.
N12955 G1 X-19.435 Y-2.987
N12960 G3 X-20.404 Y-3.706 I0.961 J-2.308
N12965 G1 X-21.185 Y-4.785
N12970 X-22.135 Y-6.575
N12975 X-22.689 Y-8.382
N12980 X-22.829 Y-9.64
N12985 X-22.812 Y-11.079
N12990 X-22.429 Y-13.057
N12995 X-21.64 Y-14.855
N13000 X-21.09 Y-15.754
N13005 X-20.695 Y-16.265
N13010 G3 X-18.716 Y-17.216 I1.962 J1.549
N13015 G1 X-16.016 Y-17.16
N13020 X-15.952 Y-17.095
N13025 X-15.829 Y-16.973 F900.
N13030 X-15.839 Y-16.911
N13035 G3 X-16.255 Y-16.166 I-2.121 J-0.695 F1000.
N13040 X-16.776 Y-15.533 I-6.095 J-4.483
N13045 G2 X-18.042 Y-14.004 I13.298 J12.305
N13050 X-19.127 Y-11.709 I5.772 J4.131
N13055 X-18.798 Y-7.821 I5.944 J1.455
N13060 X-17.662 Y-5.864 I8.315 J-3.521
N13065 G3 X-16.754 Y-4.637 I-584.429 J433.348
N13070 X-16.202 Y-3.623 I-3.624 J2.631
N13075 X-16.051 Y-2.466 I-3.082 J0.99
N13080 G1 X-16.059 Y-2.388
N13085 X-16.076 Y-2.311
N13090 X-16.104 Y-2.238
N13095 G3 X-16.916 Y-1.949 I-0.546 J-0.249 F30000.
N13100 G1 X-19.528 Y-3.347
N13105 G3 X-20.515 Y-4.171 I1.054 J-2.267
N13110 G1 X-21.595 Y-5.968
N13115 X-22.147 Y-7.303
N13120 X-22.572 Y-9.281
N13125 X-22.565 Y-11.259
N13130 X-22.188 Y-13.057
N13135 X-21.407 Y-14.855
N13140 X-20.837 Y-15.754
N13145 G3 X-18.716 Y-16.929 I2.12 J1.325
N13150 G1 X-15.991 Y-17.013
N13155 X-15.986 Y-17.002
N13160 X-15.883 Y-16.79 F900.
N13165 G3 X-16.28 Y-16.002 I-2.169 J-0.599 F1000.
N13170 X-17.146 Y-14.901 I-11.018 J-7.774
N13175 G2 X-18.275 Y-13.271 I8.686 J7.22
N13180 X-19.051 Y-10.567 I5.596 J3.071
N13185 X-18.3 Y-7.287 I6.512 J0.234
N13190 X-17.253 Y-5.603 I10.295 J-5.229
N13195 G3 X-16.464 Y-4.426 I-14.462 J10.546
N13200 X-16.052 Y-2.687 I-2.672 J1.552
N13205 G1 X-16.059 Y-2.609
N13210 X-16.076 Y-2.533
N13215 X-16.104 Y-2.459
N13220 G3 X-16.916 Y-2.17 I-0.546 J-0.249 F30000.
N13225 G1 X-19.615 Y-3.67
N13230 G3 X-20.445 Y-4.426 I1.226 J-2.179
N13235 G1 X-21.131 Y-5.57
N13240 X-21.775 Y-6.951
N13245 X-22.185 Y-8.525
N13250 X-22.377 Y-10.147
N13255 X-22.214 Y-11.978
N13260 X-21.9 Y-13.169
N13265 X-21.186 Y-14.855
N13270 X-20.738 Y-15.574
N13275 G3 X-18.716 Y-16.745 I2.118 J1.328
N13280 G1 X-16.031 Y-16.832
N13285 X-15.988 Y-16.833 F900.
N13290 X-15.927 Y-16.651
N13295 G3 X-16.269 Y-15.882 I-2.12 J-0.482 F1000.
N13300 X-17.197 Y-14.602 I-12.8 J-8.307
N13305 G2 X-18.23 Y-12.909 I8.21 J6.171
N13310 X-18.795 Y-9.874 I5.666 J2.625
N13315 X-17.865 Y-6.922 I7.088 J-0.612
N13320 X-16.966 Y-5.478 I13.736 J-7.549
N13325 G3 X-16.332 Y-4.42 I-8.293 J5.685
N13330 X-16.05 Y-3.168 I-2.672 J1.26
N13335 G1 Y-2.921
N13340 G3 X-16.104 Y-2.693 I-0.6 J-0.021
N13345 X-16.916 Y-2.405 I-0.546 J-0.249 F30000.
N13350 G1 X-19.56 Y-3.886
N13355 G3 X-20.515 Y-4.858 I1.238 J-2.172
N13360 G1 X-21.415 Y-6.682
N13365 X-21.967 Y-8.561
N13370 X-22.103 Y-10.
N13375 X-21.973 Y-11.978
N13380 X-21.415 Y-13.887
N13385 X-20.747 Y-15.215
N13390 G3 X-18.896 Y-16.404 I2.139 J1.294
N13395 G1 X-16.15 Y-16.726
N13400 X-16.07 Y-16.687
N13405 X-16.002 Y-16.653 F900.
N13410 X-15.967 Y-16.498
N13415 G3 X-16.262 Y-15.752 I-2.036 J-0.373 F1000.
N13420 X-17.086 Y-14.509 I-11.335 J-6.618
N13425 G2 X-18.063 Y-12.783 I8.535 J5.973
N13430 X-18.151 Y-8.079 I5.803 J2.462
N13435 X-17.133 Y-6.057 I9.515 J-3.523
N13440 G3 X-16.416 Y-4.853 I-26.047 J16.322
N13445 X-16.052 Y-3.168 I-2.787 J1.485
N13450 G1 X-16.059 Y-3.09
N13455 X-16.076 Y-3.013
N13460 X-16.104 Y-2.94
N13465 G3 X-16.916 Y-2.651 I-0.546 J-0.249 F30000.
N13470 G1 X-19.436 Y-4.132
N13475 G3 X-20.429 Y-5.145 I1.215 J-2.185
N13480 G1 X-21.204 Y-6.763
N13485 X-21.705 Y-8.561
N13490 X-21.871 Y-10.
N13495 X-21.769 Y-11.798
N13500 X-21.299 Y-13.596
N13505 X-20.907 Y-14.495
N13510 G3 X-19.107 Y-15.934 I2.285 J1.014
N13515 G1 X-16.178 Y-16.592
N13520 X-16.136 Y-16.55
N13525 X-15.99 Y-16.404 F900.
N13530 X-15.993 Y-16.375
N13535 G3 X-16.294 Y-15.54 I-2.21 J-0.325 F1000.
N13540 X-17.025 Y-14.339 I-12.342 J-6.694
N13545 G2 X-17.926 Y-12.573 I8.482 J5.44
N13550 X-17.927 Y-8.128 I6.04 J2.225
N13555 X-17.089 Y-6.333 I9.432 J-3.312
N13560 G3 X-16.379 Y-5.061 I-34.793 J20.256
N13565 X-16.052 Y-3.429 I-2.85 J1.419
N13570 G1 X-16.059 Y-3.351
N13575 X-16.077 Y-3.275
N13580 X-16.104 Y-3.201
N13585 G3 X-16.916 Y-2.912 I-0.546 J-0.249 F30000.
N13590 G1 X-19.436 Y-4.462
N13595 G3 X-20.39 Y-5.505 I1.292 J-2.14
N13600 G1 X-21.09 Y-7.123
N13605 X-21.543 Y-9.101
N13610 X-21.63 Y-10.899
N13615 X-21.339 Y-12.713
N13620 X-20.875 Y-14.108
N13625 X-20.701 Y-14.495
N13630 G3 X-18.896 Y-15.917 I2.276 J1.033
N13635 G1 X-16.196 Y-16.45
N13640 X-16.173 Y-16.423
N13645 X-16.017 Y-16.246 F900.
N13650 G3 X-16.246 Y-15.469 I-1.991 J-0.164 F1000.
N13655 X-16.963 Y-14.165 I-11.756 J-5.615
N13660 G2 X-17.782 Y-12.36 I8.654 J5.018
N13665 X-17.709 Y-8.179 I6.313 J1.981
N13670 X-16.904 Y-6.368 I10.133 J-3.423
N13675 G3 X-16.276 Y-5.134 I-18.263 J10.068
N13680 X-16.05 Y-4.004 I-2.789 J1.146
N13685 G1 Y-3.707
N13690 G3 X-16.104 Y-3.479 I-0.6 J-0.021
N13695 X-16.916 Y-3.191 I-0.546 J-0.249 F30000.
N13700 G1 X-19.436 Y-4.896
N13705 G3 X-20.336 Y-5.864 I1.316 J-2.126
N13710 G1 X-20.867 Y-7.123
N13715 X-21.316 Y-9.101
N13720 X-21.362 Y-11.079
N13725 X-20.981 Y-13.237
N13730 X-20.568 Y-14.316
N13735 G3 X-18.896 Y-15.705 I2.275 J1.037
N13740 G1 X-16.17 Y-16.291
N13745 X-16.157 Y-16.294 F900.
N13750 X-16.033 Y-16.109
N13755 G3 X-16.248 Y-15.285 I-2.094 J-0.106 F1000.
N13760 X-16.845 Y-14.081 I-11.44 J-4.928
N13765 G2 X-17.602 Y-12.249 I9.051 J4.813
N13770 X-17.441 Y-8.066 I6.609 J1.84
N13775 X-16.648 Y-6.248 I11.925 J-4.117
N13780 G3 X-16.247 Y-5.375 I-12.717 J6.379
N13785 X-16.05 Y-4.322 I-2.746 J1.058
N13790 G1 Y-4.004
N13795 G3 X-16.104 Y-3.776 I-0.6 J-0.021
N13800 X-16.984 Y-3.526 I-0.546 J-0.249 F30000.
N13805 G1 X-19.523 Y-5.325
N13810 G3 X-20.375 Y-6.404 I1.46 J-2.029
N13815 G1 X-20.926 Y-8.202
N13820 X-21.163 Y-10.18
N13825 X-21.073 Y-11.871
N13830 X-20.607 Y-13.776
N13835 X-20.517 Y-13.956
N13840 G3 X-19.076 Y-15.182 I2.22 J1.149
N13845 G1 X-16.196 Y-16.15
N13850 X-16.191 Y-16.143
N13855 X-16.045 Y-15.958 F900.
N13860 G3 X-16.214 Y-15.169 I-1.997 J-0.017 F1000.
N13865 X-16.744 Y-13.97 I-10.732 J-4.022
N13870 G2 X-17.43 Y-12.11 I9.508 J4.564
N13875 X-17.26 Y-8.194 I6.913 J1.661
N13880 X-16.517 Y-6.355 I12.94 J-4.161
N13885 G3 X-16.144 Y-5.411 I-6.799 J3.228
N13890 G1 X-16.093 Y-5.165
N13895 X-16.061 Y-4.917
N13900 X-16.05 Y-4.667
N13905 Y-4.322
N13910 G3 X-16.104 Y-4.094 I-0.6 J-0.021
N13915 X-17.039 Y-3.886 I-0.546 J-0.249 F30000.
N13920 G1 X-19.582 Y-5.864
N13925 G3 X-20.411 Y-7.123 I1.576 J-1.94
N13930 G1 X-20.794 Y-8.741
N13935 X-20.947 Y-10.64
N13940 X-20.73 Y-12.517
N13945 X-20.495 Y-13.417
N13950 G3 X-18.896 Y-15.07 I2.395 J0.716
N13955 G1 X-16.199 Y-16.021
N13960 X-16.196 Y-16.022 F900.
N13965 X-16.048 Y-15.842
N13970 G3 X-16.21 Y-14.956 I-2.241 J0.047 F1000.
N13975 X-16.657 Y-13.822 I-11.706 J-3.954
N13980 G2 X-17.264 Y-11.934 I9.794 J4.192
N13985 X-17.071 Y-8.29 I7.279 J1.441
N13990 X-16.376 Y-6.432 I14.917 J-4.521
N13995 G3 X-16.089 Y-5.527 I-4.323 J1.869
N14000 G1 X-16.06 Y-5.285
N14005 X-16.05 Y-5.042
N14010 Y-4.667
N14015 G3 X-16.104 Y-4.439 I-0.6 J-0.021
N14020 X-17.055 Y-4.246 I-0.546 J-0.249 F30000.
N14025 G1 X-19.352 Y-6.044
N14030 G3 X-20.2 Y-7.303 I1.504 J-1.93
N14035 G1 X-20.592 Y-9.101
N14040 X-20.676 Y-10.36
N14045 X-20.526 Y-12.338
N14050 X-20.316 Y-13.237
N14055 G3 X-18.716 Y-14.968 I2.375 J0.59
N14060 G1 X-16.202 Y-15.854
N14065 X-16.196 Y-15.856 F900.
N14070 X-16.05 Y-15.679
N14075 G3 X-16.194 Y-14.749 I-2.513 J0.088 F1000.
N14080 X-16.626 Y-13.509 I-16.912 J-5.198
N14085 G2 X-17.155 Y-11.308 I9.125 J3.36
N14090 X-16.756 Y-7.953 I8.081 J0.739
N14095 X-16.228 Y-6.47 I24.999 J-8.07
N14100 G3 X-16.049 Y-5.456 I-2.999 J1.052
N14105 G1 X-16.05 Y-5.042
N14110 G3 X-16.104 Y-4.814 I-0.6 J-0.021
N14115 X-17.038 Y-4.605 I-0.546 J-0.249 F30000.
N14120 G1 X-19.436 Y-6.792
N14125 G3 X-20.216 Y-8.382 I1.533 J-1.739
N14130 G1 X-20.402 Y-10.622
N14135 X-20.392 Y-11.798
N14140 G3 X-19.436 Y-13.748 I2.317 J-0.072
N14145 G1 X-16.202 Y-15.649
N14150 X-16.196 Y-15.652 F900.
N14155 X-16.05 Y-15.476
N14160 G3 X-16.183 Y-14.489 I-2.953 J0.105 F1000.
N14165 X-16.611 Y-13.066 I-38.885 J-10.932
N14170 G2 X-16.984 Y-10.55 I8.688 J2.574
N14175 X-16.498 Y-7.766 I9.289 J-0.188
N14180 X-16.185 Y-6.801 I42.731 J-13.309
N14185 G3 X-16.05 Y-5.92 I-2.867 J0.892
N14190 X-16.104 Y-5.692 I-0.6 J-0.021
N14195 X-17.061 Y-5.505 I-0.546 J-0.249 F30000.
N14200 G1 X-19.675 Y-8.202
N14205 X-19.998 Y-9.101
N14210 X-20.057 Y-11.279
N14215 X-19.94 Y-12.338
N14220 G3 X-19.076 Y-13.674 I2.04 J0.372
N14225 G1 X-16.204 Y-15.429
N14230 X-16.05 Y-15.251 F900.
N14235 G3 X-16.176 Y-14.162 I-3.59 J0.138 F1000.
N14240 X-16.438 Y-13.127 I-27.743 J-6.498
N14245 G2 X-16.78 Y-10.605 I9.61 J2.588
N14250 X-16.322 Y-7.815 I10.034 J-0.216
N14255 G3 X-16.094 Y-6.958 I-12.683 J3.838
N14260 G1 X-16.061 Y-6.704
N14265 X-16.05 Y-6.447
N14270 G3 X-16.104 Y-6.22 I-0.6 J-0.021
N14275 X-17.096 Y-6.068 I-0.546 J-0.249 F30000.
N14280 G1 X-19.256 Y-8.485
N14285 G3 X-19.791 Y-9.888 I1.354 J-1.321
N14290 G1 X-19.716 Y-11.798
N14295 G3 X-18.896 Y-13.177 I1.882 J0.187
N14300 G1 X-16.237 Y-15.141
N14305 X-16.219 Y-15.123
N14310 X-16.05 Y-14.96 F900.
N14315 G3 X-16.187 Y-13.661 I-4.92 J0.137 F1000.
N14320 G2 X-16.5 Y-11.989 I27.544 J6.018
N14325 X-16.27 Y-8.331 I9.574 J1.234
N14330 G3 X-16.084 Y-7.514 I-22.203 J5.496
N14335 G1 X-16.059 Y-7.29
N14340 X-16.05 Y-7.064
N14345 G3 X-16.104 Y-6.837 I-0.6 J-0.021
N14350 X-17.243 Y-7.174 I-0.546 J-0.249 F30000.
N14355 G1 X-16.088 Y-14.907
N14360 G2 X-16.286 Y-14.937 I-0.099 J-0.015
N14365 X-16.204 Y-14.823 I0.099 J0.015
N14370 G3 X-16.186 Y-14.819 I-0.033 J0.185
N14375 X-16.05 Y-14.645 I-0.052 J0.18 F900.
N14380 X-16.155 Y-13.238 I-6.883 J0.195 F1000.
N14385 G2 X-16.386 Y-11.267 I17.81 J3.089
N14390 X-16.102 Y-8.388 I11.129 J0.355
N14395 G1 X-16.075 Y-8.2
N14400 X-16.056 Y-8.012
N14405 X-16.05 Y-7.822
N14410 G3 X-16.104 Y-7.595 I-0.6 J-0.021
N14415 X-17.25 Y-7.843 I-0.546 J-0.249 F30000.
N14420 G1 Y-14.196
N14425 G3 X-16.104 Y-14.445 I0.6 J0.
N14430 X-16.05 Y-14.217 I-0.546 J0.249 F900.
N14435 X-16.148 Y-12.324 I-13.824 J0.23 F1000.
N14440 G2 X-16.06 Y-9.113 I12.461 J1.264
N14445 G1 X-16.053 Y-8.979
N14450 X-16.05 Y-8.846
N14455 G3 X-16.104 Y-8.618 I-0.6 J-0.021
N14460 X-17.25 Y-8.867 I-0.546 J-0.249 F30000.
N14465 G1 Y-13.575
N14470 G3 X-16.104 Y-13.824 I0.6 J0.
N14475 X-16.05 Y-13.596 I-0.546 J0.249 F900.
N14480 G1 Y-5.456 F1000.
N14485 G3 X-16.104 Y-5.228 I-0.6 J-0.021
N14490 X-17.149 Y-5.145 I-0.546 J-0.249 F30000.
N14495 G1 X-19.015 Y-8.022
N14500 G3 X-19.361 Y-9.281 I2.154 J-1.27
N14505 G1 X-19.898 Y-23.127
N14510 G2 X-21.055 Y-25.088 I-2.496 J0.15
N14515 X-22.135 Y-25.464 Z-18. I-1.339 J2.111
N14520 G1 X-22.315 Y-25.476
N14525 G2 X-24.834 Y-23.519 I-0.079 J2.499
N14530 G1 X-24.913 Y-23.206
N14535 X-24.97 Y-22.977 F900.
N14540 Y-22.968 F450.
N14545 G2 X-26.787 Y-21.68 I0.95 J3.265 F1000.
N14550 X-27.576 Y-19.875 I3.717 J2.701
N14555 X-27.788 Y-17.904 I9.772 J2.045
N14560 X-27.816 Y-14.501 I91.953 J2.467
N14565 G1 X-27.82 Y-13.65
N14570 Y-11.098
N14575 Y-0.888
N14580 G2 X-27.228 Y0.972 I3.091 J0.04
N14585 X-25.707 Y2.212 I3.072 J-2.215
N14590 X-23.795 Y2.711 I2.403 J-5.303
N14595 X-21.529 Y2.809 I2.011 J-20.107
N14600 X-15.857 Y2.82 I3.785 J-497.997
N14605 G1 X24.132
N14610 G2 X25.988 Y2.216 I0.019 J-3.097
N14615 X27.221 Y0.688 I-2.239 J-3.067
N14620 X27.713 Y-1.225 I-5.35 J-2.396
N14625 X27.809 Y-3.491 I-20.446 J-2.007
N14630 X27.82 Y-9.163 I-507.676 J-3.784
N14635 G1 Y-19.089
N14640 G2 X27.242 Y-20.954 I-3.084 J-0.065
N14645 X25.728 Y-22.203 I-3.077 J2.188
N14650 X23.818 Y-22.708 I-2.411 J5.249
N14655 X21.836 Y-22.807 I-1.873 J17.643
N14660 X15.88 Y-22.82 I-4.019 J467.641
N14665 G1 X-23.542
N14670 G2 X-26.285 Y-21.54 I0.044 J3.674
N14675 X-27.243 Y-19.818 I3.461 J3.054
N14680 X-27.608 Y-17.586 I8.118 J2.474
N14685 X-27.664 Y-15.035 I39.365 J2.133
N14690 X-27.67 Y-10.213 I620.969 J3.224
N14695 G1 Y-1.705
N14700 G2 X-26.106 Y1.478 I3.827 J0.095
N14705 X-24.325 Y2.326 I2.96 J-3.922
N14710 X-22.081 Y2.623 I2.4 J-9.51
N14715 X-19.246 Y2.665 I2.256 J-55.881
N14720 X-14.991 Y2.67 I2.808 J-616.65
N14725 G1 X-6.767
N14730 X23.296
N14735 G2 X26.479 Y1.105 I0.094 J-3.827
N14740 X27.326 Y-0.676 I-3.923 J-2.959
N14745 X27.623 Y-2.92 I-9.514 J-2.4
N14750 X27.665 Y-5.755 I-55.926 J-2.256
N14755 X27.67 Y-10.01 I-617.277 J-2.808
N14760 G1 Y-18.234
N14765 G2 X26.155 Y-21.442 I-3.828 J-0.153
N14770 X24.11 Y-22.379 I-3.065 J3.987
N14775 X22.143 Y-22.621 I-2.207 J9.807
N14780 X19.024 Y-22.665 I-2.442 J62.408
N14785 X15.337 Y-22.67 I-2.463 J494.81
N14790 G1 X-22.667
N14795 G2 X-24.341 Y-22.417 I-0.161 J4.596
N14800 X-26.631 Y-20.399 I1.512 J4.025
N14805 X-27.325 Y-18.253 I5.429 J2.942
N14810 X-27.486 Y-16.276 I14.111 J2.148
N14815 X-27.516 Y-11.738 I145.497 J3.208
N14820 G1 X-27.52 Y-10.037
N14825 Y-2.379
N14830 G2 X-27.265 Y-0.706 I4.74 J0.133
N14835 X-25.264 Y1.601 I4.068 J-1.508
N14840 X-23.123 Y2.313 I2.981 J-5.381
N14845 X-20.864 Y2.491 I2.31 J-14.915
N14850 X-16.61 Y2.516 I3.026 J-150.754
N14855 G1 X-14.908 Y2.52
N14860 X-8.669
N14865 X22.528
N14870 G2 X23.935 Y2.376 I0.174 J-5.229
N14875 X26.554 Y0.343 I-1.111 J-4.136
N14880 X27.298 Y-1.786 I-5.184 J-3.006
N14885 X27.488 Y-4.044 I-14.106 J-2.328
N14890 X27.516 Y-8.298 I-139.15 J-3.034
N14895 G1 X27.52 Y-13.119
N14900 X27.516 Y-17.941
N14905 G2 X25.476 Y-21.473 I-4.243 J0.094
N14910 X23.367 Y-22.27 I-3.063 J4.918
N14915 X21.395 Y-22.474 I-2.235 J11.952
N14920 X17.425 Y-22.515 I-2.926 J92.572
N14925 G1 X16.574 Y-22.52
N14930 X14.872
N14935 X-16.041
N14940 X-21.997
N14945 G2 X-23.408 Y-22.406 I-0.185 J6.471
N14950 X-26.311 Y-20.304 I0.957 J4.378
N14955 X-27.1 Y-18.19 I5.222 J3.153
N14960 X-27.326 Y-15.936 I13.095 J2.455
N14965 X-27.365 Y-11.966 I98.919 J2.944
N14970 G1 X-27.37 Y-11.115
N14975 Y-9.697
N14980 Y-3.174
N14985 G2 X-27.279 Y-1.76 I7.575 J0.223
N14990 X-25.036 Y1.362 I4.451 J-0.831
