%
(1)
(T3  D=2.5 CR=0. TAPER=118DEG - ZMIN=-30. - DRILL)
N10 G90 G94 G17 G91.1
N15 G21
N20 G53 G0 Z0.
(DRILL4)
N25 M9
N30 T3 M6
N35 S1910 M3
N40 G54
N45 M8
N55 G0 X-20. Y-5.
N60 G43 Z4. H3
N70 G0 Z2.
N75 Z-16.
N80 G1 Z-18.625 F100.34
N85 G0 Z-15.625
N90 G1 Z-19.25 F100.34
N95 G0 Z-16.25
N100 G1 Z-19.875 F100.34
N105 G0 Z-16.875
N110 G1 Z-20.5 F100.34
N115 G0 Z-17.5
N120 G1 Z-21.125 F100.34
N125 G0 Z-18.125
N130 G1 Z-21.75 F100.34
N135 G0 Z-18.75
N140 G1 Z-22.375 F100.34
N145 G0 Z-19.375
N150 G1 Z-23. F100.34
N155 G0 Z-20.
N160 G1 Z-23.625 F100.34
N165 G0 Z-20.625
N170 G1 Z-24.25 F100.34
N175 G0 Z-21.25
N180 G1 Z-24.875 F100.34
N185 G0 Z2.
N190 Z-22.875
N195 G1 Z-25.5 F100.34
N200 G0 Z-22.5
N205 G1 Z-26.125 F100.34
N210 G0 Z-23.125
N215 G1 Z-26.75 F100.34
N220 G0 Z-23.75
N225 G1 Z-27.375 F100.34
N230 G0 Z-24.375
N235 G1 Z-28. F100.34
N240 G0 Z-25.
N245 G1 Z-28.625 F100.34
N250 G0 Z-25.625
N255 G1 Z-29.25 F100.34
N260 G0 Z-26.25
N265 G1 Z-29.875 F100.34
N270 G0 Z-26.875
N275 G1 Z-30. F100.34
N280 G0 Z2.
N285 Y-15.
N290 Z-16.
N295 G1 Z-18.625 F100.34
N300 G0 Z-15.625
N305 G1 Z-19.25 F100.34
N310 G0 Z-16.25
N315 G1 Z-19.875 F100.34
N320 G0 Z-16.875
N325 G1 Z-20.5 F100.34
N330 G0 Z-17.5
N335 G1 Z-21.125 F100.34
N340 G0 Z-18.125
N345 G1 Z-21.75 F100.34
N350 G0 Z-18.75
N355 G1 Z-22.375 F100.34
N360 G0 Z-19.375
N365 G1 Z-23. F100.34
N370 G0 Z-20.
N375 G1 Z-23.625 F100.34
N380 G0 Z-20.625
N385 G1 Z-24.25 F100.34
N390 G0 Z-21.25
N395 G1 Z-24.875 F100.34
N400 G0 Z2.
N405 Z-22.875
N410 G1 Z-25.5 F100.34
N415 G0 Z-22.5
N420 G1 Z-26.125 F100.34
N425 G0 Z-23.125
N430 G1 Z-26.75 F100.34
N435 G0 Z-23.75
N440 G1 Z-27.375 F100.34
N445 G0 Z-24.375
N450 G1 Z-28. F100.34
N455 G0 Z-25.
N460 G1 Z-28.625 F100.34
N465 G0 Z-25.625
N470 G1 Z-29.25 F100.34
N475 G0 Z-26.25
N480 G1 Z-29.875 F100.34
N485 G0 Z-26.875
N490 G1 Z-30. F100.34
N495 G0 Z2.
N500 X20.
N505 Z-16.
N510 G1 Z-18.625 F100.34
N515 G0 Z-15.625
N520 G1 Z-19.25 F100.34
N525 G0 Z-16.25
N530 G1 Z-19.875 F100.34
N535 G0 Z-16.875
N540 G1 Z-20.5 F100.34
N545 G0 Z-17.5
N550 G1 Z-21.125 F100.34
N555 G0 Z-18.125
N560 G1 Z-21.75 F100.34
N565 G0 Z-18.75
N570 G1 Z-22.375 F100.34
N575 G0 Z-19.375
N580 G1 Z-23. F100.34
N585 G0 Z-20.
N590 G1 Z-23.625 F100.34
N595 G0 Z-20.625
N600 G1 Z-24.25 F100.34
N605 G0 Z-21.25
N610 G1 Z-24.875 F100.34
N615 G0 Z2.
N620 Z-22.875
N625 G1 Z-25.5 F100.34
N630 G0 Z-22.5
N635 G1 Z-26.125 F100.34
N640 G0 Z-23.125
N645 G1 Z-26.75 F100.34
N650 G0 Z-23.75
N655 G1 Z-27.375 F100.34
N660 G0 Z-24.375
N665 G1 Z-28. F100.34
N670 G0 Z-25.
N675 G1 Z-28.625 F100.34
N680 G0 Z-25.625
N685 G1 Z-29.25 F100.34
N690 G0 Z-26.25
N695 G1 Z-29.875 F100.34
N700 G0 Z-26.875
N705 G1 Z-30. F100.34
N710 G0 Z2.
N715 Y-5.
N720 Z-16.
N725 G1 Z-18.625 F100.34
N730 G0 Z-15.625
N735 G1 Z-19.25 F100.34
N740 G0 Z-16.25
N745 G1 Z-19.875 F100.34
N750 G0 Z-16.875
N755 G1 Z-20.5 F100.34
N760 G0 Z-17.5
N765 G1 Z-21.125 F100.34
N770 G0 Z-18.125
N775 G1 Z-21.75 F100.34
N780 G0 Z-18.75
N785 G1 Z-22.375 F100.34
N790 G0 Z-19.375
N795 G1 Z-23. F100.34
N800 G0 Z-20.
N805 G1 Z-23.625 F100.34
N810 G0 Z-20.625
N815 G1 Z-24.25 F100.34
N820 G0 Z-21.25
N825 G1 Z-24.875 F100.34
N830 G0 Z2.
N835 Z-22.875
N840 G1 Z-25.5 F100.34
N845 G0 Z-22.5
N850 G1 Z-26.125 F100.34
N855 G0 Z-23.125
N860 G1 Z-26.75 F100.34
N865 G0 Z-23.75
N870 G1 Z-27.375 F100.34
N875 G0 Z-24.375
N880 G1 Z-28. F100.34
N885 G0 Z-25.
N890 G1 Z-28.625 F100.34
N895 G0 Z-25.625
N900 G1 Z-29.25 F100.34
N905 G0 Z-26.25
N910 G1 Z-29.875 F100.34
N915 G0 Z-26.875
N920 G1 Z-30. F100.34
N925 G0 Z2.
N930 Z4.
N940 M9
N945 G53 Z0.
N950 M30
%
