%
(1)
(T21  D=5. CR=0. - ZMIN=-4. - FLAT END MILL)
N10 G90 G94 G17 G91.1
N15 G21
N20 G53 G0 Z0.
(FACE2)
N25 M9
N30 T21 M6
N35 S4000 M3
N40 G54
N45 M8
N55 G0 X4.25 Y-38.729
N60 G43 Z4. H21
N65 G0 Z1.1
N70 G1 Z0.6 F800.
N75 G18 G3 X3.75 Z0.1 I-0.5 K0.
N80 G1 X1.
N85 X-71.
N90 G17 G2 Y-34.997 I0. J1.866
N95 G1 X1.
N100 G3 Y-31.266 I0. J1.866
N105 G1 X-71.
N110 G2 Y-27.535 I0. J1.866
N115 G1 X1.
N120 G3 Y-23.803 I0. J1.866
N125 G1 X-71.
N130 G2 Y-20.072 I0. J1.866
N135 G1 X1.
N140 G3 Y-16.34 I0. J1.866
N145 G1 X-71.
N150 G2 Y-12.609 I0. J1.866
N155 G1 X1.
N160 G3 Y-8.878 I0. J1.866
N165 G1 X-71.
N170 G2 Y-5.146 I0. J1.866
N175 G1 X1.
N180 G3 Y-1.415 I0. J1.866
N185 G1 X-71.
N190 G18 G3 X-71.5 Z0.6 I0. K0.5
N195 G0 Z4.
N200 G17
(2D ADAPTIVE1)
N205 M8
N210 G0 X-25.123 Y-20.887
N215 Z4.
N220 Z2.51
N225 G1 Z2.505 F800.
N230 G3 X-28.979 Y-18.113 Z2.244 I-1.928 J1.387
N235 X-25.123 Y-20.887 Z1.984 I1.928 J-1.387
N240 X-28.979 Y-18.113 Z1.723 I-1.928 J1.387
N245 X-25.123 Y-20.887 Z1.463 I1.928 J-1.387
N250 X-28.979 Y-18.113 Z1.202 I-1.928 J1.387
N255 X-25.123 Y-20.887 Z0.942 I1.928 J-1.387
N260 X-28.979 Y-18.113 Z0.681 I-1.928 J1.387
N265 X-25.123 Y-20.887 Z0.421 I1.928 J-1.387
N270 X-28.979 Y-18.113 Z0.16 I-1.928 J1.387
N275 X-25.123 Y-20.887 Z-0.101 I1.928 J-1.387
N280 X-28.979 Y-18.113 Z-0.361 I-1.928 J1.387
N285 X-25.123 Y-20.887 Z-0.622 I1.928 J-1.387
N290 X-28.979 Y-18.113 Z-0.882 I-1.928 J1.387
N295 X-25.123 Y-20.887 Z-1.143 I1.928 J-1.387
N300 X-28.979 Y-18.113 Z-1.403 I-1.928 J1.387
N305 X-25.123 Y-20.887 Z-1.664 I1.928 J-1.387
N310 X-28.979 Y-18.113 Z-1.924 I-1.928 J1.387
N315 X-25.123 Y-20.887 Z-2.185 I1.928 J-1.387
N320 X-28.979 Y-18.113 Z-2.446 I-1.928 J1.387
N325 X-25.123 Y-20.887 Z-2.706 I1.928 J-1.387
N330 X-28.979 Y-18.113 Z-2.967 I-1.928 J1.387
N335 X-25.123 Y-20.887 Z-3.227 I1.928 J-1.387
N340 X-28.979 Y-18.113 Z-3.488 I-1.928 J1.387
N345 X-25.123 Y-20.887 Z-3.748 I1.928 J-1.387
N350 X-24.676 Y-19.5 Z-3.8 I-1.928 J1.387
N355 X-29.426 I-2.375 J0.
N360 X-24.676 Y-19.557 I2.375 J0.
N365 Y-19.5 I-2.374 J0.057
N370 G2 X-24.587 Y-18.779 I2.325 J0.08
N375 G3 X-25.002 Y-17.533 I-1.777 J0.1
N380 X-26.861 Y-16.558 I-2.019 J-1.589
N385 X-30.024 Y-19.504 I-0.234 J-2.92
N390 X-24.313 Y-20.668 I2.974 J-0.002
N395 X-23.914 Y-19.265 I-4.048 J1.907
N400 X-25.687 Y-16.234 I-3.022 J0.266
N405 X-29.056 Y-16.49 I-1.459 J-3.096
N410 X-26.983 Y-23.129 I1.992 J-3.021
N415 X-24.056 Y-21.564 I-0.054 J3.62
N420 X-23.253 Y-18.486 I-3.35 J2.518
N425 X-26.527 Y-15.277 I-3.814 J-0.617
N430 X-30.732 Y-17.234 I-0.634 J-4.134
N435 X-24.419 Y-22.941 I3.677 J-2.277
N440 X-22.575 Y-18.2 I-2.897 J3.855
N445 X-26.881 Y-14.514 I-4.535 J-0.939
N450 X-31.785 Y-17.712 I-0.284 J-4.922
N455 X-24.831 Y-24.06 I4.729 J-1.802
N460 X-21.78 Y-19.773 I-2.412 J4.946
N465 X-25.861 Y-13.907 I-5.308 J0.66
N470 X-31.349 Y-15.583 I-1.332 J-5.461
N475 X-27.697 Y-25.3 I4.278 J-3.937
N480 X-23.099 Y-23.826 I0.657 J5.862
N485 X-21.58 Y-16.426 I-4.09 J4.696
N490 X-28.61 Y-13.129 I-5.592 J-2.781
N495 X-33.668 Y-19.616 I1.458 J-6.351
N500 X-24.82 Y-25.741 I6.614 J0.101
N505 X-20.284 Y-20.41 I-2.343 J6.588
N510 X-25.401 Y-12.396 I-6.824 J1.284
N515 X-32.555 Y-14.547 I-1.805 J-6.97
N520 X-28.954 Y-26.683 I5.478 J-4.976
N525 X-22.503 Y-25.411 I1.924 J7.244
N530 X-21.416 Y-13.852 I-4.652 J6.268
N535 X-31.026 Y-12.323 I-5.79 J-5.43
N540 X-34.66 Y-22.688 I3.897 J-7.186
N545 X-24.235 Y-27.267 I7.613 J3.176
N550 X-18.952 Y-21.827 I-2.882 J8.084
N555 X-25.032 Y-10.791 I-8.17 J2.692
N560 X-34.174 Y-13.896 I-2.183 J-8.583
N565 X-30.775 Y-27.792 I7.09 J-5.63
N570 X-22.016 Y-27.103 I3.75 J8.345
N575 X-25.868 Y-9.767 I-5.125 J7.957
N580 X-35.629 Y-14.525 I-1.343 J-9.635
N585 X-32.175 Y-28.017 I8.543 J-5.001
N590 X-21.949 Y-28.061 I5.15 J8.562
N595 X-25.313 Y-8.991 I-5.191 J8.916
N600 X-35.866 Y-13.311 I-1.905 J-10.395
N605 X-32.314 Y-28.929 I8.779 J-6.216
N610 X-21.554 Y-28.828 I5.292 J9.477
N615 X-24.596 Y-8.259 I-5.584 J9.684
N620 X-36.269 Y-12.4 I-2.628 J-11.116
N625 X-32.394 Y-29.87 I9.181 J-7.128
N630 X-21.105 Y-29.575 I5.375 J10.423
N635 X-23.917 Y-7.533 I-6.031 J10.431
N640 X-36.511 Y-11.318 I-3.311 J-11.829
N645 X-35.683 Y-28.599 I9.408 J-8.209
N650 X-22.294 Y-31.128 I8.655 J9.115
N655 X-14.267 Y-20.348 I-4.809 J11.959
N660 X-24.237 Y-6.542 I-12.871 J1.208
N665 X-37.579 Y-11.221 I-2.992 J-12.83
N670 X-33.725 Y-31.149 I10.487 J-8.309
N675 X-20.453 Y-31.232 I6.71 J11.7
N680 X-21.515 Y-6.526 I-6.678 J12.089
N685 X-36.468 Y-8.778 I-5.718 J-12.804
N690 X-39.705 Y-26.189 I9.341 J-10.743
N695 X-23.759 Y-33.447 I12.667 J6.683
N700 X-13.117 Y-23.58 I-3.31 J14.243
N705 X-12.609 Y-21.428 I-12.913 J4.189
N710 G1 X-12.602 Y-21.333
N715 X-12.6 Y-21.239
N720 Y-18.003
N725 G3 X-12.775 Y-16.18 I-12.264 J-0.259
N730 X-15.914 Y-9.646 I-13.805 J-2.612
N735 X-22.45 Y-5.199 I-11.207 J-9.443
N740 G1 X-22.642 Y-5.144
N745 X-22.84 Y-5.111
N750 X-23.04 Y-5.1
N755 X-30.35
N760 G3 X-32.904 Y-5.616 I0.21 J-7.623
N765 X-36.532 Y-7.674 I4.505 J-12.166
N770 X-42.197 Y-20.827 I9.345 J-11.821
N775 X-32.296 Y-33.783 I15.126 J1.299
N780 G1 X-32.088 Y-33.848
N785 X-31.874 Y-33.887
N790 X-31.656 Y-33.9
N795 X-23.451
N800 G3 X-20.918 Y-33.366 I-0.2 J7.219
N805 X-17.729 Y-31.584 I-4.592 J11.962
N810 X-12.743 Y-25.171 I-9.223 J12.317
N815 G1 X-12.663 Y-24.943
N820 X-12.616 Y-24.707
N825 X-12.6 Y-24.466
N830 Y-21.239
N835 Y-21.042
N840 Y-18.199 F30000.
N845 Y-18.003 F800.
N850 Y-14.858
N855 G3 X-13.052 Y-12.709 I-6.327 J-0.208
N860 X-14.862 Y-9.537 I-11.302 J-4.346
N865 X-19.916 Y-5.309 I-12.072 J-9.298
N870 X-20.762 Y-5.1 I-0.84 J-1.582
N875 G1 X-23.04
N880 G3 X-23.23 Y-5.145 I0.017 J-0.5
N885 X-23.363 Y-5.966 I0.207 J-0.455 F30000.
N890 G1 X-13.44 Y-15.206
N895 G3 X-12.645 Y-15.048 I0.341 J0.366
N900 X-12.6 Y-14.858 I-0.455 J0.207 F800.
N905 G1 Y-12.829
N910 G3 X-13.025 Y-11.025 I-4.815 J-0.182
N915 X-14.521 Y-8.575 I-9.316 J-4.006
N920 X-17.994 Y-5.403 I-11.778 J-9.411
N925 X-19. Y-5.1 I-0.999 J-1.495
N930 G1 X-20.762
N935 G3 X-20.952 Y-5.145 I0.017 J-0.5
N940 X-21.088 Y-5.963 I0.207 J-0.455 F30000.
N945 G1 X-13.443 Y-13.175
N950 G3 X-12.645 Y-13.019 I0.343 J0.364
N955 X-12.6 Y-12.829 I-0.455 J0.207 F800.
N960 G1 Y-11.182
N965 G3 X-12.993 Y-9.58 I-4.109 J-0.161
N970 X-14.242 Y-7.591 I-7.799 J-3.509
N975 X-16.352 Y-5.498 I-10.596 J-8.57
N980 X-17.491 Y-5.1 I-1.136 J-1.425
N985 G1 X-19.
N990 G3 X-19.189 Y-5.145 I0.017 J-0.5
N995 X-19.326 Y-5.963 I0.207 J-0.455 F30000.
N1000 G1 X-13.443 Y-11.528
N1005 G3 X-12.645 Y-11.372 I0.344 J0.363
N1010 X-12.6 Y-11.182 I-0.455 J0.207 F800.
N1015 G1 Y-9.767
N1020 G3 X-12.959 Y-8.28 I-3.673 J-0.1
N1025 X-14.081 Y-6.52 I-6.769 J-3.079
N1030 X-15.088 Y-5.462 I-6.325 J-5.007
N1035 X-16.186 Y-5.1 I-1.108 J-1.513
N1040 X-16.376 Y-5.145 I0.017 J-0.5
N1045 X-16.571 Y-5.897 I0.207 J-0.455 F30000.
N1050 G1 X-13.502 Y-10.047
N1055 G3 X-12.645 Y-9.957 I0.402 J0.297
N1060 X-12.6 Y-9.767 I-0.455 J0.207 F800.
N1065 G1 Y-8.419
N1070 G3 X-12.926 Y-7.064 I-3.35 J-0.088
N1075 X-13.738 Y-5.739 I-5.247 J-2.306
N1080 X-15.129 Y-5.1 I-1.392 J-1.196
N1085 X-15.319 Y-5.145 I0.017 J-0.5
N1090 X-15.518 Y-5.891 I0.207 J-0.455 F30000.
N1095 G1 X-13.506 Y-8.693
N1100 G3 X-12.645 Y-8.609 I0.406 J0.292
N1105 X-12.6 Y-8.419 I-0.455 J0.207 F800.
N1110 G1 Y-7.071
N1115 G3 X-12.967 Y-5.874 I-2.268 J-0.04
N1120 X-13.972 Y-5.168 I-1.518 J-1.093
N1125 G1 X-14.217 Y-5.117
N1130 X-14.467 Y-5.1
N1135 G3 X-14.657 Y-5.145 I0.017 J-0.5
N1140 X-14.816 Y-5.94 I0.207 J-0.455 F30000.
N1145 G1 X-13.466 Y-7.394
N1150 G3 X-12.645 Y-7.261 I0.366 J0.34
N1155 X-12.6 Y-7.071 I-0.455 J0.207 F800.
N1160 G1 Y-6.173
N1165 X-12.603 Y-6.105
N1170 X-12.608 Y-6.056
N1175 X-12.616 Y-6.002
N1180 X-12.695 Y-5.758
N1185 X-12.826 Y-5.539
N1190 X-13.004 Y-5.355
N1195 X-13.22 Y-5.216
N1200 X-13.461 Y-5.129
N1205 X-13.716 Y-5.1
N1210 G3 X-13.91 Y-5.125 I0.036 J-1.041
N1215 X-14.676 Y-6.446 I0.231 J-1.016 F30000.
N1220 X-12.625 Y-6.367 I1.015 J0.31
N1225 X-12.6 Y-6.173 I-1.036 J0.232 F800.
N1230 X-12.603 Y-5.649 I-6.43 J0.23
N1235 G1 X-12.648 Y-5.475
N1240 X-12.742 Y-5.322
N1245 X-12.875 Y-5.203
N1250 X-13.038 Y-5.126
N1255 X-13.215 Y-5.1
N1260 G3 X-13.407 Y-5.14 I0.019 J-0.577
N1265 X-13.745 Y-5.855 I0.211 J-0.537 F30000.
N1270 X-12.637 Y-5.879 I0.558 J0.181
N1275 X-12.6 Y-5.687 I-0.55 J0.205 F800.
N1280 X-13.102 Y-5.099 I-0.529 J0.057
N1285 G1 X-13.252 Y-5.1
N1290 X-17.491
N1295 X-17.505 Y-5.106 Z-3.799
N1300 X-17.538 Y-5.141 Z-3.79
N1305 X-17.568 Y-5.173 Z-3.768
N1310 X-17.594 Y-5.2 Z-3.737
N1315 X-17.613 Y-5.22 Z-3.697
N1320 X-17.625 Y-5.233 Z-3.652
N1325 X-17.63 Y-5.238 Z-3.604
N1330 G0 Z2.51
N1335 X-30.797 Y-5.452
N1340 Z-2.8
N1345 G1 Z-3.3 F800.
N1350 X-30.79 Y-5.449 Z-3.387
N1355 X-30.769 Y-5.442 Z-3.471
N1360 X-30.734 Y-5.431 Z-3.55
N1365 X-30.686 Y-5.415 Z-3.621
N1370 X-30.628 Y-5.395 Z-3.683
N1375 X-30.56 Y-5.373 Z-3.733
N1380 X-30.485 Y-5.348 Z-3.77
N1385 X-30.405 Y-5.322 Z-3.792
N1390 X-30.323 Y-5.294 Z-3.8
N1395 G3 X-30.35 Y-5.1 I-0.031 J0.095
N1400 G1 X-32.6
N1405 G3 X-34.72 Y-5.593 I0.14 J-5.404
N1410 X-37.18 Y-7.074 I4.285 J-9.904
N1415 X-41.443 Y-12.309 I9.424 J-12.026
N1420 X-34.717 Y-33.674 I14.357 J-7.222
N1425 X-33.841 Y-33.9 I0.866 J1.55
N1430 G1 X-31.656
N1435 X-31.607 Y-33.888 Z-3.793
N1440 X-31.561 Y-33.878 Z-3.773
N1445 X-31.522 Y-33.868 Z-3.742
N1450 X-31.492 Y-33.861 Z-3.701
N1455 X-31.473 Y-33.857 Z-3.654
N1460 X-31.466 Y-33.855 Z-3.604
N1465 G0 Z2.51
N1470 X-32.462 Y-5.238
N1475 Z-3.3
N1480 G1 Z-3.8 F800.
N1485 X-32.503 Y-5.194
N1490 X-32.545 Y-5.15
N1495 X-32.586 Y-5.106
N1500 X-32.6 Y-5.1
N1505 X-34.4
N1510 G3 X-36.105 Y-5.507 I0.137 J-4.347
N1515 X-38.312 Y-6.9 I3.727 J-8.352
N1520 X-41.547 Y-10.648 I9.477 J-11.449
N1525 X-41.468 Y-28.54 I14.405 J-8.883
N1530 X-36.597 Y-33.594 I14.319 J8.927
N1535 X-35.584 Y-33.9 I1.009 J1.511
N1540 G1 X-33.841
N1545 X-33.792 Y-33.888 Z-3.793
N1550 X-33.746 Y-33.878 Z-3.773
N1555 X-33.707 Y-33.868 Z-3.742
N1560 X-33.677 Y-33.861 Z-3.701
N1565 X-33.658 Y-33.857 Z-3.654
N1570 X-33.651 Y-33.855 Z-3.604
N1575 G0 Z2.51
N1580 X-34.847 Y-5.452
N1585 Z-2.8
N1590 G1 Z-3.3 F800.
N1595 X-34.84 Y-5.449 Z-3.387
N1600 X-34.818 Y-5.442 Z-3.471
N1605 X-34.783 Y-5.431 Z-3.55
N1610 X-34.736 Y-5.415 Z-3.621
N1615 X-34.677 Y-5.395 Z-3.683
N1620 X-34.609 Y-5.373 Z-3.733
N1625 X-34.535 Y-5.348 Z-3.77
N1630 X-34.455 Y-5.322 Z-3.792
N1635 X-34.372 Y-5.294 Z-3.8
N1640 G3 X-34.4 Y-5.1 I-0.031 J0.095
N1645 G1 X-35.9
N1650 G3 X-37.445 Y-5.471 I0.101 J-3.82
N1655 X-39.413 Y-6.752 I3.308 J-7.236
N1660 X-41.999 Y-9.69 I9.077 J-10.598
N1665 X-44.967 Y-19.833 I14.592 J-9.775
N1670 X-38.234 Y-33.517 I17.873 J0.296
N1675 X-37.114 Y-33.9 I1.12 J1.447
N1680 G1 X-35.584
N1685 X-35.535 Y-33.888 Z-3.793
N1690 X-35.489 Y-33.878 Z-3.773
N1695 X-35.45 Y-33.868 Z-3.742
N1700 X-35.42 Y-33.861 Z-3.701
N1705 X-35.401 Y-33.857 Z-3.654
N1710 X-35.394 Y-33.855 Z-3.604
N1715 G0 Z2.51
N1720 X-36.347 Y-5.452
N1725 Z-2.8
N1730 G1 Z-3.3 F800.
N1735 X-36.339 Y-5.449 Z-3.387
N1740 X-36.318 Y-5.442 Z-3.471
N1745 X-36.283 Y-5.431 Z-3.55
N1750 X-36.236 Y-5.415 Z-3.621
N1755 X-36.177 Y-5.395 Z-3.683
N1760 X-36.109 Y-5.373 Z-3.733
N1765 X-36.034 Y-5.348 Z-3.77
N1770 X-35.954 Y-5.322 Z-3.792
N1775 X-35.872 Y-5.294 Z-3.8
N1780 G3 X-35.9 Y-5.1 I-0.031 J0.095
N1785 G1 X-37.332
N1790 G3 X-38.677 Y-5.433 I0.133 J-3.421
N1795 X-40.426 Y-6.572 I2.897 J-6.359
N1800 X-42.829 Y-9.324 I8.581 J-9.921
N1805 X-45.513 Y-15.813 I14.792 J-9.917
N1810 X-39.707 Y-33.462 I18.409 J-3.723
N1815 X-38.515 Y-33.9 I1.199 J1.422
N1820 G1 X-37.25
N1825 X-37.201 Y-33.888 Z-3.793
N1830 X-37.155 Y-33.878 Z-3.773
N1835 X-37.115 Y-33.868 Z-3.742
N1840 X-37.085 Y-33.861 Z-3.701
N1845 X-37.066 Y-33.857 Z-3.654
N1850 X-37.06 Y-33.855 Z-3.604
N1855 G0 Z2.51
N1860 X-37.779 Y-5.452
N1865 Z-2.8
N1870 G1 Z-3.3 F800.
N1875 X-37.772 Y-5.449 Z-3.387
N1880 X-37.75 Y-5.442 Z-3.471
N1885 X-37.715 Y-5.431 Z-3.55
N1890 X-37.668 Y-5.415 Z-3.621
N1895 X-37.61 Y-5.395 Z-3.683
N1900 X-37.542 Y-5.373 Z-3.733
N1905 X-37.467 Y-5.348 Z-3.77
N1910 X-37.387 Y-5.322 Z-3.792
N1915 X-37.304 Y-5.294 Z-3.8
N1920 G3 X-37.332 Y-5.1 I-0.031 J0.095
N1925 G1 X-38.6
N1930 G3 X-39.866 Y-5.408 I0.102 J-3.174
N1935 X-41.586 Y-6.556 I2.695 J-5.899
N1940 X-43.778 Y-9.146 I8.397 J-9.334
N1945 X-46.183 Y-14.637 I15.06 J-9.865
N1950 X-41.218 Y-33.277 I19.058 J-4.906
N1955 X-40.512 Y-33.769 I1.521 J1.431
N1960 G1 X-40.29 Y-33.841
N1965 X-40.062 Y-33.885
N1970 X-39.829 Y-33.9
N1975 X-38.515
N1980 X-38.465 Y-33.888 Z-3.793
N1985 X-38.42 Y-33.878 Z-3.773
N1990 X-38.38 Y-33.868 Z-3.742
N1995 X-38.35 Y-33.861 Z-3.701
N2000 X-38.331 Y-33.857 Z-3.654
N2005 X-38.325 Y-33.855 Z-3.604
N2010 G0 Z2.51
N2015 X-39.046 Y-5.452
N2020 Z-2.8
N2025 G1 Z-3.3 F800.
N2030 X-39.039 Y-5.449 Z-3.387
N2035 X-39.018 Y-5.442 Z-3.471
N2040 X-38.983 Y-5.431 Z-3.55
N2045 X-38.935 Y-5.415 Z-3.621
N2050 X-38.877 Y-5.395 Z-3.683
N2055 X-38.809 Y-5.373 Z-3.733
N2060 X-38.734 Y-5.348 Z-3.77
N2065 X-38.654 Y-5.322 Z-3.792
N2070 X-38.572 Y-5.294 Z-3.8
N2075 G3 X-38.6 Y-5.1 I-0.031 J0.095
N2080 G1 X-39.8
N2085 G3 X-41.221 Y-5.488 I0.099 J-3.159
N2090 X-42.705 Y-6.537 I2.842 J-5.597
N2095 X-44.846 Y-9.17 I8.374 J-8.996
N2100 X-47.017 Y-14.199 I15.492 J-9.669
N2105 X-43.329 Y-32.259 I19.86 J-5.352
N2110 X-42.381 Y-33.362 I9.236 J6.977
N2115 X-41.082 Y-33.9 I1.302 J1.307
N2120 G1 X-39.95
N2125 X-39.9 Y-33.888 Z-3.793
N2130 X-39.855 Y-33.878 Z-3.773
N2135 X-39.815 Y-33.868 Z-3.742
N2140 X-39.785 Y-33.861 Z-3.701
N2145 X-39.766 Y-33.857 Z-3.654
N2150 X-39.76 Y-33.855 Z-3.604
N2155 G0 Z2.51
N2160 X-40.246 Y-5.452
N2165 Z-2.8
N2170 G1 Z-3.3 F800.
N2175 X-40.239 Y-5.449 Z-3.387
N2180 X-40.218 Y-5.442 Z-3.471
N2185 X-40.183 Y-5.431 Z-3.55
N2190 X-40.135 Y-5.415 Z-3.621
N2195 X-40.077 Y-5.395 Z-3.683
N2200 X-40.009 Y-5.373 Z-3.733
N2205 X-39.934 Y-5.348 Z-3.77
N2210 X-39.854 Y-5.322 Z-3.792
N2215 X-39.772 Y-5.294 Z-3.8
N2220 G3 X-39.8 Y-5.1 I-0.031 J0.095
N2225 G1 X-41.
N2230 G3 X-42.327 Y-5.468 I0.118 J-3.005
N2235 X-43.981 Y-6.699 I2.877 J-5.593
N2240 X-45.892 Y-9.182 I8.613 J-8.602
N2245 X-47.981 Y-14.247 I16.011 J-9.568
N2250 X-45.953 Y-29.964 I20.754 J-5.312
N2255 X-43.914 Y-33.004 I17.486 J9.53
N2260 G1 X-43.74 Y-33.2
N2265 X-43.623 Y-33.324
N2270 G3 X-42.289 Y-33.9 I1.335 J1.257
N2275 G1 X-41.082
N2280 X-41.033 Y-33.888 Z-3.793
N2285 X-40.987 Y-33.878 Z-3.773
N2290 X-40.948 Y-33.868 Z-3.742
N2295 X-40.918 Y-33.861 Z-3.701
N2300 X-40.899 Y-33.857 Z-3.654
N2305 X-40.892 Y-33.855 Z-3.604
N2310 G0 Z2.51
N2315 X-41.446 Y-5.452
N2320 Z-2.8
N2325 G1 Z-3.3 F800.
N2330 X-41.439 Y-5.449 Z-3.387
N2335 X-41.418 Y-5.442 Z-3.471
N2340 X-41.383 Y-5.431 Z-3.55
N2345 X-41.335 Y-5.415 Z-3.621
N2350 X-41.277 Y-5.395 Z-3.683
N2355 X-41.209 Y-5.373 Z-3.733
N2360 X-41.134 Y-5.348 Z-3.77
N2365 X-41.054 Y-5.322 Z-3.792
N2370 X-40.972 Y-5.294 Z-3.8
N2375 G3 X-40.999 Y-5.1 I-0.031 J0.095
N2380 G1 X-42.132
N2385 G3 X-43.413 Y-5.453 I0.108 J-2.893
N2390 X-45.045 Y-6.682 I2.771 J-5.378
N2395 X-46.921 Y-9.19 I8.521 J-8.328
N2400 X-48.809 Y-13.777 I16.144 J-9.331
N2405 X-48.325 Y-26.92 I21.424 J-5.791
N2410 X-45.31 Y-32.704 I20.825 J7.178
N2415 X-44.783 Y-33.337 I7.272 J5.516
N2420 X-43.46 Y-33.9 I1.324 J1.277
N2425 G1 X-42.289
N2430 X-42.239 Y-33.888 Z-3.793
N2435 X-42.194 Y-33.878 Z-3.773
N2440 X-42.154 Y-33.868 Z-3.742
N2445 X-42.124 Y-33.861 Z-3.701
N2450 X-42.105 Y-33.857 Z-3.654
N2455 X-42.099 Y-33.855 Z-3.604
N2460 G0 Z2.51
N2465 X-42.579 Y-5.452
N2470 Z-2.8
N2475 G1 Z-3.3 F800.
N2480 X-42.571 Y-5.449 Z-3.387
N2485 X-42.55 Y-5.442 Z-3.471
N2490 X-42.515 Y-5.431 Z-3.55
N2495 X-42.468 Y-5.415 Z-3.621
N2500 X-42.409 Y-5.395 Z-3.683
N2505 X-42.341 Y-5.373 Z-3.733
N2510 X-42.266 Y-5.348 Z-3.77
N2515 X-42.186 Y-5.322 Z-3.792
N2520 X-42.104 Y-5.294 Z-3.8
N2525 G3 X-42.132 Y-5.1 I-0.031 J0.095
N2530 G1 X-43.249
N2535 G3 X-44.479 Y-5.441 I0.115 J-2.804
N2540 X-46.09 Y-6.665 I2.686 J-5.206
N2545 X-47.807 Y-8.968 I8.211 J-7.915
N2550 X-49.703 Y-13.551 I16.061 J-9.325
N2555 X-50.088 Y-23.926 I22.011 J-6.011
N2560 X-46.673 Y-32.365 I22.778 J4.306
N2565 X-45.968 Y-33.292 I7.963 J5.33
N2570 X-44.602 Y-33.9 I1.37 J1.238
N2575 G1 X-43.46
N2580 X-43.411 Y-33.888 Z-3.793
N2585 X-43.365 Y-33.878 Z-3.773
N2590 X-43.326 Y-33.868 Z-3.742
N2595 X-43.296 Y-33.861 Z-3.701
N2600 X-43.277 Y-33.857 Z-3.654
N2605 X-43.27 Y-33.855 Z-3.604
N2610 G0 Z2.51
N2615 X-43.696 Y-5.452
N2620 Z-2.8
N2625 G1 Z-3.3 F800.
N2630 X-43.689 Y-5.449 Z-3.387
N2635 X-43.667 Y-5.442 Z-3.471
N2640 X-43.632 Y-5.431 Z-3.55
N2645 X-43.585 Y-5.415 Z-3.621
N2650 X-43.527 Y-5.395 Z-3.683
N2655 X-43.459 Y-5.373 Z-3.733
N2660 X-43.384 Y-5.348 Z-3.77
N2665 X-43.304 Y-5.322 Z-3.792
N2670 X-43.221 Y-5.294 Z-3.8
N2675 G3 X-43.249 Y-5.1 I-0.031 J0.095
N2680 G1 X-44.299
N2685 G3 X-45.532 Y-5.433 I0.08 J-2.741
N2690 X-47.124 Y-6.653 I2.617 J-5.065
N2695 X-48.819 Y-8.972 I8.125 J-7.717
N2700 X-50.596 Y-13.323 I16.115 J-9.124
N2705 X-51.234 Y-22.664 I22.594 J-6.234
N2710 X-47.866 Y-32.223 I23.909 J3.052
N2715 X-47.076 Y-33.305 I8.151 J5.118
N2720 X-45.722 Y-33.9 I1.358 J1.251
N2725 G1 X-44.749
N2730 X-44.7 Y-33.888 Z-3.793
N2735 X-44.654 Y-33.878 Z-3.773
N2740 X-44.615 Y-33.868 Z-3.742
N2745 X-44.585 Y-33.861 Z-3.701
N2750 X-44.566 Y-33.857 Z-3.654
N2755 X-44.559 Y-33.855 Z-3.604
N2760 G0 Z2.51
N2765 X-44.746 Y-5.452
N2770 Z-2.8
N2775 G1 Z-3.3 F800.
N2780 X-44.739 Y-5.449 Z-3.387
N2785 X-44.717 Y-5.442 Z-3.471
N2790 X-44.682 Y-5.431 Z-3.55
N2795 X-44.635 Y-5.415 Z-3.621
N2800 X-44.576 Y-5.395 Z-3.683
N2805 X-44.509 Y-5.373 Z-3.733
N2810 X-44.434 Y-5.348 Z-3.77
N2815 X-44.354 Y-5.322 Z-3.792
N2820 X-44.271 Y-5.294 Z-3.8
N2825 G3 X-44.299 Y-5.1 I-0.031 J0.095
N2830 G1 X-45.432
N2835 G3 X-46.748 Y-5.521 I0.181 J-2.834
N2840 X-48.141 Y-6.635 I2.817 J-4.951
N2845 X-49.942 Y-9.197 I8.323 J-7.767
N2850 X-51.487 Y-13.081 I16.318 J-8.739
N2855 X-52.204 Y-22.42 I23.226 J-6.481
N2860 X-49.048 Y-32.056 I24.795 J2.787
N2865 X-48.315 Y-33.14 I9.955 J5.937
N2870 X-47.696 Y-33.678 I1.625 J1.245
N2875 X-46.821 Y-33.9 I0.878 J1.628
N2880 G1 X-45.722
N2885 X-45.673 Y-33.888 Z-3.793
N2890 X-45.627 Y-33.878 Z-3.773
N2895 X-45.587 Y-33.868 Z-3.742
N2900 X-45.557 Y-33.861 Z-3.701
N2905 X-45.538 Y-33.857 Z-3.654
N2910 X-45.532 Y-33.855 Z-3.604
N2915 G0 Z2.51
N2920 X-45.878 Y-5.452
N2925 Z-2.8
N2930 G1 Z-3.3 F800.
N2935 X-45.871 Y-5.449 Z-3.387
N2940 X-45.85 Y-5.442 Z-3.471
N2945 X-45.815 Y-5.431 Z-3.55
N2950 X-45.767 Y-5.415 Z-3.621
N2955 X-45.709 Y-5.395 Z-3.683
N2960 X-45.641 Y-5.373 Z-3.733
N2965 X-45.566 Y-5.348 Z-3.77
N2970 X-45.486 Y-5.322 Z-3.792
N2975 X-45.404 Y-5.294 Z-3.8
N2980 G3 X-45.432 Y-5.1 I-0.031 J0.095
N2985 G1 X-46.482
N2990 G3 X-47.77 Y-5.512 I0.18 J-2.78
N2995 X-49.151 Y-6.622 I2.764 J-4.854
N3000 X-50.811 Y-8.965 I8.022 J-7.443
N3005 X-52.447 Y-13.093 I16.227 J-8.819
N3010 X-53.257 Y-21.132 I23.67 J-6.445
N3015 X-50.338 Y-31.649 I25.861 J1.514
N3020 X-49.359 Y-33.192 I10.155 J5.363
N3025 X-48.775 Y-33.681 I1.577 J1.29
N3030 X-47.905 Y-33.9 I0.872 J1.628
N3035 G1 X-46.821
N3040 X-46.771 Y-33.888 Z-3.793
N3045 X-46.726 Y-33.878 Z-3.773
N3050 X-46.686 Y-33.868 Z-3.742
N3055 X-46.656 Y-33.861 Z-3.701
N3060 X-46.637 Y-33.857 Z-3.654
N3065 X-46.631 Y-33.855 Z-3.604
N3070 G0 Z2.51
N3075 X-46.928 Y-5.452
N3080 Z-2.8
N3085 G1 Z-3.3 F800.
N3090 X-46.921 Y-5.449 Z-3.387
N3095 X-46.9 Y-5.442 Z-3.471
N3100 X-46.865 Y-5.431 Z-3.55
N3105 X-46.817 Y-5.415 Z-3.621
N3110 X-46.759 Y-5.395 Z-3.683
N3115 X-46.691 Y-5.373 Z-3.733
N3120 X-46.616 Y-5.348 Z-3.77
N3125 X-46.536 Y-5.322 Z-3.792
N3130 X-46.454 Y-5.294 Z-3.8
N3135 G3 X-46.482 Y-5.1 I-0.031 J0.095
N3140 G1 X-47.449
N3145 G3 X-48.785 Y-5.508 I0.101 J-2.719
N3150 X-50.156 Y-6.615 I2.705 J-4.755
N3155 X-51.801 Y-8.968 I7.946 J-7.309
N3160 X-53.407 Y-13.108 I16.334 J-8.716
N3165 X-54.221 Y-20.628 I24.177 J-6.42
N3170 X-51.483 Y-31.463 I26.751 J0.995
N3175 X-50.547 Y-33.038 I11.51 J5.774
N3180 X-49.842 Y-33.684 I1.784 J1.238
N3185 X-48.976 Y-33.9 I0.873 J1.655
N3190 G1 X-48.049
N3195 X-48. Y-33.888 Z-3.793
N3200 X-47.954 Y-33.878 Z-3.773
N3205 X-47.915 Y-33.868 Z-3.742
N3210 X-47.884 Y-33.861 Z-3.701
N3215 X-47.865 Y-33.857 Z-3.654
N3220 X-47.859 Y-33.855 Z-3.604
N3225 G0 Z2.51
N3230 X-47.896 Y-5.452
N3235 Z-2.8
N3240 G1 Z-3.3 F800.
N3245 X-47.889 Y-5.449 Z-3.387
N3250 X-47.867 Y-5.442 Z-3.471
N3255 X-47.832 Y-5.431 Z-3.55
N3260 X-47.785 Y-5.415 Z-3.621
N3265 X-47.726 Y-5.395 Z-3.683
N3270 X-47.658 Y-5.373 Z-3.733
N3275 X-47.583 Y-5.348 Z-3.77
N3280 X-47.503 Y-5.322 Z-3.792
N3285 X-47.421 Y-5.294 Z-3.8
N3290 G3 X-47.449 Y-5.1 I-0.031 J0.095
N3295 G1 X-48.499
N3300 G3 X-49.789 Y-5.502 I0.129 J-2.687
N3305 X-51.152 Y-6.605 I2.671 J-4.692
N3310 X-52.785 Y-8.967 I7.883 J-7.198
N3315 X-54.297 Y-12.864 I16.198 J-8.527
N3320 X-55.174 Y-20.117 I24.493 J-6.642
N3325 X-52.617 Y-31.264 I27.605 J0.465
N3330 X-51.727 Y-32.865 I13.034 J6.205
N3335 X-51.265 Y-33.429 I2.802 J1.822
N3340 X-50.036 Y-33.9 I1.233 J1.375
N3345 G1 X-49.099
N3350 X-49.05 Y-33.888 Z-3.793
N3355 X-49.004 Y-33.878 Z-3.773
N3360 X-48.964 Y-33.868 Z-3.742
N3365 X-48.934 Y-33.861 Z-3.701
N3370 X-48.915 Y-33.857 Z-3.654
N3375 X-48.909 Y-33.855 Z-3.604
N3380 G0 Z2.51
N3385 X-48.946 Y-5.452
N3390 Z-2.8
N3395 G1 Z-3.3 F800.
N3400 X-48.938 Y-5.449 Z-3.387
N3405 X-48.917 Y-5.442 Z-3.471
N3410 X-48.882 Y-5.431 Z-3.55
N3415 X-48.835 Y-5.415 Z-3.621
N3420 X-48.776 Y-5.395 Z-3.683
N3425 X-48.708 Y-5.373 Z-3.733
N3430 X-48.633 Y-5.348 Z-3.77
N3435 X-48.553 Y-5.322 Z-3.792
N3440 X-48.471 Y-5.294 Z-3.8
N3445 G3 X-48.499 Y-5.1 I-0.031 J0.095
N3450 G1 X-49.481
N3455 G3 X-50.788 Y-5.498 I0.095 J-2.656
N3460 X-52.141 Y-6.596 I2.635 J-4.627
N3465 X-53.764 Y-8.965 I7.816 J-7.097
N3470 X-55.254 Y-12.87 I16.256 J-8.442
N3475 X-56.118 Y-19.864 I24.931 J-6.63
N3480 X-53.741 Y-31.056 I28.429 J0.19
N3485 X-52.751 Y-32.9 I13.11 J5.85
N3490 X-52.186 Y-33.534 I2.362 J1.538
N3495 X-51.084 Y-33.9 I1.107 J1.491
N3500 G1 X-50.036
N3505 X-49.987 Y-33.888 Z-3.793
N3510 X-49.941 Y-33.878 Z-3.773
N3515 X-49.902 Y-33.868 Z-3.742
N3520 X-49.872 Y-33.861 Z-3.701
N3525 X-49.853 Y-33.857 Z-3.654
N3530 X-49.846 Y-33.855 Z-3.604
N3535 G0 Z2.51
N3540 X-49.928 Y-5.452
N3545 Z-2.8
N3550 G1 Z-3.3 F800.
N3555 X-49.921 Y-5.449 Z-3.387
N3560 X-49.899 Y-5.442 Z-3.471
N3565 X-49.864 Y-5.431 Z-3.55
N3570 X-49.817 Y-5.415 Z-3.621
N3575 X-49.758 Y-5.395 Z-3.683
N3580 X-49.691 Y-5.373 Z-3.733
N3585 X-49.616 Y-5.348 Z-3.77
N3590 X-49.536 Y-5.322 Z-3.792
N3595 X-49.453 Y-5.294 Z-3.8
N3600 G3 X-49.481 Y-5.1 I-0.031 J0.095
N3605 G1 X-50.531
N3610 G3 X-51.779 Y-5.492 I0.143 J-2.636
N3615 X-53.124 Y-6.586 I2.613 J-4.586
N3620 X-54.738 Y-8.96 I7.76 J-7.012
N3625 X-56.21 Y-12.873 I16.302 J-8.367
N3630 X-57.061 Y-19.608 I25.314 J-6.619
N3635 X-54.855 Y-30.839 I29.233 J-0.092
N3640 X-53.913 Y-32.709 I14.523 J6.146
N3645 X-53.401 Y-33.383 I3.543 J2.156
N3650 X-52.124 Y-33.9 I1.281 J1.327
N3655 G1 X-51.084
N3660 X-51.035 Y-33.888 Z-3.793
N3665 X-50.989 Y-33.878 Z-3.773
N3670 X-50.95 Y-33.868 Z-3.742
N3675 X-50.92 Y-33.861 Z-3.701
N3680 X-50.901 Y-33.857 Z-3.654
N3685 X-50.894 Y-33.855 Z-3.604
N3690 G0 Z2.51
N3695 X-50.978 Y-5.452
N3700 Z-2.8
N3705 G1 Z-3.3 F800.
N3710 X-50.971 Y-5.449 Z-3.387
N3715 X-50.949 Y-5.442 Z-3.471
N3720 X-50.914 Y-5.431 Z-3.55
N3725 X-50.867 Y-5.415 Z-3.621
N3730 X-50.808 Y-5.395 Z-3.683
N3735 X-50.741 Y-5.373 Z-3.733
N3740 X-50.666 Y-5.348 Z-3.77
N3745 X-50.586 Y-5.322 Z-3.792
N3750 X-50.503 Y-5.294 Z-3.8
N3755 G3 X-50.531 Y-5.1 I-0.031 J0.095
N3760 G1 X-51.499
N3765 G3 X-52.767 Y-5.49 I0.107 J-2.607
N3770 X-54.104 Y-6.58 I2.584 J-4.535
N3775 X-55.711 Y-8.959 I7.708 J-6.935
N3780 X-57.099 Y-12.625 I16.09 J-8.19
N3785 X-57.383 Y-13.782 I14.009 J-4.05
N3790 G1 X-57.395 Y-13.913
N3795 X-57.4 Y-14.045
N3800 Y-24.142
N3805 G3 X-57.346 Y-25.188 I23.219 J0.683
N3810 X-56.51 Y-29.018 I18.747 J2.083
N3815 X-55.122 Y-32.405 I18.306 J5.525
N3820 X-54.56 Y-33.249 I6.155 J3.487
N3825 X-53.158 Y-33.9 I1.405 J1.188
N3830 G1 X-52.249
N3835 G3 X-52.059 Y-33.855 I-0.017 J0.5
N3840 X-51.819 Y-33.176 I-0.207 J0.455 F30000.
N3845 G1 X-56.453 Y-23.935
N3850 G3 X-57.355 Y-23.952 I-0.447 J-0.224
N3855 X-57.4 Y-24.142 I0.455 J-0.207 F800.
N3860 G1 Y-27.886
N3865 G3 X-56.917 Y-30.449 I8.816 J0.335
N3870 X-55.861 Y-32.839 I10.55 J3.232
N3875 X-55.431 Y-33.395 I2.67 J1.621
N3880 X-54.166 Y-33.9 I1.268 J1.338
N3885 G1 X-53.298
N3890 G3 X-53.109 Y-33.855 I-0.017 J0.5
N3895 X-52.897 Y-33.127 I-0.207 J0.455 F30000.
N3900 G1 X-56.481 Y-27.63
N3905 G3 X-57.355 Y-27.696 I-0.419 J-0.273
N3910 X-57.4 Y-27.886 I0.455 J-0.207 F800.
N3915 G1 Y-30.431
N3920 G3 X-56.613 Y-33.055 I5.377 J0.184
N3925 X-55.066 Y-33.9 I1.551 J1.
N3930 X-54.876 Y-33.855 I-0.017 J0.5
N3935 X-54.658 Y-33.138 I-0.207 J0.455 F30000.
N3940 G1 X-56.474 Y-30.187
N3945 G3 X-57.355 Y-30.241 I-0.426 J-0.262
N3950 X-57.4 Y-30.431 I0.455 J-0.207 F800.
N3955 G1 Y-32.161
N3960 G3 X-55.687 Y-33.901 I1.716 J-0.023
N3965 G1 X-55.622 Y-33.894
N3970 X-55.559 Y-33.879
N3975 X-55.497 Y-33.855
N3980 G3 X-55.347 Y-33.051 I-0.207 J0.455 F30000.
N3985 G1 X-56.543 Y-31.829
N3990 G3 X-57.355 Y-31.971 I-0.357 J-0.35
N3995 X-57.4 Y-32.161 I0.455 J-0.207 F800.
N4000 G1 Y-32.909
N4005 X-57.395 Y-33.
N4010 X-57.391 Y-33.044
N4015 X-57.329 Y-33.273
N4020 X-57.214 Y-33.481
N4025 X-57.054 Y-33.656
N4030 X-56.857 Y-33.789
N4035 X-56.635 Y-33.872
N4040 X-56.399 Y-33.9
N4045 G3 X-56.205 Y-33.873 I-0.033 J0.958
N4050 X-55.507 Y-32.691 I-0.228 J0.931 F30000.
N4055 X-57.373 Y-32.715 I-0.93 J-0.252
N4060 X-57.4 Y-32.909 I0.936 J-0.228 F800.
N4065 X-57.392 Y-33.468 I4.548 J-0.211
N4070 G1 X-57.371 Y-33.536
N4075 X-57.346 Y-33.601
N4080 X-57.314 Y-33.664
N4085 X-57.3 Y-33.672
N4090 G3 X-57.223 Y-33.649 I0.028 J0.047
N4095 X-57.193 Y-33.564 I-0.348 J0.169
N4100 X-57.205 Y-33.353 I-0.377 J0.085 F30000.
N4105 X-57.258 Y-33.295 I-0.094 J-0.033
N4110 X-57.399 Y-33.383 I-0.041 J-0.091 F800.
N4115 X-56.898 Y-33.9 I0.521 J0.004
N4120 G1 X-56.748
N4125 X-54.166
N4130 X-54.116 Y-33.888 Z-3.793
N4135 X-54.071 Y-33.878 Z-3.773
N4140 X-54.031 Y-33.868 Z-3.742
N4145 X-54.001 Y-33.861 Z-3.701
N4150 X-53.982 Y-33.857 Z-3.654
N4155 X-53.976 Y-33.855 Z-3.604
N4160 G0 Z2.51
N4165 X-51.945 Y-5.452
N4170 Z-2.8
N4175 G1 Z-3.3 F800.
N4180 X-51.938 Y-5.449 Z-3.387
N4185 X-51.917 Y-5.442 Z-3.471
N4190 X-51.882 Y-5.431 Z-3.55
N4195 X-51.834 Y-5.415 Z-3.621
N4200 X-51.776 Y-5.395 Z-3.683
N4205 X-51.708 Y-5.373 Z-3.733
N4210 X-51.633 Y-5.348 Z-3.77
N4215 X-51.553 Y-5.322 Z-3.792
N4220 X-51.471 Y-5.294 Z-3.8
N4225 G3 X-51.499 Y-5.1 I-0.031 J0.095
N4230 G1 X-52.481
N4235 G3 X-53.75 Y-5.487 I0.097 J-2.59
N4240 X-55.081 Y-6.574 I2.562 J-4.496
N4245 X-56.68 Y-8.958 I7.664 J-6.869
N4250 X-57.344 Y-10.465 I10.058 J-5.334
N4255 G1 X-57.385 Y-10.695
N4260 X-57.4 Y-10.928
N4265 Y-14.045
N4270 G3 X-57.355 Y-14.235 I0.5 J0.017
N4275 X-56.457 Y-14.259 I0.455 J0.207 F30000.
N4280 G1 X-52.055 Y-5.831
N4285 G3 X-52.291 Y-5.145 I-0.443 J0.231
N4290 X-52.481 Y-5.1 I-0.207 J-0.455 F800.
N4295 G1 X-53.494
N4300 G3 X-54.728 Y-5.484 I0.124 J-2.575
N4305 X-56.054 Y-6.568 I2.547 J-4.468
N4310 X-57.222 Y-8.182 I6.414 J-5.87
N4315 X-57.4 Y-8.974 I1.697 J-0.799
N4320 X-57.355 Y-9.164 I0.5 J0.017
N4325 X-56.548 Y-9.312 I0.455 J0.207 F30000.
N4330 G1 X-53.159 Y-5.955
N4335 G3 X-53.304 Y-5.145 I-0.352 J0.355
N4340 X-53.494 Y-5.1 I-0.207 J-0.455 F800.
N4345 G1 X-54.498
N4350 G3 X-55.702 Y-5.48 I0.148 J-2.567
N4355 X-57.049 Y-6.603 I2.349 J-4.184
N4360 X-57.4 Y-7.686 I1.513 J-1.09
N4365 X-57.355 Y-7.876 I0.5 J0.017
N4370 X-56.573 Y-8.046 I0.455 J0.207 F30000.
N4375 G1 X-54.188 Y-5.977
N4380 G3 X-54.308 Y-5.145 I-0.328 J0.378
N4385 X-54.498 Y-5.1 I-0.207 J-0.455 F800.
N4390 G1 X-55.481
N4395 G3 X-56.864 Y-5.672 I0.07 J-2.129
N4400 X-57.401 Y-6.972 I1.327 J-1.309
N4405 G1 X-57.394 Y-7.037
N4410 X-57.379 Y-7.101
N4415 X-57.355 Y-7.162
N4420 G3 X-56.553 Y-7.314 I0.455 J0.207 F30000.
N4425 G1 X-55.151 Y-5.959
N4430 G3 X-55.291 Y-5.145 I-0.347 J0.36
N4435 X-55.481 Y-5.1 I-0.207 J-0.455 F800.
N4440 G1 X-56.298
N4445 X-56.388 Y-5.104
N4450 X-56.619 Y-5.152
N4455 X-56.834 Y-5.247
N4460 X-57.026 Y-5.385
N4465 X-57.184 Y-5.559
N4470 X-57.302 Y-5.763
N4475 X-57.375 Y-5.987
N4480 X-57.4 Y-6.222
N4485 G3 X-57.375 Y-6.416 I1.067 J0.037
N4490 X-56.046 Y-7.212 I1.042 J0.232 F30000.
N4495 X-56.104 Y-5.125 I-0.29 J1.037
N4500 X-56.298 Y-5.1 I-0.232 J-1.051 F800.
N4505 X-56.831 Y-5.102 I-0.244 J-7.934
N4510 G1 X-57.01 Y-5.146
N4515 X-57.167 Y-5.24
N4520 X-57.291 Y-5.376
N4525 X-57.371 Y-5.541
N4530 X-57.4 Y-5.722
N4535 G3 X-57.363 Y-5.914 I0.583 J0.013
N4540 X-56.634 Y-6.262 I0.546 J0.205 F30000.
N4545 X-56.61 Y-5.139 I-0.187 J0.566
N4550 X-56.802 Y-5.1 I-0.212 J-0.558 F800.
N4555 X-57.399 Y-5.574 I-0.065 J-0.532
N4560 G1 X-57.4 Y-5.724
N4565 Y-10.928
N4570 X-57.388 Y-10.978 Z-3.793
N4575 X-57.378 Y-11.023 Z-3.773
N4580 X-57.368 Y-11.063 Z-3.742
N4585 X-57.361 Y-11.093 Z-3.701
N4590 X-57.357 Y-11.112 Z-3.654
N4595 X-57.355 Y-11.118 Z-3.604
N4600 G0 Z2.51
N4605 X-23.641 Y-33.855
N4610 Z-3.3
N4615 G1 Z-3.8 F800.
N4620 G3 X-23.451 Y-33.9 I0.207 J0.455
N4625 G1 X-21.201
N4630 G3 X-19.335 Y-33.469 I-0.195 J5.106
N4635 X-16.86 Y-32.013 I-4.065 J9.739
N4640 X-12.849 Y-27.41 I-9.455 J12.287
N4645 X-12.6 Y-26.493 I-1.525 J0.907
N4650 G1 Y-24.591
N4655 G3 X-12.645 Y-24.401 I-0.5 J-0.017
N4660 X-13.468 Y-24.27 I-0.455 J-0.207 F30000.
N4665 G1 X-21.552 Y-33.062
N4670 G3 X-21.391 Y-33.855 I0.368 J-0.338
N4675 X-21.201 Y-33.9 I0.207 J0.455 F800.
N4680 G1 X-19.469
N4685 G3 X-17.827 Y-33.497 I-0.18 J4.286
N4690 X-15.62 Y-32.105 I-3.736 J8.363
N4695 X-12.934 Y-29.207 I-9.377 J11.388
N4700 X-12.6 Y-28.156 I-1.47 J1.045
N4705 G1 Y-26.493
N4710 G3 X-12.645 Y-26.303 I-0.5 J-0.017
N4715 X-13.467 Y-26.172 I-0.455 J-0.207 F30000.
N4720 G1 X-19.819 Y-33.061
N4725 G3 X-19.659 Y-33.855 I0.368 J-0.339
N4730 X-19.469 Y-33.9 I0.207 J0.455 F800.
N4735 G1 X-17.969
N4740 G3 X-16.486 Y-33.532 I-0.153 J3.787
N4745 X-14.517 Y-32.252 I-3.32 J7.262
N4750 X-13.017 Y-30.758 I-7.961 J9.489
N4755 X-12.6 Y-29.593 I-1.413 J1.164
N4760 G1 Y-28.156
N4765 G3 X-12.645 Y-27.966 I-0.5 J-0.017
N4770 X-13.466 Y-27.833 I-0.455 J-0.207 F30000.
N4775 G1 X-18.318 Y-33.06
N4780 G3 X-18.159 Y-33.855 I0.366 J-0.34
N4785 X-17.969 Y-33.9 I0.207 J0.455 F800.
N4790 G1 X-16.552
N4795 G3 X-15.25 Y-33.569 I-0.179 J3.427
N4800 X-13.5 Y-32.431 I-2.916 J6.397
N4805 X-12.862 Y-31.756 I-1.715 J2.262
N4810 X-12.6 Y-30.808 I-1.608 J0.954
N4815 X-12.645 Y-30.618 I-0.5 J-0.017
N4820 X-13.4 Y-30.425 I-0.455 J-0.207 F30000.
N4825 G1 X-16.834 Y-33.
N4830 G3 X-16.741 Y-33.855 I0.3 J-0.4
N4835 X-16.552 Y-33.9 I0.207 J0.455 F800.
N4840 G1 X-15.352
N4845 G3 X-13.855 Y-33.494 I-0.102 J3.34
N4850 X-13.034 Y-32.908 I-0.988 J2.249
N4855 X-12.6 Y-31.72 I-1.419 J1.192
N4860 X-12.645 Y-31.53 I-0.5 J-0.017
N4865 X-13.398 Y-31.336 I-0.455 J-0.207 F30000.
N4870 G1 X-15.633 Y-32.999
N4875 G3 X-15.542 Y-33.855 I0.298 J-0.401
N4880 X-15.352 Y-33.9 I0.207 J0.455 F800.
N4885 G1 X-14.069
N4890 X-13.984 Y-33.896
N4895 X-13.737 Y-33.851
N4900 X-13.501 Y-33.766
N4905 X-13.282 Y-33.644
N4910 X-13.086 Y-33.488
N4915 X-12.917 Y-33.302
N4920 X-12.781 Y-33.091
N4925 X-12.681 Y-32.861
N4930 X-12.62 Y-32.618
N4935 X-12.6 Y-32.368
N4940 G3 X-12.645 Y-32.178 I-0.5 J-0.017
N4945 X-13.464 Y-32.043 I-0.455 J-0.207 F30000.
N4950 G1 X-14.417 Y-33.058
N4955 G3 X-14.259 Y-33.855 I0.365 J-0.342
N4960 X-14.069 Y-33.9 I0.207 J0.455 F800.
N4965 G1 X-13.469
N4970 X-13.394 Y-33.896
N4975 X-13.355 Y-33.892
N4980 X-13.115 Y-33.821
N4985 X-12.904 Y-33.684
N4990 X-12.74 Y-33.494
N4995 X-12.636 Y-33.265
N5000 X-12.6 Y-33.017
N5005 G3 X-12.63 Y-32.823 I-0.841 J-0.029
N5010 X-13.666 Y-32.235 I-0.812 J-0.223 F30000.
N5015 X-13.663 Y-33.871 I0.227 J-0.817
N5020 X-13.469 Y-33.9 I0.223 J0.818 F800.
N5025 G1 X-13.252
N5030 G3 X-12.952 Y-33.873 I0.08 J0.791
N5035 X-12.601 Y-33.426 I-0.182 J0.504
N5040 G1 X-12.6 Y-33.276
N5045 Y-29.593
N5050 X-12.612 Y-29.544 Z-3.793
N5055 X-12.622 Y-29.498 Z-3.773
N5060 X-12.632 Y-29.459 Z-3.742
N5065 X-12.639 Y-29.429 Z-3.701
N5070 X-12.643 Y-29.41 Z-3.654
N5075 X-12.645 Y-29.403 Z-3.604
N5080 G0 Z4.
(2D ADAPTIVE1 2)
N5090 M8
N5095 G0 X-75.682 Y-27.384
N5100 Z4.
N5105 Z-2.
N5110 G1 Z-2.5 F800.
N5115 X-75.674 Y-27.386 Z-2.587
N5120 X-75.652 Y-27.392 Z-2.671
N5125 X-75.617 Y-27.401 Z-2.75
N5130 X-75.568 Y-27.414 Z-2.821
N5135 X-75.508 Y-27.429 Z-2.883
N5140 X-75.439 Y-27.447 Z-2.933
N5145 X-75.363 Y-27.466 Z-2.97
N5150 X-75.281 Y-27.487 Z-2.992
N5155 X-75.197 Y-27.509 Z-3.
N5160 G3 X-72.475 Y-27.9 I3.167 J12.366
N5165 G1 X-72.418 F450.
N5170 G3 X-72.051 Y-27.261 I-1.354 J1.201 F800.
N5175 X-71.711 Y-25.962 I-5.194 J2.053
N5180 X-71.494 Y-23.786 I-16.005 J2.694
N5185 X-71.406 Y-20.375 I-61.8 J3.31
N5190 X-71.388 Y-12.782 I-625.502 J5.286
N5195 X-73.067 Y-11.101 I-1.675 J0.006
N5200 G1 X-73.132 Y-11.107
N5205 X-73.196 Y-11.122
N5210 X-73.257 Y-11.145
N5215 X-73.336 Y-11.181 Z-2.992
N5220 X-73.412 Y-11.216 Z-2.97
N5225 X-73.484 Y-11.248 Z-2.933
N5230 X-73.549 Y-11.278 Z-2.883
N5235 X-73.605 Y-11.304 Z-2.821
N5240 X-73.651 Y-11.324 Z-2.75
N5245 X-73.684 Y-11.34 Z-2.671
N5250 X-73.705 Y-11.349 Z-2.587
N5255 X-73.712 Y-11.352 Z-2.5
N5260 G0 Z2.51
N5265 X-72.492 Y-27.255
N5270 Z-2.
N5275 G1 Z-2.5 F800.
N5280 X-72.493 Y-27.262 Z-2.587
N5285 X-72.495 Y-27.284 Z-2.671
N5290 X-72.499 Y-27.321 Z-2.75
N5295 X-72.505 Y-27.371 Z-2.821
N5300 X-72.511 Y-27.432 Z-2.883
N5305 X-72.519 Y-27.503 Z-2.933
N5310 X-72.528 Y-27.582 Z-2.97
N5315 X-72.537 Y-27.665 Z-2.992
N5320 X-72.546 Y-27.752 Z-3.
N5325 G3 X-72.418 Y-27.9 I0.133 J-0.014
N5330 G1 X-72.168
N5335 X-72.154 Y-27.899
N5340 G3 X-71.5 Y-27.19 I-1.126 J1.696
N5345 X-70.958 Y-25.928 I-3.975 J2.453
N5350 X-70.578 Y-23.971 I-10.14 J2.987
N5355 X-70.381 Y-21.243 I-27.159 J3.328
N5360 X-70.307 Y-16.269 I-126.475 J4.377
N5365 X-70.314 Y-13.806 I-50.317 J1.081
N5370 X-70.578 Y-12.403 I-5.578 J-0.322
N5375 G1 X-70.617 Y-12.308
N5380 G3 X-72.34 Y-11.1 I-1.723 J-0.625
N5385 X-72.53 Y-11.145 I0.017 J-0.5
N5390 X-72.823 Y-11.605 I0.207 J-0.455 F30000.
N5395 G1 X-72.651 Y-27.406
N5400 G3 X-72.358 Y-27.855 I0.5 J0.005
N5405 X-72.168 Y-27.9 I0.207 J0.455 F800.
N5410 G1 X-71.811
N5415 G3 X-71.143 Y-27.458 I-0.556 J1.567
N5420 X-70.385 Y-26.361 I-2.523 J2.552
N5425 X-69.808 Y-24.656 I-6.548 J3.167
N5430 X-69.442 Y-22.238 I-15.304 J3.551
N5435 X-69.266 Y-18.817 I-42.445 J3.902
N5440 X-69.23 Y-15.036 I-93.209 J2.778
N5445 X-69.473 Y-13.048 I-10.262 J-0.248
N5450 X-69.855 Y-12.059 I-4.855 J-1.304
N5455 X-71.224 Y-11.116 I-1.621 J-0.89
N5460 G1 X-71.469 Y-11.1
N5465 G3 X-71.659 Y-11.145 I0.017 J-0.5
N5470 X-71.952 Y-11.589 I0.207 J-0.455 F30000.
N5475 G1 X-72.293 Y-27.389
N5480 G3 X-72.001 Y-27.855 I0.5 J-0.011
N5485 X-71.811 Y-27.9 I0.207 J0.455 F800.
N5490 G1 X-71.361
N5495 G3 X-70.565 Y-27.503 I-0.35 J1.699
N5500 X-69.691 Y-26.469 I-2.194 J2.74
N5505 X-68.983 Y-24.817 I-5.705 J3.426
N5510 X-68.506 Y-22.547 I-12.434 J3.793
N5515 X-68.393 Y-21.625 I-13.869 J2.18
N5520 G1 X-68.327 Y-21.372
N5525 X-68.226 Y-21.13
N5530 X-68.193 Y-21.074
N5535 G3 X-68.147 Y-16.224 I-316.554 J5.426
N5540 X-68.329 Y-13.935 I-17.168 J-0.217
N5545 X-68.77 Y-12.398 I-7.148 J-1.219
N5550 X-69.112 Y-11.804 I-3.745 J-1.755
N5555 X-70.559 Y-11.1 I-1.453 J-1.148
N5560 X-70.749 Y-11.145 I0.017 J-0.5
N5565 X-71.041 Y-11.574 I0.207 J-0.455 F30000.
N5570 G1 X-71.843 Y-27.375
N5575 G3 X-71.551 Y-27.855 I0.499 J-0.025
N5580 X-71.361 Y-27.9 I0.207 J0.455 F800.
N5585 G1 X-70.844
N5590 G3 X-70.007 Y-27.601 I-0.127 J1.678
N5595 X-69.052 Y-26.681 I-1.772 J2.796
N5600 X-68.214 Y-25.115 I-4.859 J3.604
N5605 X-67.805 Y-23.82 I-8.402 J3.369
N5610 X-67.485 Y-22.579 I-34.334 J9.52
N5615 G1 X-67.434 Y-22.322
N5620 G2 X-66.957 Y-21.394 I3.13 J-1.022
N5625 G3 X-66.413 Y-20.624 I-17.582 J13.007
N5630 G1 X-66.4 Y-20.597
N5635 X-66.385 Y-20.571
N5640 X-66.374 Y-20.551 F450.
N5645 X-66.371 Y-20.545
N5650 G2 X-66.835 Y-18.24 I10.099 J3.233 F800.
N5655 X-67.045 Y-15.857 I73.682 J7.69
N5660 G3 X-67.172 Y-14.79 I-41.831 J-4.443
N5665 G1 X-67.17 Y-14.528
N5670 X-67.13 Y-14.269
N5675 X-67.053 Y-14.019
N5680 G2 X-66.738 Y-13.408 I4.087 J-1.721 F450.
N5685 G3 X-67.621 Y-12.12 I-23.03 J-14.833 F800.
N5690 X-68.151 Y-11.524 I-4.075 J-3.094
N5695 X-69.075 Y-11.117 I-1.195 J-1.46
N5700 G1 X-69.329 Y-11.1
N5705 X-69.945
N5710 G3 X-70.135 Y-11.145 I0.017 J-0.5
N5715 X-70.427 Y-11.571 I0.207 J-0.455 F30000.
N5720 G1 X-71.326 Y-27.372
N5725 G3 X-71.034 Y-27.855 I0.499 J-0.028
N5730 X-70.844 Y-27.9 I0.207 J0.455 F800.
N5735 G1 X-70.162
N5740 G3 X-69.315 Y-27.642 I-0.075 J1.764
N5745 G2 X-68.247 Y-27.326 I1.079 J-1.683
N5750 G1 X-68.206 Y-27.324 F450.
N5755 X-68.198
N5760 G3 X-67.016 Y-24.581 I-12.287 J6.92 F800.
N5765 G2 X-66.128 Y-22.512 I12.091 J-3.968
N5770 G3 X-65.767 Y-21.526 I-4.686 J2.273
N5775 X-65.711 Y-20.08 I-7.302 J1.01
N5780 X-65.879 Y-17.057 I-52.092 J-1.379
N5785 G2 X-65.832 Y-15.36 I7.435 J0.646
N5790 G3 X-65.801 Y-14.24 I-7.841 J0.783
N5795 G2 X-65.728 Y-13.216 I9.128 J-0.131
N5800 G3 X-65.726 Y-12.709 I-3.154 J0.268
N5805 X-66.684 Y-11.62 I-11.299 J-8.98
N5810 X-67.968 Y-11.1 I-1.29 J-1.337
N5815 G1 X-69.196
N5820 G3 X-69.386 Y-11.145 I0.017 J-0.5
N5825 X-69.677 Y-11.569 I0.207 J-0.455 F30000.
N5830 G1 X-70.644 Y-27.37
N5835 G3 X-70.352 Y-27.855 I0.499 J-0.031
N5840 X-70.162 Y-27.9 I0.207 J0.455 F800.
N5845 G1 X-68.746
N5850 G3 X-68.467 Y-27.867 I-0.013 J1.297
N5855 G2 X-67.258 Y-27.659 I1.745 J-6.55
N5860 G1 X-67.217 Y-27.651
N5865 X-67.171 Y-27.644
N5870 X-67.133 Y-27.638
N5875 X-67.093 Y-27.631
N5880 X-67.052 Y-27.624 F450.
N5885 X-67.044 Y-27.623
N5890 G3 X-66.164 Y-25.372 I-66.917 J27.458 F800.
N5895 X-65.328 Y-23.372 I-63.181 J27.583
N5900 X-64.809 Y-20.73 I-8.593 J3.059
N5905 X-64.775 Y-18.499 I-19.567 J1.411
N5910 G2 X-64.728 Y-15.52 I61.343 J0.521
N5915 G3 X-64.689 Y-14.176 I-51.2 J2.174
N5920 X-65.182 Y-12.338 I-3.552 J0.033
N5925 X-65.615 Y-11.685 I-2.754 J-1.356
N5930 X-66.958 Y-11.1 I-1.344 J-1.253
N5935 G1 X-67.847
N5940 G3 X-68.037 Y-11.145 I0.017 J-0.5
N5945 X-68.329 Y-11.571 I0.207 J-0.455 F30000.
N5950 G1 X-69.228 Y-27.372
N5955 G3 X-68.936 Y-27.855 I0.499 J-0.028
N5960 X-68.746 Y-27.9 I0.207 J0.455 F800.
N5965 G1 X-67.278
N5970 G3 X-66.797 Y-27.757 I-0.119 J1.282
N5975 X-66.497 Y-27.519 I-0.196 J0.555
N5980 X-65.729 Y-26.429 I-4.813 J4.209
N5985 X-64.226 Y-23.003 I-11.177 J6.943
N5990 X-63.792 Y-19.806 I-14.897 J3.651
N5995 X-63.663 Y-16.202 I-151.771 J7.235
N6000 X-63.732 Y-14.059 I-11.525 J0.702
N6005 X-64.293 Y-12.259 I-6.524 J-1.045
N6010 X-64.598 Y-11.775 I-3.628 J-1.947
N6015 X-66.021 Y-11.1 I-1.427 J-1.17
N6020 G1 X-66.958
N6025 G3 X-67.148 Y-11.145 I0.017 J-0.5
N6030 X-67.441 Y-11.59 I0.207 J-0.455 F30000.
N6035 G1 X-67.761 Y-27.39
N6040 G3 X-67.468 Y-27.855 I0.5 J-0.01
N6045 X-67.278 Y-27.9 I0.207 J0.455 F800.
N6050 G1 X-66.812
N6055 G3 X-66.122 Y-27.641 I-0.125 J1.381
N6060 X-65.239 Y-26.86 I-2.048 J3.205
N6065 X-63.792 Y-24.386 I-6.443 J5.429
N6070 X-63.025 Y-21.348 I-11.535 J4.529
N6075 X-62.764 Y-18.218 I-32.617 J4.291
N6080 X-62.708 Y-15.34 I-28.808 J2.007
N6085 X-63.107 Y-13.023 I-9.756 J-0.488
N6090 X-63.597 Y-11.942 I-4.779 J-1.514
N6095 X-65.141 Y-11.1 I-1.547 J-1.
N6100 G1 X-65.899
N6105 G3 X-66.089 Y-11.145 I0.017 J-0.5
N6110 X-66.381 Y-11.571 I0.207 J-0.455 F30000.
N6115 G1 X-67.294 Y-27.371
N6120 G3 X-67.002 Y-27.855 I0.499 J-0.029
N6125 X-66.812 Y-27.9 I0.207 J0.455 F800.
N6130 G1 X-66.266
N6135 G3 X-65.287 Y-27.595 I-0.06 J1.917
N6140 X-64.248 Y-26.725 I-1.952 J3.387
N6145 X-63.059 Y-24.865 I-5.317 J4.707
N6150 X-62.237 Y-22.34 I-10.033 J4.662
N6155 X-61.843 Y-19.697 I-19.732 J4.294
N6160 X-61.681 Y-15.848 I-27.567 J3.086
N6165 X-62.046 Y-13.378 I-12.256 J-0.55
N6170 X-62.641 Y-11.958 I-5.844 J-1.615
N6175 X-63.741 Y-11.158 I-1.582 J-1.017
N6180 G1 X-63.968 Y-11.115
N6185 X-64.2 Y-11.1
N6190 X-65.
N6195 X-65.049 Y-11.112 Z-2.993
N6200 X-65.095 Y-11.122 Z-2.973
N6205 X-65.134 Y-11.132 Z-2.942
N6210 X-65.164 Y-11.139 Z-2.901
N6215 X-65.183 Y-11.143 Z-2.854
N6220 X-65.19 Y-11.145 Z-2.804
N6225 G0 Z2.51
N6230 X-57.329 Y-11.108
N6235 Z-2.5
N6240 G1 Z-3. F800.
N6245 X-57.394 Y-11.105
N6250 X-57.459 Y-11.102
N6255 X-57.525 Y-11.1
N6260 X-64.2
N6265 X-64.249 Y-11.112 Z-2.993
N6270 X-64.295 Y-11.122 Z-2.973
N6275 X-64.334 Y-11.132 Z-2.942
N6280 X-64.364 Y-11.139 Z-2.901
N6285 X-64.383 Y-11.143 Z-2.854
N6290 X-64.389 Y-11.145 Z-2.804
N6295 G0 Z2.51
N6300 X-66.456 Y-27.855
N6305 Z-2.5
N6310 G1 Z-3. F800.
N6315 G3 X-66.266 Y-27.9 I0.207 J0.455
N6320 G1 X-65.45
N6325 G3 X-64.387 Y-27.58 I-0.059 J2.119
N6330 X-63.176 Y-26.541 I-2.083 J3.652
N6335 X-62.208 Y-25.045 I-5.234 J4.45
N6340 G1 X-62.184 Y-24.985
N6345 X-62.168 Y-24.921
N6350 X-62.16 Y-24.857
N6355 G3 X-62.999 Y-24.472 I-0.5 J0.017 F30000.
N6360 G1 X-65.771 Y-27.033
N6365 G3 X-65.639 Y-27.855 I0.339 J-0.367
N6370 X-65.45 Y-27.9 I0.207 J0.455 F800.
N6375 G1 X-64.55
N6380 G3 X-63.465 Y-27.573 I-0.068 J2.189
N6385 X-62.489 Y-26.806 I-1.886 J3.406
N6390 G2 X-61.627 Y-26.234 I1.43 J-1.219
N6395 X-59.553 Y-26.97 I0.546 J-1.751
N6400 G3 X-57.958 Y-27.9 I1.595 J0.903
N6405 X-57.764 Y-27.87 I-0.029 J0.838
N6410 X-57.987 Y-26.224 I-0.223 J0.808 F30000.
N6415 G1 X-64.521
N6420 G3 X-64.744 Y-27.87 I0. J-0.838
N6425 X-64.55 Y-27.9 I0.223 J0.808 F800.
N6430 G1 X-63.651
N6435 X-63.536 Y-27.894
N6440 X-63.458 Y-27.886
N6445 G2 X-61.86 Y-27.893 I0.781 J-4.048
N6450 G1 X-61.766 Y-27.898
N6455 X-61.672 Y-27.9
N6460 G3 X-61.707 Y-26.901 I-0.017 J0.5
N6465 X-63.702 Y-27.756 I0.105 J-2.998
N6470 G1 X-63.706 Y-27.76
N6475 G3 X-63.651 Y-27.9 I0.057 J-0.058
N6480 G1 X-60.055
N6485 X-60.022 Y-27.897 Z-2.997
N6490 X-59.99 Y-27.893 Z-2.989
N6495 X-59.949 Y-27.881 Z-2.967
N6500 X-59.914 Y-27.87 Z-2.936
N6505 X-59.887 Y-27.862 Z-2.896
N6510 X-59.871 Y-27.857 Z-2.851
N6515 X-59.865 Y-27.855 Z-2.804
N6520 G0 Z4.
(2D ADAPTIVE1 4)
N6530 M8
N6535 G0 X-25.123 Y-20.887
N6540 Z4.
N6545 Z2.51
N6550 G1 Z2.505 F800.
N6555 G3 X-28.979 Y-18.113 Z2.244 I-1.928 J1.387
N6560 X-25.123 Y-20.887 Z1.984 I1.928 J-1.387
N6565 X-28.979 Y-18.113 Z1.723 I-1.928 J1.387
N6570 X-25.123 Y-20.887 Z1.463 I1.928 J-1.387
N6575 X-28.979 Y-18.113 Z1.202 I-1.928 J1.387
N6580 X-25.123 Y-20.887 Z0.942 I1.928 J-1.387
N6585 X-28.979 Y-18.113 Z0.681 I-1.928 J1.387
N6590 X-25.123 Y-20.887 Z0.421 I1.928 J-1.387
N6595 X-28.979 Y-18.113 Z0.16 I-1.928 J1.387
N6600 X-25.123 Y-20.887 Z-0.101 I1.928 J-1.387
N6605 X-28.979 Y-18.113 Z-0.361 I-1.928 J1.387
N6610 X-25.123 Y-20.887 Z-0.622 I1.928 J-1.387
N6615 X-28.979 Y-18.113 Z-0.882 I-1.928 J1.387
N6620 X-25.123 Y-20.887 Z-1.143 I1.928 J-1.387
N6625 X-28.979 Y-18.113 Z-1.403 I-1.928 J1.387
N6630 X-25.123 Y-20.887 Z-1.664 I1.928 J-1.387
N6635 X-28.979 Y-18.113 Z-1.924 I-1.928 J1.387
N6640 X-25.123 Y-20.887 Z-2.185 I1.928 J-1.387
N6645 X-28.979 Y-18.113 Z-2.446 I-1.928 J1.387
N6650 X-25.123 Y-20.887 Z-2.706 I1.928 J-1.387
N6655 X-28.979 Y-18.113 Z-2.967 I-1.928 J1.387
N6660 X-25.123 Y-20.887 Z-3.227 I1.928 J-1.387
N6665 X-28.979 Y-18.113 Z-3.488 I-1.928 J1.387
N6670 X-25.123 Y-20.887 Z-3.748 I1.928 J-1.387
N6675 X-24.676 Y-19.5 Z-3.8 I-1.928 J1.387
N6680 X-29.426 I-2.375 J0.
N6685 X-24.676 Y-19.557 I2.375 J0.
N6690 Y-19.5 I-2.374 J0.057
N6695 G2 X-24.587 Y-18.779 I2.325 J0.08
N6700 G3 X-25.002 Y-17.533 I-1.777 J0.1
N6705 X-26.861 Y-16.558 I-2.019 J-1.589
N6710 X-30.024 Y-19.504 I-0.234 J-2.92
N6715 X-24.313 Y-20.668 I2.974 J-0.002
N6720 X-23.914 Y-19.265 I-4.048 J1.907
N6725 X-25.687 Y-16.234 I-3.022 J0.266
N6730 X-29.056 Y-16.49 I-1.459 J-3.096
N6735 X-26.983 Y-23.129 I1.992 J-3.021
N6740 X-24.056 Y-21.564 I-0.054 J3.62
N6745 X-23.253 Y-18.486 I-3.35 J2.518
N6750 X-26.527 Y-15.277 I-3.814 J-0.617
N6755 X-30.732 Y-17.234 I-0.634 J-4.134
N6760 X-24.419 Y-22.941 I3.677 J-2.277
N6765 X-22.575 Y-18.2 I-2.897 J3.855
N6770 X-26.881 Y-14.514 I-4.535 J-0.939
N6775 X-31.785 Y-17.712 I-0.284 J-4.922
N6780 X-24.831 Y-24.06 I4.729 J-1.802
N6785 X-21.78 Y-19.773 I-2.412 J4.946
N6790 X-25.861 Y-13.907 I-5.308 J0.66
N6795 X-31.349 Y-15.583 I-1.332 J-5.461
N6800 X-27.697 Y-25.3 I4.278 J-3.937
N6805 X-23.099 Y-23.826 I0.657 J5.862
N6810 X-21.58 Y-16.426 I-4.09 J4.696
N6815 X-28.61 Y-13.129 I-5.592 J-2.781
N6820 X-33.668 Y-19.616 I1.458 J-6.351
N6825 X-24.82 Y-25.741 I6.614 J0.101
N6830 X-20.284 Y-20.41 I-2.343 J6.588
N6835 X-25.401 Y-12.396 I-6.824 J1.284
N6840 X-32.555 Y-14.547 I-1.805 J-6.97
N6845 X-28.954 Y-26.683 I5.478 J-4.976
N6850 X-22.503 Y-25.411 I1.924 J7.244
N6855 X-21.416 Y-13.852 I-4.652 J6.268
N6860 X-31.026 Y-12.323 I-5.79 J-5.43
N6865 X-34.66 Y-22.688 I3.897 J-7.186
N6870 X-24.235 Y-27.267 I7.613 J3.176
N6875 X-18.952 Y-21.827 I-2.882 J8.084
N6880 X-25.032 Y-10.791 I-8.17 J2.692
N6885 X-34.174 Y-13.896 I-2.183 J-8.583
N6890 X-30.775 Y-27.792 I7.09 J-5.63
N6895 X-22.016 Y-27.103 I3.75 J8.345
N6900 X-25.868 Y-9.767 I-5.125 J7.957
N6905 X-35.629 Y-14.525 I-1.343 J-9.635
N6910 X-32.175 Y-28.017 I8.543 J-5.001
N6915 X-21.949 Y-28.061 I5.15 J8.562
N6920 X-25.313 Y-8.991 I-5.191 J8.916
N6925 X-35.866 Y-13.311 I-1.905 J-10.395
N6930 X-32.314 Y-28.929 I8.779 J-6.216
N6935 X-21.554 Y-28.828 I5.292 J9.477
N6940 X-24.596 Y-8.259 I-5.584 J9.684
N6945 X-36.269 Y-12.4 I-2.628 J-11.116
N6950 X-32.394 Y-29.87 I9.181 J-7.128
N6955 X-21.105 Y-29.575 I5.375 J10.423
N6960 X-23.917 Y-7.533 I-6.031 J10.431
N6965 X-36.511 Y-11.318 I-3.311 J-11.829
N6970 X-35.683 Y-28.599 I9.408 J-8.209
N6975 X-22.294 Y-31.128 I8.655 J9.115
N6980 X-14.267 Y-20.348 I-4.809 J11.959
N6985 X-24.237 Y-6.542 I-12.871 J1.208
N6990 X-37.579 Y-11.221 I-2.992 J-12.83
N6995 X-33.725 Y-31.149 I10.487 J-8.309
N7000 X-20.453 Y-31.232 I6.71 J11.7
N7005 X-21.515 Y-6.526 I-6.678 J12.089
N7010 X-36.468 Y-8.778 I-5.718 J-12.804
N7015 X-39.705 Y-26.189 I9.341 J-10.743
N7020 X-23.759 Y-33.447 I12.667 J6.683
N7025 X-13.117 Y-23.58 I-3.31 J14.243
N7030 X-12.609 Y-21.428 I-12.913 J4.189
N7035 G1 X-12.602 Y-21.333
N7040 X-12.6 Y-21.239
N7045 Y-18.003
N7050 G3 X-12.775 Y-16.18 I-12.264 J-0.259
N7055 X-15.914 Y-9.646 I-13.805 J-2.612
N7060 X-22.45 Y-5.199 I-11.207 J-9.443
N7065 G1 X-22.642 Y-5.144
N7070 X-22.84 Y-5.111
N7075 X-23.04 Y-5.1
N7080 X-30.35
N7085 G3 X-32.904 Y-5.616 I0.21 J-7.623
N7090 X-36.532 Y-7.674 I4.505 J-12.166
N7095 X-42.197 Y-20.827 I9.345 J-11.821
N7100 X-32.296 Y-33.783 I15.126 J1.299
N7105 G1 X-32.088 Y-33.848
N7110 X-31.874 Y-33.887
N7115 X-31.656 Y-33.9
N7120 X-23.451
N7125 G3 X-20.918 Y-33.366 I-0.2 J7.219
N7130 X-17.729 Y-31.584 I-4.592 J11.962
N7135 X-12.743 Y-25.171 I-9.223 J12.317
N7140 G1 X-12.663 Y-24.943
N7145 X-12.616 Y-24.707
N7150 X-12.6 Y-24.466
N7155 Y-21.239
N7160 Y-21.042
N7165 Y-18.199 F30000.
N7170 Y-18.003 F800.
N7175 Y-14.858
N7180 G3 X-13.052 Y-12.709 I-6.327 J-0.208
N7185 X-14.862 Y-9.537 I-11.302 J-4.346
N7190 X-19.916 Y-5.309 I-12.072 J-9.298
N7195 X-20.762 Y-5.1 I-0.84 J-1.582
N7200 G1 X-23.04
N7205 G3 X-23.23 Y-5.145 I0.017 J-0.5
N7210 X-23.363 Y-5.966 I0.207 J-0.455 F30000.
N7215 G1 X-13.44 Y-15.206
N7220 G3 X-12.645 Y-15.048 I0.341 J0.366
N7225 X-12.6 Y-14.858 I-0.455 J0.207 F800.
N7230 G1 Y-12.829
N7235 G3 X-13.025 Y-11.025 I-4.815 J-0.182
N7240 X-14.521 Y-8.575 I-9.316 J-4.006
N7245 X-17.994 Y-5.403 I-11.778 J-9.411
N7250 X-19. Y-5.1 I-0.999 J-1.495
N7255 G1 X-20.762
N7260 G3 X-20.952 Y-5.145 I0.017 J-0.5
N7265 X-21.088 Y-5.963 I0.207 J-0.455 F30000.
N7270 G1 X-13.443 Y-13.175
N7275 G3 X-12.645 Y-13.019 I0.343 J0.364
N7280 X-12.6 Y-12.829 I-0.455 J0.207 F800.
N7285 G1 Y-11.182
N7290 G3 X-12.993 Y-9.58 I-4.109 J-0.161
N7295 X-14.242 Y-7.591 I-7.799 J-3.509
N7300 X-16.352 Y-5.498 I-10.596 J-8.57
N7305 X-17.491 Y-5.1 I-1.136 J-1.425
N7310 G1 X-19.
N7315 G3 X-19.189 Y-5.145 I0.017 J-0.5
N7320 X-19.326 Y-5.963 I0.207 J-0.455 F30000.
N7325 G1 X-13.443 Y-11.528
N7330 G3 X-12.645 Y-11.372 I0.344 J0.363
N7335 X-12.6 Y-11.182 I-0.455 J0.207 F800.
N7340 G1 Y-9.767
N7345 G3 X-12.959 Y-8.28 I-3.673 J-0.1
N7350 X-14.081 Y-6.52 I-6.769 J-3.079
N7355 X-15.088 Y-5.462 I-6.325 J-5.007
N7360 X-16.186 Y-5.1 I-1.108 J-1.513
N7365 X-16.376 Y-5.145 I0.017 J-0.5
N7370 X-16.571 Y-5.897 I0.207 J-0.455 F30000.
N7375 G1 X-13.502 Y-10.047
N7380 G3 X-12.645 Y-9.957 I0.402 J0.297
N7385 X-12.6 Y-9.767 I-0.455 J0.207 F800.
N7390 G1 Y-8.419
N7395 G3 X-12.926 Y-7.064 I-3.35 J-0.088
N7400 X-13.738 Y-5.739 I-5.247 J-2.306
N7405 X-15.129 Y-5.1 I-1.392 J-1.196
N7410 X-15.319 Y-5.145 I0.017 J-0.5
N7415 X-15.518 Y-5.891 I0.207 J-0.455 F30000.
N7420 G1 X-13.506 Y-8.693
N7425 G3 X-12.645 Y-8.609 I0.406 J0.292
N7430 X-12.6 Y-8.419 I-0.455 J0.207 F800.
N7435 G1 Y-7.071
N7440 G3 X-12.967 Y-5.874 I-2.268 J-0.04
N7445 X-13.972 Y-5.168 I-1.518 J-1.093
N7450 G1 X-14.217 Y-5.117
N7455 X-14.467 Y-5.1
N7460 G3 X-14.657 Y-5.145 I0.017 J-0.5
N7465 X-14.816 Y-5.94 I0.207 J-0.455 F30000.
N7470 G1 X-13.466 Y-7.394
N7475 G3 X-12.645 Y-7.261 I0.366 J0.34
N7480 X-12.6 Y-7.071 I-0.455 J0.207 F800.
N7485 G1 Y-6.173
N7490 X-12.603 Y-6.105
N7495 X-12.608 Y-6.056
N7500 X-12.616 Y-6.002
N7505 X-12.695 Y-5.758
N7510 X-12.826 Y-5.539
N7515 X-13.004 Y-5.355
N7520 X-13.22 Y-5.216
N7525 X-13.461 Y-5.129
N7530 X-13.716 Y-5.1
N7535 G3 X-13.91 Y-5.125 I0.036 J-1.041
N7540 X-14.676 Y-6.446 I0.231 J-1.016 F30000.
N7545 X-12.625 Y-6.367 I1.015 J0.31
N7550 X-12.6 Y-6.173 I-1.036 J0.232 F800.
N7555 X-12.603 Y-5.649 I-6.43 J0.23
N7560 G1 X-12.648 Y-5.475
N7565 X-12.742 Y-5.322
N7570 X-12.875 Y-5.203
N7575 X-13.038 Y-5.126
N7580 X-13.215 Y-5.1
N7585 G3 X-13.407 Y-5.14 I0.019 J-0.577
N7590 X-13.745 Y-5.855 I0.211 J-0.537 F30000.
N7595 X-12.637 Y-5.879 I0.558 J0.181
N7600 X-12.6 Y-5.687 I-0.55 J0.205 F800.
N7605 X-13.102 Y-5.099 I-0.529 J0.057
N7610 G1 X-13.252 Y-5.1
N7615 X-17.491
N7620 X-17.505 Y-5.106
N7625 X-17.546 Y-5.15
N7630 X-17.588 Y-5.194
N7635 X-17.63 Y-5.238
N7640 X-20.901 Y-7.842 F30000.
N7645 G2 X-22.401 Y-8.399 I-1.575 J1.942
N7650 G1 X-25.401
N7655 G2 X-26.927 Y-7.82 I0.075 J2.499
N7660 G1 X-30.169 Y-5.16
N7665 X-30.212 Y-5.125 F800.
N7670 X-30.35 Y-5.1
N7675 X-32.6
N7680 G3 X-34.72 Y-5.593 I0.14 J-5.404
N7685 X-37.18 Y-7.074 I4.285 J-9.904
N7690 X-41.443 Y-12.309 I9.424 J-12.026
N7695 X-34.717 Y-33.674 I14.357 J-7.222
N7700 X-33.841 Y-33.9 I0.866 J1.55
N7705 G1 X-31.656
N7710 X-31.607 Y-33.888 Z-3.793
N7715 X-31.561 Y-33.878 Z-3.773
N7720 X-31.522 Y-33.868 Z-3.742
N7725 X-31.492 Y-33.861 Z-3.701
N7730 X-31.473 Y-33.857 Z-3.654
N7735 X-31.466 Y-33.855 Z-3.604
N7740 G0 Z2.51
N7745 X-32.462 Y-5.238
N7750 Z-3.3
N7755 G1 Z-3.8 F800.
N7760 X-32.503 Y-5.194
N7765 X-32.545 Y-5.15
N7770 X-32.586 Y-5.106
N7775 X-32.6 Y-5.1
N7780 X-34.4
N7785 G3 X-36.105 Y-5.507 I0.137 J-4.347
N7790 X-38.312 Y-6.9 I3.727 J-8.352
N7795 X-41.547 Y-10.648 I9.477 J-11.449
N7800 X-41.468 Y-28.54 I14.405 J-8.883
N7805 X-36.597 Y-33.594 I14.319 J8.927
N7810 X-35.584 Y-33.9 I1.009 J1.511
N7815 G1 X-33.841
N7820 G3 X-33.651 Y-33.855 I-0.017 J0.5
N7825 X-33.359 Y-33.39 I-0.207 J0.455 F30000.
N7830 G1 X-33.918 Y-5.59
N7835 G3 X-34.21 Y-5.145 I-0.5 J-0.01
N7840 X-34.4 Y-5.1 I-0.207 J-0.455 F800.
N7845 G1 X-35.9
N7850 G3 X-37.445 Y-5.471 I0.101 J-3.82
N7855 X-39.413 Y-6.752 I3.308 J-7.236
N7860 X-41.999 Y-9.69 I9.077 J-10.598
N7865 X-44.967 Y-19.833 I14.592 J-9.775
N7870 X-38.234 Y-33.517 I17.873 J0.296
N7875 X-37.114 Y-33.9 I1.12 J1.447
N7880 G1 X-35.584
N7885 G3 X-35.394 Y-33.855 I-0.017 J0.5
N7890 X-35.102 Y-33.395 I-0.207 J0.455 F30000.
N7895 G1 X-35.417 Y-5.594
N7900 G3 X-35.71 Y-5.145 I-0.5 J-0.006
N7905 X-35.9 Y-5.1 I-0.207 J-0.455 F800.
N7910 G1 X-37.332
N7915 G3 X-38.677 Y-5.433 I0.133 J-3.421
N7920 X-40.426 Y-6.572 I2.897 J-6.359
N7925 X-42.829 Y-9.324 I8.581 J-9.921
N7930 X-45.513 Y-15.813 I14.792 J-9.917
N7935 X-39.707 Y-33.462 I18.409 J-3.723
N7940 X-38.515 Y-33.9 I1.199 J1.422
N7945 G1 X-37.25
N7950 G3 X-37.06 Y-33.855 I-0.017 J0.5
N7955 X-36.767 Y-33.399 I-0.207 J0.455 F30000.
N7960 G1 X-36.85 Y-5.598
N7965 G3 X-37.142 Y-5.145 I-0.5 J-0.001
N7970 X-37.332 Y-5.1 I-0.207 J-0.455 F800.
N7975 G1 X-38.6
N7980 G3 X-39.866 Y-5.408 I0.102 J-3.174
N7985 X-41.586 Y-6.556 I2.695 J-5.899
N7990 X-43.778 Y-9.146 I8.397 J-9.334
N7995 X-46.183 Y-14.637 I15.06 J-9.865
N8000 X-41.218 Y-33.277 I19.058 J-4.906
N8005 X-40.512 Y-33.769 I1.521 J1.431
N8010 G1 X-40.29 Y-33.841
N8015 X-40.062 Y-33.885
N8020 X-39.829 Y-33.9
N8025 X-38.515
N8030 G3 X-38.325 Y-33.855 I-0.017 J0.5
N8035 X-38.032 Y-33.399 I-0.207 J0.455 F30000.
N8040 G1 X-38.117 Y-5.598
N8045 G3 X-38.41 Y-5.145 I-0.5 J-0.002
N8050 X-38.6 Y-5.1 I-0.207 J-0.455 F800.
N8055 G1 X-39.8
N8060 G3 X-41.221 Y-5.488 I0.099 J-3.159
N8065 X-42.705 Y-6.537 I2.842 J-5.597
N8070 X-44.846 Y-9.17 I8.374 J-8.996
N8075 X-47.017 Y-14.199 I15.492 J-9.669
N8080 X-43.329 Y-32.259 I19.86 J-5.352
N8085 X-42.381 Y-33.362 I9.236 J6.977
N8090 X-41.082 Y-33.9 I1.302 J1.307
N8095 G1 X-39.95
N8100 G3 X-39.76 Y-33.855 I-0.017 J0.5
N8105 X-39.467 Y-33.403 I-0.207 J0.455 F30000.
N8110 G1 X-39.317 Y-5.602
N8115 G3 X-39.61 Y-5.145 I-0.5 J0.003
N8120 X-39.8 Y-5.1 I-0.207 J-0.455 F800.
N8125 G1 X-41.
N8130 G3 X-42.327 Y-5.468 I0.118 J-3.005
N8135 X-43.981 Y-6.699 I2.877 J-5.593
N8140 X-45.892 Y-9.182 I8.613 J-8.602
N8145 X-47.981 Y-14.247 I16.011 J-9.568
N8150 X-45.953 Y-29.964 I20.754 J-5.312
N8155 X-43.914 Y-33.004 I17.486 J9.53
N8160 G1 X-43.74 Y-33.2
N8165 X-43.623 Y-33.324
N8170 G3 X-42.289 Y-33.9 I1.335 J1.257
N8175 G1 X-41.082
N8180 G3 X-40.892 Y-33.855 I-0.017 J0.5
N8185 X-40.6 Y-33.402 I-0.207 J0.455 F30000.
N8190 G1 X-40.517 Y-5.601
N8195 G3 X-40.81 Y-5.145 I-0.5 J0.001
N8200 X-40.999 Y-5.1 I-0.207 J-0.455 F800.
N8205 G1 X-42.132
N8210 G3 X-43.413 Y-5.453 I0.108 J-2.893
N8215 X-45.045 Y-6.682 I2.771 J-5.378
N8220 X-46.921 Y-9.19 I8.521 J-8.328
N8225 X-48.809 Y-13.777 I16.144 J-9.331
N8230 X-48.325 Y-26.92 I21.424 J-5.791
N8235 X-45.31 Y-32.704 I20.825 J7.178
N8240 X-44.783 Y-33.337 I7.272 J5.516
N8245 X-43.46 Y-33.9 I1.324 J1.277
N8250 G1 X-42.289
N8255 G3 X-42.099 Y-33.855 I-0.017 J0.5
N8260 X-41.806 Y-33.403 I-0.207 J0.455 F30000.
N8265 G1 X-41.649 Y-5.603
N8270 G3 X-41.942 Y-5.145 I-0.5 J0.003
N8275 X-42.132 Y-5.1 I-0.207 J-0.455 F800.
N8280 G1 X-43.249
N8285 G3 X-44.479 Y-5.441 I0.115 J-2.804
N8290 X-46.09 Y-6.665 I2.686 J-5.206
N8295 X-47.807 Y-8.968 I8.211 J-7.915
N8300 X-49.703 Y-13.551 I16.061 J-9.325
N8305 X-50.088 Y-23.926 I22.011 J-6.011
N8310 X-46.673 Y-32.365 I22.778 J4.306
N8315 X-45.968 Y-33.292 I7.963 J5.33
N8320 X-44.602 Y-33.9 I1.37 J1.238
N8325 G1 X-43.46
N8330 G3 X-43.27 Y-33.855 I-0.017 J0.5
N8335 X-42.978 Y-33.404 I-0.207 J0.455 F30000.
N8340 G1 X-42.767 Y-5.603
N8345 G3 X-43.059 Y-5.145 I-0.5 J0.004
N8350 X-43.249 Y-5.1 I-0.207 J-0.455 F800.
N8355 G1 X-44.299
N8360 G3 X-45.532 Y-5.433 I0.08 J-2.741
N8365 X-47.124 Y-6.653 I2.617 J-5.065
N8370 X-48.819 Y-8.972 I8.125 J-7.717
N8375 X-50.596 Y-13.323 I16.115 J-9.124
N8380 X-51.234 Y-22.664 I22.594 J-6.234
N8385 X-47.866 Y-32.223 I23.909 J3.052
N8390 X-47.076 Y-33.305 I8.151 J5.118
N8395 X-45.722 Y-33.9 I1.358 J1.251
N8400 G1 X-44.749
N8405 G3 X-44.559 Y-33.855 I-0.017 J0.5
N8410 X-44.267 Y-33.408 I-0.207 J0.455 F30000.
N8415 G1 X-43.817 Y-5.608
N8420 G3 X-44.109 Y-5.145 I-0.5 J0.008
N8425 X-44.299 Y-5.1 I-0.207 J-0.455 F800.
N8430 G1 X-45.432
N8435 G3 X-46.748 Y-5.521 I0.181 J-2.834
N8440 X-48.141 Y-6.635 I2.817 J-4.951
N8445 X-49.942 Y-9.197 I8.323 J-7.767
N8450 X-51.487 Y-13.081 I16.318 J-8.739
N8455 X-52.204 Y-22.42 I23.226 J-6.481
N8460 X-49.048 Y-32.056 I24.795 J2.787
N8465 X-48.315 Y-33.14 I9.955 J5.937
N8470 X-47.696 Y-33.678 I1.625 J1.245
N8475 X-46.821 Y-33.9 I0.878 J1.628
N8480 G1 X-45.722
N8485 G3 X-45.532 Y-33.855 I-0.017 J0.5
N8490 X-45.239 Y-33.406 I-0.207 J0.455 F30000.
N8495 G1 X-44.949 Y-5.605
N8500 G3 X-45.242 Y-5.145 I-0.5 J0.005
N8505 X-45.432 Y-5.1 I-0.207 J-0.455 F800.
N8510 G1 X-46.482
N8515 G3 X-47.77 Y-5.512 I0.18 J-2.78
N8520 X-49.151 Y-6.622 I2.764 J-4.854
N8525 X-50.811 Y-8.965 I8.022 J-7.443
N8530 X-52.447 Y-13.093 I16.227 J-8.819
N8535 X-53.257 Y-21.132 I23.67 J-6.445
N8540 X-50.338 Y-31.649 I25.861 J1.514
N8545 X-49.359 Y-33.192 I10.155 J5.363
N8550 X-48.775 Y-33.681 I1.577 J1.29
N8555 X-47.905 Y-33.9 I0.872 J1.628
N8560 G1 X-46.821
N8565 G3 X-46.631 Y-33.855 I-0.017 J0.5
N8570 X-46.338 Y-33.406 I-0.207 J0.455 F30000.
N8575 G1 X-45.999 Y-5.606
N8580 G3 X-46.292 Y-5.145 I-0.5 J0.006
N8585 X-46.482 Y-5.1 I-0.207 J-0.455 F800.
N8590 G1 X-47.449
N8595 G3 X-48.785 Y-5.508 I0.101 J-2.719
N8600 X-50.156 Y-6.615 I2.705 J-4.755
N8605 X-51.801 Y-8.968 I7.946 J-7.309
N8610 X-53.407 Y-13.108 I16.334 J-8.716
N8615 X-54.221 Y-20.628 I24.177 J-6.42
N8620 X-51.483 Y-31.463 I26.751 J0.995
N8625 X-50.547 Y-33.038 I11.51 J5.774
N8630 X-49.842 Y-33.684 I1.784 J1.238
N8635 X-48.976 Y-33.9 I0.873 J1.655
N8640 G1 X-48.049
N8645 G3 X-47.859 Y-33.855 I-0.017 J0.5
N8650 X-47.566 Y-33.411 I-0.207 J0.455 F30000.
N8655 G1 X-46.967 Y-5.61
N8660 G3 X-47.259 Y-5.145 I-0.5 J0.011
N8665 X-47.449 Y-5.1 I-0.207 J-0.455 F800.
N8670 G1 X-48.499
N8675 G3 X-49.789 Y-5.502 I0.129 J-2.687
N8680 X-51.152 Y-6.605 I2.671 J-4.692
N8685 X-52.785 Y-8.967 I7.883 J-7.198
N8690 X-54.297 Y-12.864 I16.198 J-8.527
N8695 X-55.174 Y-20.117 I24.493 J-6.642
N8700 X-52.617 Y-31.264 I27.605 J0.465
N8705 X-51.727 Y-32.865 I13.034 J6.205
N8710 X-51.265 Y-33.429 I2.802 J1.822
N8715 X-50.036 Y-33.9 I1.233 J1.375
N8720 G1 X-49.099
N8725 G3 X-48.909 Y-33.855 I-0.017 J0.5
N8730 X-48.616 Y-33.411 I-0.207 J0.455 F30000.
N8735 G1 X-48.016 Y-5.61
N8740 G3 X-48.309 Y-5.145 I-0.5 J0.011
N8745 X-48.499 Y-5.1 I-0.207 J-0.455 F800.
N8750 G1 X-49.481
N8755 G3 X-50.788 Y-5.498 I0.095 J-2.656
N8760 X-52.141 Y-6.596 I2.635 J-4.627
N8765 X-53.764 Y-8.965 I7.816 J-7.097
N8770 X-55.254 Y-12.87 I16.256 J-8.442
N8775 X-56.118 Y-19.864 I24.931 J-6.63
N8780 X-53.741 Y-31.056 I28.429 J0.19
N8785 X-52.751 Y-32.9 I13.11 J5.85
N8790 X-52.186 Y-33.534 I2.362 J1.538
N8795 X-51.084 Y-33.9 I1.107 J1.491
N8800 G1 X-50.036
N8805 G3 X-49.846 Y-33.855 I-0.017 J0.5
N8810 X-49.554 Y-33.41 I-0.207 J0.455 F30000.
N8815 G1 X-48.999 Y-5.61
N8820 G3 X-49.291 Y-5.145 I-0.5 J0.01
N8825 X-49.481 Y-5.1 I-0.207 J-0.455 F800.
N8830 G1 X-50.531
N8835 G3 X-51.779 Y-5.492 I0.143 J-2.636
N8840 X-53.124 Y-6.586 I2.613 J-4.586
N8845 X-54.738 Y-8.96 I7.76 J-7.012
N8850 X-56.21 Y-12.873 I16.302 J-8.367
N8855 X-57.061 Y-19.608 I25.314 J-6.619
N8860 X-54.855 Y-30.839 I29.233 J-0.092
N8865 X-53.913 Y-32.709 I14.523 J6.146
N8870 X-53.401 Y-33.383 I3.543 J2.156
N8875 X-52.124 Y-33.9 I1.281 J1.327
N8880 G1 X-51.084
N8885 G3 X-50.894 Y-33.855 I-0.017 J0.5
N8890 X-50.602 Y-33.41 I-0.207 J0.455 F30000.
N8895 G1 X-50.049 Y-5.61
N8900 G3 X-50.341 Y-5.145 I-0.5 J0.01
N8905 X-50.531 Y-5.1 I-0.207 J-0.455 F800.
N8910 G1 X-51.499
N8915 G3 X-52.767 Y-5.49 I0.107 J-2.607
N8920 X-54.104 Y-6.58 I2.584 J-4.535
N8925 X-55.711 Y-8.959 I7.708 J-6.935
N8930 X-57.099 Y-12.625 I16.09 J-8.19
N8935 X-57.383 Y-13.782 I14.009 J-4.05
N8940 G1 X-57.395 Y-13.913
N8945 X-57.4 Y-14.045
N8950 Y-24.142
N8955 G3 X-57.346 Y-25.188 I23.219 J0.683
N8960 X-56.51 Y-29.018 I18.747 J2.083
N8965 X-55.122 Y-32.405 I18.306 J5.525
N8970 X-54.56 Y-33.249 I6.155 J3.487
N8975 X-53.158 Y-33.9 I1.405 J1.188
N8980 G1 X-52.249
N8985 G3 X-52.059 Y-33.855 I-0.017 J0.5
N8990 X-51.819 Y-33.176 I-0.207 J0.455 F30000.
N8995 G1 X-56.453 Y-23.935
N9000 G3 X-57.355 Y-23.952 I-0.447 J-0.224
N9005 X-57.4 Y-24.142 I0.455 J-0.207 F800.
N9010 G1 Y-27.886
N9015 G3 X-56.917 Y-30.449 I8.816 J0.335
N9020 X-55.861 Y-32.839 I10.55 J3.232
N9025 X-55.431 Y-33.395 I2.67 J1.621
N9030 X-54.166 Y-33.9 I1.268 J1.338
N9035 G1 X-53.298
N9040 G3 X-53.109 Y-33.855 I-0.017 J0.5
N9045 X-52.897 Y-33.127 I-0.207 J0.455 F30000.
N9050 G1 X-56.481 Y-27.63
N9055 G3 X-57.355 Y-27.696 I-0.419 J-0.273
N9060 X-57.4 Y-27.886 I0.455 J-0.207 F800.
N9065 G1 Y-30.431
N9070 G3 X-56.613 Y-33.055 I5.377 J0.184
N9075 X-55.066 Y-33.9 I1.551 J1.
N9080 X-54.876 Y-33.855 I-0.017 J0.5
N9085 X-54.658 Y-33.138 I-0.207 J0.455 F30000.
N9090 G1 X-56.474 Y-30.187
N9095 G3 X-57.355 Y-30.241 I-0.426 J-0.262
N9100 X-57.4 Y-30.431 I0.455 J-0.207 F800.
N9105 G1 Y-32.161
N9110 G3 X-55.687 Y-33.901 I1.716 J-0.023
N9115 G1 X-55.622 Y-33.894
N9120 X-55.559 Y-33.879
N9125 X-55.497 Y-33.855
N9130 G3 X-55.347 Y-33.051 I-0.207 J0.455 F30000.
N9135 G1 X-56.543 Y-31.829
N9140 G3 X-57.355 Y-31.971 I-0.357 J-0.35
N9145 X-57.4 Y-32.161 I0.455 J-0.207 F800.
N9150 G1 Y-32.909
N9155 X-57.395 Y-33.
N9160 X-57.391 Y-33.044
N9165 X-57.329 Y-33.273
N9170 X-57.214 Y-33.481
N9175 X-57.054 Y-33.656
N9180 X-56.857 Y-33.789
N9185 X-56.635 Y-33.872
N9190 X-56.399 Y-33.9
N9195 G3 X-56.205 Y-33.873 I-0.033 J0.958
N9200 X-55.507 Y-32.691 I-0.228 J0.931 F30000.
N9205 X-57.373 Y-32.715 I-0.93 J-0.252
N9210 X-57.4 Y-32.909 I0.936 J-0.228 F800.
N9215 X-57.392 Y-33.468 I4.548 J-0.211
N9220 G1 X-57.371 Y-33.536
N9225 X-57.346 Y-33.601
N9230 X-57.314 Y-33.664
N9235 X-57.3 Y-33.672
N9240 G3 X-57.223 Y-33.649 I0.028 J0.047
N9245 X-57.193 Y-33.564 I-0.348 J0.169
N9250 X-57.205 Y-33.353 I-0.377 J0.085 F30000.
N9255 X-57.258 Y-33.295 I-0.094 J-0.033
N9260 X-57.399 Y-33.383 I-0.041 J-0.091 F800.
N9265 X-56.898 Y-33.9 I0.521 J0.004
N9270 G1 X-56.748
N9275 X-54.166
N9280 G3 X-53.976 Y-33.855 I-0.017 J0.5
N9285 X-53.685 Y-33.448 I-0.207 J0.455 F30000.
N9290 G1 X-51.018 Y-5.647
N9295 G3 X-51.309 Y-5.145 I-0.498 J0.048
N9300 X-51.499 Y-5.1 I-0.207 J-0.455 F800.
N9305 G1 X-52.481
N9310 G3 X-53.75 Y-5.487 I0.097 J-2.59
N9315 X-55.081 Y-6.574 I2.562 J-4.496
N9320 X-56.68 Y-8.958 I7.664 J-6.869
N9325 X-57.344 Y-10.465 I10.058 J-5.334
N9330 G1 X-57.385 Y-10.695
N9335 X-57.4 Y-10.928
N9340 Y-14.045
N9345 G3 X-57.355 Y-14.235 I0.5 J0.017
N9350 X-56.457 Y-14.259 I0.455 J0.207 F30000.
N9355 G1 X-52.055 Y-5.831
N9360 G3 X-52.291 Y-5.145 I-0.443 J0.231
N9365 X-52.481 Y-5.1 I-0.207 J-0.455 F800.
N9370 G1 X-53.494
N9375 G3 X-54.728 Y-5.484 I0.124 J-2.575
N9380 X-56.054 Y-6.568 I2.547 J-4.468
N9385 X-57.222 Y-8.182 I6.414 J-5.87
N9390 X-57.4 Y-8.974 I1.697 J-0.799
N9395 X-57.355 Y-9.164 I0.5 J0.017
N9400 X-56.548 Y-9.312 I0.455 J0.207 F30000.
N9405 G1 X-53.159 Y-5.955
N9410 G3 X-53.304 Y-5.145 I-0.352 J0.355
N9415 X-53.494 Y-5.1 I-0.207 J-0.455 F800.
N9420 G1 X-54.498
N9425 G3 X-55.702 Y-5.48 I0.148 J-2.567
N9430 X-57.049 Y-6.603 I2.349 J-4.184
N9435 X-57.4 Y-7.686 I1.513 J-1.09
N9440 X-57.355 Y-7.876 I0.5 J0.017
N9445 X-56.573 Y-8.046 I0.455 J0.207 F30000.
N9450 G1 X-54.188 Y-5.977
N9455 G3 X-54.308 Y-5.145 I-0.328 J0.378
N9460 X-54.498 Y-5.1 I-0.207 J-0.455 F800.
N9465 G1 X-55.481
N9470 G3 X-56.864 Y-5.672 I0.07 J-2.129
N9475 X-57.401 Y-6.972 I1.327 J-1.309
N9480 G1 X-57.394 Y-7.037
N9485 X-57.379 Y-7.101
N9490 X-57.355 Y-7.162
N9495 G3 X-56.553 Y-7.314 I0.455 J0.207 F30000.
N9500 G1 X-55.151 Y-5.959
N9505 G3 X-55.291 Y-5.145 I-0.347 J0.36
N9510 X-55.481 Y-5.1 I-0.207 J-0.455 F800.
N9515 G1 X-56.298
N9520 X-56.388 Y-5.104
N9525 X-56.619 Y-5.152
N9530 X-56.834 Y-5.247
N9535 X-57.026 Y-5.385
N9540 X-57.184 Y-5.559
N9545 X-57.302 Y-5.763
N9550 X-57.375 Y-5.987
N9555 X-57.4 Y-6.222
N9560 G3 X-57.375 Y-6.416 I1.067 J0.037
N9565 X-56.046 Y-7.212 I1.042 J0.232 F30000.
N9570 X-56.104 Y-5.125 I-0.29 J1.037
N9575 X-56.298 Y-5.1 I-0.232 J-1.051 F800.
N9580 X-56.831 Y-5.102 I-0.244 J-7.934
N9585 G1 X-57.01 Y-5.146
N9590 X-57.167 Y-5.24
N9595 X-57.291 Y-5.376
N9600 X-57.371 Y-5.541
N9605 X-57.4 Y-5.722
N9610 G3 X-57.363 Y-5.914 I0.583 J0.013
N9615 X-56.634 Y-6.262 I0.546 J0.205 F30000.
N9620 X-56.61 Y-5.139 I-0.187 J0.566
N9625 X-56.802 Y-5.1 I-0.212 J-0.558 F800.
N9630 X-57.399 Y-5.574 I-0.065 J-0.532
N9635 G1 X-57.4 Y-5.724
N9640 Y-10.928
N9645 X-57.309 Y-11.102
N9650 X-57.198 Y-11.312 F30000.
N9655 X-23.636 Y-33.844
N9660 X-23.59 Y-33.875 F800.
N9665 X-23.451 Y-33.9
N9670 X-21.201
N9675 G3 X-19.335 Y-33.469 I-0.195 J5.106
N9680 X-16.86 Y-32.013 I-4.065 J9.739
N9685 X-12.849 Y-27.41 I-9.455 J12.287
N9690 X-12.6 Y-26.493 I-1.525 J0.907
N9695 G1 Y-24.591
N9700 G3 X-12.645 Y-24.401 I-0.5 J-0.017
N9705 X-13.468 Y-24.27 I-0.455 J-0.207 F30000.
N9710 G1 X-21.552 Y-33.062
N9715 G3 X-21.391 Y-33.855 I0.368 J-0.338
N9720 X-21.201 Y-33.9 I0.207 J0.455 F800.
N9725 G1 X-19.469
N9730 G3 X-17.827 Y-33.497 I-0.18 J4.286
N9735 X-15.62 Y-32.105 I-3.736 J8.363
N9740 X-12.934 Y-29.207 I-9.377 J11.388
N9745 X-12.6 Y-28.156 I-1.47 J1.045
N9750 G1 Y-26.493
N9755 G3 X-12.645 Y-26.303 I-0.5 J-0.017
N9760 X-13.467 Y-26.172 I-0.455 J-0.207 F30000.
N9765 G1 X-19.819 Y-33.061
N9770 G3 X-19.659 Y-33.855 I0.368 J-0.339
N9775 X-19.469 Y-33.9 I0.207 J0.455 F800.
N9780 G1 X-17.969
N9785 G3 X-16.486 Y-33.532 I-0.153 J3.787
N9790 X-14.517 Y-32.252 I-3.32 J7.262
N9795 X-13.017 Y-30.758 I-7.961 J9.489
N9800 X-12.6 Y-29.593 I-1.413 J1.164
N9805 G1 Y-28.156
N9810 G3 X-12.645 Y-27.966 I-0.5 J-0.017
N9815 X-13.466 Y-27.833 I-0.455 J-0.207 F30000.
N9820 G1 X-18.318 Y-33.06
N9825 G3 X-18.159 Y-33.855 I0.366 J-0.34
N9830 X-17.969 Y-33.9 I0.207 J0.455 F800.
N9835 G1 X-16.552
N9840 G3 X-15.25 Y-33.569 I-0.179 J3.427
N9845 X-13.5 Y-32.431 I-2.916 J6.397
N9850 X-12.862 Y-31.756 I-1.715 J2.262
N9855 X-12.6 Y-30.808 I-1.608 J0.954
N9860 X-12.645 Y-30.618 I-0.5 J-0.017
N9865 X-13.4 Y-30.425 I-0.455 J-0.207 F30000.
N9870 G1 X-16.834 Y-33.
N9875 G3 X-16.741 Y-33.855 I0.3 J-0.4
N9880 X-16.552 Y-33.9 I0.207 J0.455 F800.
N9885 G1 X-15.352
N9890 G3 X-13.855 Y-33.494 I-0.102 J3.34
N9895 X-13.034 Y-32.908 I-0.988 J2.249
N9900 X-12.6 Y-31.72 I-1.419 J1.192
N9905 X-12.645 Y-31.53 I-0.5 J-0.017
N9910 X-13.398 Y-31.336 I-0.455 J-0.207 F30000.
N9915 G1 X-15.633 Y-32.999
N9920 G3 X-15.542 Y-33.855 I0.298 J-0.401
N9925 X-15.352 Y-33.9 I0.207 J0.455 F800.
N9930 G1 X-14.069
N9935 X-13.984 Y-33.896
N9940 X-13.737 Y-33.851
N9945 X-13.501 Y-33.766
N9950 X-13.282 Y-33.644
N9955 X-13.086 Y-33.488
N9960 X-12.917 Y-33.302
N9965 X-12.781 Y-33.091
N9970 X-12.681 Y-32.861
N9975 X-12.62 Y-32.618
N9980 X-12.6 Y-32.368
N9985 G3 X-12.645 Y-32.178 I-0.5 J-0.017
N9990 X-13.464 Y-32.043 I-0.455 J-0.207 F30000.
N9995 G1 X-14.417 Y-33.058
N10000 G3 X-14.259 Y-33.855 I0.365 J-0.342
N10005 X-14.069 Y-33.9 I0.207 J0.455 F800.
N10010 G1 X-13.469
N10015 X-13.394 Y-33.896
N10020 X-13.355 Y-33.892
N10025 X-13.115 Y-33.821
N10030 X-12.904 Y-33.684
N10035 X-12.74 Y-33.494
N10040 X-12.636 Y-33.265
N10045 X-12.6 Y-33.017
N10050 G3 X-12.63 Y-32.823 I-0.841 J-0.029
N10055 X-13.666 Y-32.235 I-0.812 J-0.223 F30000.
N10060 X-13.663 Y-33.871 I0.227 J-0.817
N10065 X-13.469 Y-33.9 I0.223 J0.818 F800.
N10070 G1 X-13.252
N10075 G3 X-12.952 Y-33.873 I0.08 J0.791
N10080 X-12.601 Y-33.426 I-0.182 J0.504
N10085 G1 X-12.6 Y-33.276
N10090 Y-29.593
N10095 X-12.612 Y-29.544 Z-3.793
N10100 X-12.622 Y-29.498 Z-3.773
N10105 X-12.632 Y-29.459 Z-3.742
N10110 X-12.639 Y-29.429 Z-3.701
N10115 X-12.643 Y-29.41 Z-3.654
N10120 X-12.645 Y-29.403 Z-3.604
N10125 G0 Z4.
(2D CONTOUR2)
N10135 M8
N10140 G0 X-72.988 Y-26.5
N10145 Z4.
N10150 Z1.
N10155 G1 Z-2.5 F400.
N10160 G19 G2 Y-27. Z-3. J-0.5 K0.
N10165 G1 Y-27.5 F800.
N10170 G17 G3 X-72.488 Y-28. I0.5 J0.
N10175 G1 X-57.51
N10180 G3 X-57.01 Y-27.5 I0. J0.5
N10185 G1 Y-27.
N10190 G19 G3 Y-26.5 Z-2.5 J0. K0.5
N10195 G1 Y-12.5
N10200 G3 Y-12. Z-3. J0.5 K0. F400.
N10205 G1 Y-11.5 F800.
N10210 G17 G3 X-57.51 Y-11. I-0.5 J0.
N10215 G1 X-72.489
N10220 G3 X-72.989 Y-11.5 I0. J-0.5
N10225 G1 Y-12.
N10230 G19 G2 Y-12.5 Z-2.5 J0. K0.5
N10235 G0 Z4.
N10240 G17
(2D CONTOUR3)
N10245 M8
N10250 G0 X-14. Y-20.
N10255 Z4.
N10260 Z1.
N10265 G1 Z-3.3 F400.
N10270 G18 G2 X-13.5 Z-3.8 I0.5 K0.
N10275 G1 X-13. F800.
N10280 G17 G3 X-12.5 Y-19.5 I0. J0.5
N10285 G1 Y-5.5
N10290 G3 X-13. Y-5. I-0.5 J0.
N10295 G1 X-57.
N10300 G3 X-57.5 Y-5.5 I0. J-0.5
N10305 G1 Y-33.5
N10310 G3 X-57. Y-34. I0.5 J0.
N10315 G1 X-13.
N10320 G3 X-12.5 Y-33.5 I0. J0.5
N10325 G1 Y-19.5
N10330 G3 X-13. Y-19. I-0.5 J0.
N10335 G1 X-13.5
N10340 G18 G3 X-14. Z-3.3 I0. K0.5
N10345 G0 Z4.
N10350 G17
(FACE3)
N10355 M8
N10360 G0 X4.212 Y-14.451
N10365 Z4.
N10370 Z2.
N10375 G1 Z0.5 F800.
N10380 G18 G3 X3.712 Z0. I-0.5 K0.
N10385 G1 X1.
N10390 X-11.
N10395 G17 G2 Y-11.192 I0. J1.63
N10400 G1 X1.
N10405 G3 Y-7.933 I0. J1.63
N10410 G1 X-11.004
N10415 G18 G3 X-11.504 Z0.5 I0. K0.5
N10420 G0 Z2.
N10425 X4.25 Y-4.674
N10430 G1 Z0.5 F800.
N10435 G3 X3.75 Z0. I-0.5 K0.
N10440 G1 X1.
N10445 X-43.5
N10450 G3 X-44. Z0.5 I0. K0.5
N10455 G0 Z2.
N10460 X-56.893 Y-11.192
N10465 G1 Z0.5 F800.
N10470 G3 X-57.393 Z0. I-0.5 K0.
N10475 G1 X-59.019
N10480 X-70.981
N10485 X-71.
N10490 G17 G2 Y-7.933 I0. J1.63
N10495 G1 X-58.996
N10500 X-46.5
N10505 G3 Y-4.674 I0. J1.629
N10510 G1 X-71.
N10515 G2 Y-1.415 I0. J1.629
N10520 G1 X-46.5
N10525 X-43.5
N10530 X1.
N10535 G18 G2 X1.5 Z0.5 I0. K0.5
N10540 G0 Z2.
N10545 X3.461 Y-39.201
N10550 G1 Z0.5 F800.
N10555 G3 X2.961 Z0. I-0.5 K0.
N10560 G1 X0.992
N10565 X-43.5
N10570 X-46.5
N10575 X-70.992
N10580 X-71.
N10585 G17 G2 Y-35.942 I0. J1.63
N10590 G1 X-46.5
N10595 X-43.5
N10600 X1.
N10605 G3 Y-32.683 I0. J1.63
N10610 G1 X-11.927
N10615 G2 Y-29.424 I0. J1.629
N10620 G1 X-11.
N10625 X1.
N10630 G3 Y-26.165 I0. J1.629
N10635 G1 X-11.
N10640 G18 G3 X-11.5 Z0.5 I0. K0.5
N10645 G0 Z2.
N10650 X-55.75 Y-32.683
N10655 G1 Z0.5 F800.
N10660 G3 X-56.25 Z0. I-0.5 K0.
N10665 G1 X-58.073
N10670 X-71.
N10675 G17 G2 Y-29.424 I0. J1.629
N10680 G1 X-59.
N10685 G18 G2 X-58.5 Z0.5 I0. K0.5
N10690 G0 Z4.
N10695 G17
(ADAPTIVE1)
N10700 M8
N10705 G0 X4.485 Y-15.005
N10710 Z4.
N10715 Z-3.
N10720 G1 Z-3.5 F800.
N10725 X4.48 Y-15.011 Z-3.587
N10730 X4.464 Y-15.027 Z-3.671
N10735 X4.439 Y-15.054 Z-3.75
N10740 X4.405 Y-15.09 Z-3.821
N10745 X4.362 Y-15.135 Z-3.883
N10750 X4.314 Y-15.187 Z-3.933
N10755 X4.259 Y-15.245 Z-3.97
N10760 X4.202 Y-15.306 Z-3.992
N10765 X4.142 Y-15.369 Z-4.
N10770 G3 X2.483 Y-17.562 I9.291 J-8.753
N10775 X1.771 Y-19.458 I3.593 J-2.432
N10780 X2.091 Y-20.808 I1.551 J-0.344
N10785 X2.232 Y-20.943 I0.409 J0.286
N10790 X2.999 Y-20.561 I0.269 J0.422 F1800.
N10795 G1 X3.184 Y-18.225
N10800 G3 X2.411 Y-17.768 I-0.498 J0.039
N10805 X2.272 Y-17.905 I0.274 J-0.418 F800.
N10810 G2 X1.622 Y-18.738 I-3.52 J2.076
N10815 G3 X1.762 Y-20.406 I1.067 J-0.75
N10820 X1.918 Y-20.524 I0.375 J0.331
N10825 X2.636 Y-20.038 I0.219 J0.449 F1800.
N10830 G1 X2.558 Y-18.966
N10835 G3 X1.904 Y-18.527 I-0.499 J-0.036
N10840 X1.734 Y-18.623 I0.156 J-0.475 F800.
N10845 G1 X1.546 Y-18.796
N10850 G3 X1.309 Y-19.992 I0.368 J-0.695
N10855 G1 X1.464 Y-20.144
N10860 G3 X1.639 Y-20.232 I0.41 J0.603
N10865 X2.397 Y-20.05 I0.235 J0.691 F1800.
N10870 X1.597 Y-18.798 I-0.546 J0.532
N10875 X1.422 Y-18.887 I0.254 J-0.719 F800.
N10880 X1.035 Y-19.184 I1.505 J-2.353
N10885 G1 X0.999 Y-19.24
N10890 X0.975 Y-19.301
N10895 X0.962 Y-19.365
N10900 G3 X1.559 Y-19.614 I0.335 J-0.036
N10905 G1 X1.571 Y-19.598
N10910 G3 X1.102 Y-19.121 I-0.261 J0.213
N10915 G1 X1.079 Y-19.14
N10920 G3 X1.13 Y-19.903 I0.348 J-0.36
N10925 G2 X1.869 Y-20.529 I-1.585 J-2.622
N10930 G1 X1.866 Y-20.531 Z-3.804
N10935 Z-3. F1800.
N10940 X2.241 Y-20.7
N10945 X2.539 Y-20.602
N10950 X2.696 Y-20.406
N10955 X4.045 Y-17.387
N10960 G3 X2.618 Y-16.469 I-0.843 J0.258
N10965 X2.487 Y-16.615 I0.585 J-0.659 F800.
N10970 G2 X1.535 Y-17.72 I-4.928 J3.28
N10975 G3 X0.553 Y-18.848 I1.366 J-2.181
N10980 X0.554 Y-19.733 I1.254 J-0.441
N10985 G1 X0.877 Y-20.476
N10990 G3 X1.492 Y-21.25 I1.745 J0.755
N10995 X1.668 Y-21.333 I0.296 J0.403
N11000 X2.287 Y-20.826 I0.119 J0.486 F1800.
N11005 G1 X2.174 Y-18.213
N11010 G3 X1.59 Y-17.742 I-0.5 J-0.022
N11015 X1.408 Y-17.812 I0.084 J-0.493 F800.
N11020 G2 X0.681 Y-18.199 I-1.927 J2.742
N11025 G3 X0.07 Y-19.185 I0.704 J-1.119
N11030 X1.091 Y-20.988 I1.816 J-0.162
N11035 X1.281 Y-21.031 I0.203 J0.457
N11040 X1.788 Y-20.454 I0.012 J0.5 F1800.
N11045 G1 X1.489 Y-18.528
N11050 G3 X1.01 Y-18.105 I-0.494 J-0.077
N11055 X0.818 Y-18.137 I-0.015 J-0.5 F800.
N11060 G2 X0.278 Y-18.302 I-1.16 J2.847
N11065 G3 X-0.346 Y-19.433 I0.612 J-1.075
N11070 X0.689 Y-20.808 I1.436 J0.005
N11075 G1 X0.929 Y-20.909
N11080 X1.091 Y-20.988
N11085 G3 X1.281 Y-21.031 I0.203 J0.457
N11090 X1.752 Y-20.33 I0.012 J0.5 F1800.
N11095 G1 X0.974 Y-18.554
N11100 G3 X0.618 Y-18.265 I-0.458 J-0.2
N11105 X0.423 Y-18.263 I-0.101 J-0.49 F800.
N11110 G1 X0.048 Y-18.348
N11115 G3 X-0.454 Y-18.647 I0.112 J-0.759
N11120 G1 X-0.543 Y-18.768
N11125 G3 X0.328 Y-20.715 I1.166 J-0.646
N11130 G1 X0.526 Y-20.76
N11135 X0.689 Y-20.808
N11140 G3 X0.883 Y-20.819 I0.125 J0.484
N11145 X1.258 Y-20.094 I-0.07 J0.495 F1800.
N11150 G1 X0.493 Y-18.618
N11155 G3 X0.239 Y-18.386 I-0.444 J-0.23
N11160 X0.048 Y-18.348 I-0.19 J-0.462 F800.
N11165 G1 X-0.238 Y-18.359
N11170 G3 X-0.937 Y-18.849 I0.045 J-0.807
N11175 X0.048 Y-20.65 I1.018 J-0.613
N11180 G1 X0.113 Y-20.653
N11185 X0.178 Y-20.649
N11190 X0.242 Y-20.636
N11195 G3 X0.588 Y-20.028 I-0.138 J0.481 F1800.
N11200 G1 X0.246 Y-18.731
N11205 G3 X-0.047 Y-18.396 I-0.483 J-0.127
N11210 X-0.238 Y-18.359 I-0.19 J-0.462 F800.
N11215 G1 X-0.48 Y-18.368
N11220 G3 X-1.307 Y-18.831 I-0.064 J-0.855
N11225 X-0.275 Y-20.638 I1.072 J-0.587
N11230 G1 X0.048 Y-20.652
N11235 G3 X0.239 Y-20.614 I0.001 J0.5
N11240 X0.496 Y-19.928 I-0.19 J0.462 F1800.
N11245 G1 X-0.147 Y-18.645
N11250 G3 X-0.393 Y-18.411 I-0.447 J-0.224
N11255 X-0.584 Y-18.369 I-0.201 J-0.458 F800.
N11260 G1 X-0.682 Y-18.371
N11265 X-0.944 Y-18.37
N11270 G3 X-1.665 Y-18.827 I0.004 J-0.804
N11275 G1 X-1.739 Y-18.958
N11280 G3 X-0.6 Y-20.63 I1.157 J-0.436
N11285 G1 X-0.48 Y-20.632
N11290 X-0.275 Y-20.64
N11295 G3 X-0.084 Y-20.602 I0.001 J0.5
N11300 X0.166 Y-19.902 I-0.19 J0.462 F1800.
N11305 G1 X-0.522 Y-18.632
N11310 G3 X-0.754 Y-18.415 I-0.44 J-0.238
N11315 X-0.944 Y-18.37 I-0.208 J-0.455 F800.
N11320 G1 X-1.319
N11325 G3 X-2.033 Y-18.835 I0.01 J-0.796
N11330 G1 X-2.105 Y-18.967
N11335 G3 X-0.926 Y-20.629 I1.177 J-0.414
N11340 G1 X-0.682
N11345 X-0.6 Y-20.63
N11350 G3 X-0.409 Y-20.588 I-0.01 J0.5
N11355 X-0.177 Y-19.881 I-0.201 J0.458 F1800.
N11360 G1 X-0.904 Y-18.62
N11365 G3 X-1.129 Y-18.415 I-0.433 J-0.25
N11370 X-1.319 Y-18.37 I-0.208 J-0.455 F800.
N11375 G1 X-1.688
N11380 G3 X-2.397 Y-18.841 I0.012 J-0.787
N11385 G1 X-2.468 Y-18.973
N11390 G3 X-1.278 Y-20.63 I1.188 J-0.402
N11395 G1 X-0.926 Y-20.629
N11400 G3 X-0.736 Y-20.585 I-0.018 J0.5
N11405 X-0.516 Y-19.871 I-0.208 J0.455 F1800.
N11410 G1 X-1.278 Y-18.611
N11415 G3 X-1.498 Y-18.414 I-0.428 J-0.259
N11420 X-1.688 Y-18.37 I-0.208 J-0.455 F800.
N11425 G1 X-2.05 Y-18.369
N11430 G3 X-2.757 Y-18.842 I0.012 J-0.783
N11435 G1 X-2.827 Y-18.975
N11440 G3 X-1.633 Y-20.63 I1.193 J-0.398
N11445 G1 X-1.278
N11450 G3 X-1.088 Y-20.585 I-0.018 J0.5
N11455 X-0.87 Y-19.869 I-0.208 J0.455 F1800.
N11460 G1 X-1.641 Y-18.608
N11465 G3 X-1.86 Y-18.414 I-0.427 J-0.261
N11470 X-2.05 Y-18.369 I-0.208 J-0.455 F800.
N11475 G1 X-2.403
N11480 G3 X-3.113 Y-18.838 I0.008 J-0.784
N11485 G1 X-3.183 Y-18.97
N11490 G3 X-1.989 Y-20.631 I1.193 J-0.402
N11495 G1 X-1.633 Y-20.63
N11500 G3 X-1.443 Y-20.585 I-0.018 J0.5
N11505 X-1.224 Y-19.871 I-0.208 J0.455 F1800.
N11510 G1 X-1.994 Y-18.608
N11515 G3 X-2.213 Y-18.414 I-0.427 J-0.26
N11520 X-2.403 Y-18.369 I-0.208 J-0.455 F800.
N11525 G1 X-2.755 Y-18.368
N11530 G3 X-3.468 Y-18.834 I0.004 J-0.785
N11535 G1 X-3.539 Y-18.966
N11540 G3 X-2.346 Y-20.631 I1.192 J-0.406
N11545 G1 X-1.989
N11550 G3 X-1.799 Y-20.586 I-0.018 J0.5
N11555 X-1.58 Y-19.872 I-0.208 J0.455 F1800.
N11560 G1 X-2.346 Y-18.608
N11565 G3 X-2.565 Y-18.413 I-0.428 J-0.259
N11570 X-2.755 Y-18.368 I-0.208 J-0.455 F800.
N11575 G1 X-3.13
N11580 G3 X-3.662 Y-18.602 I-0.015 J-0.686
N11585 X-3.962 Y-19.271 I0.743 J-0.735
N11590 X-2.703 Y-20.632 I1.258 J-0.1
N11595 G1 X-2.346 Y-20.631
N11600 G3 X-2.156 Y-20.586 I-0.018 J0.5
N11605 X-1.939 Y-19.868 I-0.208 J0.455 F1800.
N11610 G1 X-2.724 Y-18.604
N11615 G3 X-2.941 Y-18.413 I-0.425 J-0.264
N11620 X-3.13 Y-18.368 I-0.208 J-0.455 F800.
N11625 G1 X-3.5 Y-18.367
N11630 G3 X-4.028 Y-18.607 I-0.01 J-0.68
N11635 X-4.323 Y-19.277 I0.753 J-0.731
N11640 X-3.062 Y-20.632 I1.26 J-0.092
N11645 G1 X-2.703
N11650 G3 X-2.513 Y-20.587 I-0.018 J0.5
N11655 X-2.298 Y-19.866 I-0.208 J0.455 F1800.
N11660 G1 X-3.095 Y-18.6
N11665 G3 X-3.31 Y-18.412 I-0.423 J-0.266
N11670 X-3.5 Y-18.367 I-0.208 J-0.455 F800.
N11675 G1 X-3.861
N11680 G3 X-4.389 Y-18.608 I-0.009 J-0.679
N11685 X-4.683 Y-19.278 I0.755 J-0.73
N11690 X-3.421 Y-20.633 I1.261 J-0.091
N11695 G1 X-3.062 Y-20.632
N11700 G3 X-2.872 Y-20.587 I-0.018 J0.5
N11705 X-2.657 Y-19.866 I-0.208 J0.455 F1800.
N11710 G1 X-3.457 Y-18.599
N11715 G3 X-3.672 Y-18.412 I-0.423 J-0.267
N11720 X-3.861 Y-18.367 I-0.208 J-0.455 F800.
N11725 G1 X-4.207
N11730 G3 X-4.911 Y-18.844 I0.015 J-0.782
N11735 G1 X-4.981 Y-18.977
N11740 G3 X-3.78 Y-20.633 I1.199 J-0.394
N11745 G1 X-3.421
N11750 G3 X-3.231 Y-20.588 I-0.018 J0.5
N11755 X-3.014 Y-19.87 I-0.208 J0.455 F1800.
N11760 G1 X-3.799 Y-18.603
N11765 G3 X-4.017 Y-18.411 I-0.425 J-0.263
N11770 X-4.207 Y-18.367 I-0.207 J-0.455 F800.
N11775 G1 X-4.567
N11780 G3 X-5.271 Y-18.845 I0.017 J-0.781
N11785 G1 X-5.341 Y-18.979
N11790 G3 X-4.142 Y-20.633 I1.2 J-0.392
N11795 G1 X-3.78
N11800 G3 X-3.59 Y-20.588 I-0.018 J0.5
N11805 X-3.373 Y-19.87 I-0.208 J0.455 F1800.
N11810 G1 X-4.159 Y-18.603
N11815 G3 X-4.377 Y-18.411 I-0.425 J-0.264
N11820 X-4.567 Y-18.367 I-0.207 J-0.455 F800.
N11825 G1 X-4.909 Y-18.368
N11830 G3 X-5.622 Y-18.833 I0.005 J-0.786
N11835 G1 X-5.692 Y-18.966
N11840 G3 X-4.5 Y-20.633 I1.193 J-0.407
N11845 G1 X-4.142
N11850 G3 X-3.952 Y-20.589 I-0.017 J0.5
N11855 X-3.731 Y-19.875 I-0.207 J0.455 F1800.
N11860 G1 X-4.497 Y-18.609
N11865 G3 X-4.719 Y-18.412 I-0.428 J-0.259
N11870 X-4.909 Y-18.368 I-0.206 J-0.455 F800.
N11875 G1 X-5.27
N11880 G3 X-5.981 Y-18.838 I0.008 J-0.785
N11885 G1 X-6.051 Y-18.97
N11890 G3 X-4.86 Y-20.632 I1.194 J-0.402
N11895 G1 X-4.5 Y-20.633
N11900 G3 X-4.31 Y-20.588 I-0.017 J0.5
N11905 X-4.09 Y-19.874 I-0.207 J0.455 F1800.
N11910 G1 X-4.86 Y-18.608
N11915 G3 X-5.08 Y-18.413 I-0.427 J-0.26
N11920 X-5.27 Y-18.368 I-0.206 J-0.455 F800.
N11925 G1 X-5.623 Y-18.369
N11930 G3 X-6.336 Y-18.835 I0.005 J-0.786
N11935 G1 X-6.407 Y-18.967
N11940 G3 X-5.218 Y-20.632 I1.191 J-0.406
N11945 G1 X-4.86
N11950 G3 X-4.67 Y-20.588 I-0.016 J0.5
N11955 X-4.449 Y-19.874 I-0.206 J0.455 F1800.
N11960 G1 X-5.211 Y-18.61
N11965 G3 X-5.433 Y-18.414 I-0.428 J-0.258
N11970 X-5.623 Y-18.369 I-0.206 J-0.455 F800.
N11975 G1 X-5.977 Y-18.37
N11980 G3 X-6.691 Y-18.833 I0.003 J-0.787
N11985 G1 X-6.762 Y-18.965
N11990 G3 X-5.576 Y-20.631 I1.189 J-0.409
N11995 G1 X-5.218 Y-20.632
N12000 G3 X-5.028 Y-20.587 I-0.016 J0.5
N12005 X-4.806 Y-19.875 I-0.206 J0.455 F1800.
N12010 G1 X-5.564 Y-18.612
N12015 G3 X-5.786 Y-18.414 I-0.429 J-0.257
N12020 X-5.976 Y-18.37 I-0.206 J-0.455 F800.
N12025 G1 X-6.351 Y-18.371
N12030 G3 X-7.056 Y-18.847 I0.015 J-0.782
N12035 G1 X-7.126 Y-18.98
N12040 G3 X-5.934 Y-20.63 I1.194 J-0.393
N12045 G1 X-5.576 Y-20.631
N12050 G3 X-5.386 Y-20.587 I-0.016 J0.5
N12055 X-5.166 Y-19.869 I-0.206 J0.455 F1800.
N12060 G1 X-5.942 Y-18.608
N12065 G3 X-6.161 Y-18.415 I-0.426 J-0.262
N12070 X-6.351 Y-18.371 I-0.206 J-0.455 F800.
N12075 G1 X-6.72
N12080 G3 X-7.436 Y-18.834 I0.006 J-0.795
N12085 G1 X-7.508 Y-18.966
N12090 G3 X-6.334 Y-20.629 I1.177 J-0.415
N12095 G1 X-5.934 Y-20.63
N12100 G3 X-5.744 Y-20.586 I-0.016 J0.5
N12105 X-5.526 Y-19.866 I-0.206 J0.455 F1800.
N12110 G1 X-6.312 Y-18.606
N12115 G3 X-6.53 Y-18.416 I-0.424 J-0.265
N12120 X-6.72 Y-18.371 I-0.206 J-0.455 F800.
N12125 G1 X-7.082 Y-18.372
N12130 X-7.232 Y-18.38
N12135 X-7.376 Y-18.419
N12140 G2 X-8.03 Y-18.671 I-1.027 J1.697
N12145 G3 X-6.668 Y-20.628 I1.364 J-0.504
N12150 G1 X-6.334 Y-20.629
N12155 G3 X-6.144 Y-20.585 I-0.016 J0.5
N12160 X-5.92 Y-19.874 I-0.206 J0.455 F1800.
N12165 G1 X-6.669 Y-18.616
N12170 G3 X-6.892 Y-18.416 I-0.43 J-0.256
N12175 X-7.082 Y-18.372 I-0.206 J-0.455 F800.
N12180 G1 X-9.739 Y-18.378
N12185 X-9.941 Y-18.375
N12190 X-10.142 Y-18.359
N12195 X-10.336 Y-18.392
N12200 X-10.344 Y-18.393 F1800.
N12205 X-13.765 Y-20.61
N12210 G3 X-14.047 Y-22.011 I0.496 J-0.829
N12215 X-12.626 Y-22.16 I0.779 J0.572
N12220 X-12.557 Y-22.093 I-0.643 J0.721 F800.
N12225 G1 X-12.493 Y-22.016
N12230 G2 X-10.996 Y-20.805 I2.522 J-1.589
N12235 G1 X-10.507 Y-20.67
N12240 X-10.494 Y-20.667
N12245 X-9.941 Y-20.625
N12250 X-9.739 Y-20.622
N12255 X-6.668 Y-20.629
N12260 G3 X-6.478 Y-20.584 Z-2.998 I-0.016 J0.5
N12265 X-6.184 Y-20.129 Z-2.991 I-0.206 J0.455 F1800.
N12270 X-6.684 Y-19.629 Z-2.965 I-0.5 J0.
N12275 G1 X-6.72 Y-19.63 Z-2.963
N12280 X-13.564 Y-20.338 Z-2.256
N12285 G3 X-14.799 Y-21.672 Z-2.087 I0.103 J-1.335
N12290 X-13.46 Y-23.011 Z-1.995 I1.339 J0.
N12295 X-12.96 Y-22.914 Z-1.99 I0. J1.339
N12300 G1 X-12.555 Y-22.607
N12305 X-12.399 Y-22.489 F800.
N12310 G2 X-10.344 Y-21.291 I2.376 J-1.716
N12315 G1 X-9.941 Y-21.266
N12320 X-9.739 Y-21.263
N12325 X-3.701 Y-21.27
N12330 X-0.682 Y-21.269
N12335 G2 X0.325 Y-21.334 I0.134 J-5.737
N12340 G1 X0.606 Y-21.412
N12345 X0.727 Y-21.462
N12350 X0.929 Y-21.547
N12355 G3 X1.121 Y-21.58 I0.179 J0.467
N12360 X1.576 Y-21.255 I-0.013 J0.5 F1800.
N12365 G1 X3.325 Y-16.582
N12370 G3 X2.591 Y-15.983 I-0.468 J0.175
N12375 X2.449 Y-16.117 I0.265 J-0.424 F800.
N12380 G2 X1.133 Y-17.367 I-3.722 J2.601
N12385 X0.124 Y-17.7 I-1.563 J3.043
N12390 G1 X-0.078 Y-17.713
N12395 X-0.48 Y-17.728
N12400 X-0.682 Y-17.731
N12405 X-4.103 Y-17.73
N12410 X-9.739 Y-17.737
N12415 X-9.941 Y-17.734
N12420 X-10.142 Y-17.719
N12425 X-10.332 Y-17.767 Z-1.988
N12430 X-10.418 Y-17.789 Z-1.987 F1800.
N12435 X-14.328 Y-21.01 Z-1.356
N12440 G3 X-14.754 Y-21.967 Z-1.2 I0.862 J-0.957
N12445 X-13.466 Y-23.255 Z-1.021 I1.288 J0.
N12450 X-12.727 Y-23.022 Z-1. I0. J1.288
N12455 G1 X-12.636 Y-22.953
N12460 X-12.266 Y-22.629
N12465 X-12.121 Y-22.495 F800.
N12470 G2 X-10.344 Y-21.638 I2.082 J-2.045
N12475 G1 X-9.941 Y-21.613
N12480 X-9.739 Y-21.61
N12485 X-1.487 Y-21.614
N12490 G2 X0.124 Y-21.644 I0.432 J-19.829
N12495 X1.333 Y-22.102 I-0.477 J-3.087
N12500 G1 X1.39 Y-22.134
N12505 X1.451 Y-22.157
N12510 X1.514 Y-22.173
N12515 G3 X2.083 Y-21.781 I0.079 J0.494 F1800.
N12520 G1 X3.197 Y-16.396
N12525 G3 X2.495 Y-15.842 I-0.49 J0.101
N12530 X2.338 Y-15.958 I0.213 J-0.453 F800.
N12535 G2 X1.2 Y-16.988 I-3.769 J3.019
N12540 X-0.48 Y-17.382 I-1.547 J2.821
N12545 G1 X-0.682 Y-17.386
N12550 X-4.506 Y-17.387
N12555 X-9.739 Y-17.39
N12560 X-9.948 Y-17.387
N12565 X-10.142 Y-17.372
N12570 G3 X-10.335 Y-17.403 I-0.02 J-0.5
N12575 G1 X-10.416 Y-17.433 Z-0.992
N12580 X-10.495 Y-17.462 Z-0.97
N12585 X-10.569 Y-17.489 Z-0.933
N12590 X-10.636 Y-17.514 Z-0.883
N12595 X-10.694 Y-17.535 Z-0.821
N12600 X-10.741 Y-17.553 Z-0.75
N12605 X-10.775 Y-17.566 Z-0.671
N12610 X-10.796 Y-17.573 Z-0.587
N12615 X-10.804 Y-17.576 Z-0.5
N12620 G0 Z4.
N12630 M9
N12635 G53 Z0.
N12640 M30
%
