%
(FACING)
(T21  D=5. CR=0. - ZMIN=0.1 - FLAT END MILL)
N10 G90 G94 G17 G91.1
N15 G21
N20 G53 G0 Z0.
(FACE2)
N25 M9
N30 T21 M6
N35 S4000 M3
N40 G54
N45 M8
N55 G0 X7.036 Y-41.54
N60 G43 Z4. H21
N65 G0 Z1.1
N70 G1 Z0.6 F800.
N75 G18 G3 X6.536 Z0.1 I-0.5 K0.
N80 G1 X4.
N85 X-74.
N90 G17 G2 Y-37.619 I0. J1.96
N95 G1 X4.
N100 G3 Y-33.699 I0. J1.96
N105 G1 X-74.
N110 G2 Y-29.778 I0. J1.96
N115 G1 X4.
N120 G3 Y-25.858 I0. J1.96
N125 G1 X-74.
N130 G2 Y-21.938 I0. J1.96
N135 G1 X4.
N140 G3 Y-18.017 I0. J1.96
N145 G1 X-74.
N150 G2 Y-14.097 I0. J1.96
N155 G1 X4.
N160 G3 Y-10.176 I0. J1.96
N165 G1 X-74.
N170 G2 Y-6.256 I0. J1.96
N175 G1 X4.
N180 G3 Y-2.335 I0. J1.96
N185 G1 X-74.
N190 G2 Y1.585 I0. J1.96
N195 G1 X4.
N200 G18 G2 X4.5 Z0.6 I0. K0.5
N205 G0 Z4.
N210 G17
N215 M9
N220 G53 G0 Z0.
N225 M30
%
