%
(1001)
(T21  D=5. CR=0. - ZMIN=-5. - FLAT END MILL)
N10 G90 G94 G17 G91.1
N15 G21
N20 G53 G0 Z0.
(2D ADAPTIVE1 5)
N25 M9
N30 T21 M6
N35 S4000 M3
N40 G54
N45 M8
N55 G0 X-22.188 Y-21.012
N60 G43 Z4. H21
N65 G0 Z-0.795
N70 G1 Z-1.295 F800.
N75 G3 X-25.851 Y-17.988 Z-1.556 I-1.831 J1.512
N80 X-22.188 Y-21.012 Z-1.816 I1.831 J-1.512
N85 X-25.851 Y-17.988 Z-2.077 I-1.831 J1.512
N90 X-22.188 Y-21.012 Z-2.337 I1.831 J-1.512
N95 X-25.851 Y-17.988 Z-2.598 I-1.831 J1.512
N100 X-22.188 Y-21.012 Z-2.858 I1.831 J-1.512
N105 X-25.851 Y-17.988 Z-3.119 I-1.831 J1.512
N110 X-22.188 Y-21.012 Z-3.379 I1.831 J-1.512
N115 X-25.851 Y-17.988 Z-3.64 I-1.831 J1.512
N120 X-22.188 Y-21.012 Z-3.901 I1.831 J-1.512
N125 X-25.851 Y-17.988 Z-4.161 I-1.831 J1.512
N130 X-22.188 Y-21.012 Z-4.422 I1.831 J-1.512
N135 X-25.851 Y-17.988 Z-4.682 I-1.831 J1.512
N140 X-22.188 Y-21.012 Z-4.943 I1.831 J-1.512
N145 X-21.645 Y-19.5 Z-5. I-1.831 J1.512
N150 X-26.395 I-2.375 J0.
N155 X-21.645 Y-19.557 I2.375 J0.
N160 Y-19.5 I-2.374 J0.057
N165 G2 X-21.556 Y-18.779 I2.325 J0.08
N170 G3 X-21.971 Y-17.533 I-1.777 J0.1
N175 X-23.83 Y-16.558 I-2.019 J-1.589
N180 X-26.993 Y-19.504 I-0.234 J-2.92
N185 X-21.282 Y-20.668 I2.974 J-0.002
N190 X-20.883 Y-19.265 I-4.048 J1.907
N195 X-22.656 Y-16.234 I-3.022 J0.266
N200 X-26.025 Y-16.49 I-1.459 J-3.096
N205 X-23.952 Y-23.129 I1.992 J-3.021
N210 X-21.026 Y-21.564 I-0.054 J3.62
N215 X-20.222 Y-18.486 I-3.35 J2.518
N220 X-23.496 Y-15.277 I-3.814 J-0.617
N225 X-27.701 Y-17.234 I-0.634 J-4.134
N230 X-21.388 Y-22.941 I3.677 J-2.277
N235 X-19.544 Y-18.2 I-2.897 J3.855
N240 X-23.85 Y-14.514 I-4.535 J-0.939
N245 X-28.754 Y-17.712 I-0.284 J-4.922
N250 X-21.8 Y-24.06 I4.729 J-1.802
N255 X-18.749 Y-19.773 I-2.411 J4.946
N260 X-22.83 Y-13.907 I-5.308 J0.66
N265 X-28.318 Y-15.583 I-1.332 J-5.461
N270 X-24.666 Y-25.3 I4.278 J-3.937
N275 X-20.068 Y-23.826 I0.657 J5.862
N280 X-18.549 Y-16.426 I-4.09 J4.696
N285 X-25.579 Y-13.129 I-5.592 J-2.781
N290 X-30.637 Y-19.616 I1.458 J-6.351
N295 X-21.789 Y-25.741 I6.614 J0.101
N300 X-17.253 Y-20.41 I-2.343 J6.588
N305 X-22.37 Y-12.396 I-6.824 J1.284
N310 X-29.524 Y-14.547 I-1.805 J-6.97
N315 X-25.923 Y-26.683 I5.478 J-4.976
N320 X-19.472 Y-25.411 I1.924 J7.244
N325 X-18.385 Y-13.852 I-4.652 J6.268
N330 X-27.995 Y-12.323 I-5.79 J-5.43
N335 X-31.629 Y-22.688 I3.897 J-7.186
N340 X-21.204 Y-27.267 I7.613 J3.176
N345 X-15.921 Y-21.827 I-2.882 J8.084
N350 X-22.001 Y-10.791 I-8.17 J2.692
N355 X-31.143 Y-13.896 I-2.183 J-8.583
N360 X-27.744 Y-27.792 I7.09 J-5.63
N365 X-18.985 Y-27.103 I3.75 J8.345
N370 X-22.837 Y-9.767 I-5.125 J7.957
N375 X-32.598 Y-14.525 I-1.343 J-9.635
N380 X-29.144 Y-28.017 I8.543 J-5.001
N385 X-18.918 Y-28.061 I5.15 J8.562
N390 X-22.282 Y-8.991 I-5.191 J8.916
N395 X-32.835 Y-13.311 I-1.905 J-10.395
N400 X-29.283 Y-28.929 I8.779 J-6.216
N405 X-18.523 Y-28.828 I5.292 J9.477
N410 X-21.565 Y-8.259 I-5.584 J9.684
N415 X-30.417 Y-9.805 I-2.631 J-11.047
N420 X-30.95 Y-10.367 I3.318 J-3.683
N425 G2 X-31.699 Y-11.02 I-4.302 J4.179
N430 G3 X-34.115 Y-13.742 I5.254 J-7.095
N435 X-35.653 Y-20.269 I9.742 J-5.74
N440 X-32.767 Y-27.222 I11.569 J0.727
N445 X-32.056 Y-27.732 I1.636 J1.528
N450 G2 X-30.809 Y-28.776 I-3.6 J-5.566
N455 G3 X-27.889 Y-30.483 I5.811 J6.591
N460 X-21.445 Y-30.889 I3.909 J10.704
N465 X-12.694 Y-23. I-2.606 J11.689
N470 G1 X-12.641 Y-22.814
N475 X-12.61 Y-22.624
N480 X-12.6 Y-22.431
N485 Y-16.805
N490 G3 X-13.159 Y-14.262 I-7.009 J-0.21
N495 X-15.627 Y-10.595 I-10.083 J-4.121
N500 X-27.477 Y-7.531 I-8.548 J-8.611
N505 X-29.054 Y-8.083 I2.816 J-10.57
N510 X-29.965 Y-8.945 I0.727 J-1.679
N515 G2 X-30.537 Y-9.876 I-5.03 J2.452
N520 G1 X-30.538 Y-9.879
N525 G3 X-30.628 Y-10.05 I2.17 J-1.242
N530 X-28.851 Y-13.574 I2.259 J-1.071 F30000.
N535 G1 X-12.747 Y-16.869
N540 X-12.652 Y-16.889 F800.
N545 X-12.6 Y-16.805
N550 Y-14.708
N555 G3 X-13.086 Y-12.73 I-4.833 J-0.139
N560 X-14.683 Y-10.348 I-8.283 J-3.824
N565 X-20.373 Y-6.766 I-9.256 J-8.394
N570 X-28.358 Y-6.876 I-3.821 J-12.461
N575 X-29.008 Y-7.205 I0.661 J-2.116
N580 X-29.646 Y-8.126 I1.124 J-1.459
N585 G2 X-29.863 Y-8.718 I-4.22 J1.213
N590 G1 X-29.882 Y-8.781
N595 X-29.892 Y-8.846
N600 X-29.894 Y-8.911
N605 G3 X-29.562 Y-9.365 I0.5 J0.017 F30000.
N610 G1 X-13.267 Y-15.162
N615 G3 X-12.645 Y-14.898 I0.168 J0.471
N620 X-12.6 Y-14.708 I-0.455 J0.207 F800.
N625 G1 Y-13.061
N630 G3 X-12.971 Y-11.541 I-3.826 J-0.128
N635 X-14.267 Y-9.585 I-6.82 J-3.111
N640 X-17.771 Y-6.881 I-8.955 J-7.982
N645 X-27.688 Y-5.755 I-6.414 J-12.261
N650 X-28.438 Y-6.022 I1.407 J-5.137
N655 X-29.474 Y-7.379 I0.775 J-1.666
N660 G2 X-29.6 Y-7.969 I-4.377 J0.626
N665 G3 X-29.608 Y-8.164 I0.486 J-0.116
N670 X-29.262 Y-8.563 I0.494 J0.078 F30000.
N675 G1 X-13.248 Y-13.521
N680 G3 X-12.645 Y-13.251 I0.148 J0.478
N685 X-12.6 Y-13.061 I-0.455 J0.207 F800.
N690 G1 Y-11.631
N695 G3 X-12.919 Y-10.354 I-3.313 J-0.15
N700 X-14.069 Y-8.627 I-5.907 J-2.687
N705 X-16.919 Y-6.347 I-8.39 J-7.565
N710 X-19.63 Y-5.14 I-6.643 J-11.274
N715 G1 X-19.83 Y-5.111
N720 X-20.032 Y-5.1
N725 X-27.201
N730 G3 X-28.108 Y-5.223 I0.028 J-3.607
N735 X-29.417 Y-6.875 I0.524 J-1.76
N740 X-29.384 Y-7.067 I0.5 J-0.012
N745 X-28.615 Y-7.285 I0.466 J0.181 F30000.
N750 G1 X-26.916 Y-5.998
N755 G3 X-27.011 Y-5.145 I-0.302 J0.399
N760 X-27.201 Y-5.1 I-0.207 J-0.455 F800.
N765 G1 X-28.333
N770 X-28.393 Y-5.103
N775 X-28.623 Y-5.15
N780 X-28.837 Y-5.245
N785 X-29.028 Y-5.382
N790 X-29.185 Y-5.556
N795 X-29.303 Y-5.758
N800 X-29.375 Y-5.981
N805 X-29.4 Y-6.214
N810 G3 X-29.375 Y-6.409 I1.036 J0.036
N815 X-28.056 Y-7.168 I1.011 J0.231 F30000.
N820 X-28.139 Y-5.125 I-0.314 J1.011
N825 X-28.333 Y-5.1 I-0.231 J-1.033 F800.
N830 X-28.835 Y-5.101 I-0.232 J-7.359
N835 G1 X-29.013 Y-5.146
N840 X-29.171 Y-5.241
N845 X-29.294 Y-5.377
N850 X-29.373 Y-5.543
N855 X-29.4 Y-5.725
N860 G3 X-29.36 Y-5.916 I0.576 J0.02
N865 X-28.646 Y-6.253 I0.536 J0.211 F30000.
N870 X-28.616 Y-5.139 I-0.182 J0.563
N875 X-28.808 Y-5.1 I-0.212 J-0.552 F800.
N880 X-29.4 Y-5.574 I-0.058 J-0.534
N885 G2 X-29.418 Y-6.922 I-19.24 J-0.407
N890 G1 X-29.425 Y-7.004
N895 X-29.44 Y-7.2
N900 X-29.6 Y-9.323 F30000.
N905 X-29.9 Y-9.768
N910 X-31.539 Y-10.907
N915 X-31.697 Y-11.017 F800.
N920 X-31.7 Y-11.019
N925 G2 X-32.9 Y-11.687 I-3.148 J4.244
N930 G3 X-34.144 Y-12.596 I1.534 J-3.404
N935 X-35.45 Y-14.545 I5.376 J-5.013
N940 X-36.541 Y-19.095 I10.205 J-4.854
N945 X-34.523 Y-26.355 I12.394 J-0.465
N950 X-33.404 Y-27.136 I1.536 J1.009
N955 G2 X-32.518 Y-27.483 I-1.59 J-5.366
N960 G3 X-32.328 Y-27.527 I0.207 J0.455
N965 X-31.811 Y-27.014 I0.017 J0.5 F30000.
N970 G1 X-32.225 Y-12.141
N975 G3 X-32.708 Y-11.655 I-0.5 J-0.014
N980 X-32.9 Y-11.687 I-0.018 J-0.5 F800.
N985 G2 X-33.911 Y-11.996 I-2.351 J5.871
N990 G3 X-35.168 Y-12.858 I1.165 J-3.045
N995 X-36.338 Y-14.575 I4.607 J-4.396
N1000 X-37.338 Y-18.083 I9.633 J-4.643
N1005 X-35.724 Y-26.067 I12.991 J-1.529
N1010 X-34.835 Y-26.819 I1.609 J1.
N1015 G1 X-34.61 Y-26.892
N1020 X-34.378 Y-26.936
N1025 G2 X-33.868 Y-27.019 I-0.926 J-7.383
N1030 G3 X-33.673 Y-27.009 I0.075 J0.495
N1035 X-33.293 Y-26.526 I-0.12 J0.485 F30000.
N1040 G1 X-33.225 Y-12.466
N1045 G3 X-33.605 Y-11.978 I-0.5 J0.002
N1050 X-33.8 Y-11.969 I-0.12 J-0.485 F800.
N1055 G2 X-34.652 Y-12.096 I-1.876 J9.701
N1060 G3 X-35.764 Y-12.685 I0.666 J-2.6
N1065 X-36.998 Y-14.203 I3.414 J-4.037
N1070 X-38.061 Y-17.144 I8.282 J-4.656
N1075 X-37.984 Y-22.602 I12.895 J-2.549
N1080 X-36.975 Y-25.569 I12.737 J2.677
N1085 X-36.529 Y-26.273 I3.604 J1.794
N1090 X-35. Y-26.899 I1.391 J1.216
N1095 G1 X-34.85 Y-26.905
N1100 X-34.7 Y-26.913
N1105 X-34.55 Y-26.922
N1110 G3 X-34.358 Y-26.888 I0.012 J0.5
N1115 X-34.038 Y-26.425 I-0.18 J0.466 F30000.
N1120 G1 X-33.96 Y-12.575
N1125 G3 X-34.29 Y-12.102 I-0.5 J0.003
N1130 X-34.483 Y-12.073 I-0.17 J-0.47 F800.
N1135 G2 X-35.273 Y-12.097 I-0.616 J7.376
N1140 G3 X-36.399 Y-12.553 I0.287 J-2.325
N1145 X-37.657 Y-13.887 I2.713 J-3.819
N1150 X-38.788 Y-16.521 I7.169 J-4.637
N1155 X-39.136 Y-20.936 I12.391 J-3.197
N1160 X-38.089 Y-25.243 I13.97 J1.115
N1165 X-37.534 Y-26.213 I5.21 J2.337
N1170 X-36.003 Y-26.973 I1.49 J1.079
N1175 G2 X-35.098 Y-26.902 I1.381 J-11.761
N1180 G1 X-35.033 Y-26.894
N1185 X-34.97 Y-26.878
N1190 X-34.909 Y-26.853
N1195 G3 X-34.628 Y-26.401 I-0.219 J0.45 F30000.
N1200 G1 X-34.693 Y-12.592
N1205 G3 X-34.963 Y-12.15 I-0.5 J-0.002
N1210 X-35.15 Y-12.096 I-0.23 J-0.444 F800.
N1215 G2 X-35.868 Y-12.038 I0.358 J8.923
N1220 G3 X-37.051 Y-12.41 I0.034 J-2.176
N1225 X-38.165 Y-13.403 I2.163 J-3.551
N1230 X-39.404 Y-15.693 I5.806 J-4.622
N1235 X-40.061 Y-19.285 I11.13 J-3.892
N1240 X-39.162 Y-24.936 I14.556 J-0.583
N1245 X-38.486 Y-26.226 I6.301 J2.484
N1250 X-37.84 Y-26.866 I1.968 J1.338
N1255 X-36.35 Y-27.062 I0.965 J1.576
N1260 G2 X-35.75 Y-26.95 I1.584 J-6.811
N1265 G1 X-35.687 Y-26.933
N1270 X-35.626 Y-26.907
N1275 X-35.57 Y-26.874
N1280 G3 X-35.348 Y-26.459 I-0.279 J0.415 F30000.
N1285 G1 X-35.356 Y-12.54
N1290 G3 X-35.577 Y-12.125 I-0.5 J0.
N1295 X-35.757 Y-12.05 I-0.279 J-0.415 F800.
N1300 G2 X-36.421 Y-11.923 I1.112 J7.622
N1305 G3 X-37.542 Y-12.15 I-0.178 J-2.008
N1310 X-38.812 Y-13.123 I1.71 J-3.544
N1315 X-40.051 Y-15.114 I5.102 J-4.559
N1320 X-40.903 Y-18.662 I10.383 J-4.368
N1325 X-40.219 Y-24.604 I14.769 J-1.31
N1330 X-39.446 Y-26.234 I7.499 J2.558
N1335 X-38.743 Y-27.023 I2.956 J1.928
N1340 X-36.95 Y-27.245 I1.094 J1.489
N1345 G2 X-36.394 Y-27.074 I2.213 J-6.237
N1350 G3 X-36.223 Y-26.981 I-0.148 J0.478
N1355 X-36.042 Y-26.598 I-0.32 J0.385 F30000.
N1360 G1 X-35.998 Y-12.417
N1365 G3 X-36.178 Y-12.031 I-0.5 J0.002
N1370 X-36.35 Y-11.938 I-0.32 J-0.385 F800.
N1375 X-37.032 Y-11.743 I-6.378 J-21.061
N1380 X-38.23 Y-11.958 I-0.236 J-2.133
N1385 X-39.549 Y-12.924 I1.677 J-3.672
N1390 X-40.832 Y-14.886 I5.027 J-4.69
N1395 X-41.761 Y-18.415 I10.277 J-4.592
N1400 X-41.224 Y-24.373 I14.961 J-1.653
N1405 X-40.38 Y-26.285 I8.411 J2.57
N1410 X-39.57 Y-27.248 I3.658 J2.253
N1415 X-37.55 Y-27.505 I1.21 J1.451
N1420 G1 X-37.4 Y-27.433
N1425 X-37.25 Y-27.368
N1430 X-37.1 Y-27.305
N1435 G3 X-36.942 Y-27.19 I-0.21 J0.454
N1440 X-36.81 Y-26.861 I-0.368 J0.339 F30000.
N1445 G1 X-36.526 Y-12.268
N1450 G3 X-36.681 Y-11.897 I-0.5 J0.01
N1455 X-36.845 Y-11.792 I-0.346 J-0.361 F800.
N1460 X-37.479 Y-11.542 I-90.207 J-227.53
N1465 X-38.584 Y-11.599 I-0.458 J-1.858
N1470 X-39.869 Y-12.314 I1.073 J-3.44
N1475 X-41.338 Y-14.12 I3.962 J-4.724
N1480 X-42.424 Y-17.055 I8.837 J-4.939
N1485 X-42.629 Y-22.002 I14.393 J-3.073
N1490 X-41.723 Y-25.541 I12.593 J1.337
N1495 X-40.809 Y-27.066 I6.446 J2.826
N1500 X-40.002 Y-27.794 I2.966 J2.479
N1505 X-37.963 Y-27.734 I0.975 J1.56
N1510 G1 X-37.85 Y-27.672
N1515 X-37.7 Y-27.587
N1520 G3 X-37.556 Y-27.455 I-0.261 J0.426
N1525 X-37.461 Y-27.173 I-0.404 J0.294 F30000.
N1530 G1 X-37.085 Y-12.044
N1535 G3 X-37.213 Y-11.697 I-0.5 J0.012
N1540 X-37.369 Y-11.58 I-0.371 J-0.335 F800.
N1545 G2 X-37.911 Y-11.298 I4.163 J8.66
N1550 G3 X-39.092 Y-11.275 I-0.627 J-1.833
N1555 X-40.406 Y-11.911 I0.871 J-3.472
N1560 X-41.964 Y-13.631 I3.612 J-4.838
N1565 X-43.182 Y-16.512 I8.379 J-5.242
N1570 X-43.622 Y-20.924 I13.931 J-3.615
N1575 X-42.864 Y-25.029 I14.254 J0.507
N1580 X-41.79 Y-27.118 I8.119 J2.854
N1585 X-40.753 Y-28.145 I3.706 J2.705
N1590 X-39.578 Y-28.513 I1.138 J1.573
N1595 X-38.45 Y-28.075 I-0.072 J1.858
N1600 G1 X-38.3 Y-27.966
N1605 X-38.187 Y-27.886
N1610 G3 X-38.059 Y-27.738 I-0.306 J0.396
N1615 X-37.993 Y-27.503 I-0.434 J0.249 F30000.
N1620 G1 X-37.581 Y-11.785
N1625 G3 X-37.676 Y-11.478 I-0.5 J0.013
N1630 X-37.819 Y-11.345 I-0.404 J-0.294 F800.
N1635 G2 X-38.315 Y-11.028 I2.869 J5.031
N1640 G3 X-39.419 Y-10.887 I-0.774 J-1.664
N1645 X-40.894 Y-11.462 I0.499 J-3.458
N1650 X-42.543 Y-13.084 I3.236 J-4.936
N1655 X-43.903 Y-15.901 I7.895 J-5.55
N1660 X-44.536 Y-20.027 I13.469 J-4.176
N1665 X-43.833 Y-24.929 I15.111 J-0.336
N1670 X-42.837 Y-27.059 I9.519 J3.156
N1675 X-41.709 Y-28.363 I5.03 J3.21
N1680 X-40.785 Y-28.908 I2.185 J2.651
N1685 X-38.9 Y-28.465 I0.588 J1.73
N1690 G1 X-38.757 Y-28.335
N1695 G3 X-38.648 Y-28.173 I-0.351 J0.356
N1700 X-38.609 Y-27.997 I-0.461 J0.194 F30000.
N1705 G1 X-38.027 Y-11.503
N1710 G3 X-38.093 Y-11.237 I-0.5 J0.018
N1715 X-38.221 Y-11.09 I-0.434 J-0.249 F800.
N1720 G2 X-38.693 Y-10.73 I4.723 J6.68
N1725 G3 X-39.722 Y-10.487 I-0.891 J-1.468
N1730 X-41.171 Y-10.884 I0.124 J-3.29
N1735 X-42.933 Y-12.318 I2.555 J-4.939
N1740 X-44.406 Y-14.778 I6.858 J-5.778
N1745 X-45.372 Y-18.837 I12.391 J-5.094
N1750 X-44.808 Y-24.796 I15.776 J-1.514
N1755 X-43.756 Y-27.187 I10.599 J3.239
N1760 X-42.436 Y-28.769 I5.822 J3.516
N1765 X-41.297 Y-29.44 I2.501 J2.945
N1770 X-39.309 Y-28.905 I0.598 J1.741
N1775 G1 X-39.2 Y-28.778
N1780 X-39.129 Y-28.699
N1785 G3 X-39.036 Y-28.528 I-0.385 J0.319
N1790 X-39.014 Y-28.396 I-0.478 J0.147 F30000.
N1795 G1 X-38.459 Y-11.171
N1800 G3 X-38.501 Y-10.953 I-0.5 J0.016
N1805 X-38.613 Y-10.793 I-0.457 J-0.202 F800.
N1810 X-39.117 Y-10.341 I-8.871 J-9.369
N1815 X-40.262 Y-10.066 I-0.997 J-1.634
N1820 X-41.622 Y-10.396 I0.109 J-3.419
N1825 X-43.457 Y-11.744 I2.335 J-5.102
N1830 X-45.156 Y-14.368 I6.656 J-6.17
N1835 X-46.195 Y-18.141 I12.208 J-5.393
N1840 X-45.716 Y-24.882 I16.187 J-2.235
N1845 X-44.56 Y-27.513 I11.27 J3.38
N1850 X-43.237 Y-29.128 I6.521 J3.994
N1855 X-41.845 Y-29.986 I2.956 J3.24
N1860 X-40.812 Y-30.09 I0.714 J1.893
N1865 X-39.566 Y-29.233 I-0.338 J1.825
N1870 G1 X-39.5 Y-29.143
N1875 G3 X-39.424 Y-28.963 I-0.415 J0.279
N1880 X-39.414 Y-28.879 I-0.49 J0.1 F30000.
N1885 G1 X-38.854 Y-10.806
N1890 G3 X-38.887 Y-10.61 I-0.5 J0.016
N1895 X-38.991 Y-10.446 I-0.467 J-0.18 F800.
N1900 G2 X-39.358 Y-10.04 I4.916 J4.823
N1905 G3 X-40.285 Y-9.634 I-1.095 J-1.237
N1910 X-41.89 Y-9.822 I-0.441 J-3.192
N1915 X-43.813 Y-11.01 I1.815 J-5.086
N1920 X-45.564 Y-13.281 I5.852 J-6.323
N1925 X-46.898 Y-16.958 I11.195 J-6.144
N1930 X-46.618 Y-24.991 I16.439 J-3.448
N1935 X-45.359 Y-27.861 I11.885 J3.501
N1940 X-43.855 Y-29.665 I7.016 J4.323
N1945 X-42.506 Y-30.514 I3.356 J3.836
N1950 X-41.563 Y-30.732 I1.145 J2.797
N1955 X-40.045 Y-29.989 I0.038 J1.844
N1960 G1 X-39.91 Y-29.778
N1965 X-39.858 Y-29.682
N1970 X-39.826 Y-29.627
N1975 G3 X-39.769 Y-29.441 I-0.441 J0.235
N1980 G1 X-39.767 Y-29.407 F30000.
N1985 X-39.197 Y-10.425
N1990 G3 X-39.217 Y-10.269 I-0.5 J0.015
N1995 X-39.308 Y-10.097 I-0.48 J-0.141 F800.
N2000 G2 X-39.658 Y-9.645 I14.761 J11.794
N2005 G3 X-40.566 Y-9.171 I-1.176 J-1.146
N2010 X-41.986 Y-9.2 I-0.648 J-3.035
N2015 X-43.974 Y-10.152 I1.184 J-5.023
N2020 X-45.923 Y-12.252 I4.917 J-6.517
N2025 X-47.532 Y-15.816 I10.228 J-6.764
N2030 X-48.15 Y-20.994 I15.976 J-4.533
N2035 X-47.091 Y-26.363 I16.036 J0.374
N2040 X-45.709 Y-28.881 I10.931 J4.362
N2045 X-44.051 Y-30.544 I6.363 J4.688
N2050 X-42.643 Y-31.25 I2.888 J4.004
N2055 X-41.711 Y-31.372 I0.844 J2.824
N2060 X-40.161 Y-30.282 I-0.137 J1.843
N2065 G2 X-39.91 Y-29.778 I4.819 J-2.09
N2070 G3 X-39.858 Y-29.59 I-0.447 J0.225
N2075 G1 X-39.857 Y-29.562 F30000.
N2080 X-39.514 Y-10.005
N2085 G3 X-39.521 Y-9.911 I-0.5 J0.009
N2090 X-39.591 Y-9.729 I-0.493 J-0.085 F800.
N2095 G2 X-39.898 Y-9.252 I5.217 J3.698
N2100 G3 X-40.734 Y-8.708 I-1.257 J-1.017
N2105 X-42.304 Y-8.634 I-0.927 J-2.99
N2110 X-44.35 Y-9.489 I0.933 J-5.109
N2115 X-46.407 Y-11.484 I4.576 J-6.775
N2120 X-48.195 Y-14.962 I9.781 J-7.227
N2125 X-49.06 Y-19.842 I15.637 J-5.289
N2130 X-48.173 Y-26.028 I17.22 J-0.687
N2135 X-46.648 Y-29.06 I12.269 J4.269
N2140 X-44.862 Y-30.963 I7.407 J5.164
N2145 X-43.117 Y-31.892 I3.558 J4.576
N2150 X-41.796 Y-32.024 I0.981 J3.164
N2155 X-40.891 Y-31.598 I-0.331 J1.876
N2160 X-40.332 Y-30.731 I-1.207 J1.392
N2165 G1 X-40.278 Y-30.581
N2170 X-40.22 Y-30.431
N2175 X-40.161 Y-30.281
N2180 G3 X-40.133 Y-30.123 I-0.472 J0.166
N2185 G1 X-40.132 Y-30.088
N2190 X-39.804 Y-9.55 F30000.
N2195 G3 X-39.806 Y-9.506 I-0.5 J0.008
N2200 X-39.858 Y-9.318 I-0.499 J-0.037 F800.
N2205 X-40.15 Y-8.774 I-9.622 J-4.833
N2210 X-41.053 Y-8.166 I-1.389 J-1.088
N2215 X-42.518 Y-8.032 I-1.018 J-3.065
N2220 X-44.622 Y-8.761 I0.627 J-5.215
N2225 X-46.962 Y-10.83 I4.21 J-7.12
N2230 X-48.683 Y-13.753 I9.322 J-7.456
N2235 X-49.911 Y-18.821 I15.12 J-6.346
N2240 X-49.117 Y-26.059 I18.006 J-1.688
N2245 X-47.66 Y-29.126 I13.46 J4.512
N2250 X-45.579 Y-31.463 I8.443 J5.424
N2255 X-44.414 Y-32.211 I4.595 J5.88
N2260 X-43.6 Y-32.4 I0.819 J1.676
N2265 G1 X-41.749
N2270 X-41.654 Y-32.395
N2275 X-41.42 Y-32.35
N2280 X-41.198 Y-32.263
N2285 X-40.995 Y-32.138
N2290 X-40.818 Y-31.977
N2295 X-40.673 Y-31.787
N2300 X-40.566 Y-31.574
N2305 X-40.498 Y-31.345
N2310 G3 X-40.505 Y-31.15 I-0.494 J0.08
N2315 X-41.317 Y-30.886 I-0.487 J-0.115 F30000.
N2320 G1 X-42.057 Y-31.521
N2325 G3 X-41.939 Y-32.355 I0.326 J-0.38
N2330 X-41.749 Y-32.4 I0.207 J0.455 F800.
N2335 G1 X-41.172
N2340 X-41.139 Y-32.398
N2345 X-40.939 Y-32.344
N2350 X-40.768 Y-32.227
N2355 X-40.644 Y-32.061
N2360 X-40.582 Y-31.864
N2365 G3 X-40.594 Y-31.669 I-0.574 J0.061
N2370 X-41.389 Y-31.274 I-0.562 J-0.134 F30000.
N2375 X-41.364 Y-32.361 I0.237 J-0.538
N2380 X-41.172 Y-32.4 I0.212 J0.548 F800.
N2385 X-40.59 Y-31.929 I0.058 J0.524
N2390 G1 X-40.55 Y-31.637
N2395 X-40.547 Y-31.595
N2400 X-40.544 Y-31.441
N2405 X-40.059 Y-9.066 F30000.
N2410 X-40.058 Y-9.06
N2415 G3 X-40.095 Y-8.868 I-0.5 J0.005 F800.
N2420 G2 X-40.283 Y-8.412 I12.014 J5.217
N2425 G3 X-40.98 Y-7.751 I-1.365 J-0.743
N2430 X-42.45 Y-7.41 I-1.392 J-2.66
N2435 X-44.568 Y-7.884 I0.002 J-4.985
N2440 X-46.914 Y-9.526 I3.193 J-7.06
N2445 X-49.057 Y-12.48 I8.039 J-8.085
N2450 X-50.568 Y-16.925 I13.955 J-7.222
N2455 X-50.169 Y-25.737 I18.639 J-3.572
N2460 X-48.446 Y-29.542 I14.427 J4.241
N2465 X-46.385 Y-31.899 I9.239 J5.996
N2470 G1 X-46.264 Y-31.993
N2475 G3 X-45.112 Y-32.4 I1.152 J1.426
N2480 G1 X-43.6
N2485 G3 X-43.41 Y-32.355 I-0.017 J0.5
N2490 X-43.121 Y-31.962 I-0.207 J0.455 F30000.
N2495 G1 X-40.234 Y-8.695
N2500 X-40.233 Y-8.685
N2505 X-40.232 Y-8.674
N2510 X-40.231 Y-8.663
N2515 G3 X-40.258 Y-8.47 I-0.499 J0.029 F800.
N2520 G2 X-40.431 Y-7.946 I6.143 J2.323
N2525 G3 X-41.211 Y-7.168 I-1.506 J-0.729
N2530 X-42.587 Y-6.791 I-1.485 J-2.722
N2535 X-44.741 Y-7.142 I-0.284 J-5.045
N2540 X-47.182 Y-8.639 I2.768 J-7.25
N2545 X-49.495 Y-11.461 I7.495 J-8.504
N2550 X-51.254 Y-15.814 I13.386 J-7.941
N2555 X-50.994 Y-26.16 I19.001 J-4.697
N2560 X-49.096 Y-30.17 I14.878 J4.587
N2565 X-47.676 Y-31.883 I10.059 J6.892
N2570 X-46.396 Y-32.4 I1.287 J1.34
N2575 G1 X-45.112
N2580 G3 X-44.922 Y-32.355 I-0.017 J0.5
N2585 X-44.637 Y-31.988 I-0.207 J0.455 F30000.
N2590 G1 X-40.394 Y-8.246
N2595 X-40.393 Y-8.24
N2600 G3 X-40.4 Y-8.045 I-0.493 J0.082 F800.
N2605 X-40.555 Y-7.434 I-16.851 J-3.961
N2610 G1 X-40.577 Y-7.385
N2615 X-40.602 Y-7.333
N2620 X-40.63 Y-7.279
N2625 X-40.77 Y-7.085
N2630 X-40.941 Y-6.917
N2635 X-41.138 Y-6.782
N2640 X-41.355 Y-6.682
N2645 X-41.586 Y-6.621
N2650 X-41.825 Y-6.6
N2655 G3 X-42.014 Y-6.645 I0.017 J-0.5
N2660 X-42.096 Y-7.508 I0.207 J-0.455 F30000.
N2665 G1 X-41.294 Y-8.076
N2670 G3 X-40.519 Y-7.783 I0.289 J0.408
N2675 X-40.511 Y-7.588 I-0.487 J0.115 F800.
N2680 X-40.588 Y-7.1 I-24.078 J-3.548
N2685 G1 X-40.674 Y-6.901
N2690 X-40.82 Y-6.74
N2695 X-41.011 Y-6.636
N2700 X-41.225 Y-6.6
N2705 G3 X-41.417 Y-6.638 I0.021 J-0.601
N2710 X-41.712 Y-7.523 I0.213 J-0.563 F30000.
N2715 X-40.593 Y-7.325 I0.519 J0.329
N2720 X-40.583 Y-7.13 I-0.6 J0.13 F800.
N2725 X-40.999 Y-6.609 I-0.542 J-0.006
N2730 G1 X-41.074 Y-6.601
N2735 X-41.149 Y-6.6
N2740 X-44.449
N2745 G3 X-46.054 Y-6.994 I0.182 J-4.204
N2750 X-48.206 Y-8.463 I3.146 J-6.917
N2755 X-50.448 Y-11.345 I8.192 J-8.689
N2760 X-52.229 Y-15.97 I14.337 J-8.174
N2765 X-51.901 Y-26.321 I19.738 J-4.556
N2770 X-49.902 Y-30.572 I15.675 J4.775
N2775 X-48.901 Y-31.848 I9.74 J6.614
N2780 X-47.586 Y-32.4 I1.32 J1.3
N2785 G1 X-46.549
N2790 X-46.372 Y-32.315
N2795 X-46.189 Y-32.228 F30000.
N2800 X-46.067 Y-31.929
N2805 X-44.399 Y-6.755
N2810 X-44.39 Y-6.622 F800.
N2815 X-44.449 Y-6.6
N2820 X-45.949
N2825 G3 X-47.223 Y-6.922 I0.172 J-3.366
N2830 X-49.141 Y-8.251 I2.78 J-6.056
N2835 X-51.091 Y-10.702 I7.903 J-8.292
N2840 X-52.999 Y-15.276 I14.236 J-8.622
N2845 X-53.545 Y-22.807 I20.103 J-5.243
N2850 X-51.799 Y-29.083 I19.041 J1.918
N2855 X-50.303 Y-31.539 I13.77 J6.703
N2860 X-49.69 Y-32.125 I2.084 J1.569
N2865 X-48.721 Y-32.4 I0.974 J1.584
N2870 G1 X-47.586
N2875 X-47.409 Y-32.315
N2880 X-47.226 Y-32.228 F30000.
N2885 X-47.105 Y-31.929
N2890 X-45.896 Y-6.755
N2895 X-45.89 Y-6.622 F800.
N2900 X-45.949 Y-6.6
N2905 X-47.149
N2910 G3 X-48.558 Y-6.986 I0.107 J-3.16
N2915 X-50.223 Y-8.218 I2.895 J-5.649
N2920 X-52.247 Y-10.94 I8.285 J-8.274
N2925 X-53.955 Y-15.317 I15.156 J-8.439
N2930 X-53.55 Y-27.199 I20.981 J-5.232
N2935 X-51.78 Y-30.986 I17.205 J5.735
N2940 X-51.07 Y-31.91 I5.295 J3.331
N2945 X-49.818 Y-32.4 I1.26 J1.374
N2950 G1 X-48.721
N2955 X-48.545 Y-32.312
N2960 X-48.349 Y-32.214 F30000.
N2965 X-48.239 Y-31.929
N2970 X-47.096 Y-6.755
N2975 X-47.09 Y-6.622 F800.
N2980 X-47.149 Y-6.6
N2985 X-48.349
N2990 G3 X-49.64 Y-6.958 I0.121 J-2.944
N2995 X-51.273 Y-8.189 I2.75 J-5.348
N3000 X-53.126 Y-10.713 I8.149 J-7.925
N3005 X-54.843 Y-15.087 I15.343 J-8.547
N3010 X-55.14 Y-24.694 I21.64 J-5.476
N3015 X-53.19 Y-30.368 I19.539 J3.545
N3020 X-52.296 Y-31.749 I8.476 J4.503
N3025 X-50.891 Y-32.401 I1.413 J1.207
N3030 G1 X-49.818 Y-32.4
N3035 X-49.641 Y-32.315
N3040 X-49.458 Y-32.228 F30000.
N3045 X-49.336 Y-31.929
N3050 X-48.295 Y-6.755
N3055 X-48.29 Y-6.622 F800.
N3060 X-48.349 Y-6.6
N3065 X-49.481
N3070 G3 X-50.7 Y-6.94 I0.127 J-2.806
N3075 X-52.305 Y-8.165 I2.646 J-5.133
N3080 X-53.999 Y-10.483 I7.927 J-7.572
N3085 X-55.731 Y-14.851 I15.36 J-8.617
N3090 X-56.334 Y-22.902 I22.053 J-5.7
N3095 X-54.54 Y-29.708 I21.505 J2.032
N3100 X-53.519 Y-31.534 I11.39 J5.169
N3105 X-52.82 Y-32.18 I1.788 J1.234
N3110 X-51.945 Y-32.4 I0.881 J1.651
N3115 G1 X-50.891
N3120 X-50.714 Y-32.315
N3125 X-50.531 Y-32.228 F30000.
N3130 X-50.409 Y-31.929
N3135 X-49.387 Y-6.743
N3140 X-49.385 Y-6.7 F800.
N3145 G3 X-49.481 Y-6.6 I-0.1 J0.
N3150 G1 X-50.531
N3155 G3 X-51.742 Y-6.929 I0.088 J-2.715
N3160 X-53.322 Y-8.145 I2.565 J-4.967
N3165 X-54.993 Y-10.48 I7.874 J-7.402
N3170 X-56.618 Y-14.611 I15.48 J-8.476
N3175 X-57.293 Y-22.658 I22.575 J-5.944
N3180 X-55.533 Y-29.742 I22.414 J1.808
N3185 X-54.674 Y-31.36 I12.034 J5.35
N3190 X-54.226 Y-31.918 I2.705 J1.711
N3195 X-52.986 Y-32.4 I1.243 J1.364
N3200 G1 X-52.099
N3205 X-51.921 Y-32.315
N3210 X-51.738 Y-32.228 F30000.
N3215 X-51.617 Y-31.929
N3220 X-50.437 Y-6.743
N3225 X-50.435 Y-6.7 F800.
N3230 G3 X-50.531 Y-6.6 I-0.1 J0.
N3235 G1 X-51.649
N3240 G3 X-52.945 Y-7.014 I0.18 J-2.796
N3245 X-54.326 Y-8.125 I2.757 J-4.843
N3250 X-55.978 Y-10.473 I7.876 J-7.298
N3255 X-57.367 Y-13.89 I14.852 J-8.027
N3260 G1 X-57.391 Y-14.07
N3265 X-57.4 Y-14.251
N3270 Y-25.789
N3275 G3 X-56.896 Y-28.614 I9.674 J0.268
N3280 X-55.755 Y-31.252 I11.852 J3.563
N3285 X-55.283 Y-31.879 I3.144 J1.873
N3290 X-54.001 Y-32.4 I1.284 J1.323
N3295 G1 X-52.986
N3300 G3 X-52.796 Y-32.355 I-0.017 J0.5
N3305 X-52.582 Y-31.631 I-0.207 J0.455 F30000.
N3310 G1 X-56.479 Y-25.537
N3315 G3 X-57.355 Y-25.599 I-0.421 J-0.269
N3320 X-57.4 Y-25.789 I0.455 J-0.207 F800.
N3325 G1 Y-28.485
N3330 G3 X-56.413 Y-31.655 I6.069 J0.151
N3335 X-55.178 Y-32.384 I1.49 J1.112
N3340 G1 X-54.933 Y-32.4
N3345 G3 X-54.743 Y-32.355 I-0.017 J0.5
N3350 X-54.517 Y-31.652 I-0.207 J0.455 F30000.
N3355 G1 X-56.467 Y-28.253
N3360 G3 X-57.355 Y-28.295 I-0.434 J-0.249
N3365 X-57.4 Y-28.485 I0.455 J-0.207 F800.
N3370 G1 Y-30.431
N3375 G3 X-57.019 Y-31.667 I2.11 J-0.026
N3380 X-55.791 Y-32.384 I1.481 J1.126
N3385 G1 X-55.548 Y-32.4
N3390 G3 X-55.359 Y-32.355 I-0.017 J0.5
N3395 X-55.198 Y-31.562 I-0.207 J0.455 F30000.
N3400 G1 X-56.532 Y-30.11
N3405 G3 X-57.355 Y-30.241 I-0.368 J-0.338
N3410 X-57.4 Y-30.431 I0.455 J-0.207 F800.
N3415 G1 Y-31.33
N3420 X-57.396 Y-31.411
N3425 X-57.391 Y-31.463
N3430 X-57.383 Y-31.512
N3435 X-57.306 Y-31.752
N3440 X-57.177 Y-31.969
N3445 X-57.002 Y-32.15
N3450 X-56.79 Y-32.286
N3455 X-56.553 Y-32.371
N3460 X-56.302 Y-32.4
N3465 G3 X-56.108 Y-32.375 I-0.036 J1.037
N3470 X-55.341 Y-31.075 I-0.231 J1.012 F30000.
N3475 X-57.375 Y-31.135 I-1.009 J-0.291
N3480 X-57.4 Y-31.33 I1.024 J-0.231 F800.
N3485 X-57.397 Y-31.86 I6.48 J-0.234
N3490 G1 X-57.353 Y-32.03
N3495 X-57.261 Y-32.181
N3500 X-57.13 Y-32.299
N3505 X-56.97 Y-32.374
N3510 X-56.795 Y-32.4
N3515 G3 X-56.604 Y-32.36 I-0.019 J0.568
N3520 X-56.273 Y-31.66 I-0.21 J0.527 F30000.
N3525 X-57.362 Y-31.629 I-0.55 J-0.175
N3530 X-57.4 Y-31.821 I0.539 J-0.206 F800.
N3535 X-56.898 Y-32.4 I0.52 J-0.056
N3540 G1 X-56.748
N3545 X-54.001
N3550 X-53.814 Y-32.341
N3555 X-53.748 Y-32.321 F30000.
N3560 X-50.674 Y-30.431
N3565 X-38. Y-24.092
N3570 X-36.2 Y-23.672
N3575 X-34.4 Y-23.601
N3580 X-33.5 Y-23.672
N3585 G2 X-32.45 Y-23.997 I-0.197 J-2.492
N3590 G1 X-32.3 Y-24.082
N3595 G2 X-31.011 Y-26.238 I-1.21 J-2.187
N3600 G1 X-30.956 Y-28.438
N3605 X-30.951 Y-28.634 F800.
N3610 G2 X-30.143 Y-29.708 I-4.469 J-4.205
N3615 G3 X-29.054 Y-30.709 I3.15 J2.336
N3620 X-26.647 Y-31.709 I4.122 J6.521
N3625 X-21.97 Y-31.88 I2.751 J11.221
N3630 X-12.83 Y-25.464 I-2.042 J12.629
N3635 X-12.6 Y-24.582 I-1.536 J0.871
N3640 G1 Y-22.431
N3645 G3 X-12.645 Y-22.241 I-0.5 J-0.017
N3650 X-13.291 Y-21.986 I-0.455 J-0.207 F30000.
N3655 G1 X-29.974 Y-28.882
N3660 G3 X-30.28 Y-29.394 I0.191 J-0.462
N3665 X-30.223 Y-29.581 I0.497 J0.05 F800.
N3670 G2 X-29.765 Y-30.509 I-5.525 J-3.304
N3675 G3 X-28.756 Y-31.582 I2.716 J1.542
N3680 X-26.886 Y-32.465 I3.543 J5.084
N3685 X-23.263 Y-32.888 I3.026 J10.195
N3690 X-16.178 Y-30.457 I-0.594 J13.272
N3695 X-12.949 Y-27.293 I-7.731 J11.12
N3700 X-12.6 Y-26.218 I-1.476 J1.074
N3705 G1 Y-24.582
N3710 G3 X-12.645 Y-24.392 I-0.5 J-0.017
N3715 X-13.263 Y-24.127 I-0.455 J-0.207 F30000.
N3720 G1 X-29.509 Y-29.753
N3725 G3 X-29.845 Y-30.208 I0.164 J-0.472
N3730 X-29.813 Y-30.401 I0.5 J-0.017 F800.
N3735 G2 X-29.552 Y-31.204 I-5.519 J-2.241
N3740 G3 X-28.705 Y-32.293 I2.476 J1.052
N3745 X-26.96 Y-33.238 I3.401 J4.191
N3750 X-23.875 Y-33.758 I3.13 J9.163
N3755 X-18.512 Y-32.737 I0.236 J13.35
N3760 X-13.019 Y-28.809 I-5.416 J13.379
N3765 X-12.6 Y-27.642 I-1.413 J1.166
N3770 G1 Y-26.218
N3775 G3 X-12.645 Y-26.028 I-0.5 J-0.017
N3780 X-13.242 Y-25.756 I-0.455 J-0.207 F30000.
N3785 G1 X-29.234 Y-30.517
N3790 G3 X-29.585 Y-30.918 I0.143 J-0.479
N3795 X-29.578 Y-31.113 I0.494 J-0.078 F800.
N3800 G2 X-29.433 Y-31.862 I-8.215 J-1.975
N3805 G3 X-28.776 Y-32.906 I2.287 J0.711
N3810 X-27.496 Y-33.788 I2.976 J2.945
N3815 G1 X-27.288 Y-33.849
N3820 X-27.074 Y-33.887
N3825 X-26.857 Y-33.9
N3830 G3 X-26.668 Y-33.855 I-0.017 J0.5
N3835 X-26.56 Y-33.012 I-0.207 J0.455 F30000.
N3840 G1 X-28.638 Y-31.329
N3845 G3 X-29.43 Y-31.569 I-0.315 J-0.389
N3850 X-29.45 Y-31.763 I0.477 J-0.149 F800.
N3855 G2 X-29.399 Y-32.434 I-9.03 J-1.025
N3860 G3 X-29.11 Y-33.145 I1.596 J0.235
N3865 X-27.654 Y-33.9 I1.455 J1.023
N3870 X-27.464 Y-33.855 I-0.017 J0.5
N3875 X-27.346 Y-33.021 I-0.207 J0.455 F30000.
N3880 G1 X-28.58 Y-31.962
N3885 G3 X-29.37 Y-32.156 I-0.326 J-0.379
N3890 X-29.406 Y-32.348 I0.464 J-0.186 F800.
N3895 X-29.394 Y-33.039 I25.216 J0.09
N3900 G1 X-29.329 Y-33.269
N3905 X-29.213 Y-33.479
N3910 X-29.052 Y-33.655
N3915 X-28.854 Y-33.788
N3920 X-28.63 Y-33.872
N3925 X-28.393 Y-33.9
N3930 G3 X-28.199 Y-33.873 I-0.033 J0.959
N3935 X-27.502 Y-32.684 I-0.228 J0.932 F30000.
N3940 X-29.373 Y-32.715 I-0.932 J-0.259
N3945 X-29.4 Y-32.909 I0.94 J-0.228 F800.
N3950 X-29.392 Y-33.465 I4.504 J-0.211
N3955 G1 X-29.383 Y-33.496
N3960 X-29.372 Y-33.536
N3965 X-29.362 Y-33.568
N3970 X-29.349 Y-33.599
N3975 X-29.335 Y-33.629
N3980 G3 X-28.875 Y-33.799 I0.352 J0.248
N3985 X-29.084 Y-32.987 I-0.105 J0.406
N3990 X-29.399 Y-33.383 I0.105 J-0.406
N3995 X-28.851 Y-33.9 I0.523 J0.006
N4000 G1 X-20.451
N4005 G3 X-17.78 Y-33.321 I-0.214 J7.44
N4010 X-14.605 Y-31.512 I-4.732 J11.995
N4015 X-13.114 Y-30.214 I-7.751 J10.406
N4020 X-12.6 Y-28.939 I-1.332 J1.278
N4025 G1 Y-27.642
N4030 G3 X-12.645 Y-27.452 I-0.5 J-0.017
N4035 X-13.408 Y-27.266 I-0.455 J-0.207 F30000.
N4040 G1 X-20.742 Y-33.007
N4045 G3 X-20.641 Y-33.855 I0.308 J-0.394
N4050 X-20.451 Y-33.9 I0.207 J0.455 F800.
N4055 G1 X-18.201
N4060 G3 X-16.378 Y-33.498 I-0.169 J5.097
N4065 X-13.893 Y-32.06 I-3.921 J9.646
N4070 X-13.007 Y-31.287 I-3.241 J4.611
N4075 X-12.6 Y-30.132 I-1.454 J1.162
N4080 G1 Y-29.084
N4085 G3 X-12.645 Y-28.894 I-0.5 J-0.017
N4090 X-13.423 Y-28.719 I-0.455 J-0.207 F30000.
N4095 G1 X-18.507 Y-33.019
N4100 G3 X-18.391 Y-33.855 I0.323 J-0.382
N4105 X-18.201 Y-33.9 I0.207 J0.455 F800.
N4110 G1 X-16.402
N4115 G3 X-14.799 Y-33.499 I-0.226 J4.307
N4120 X-13.241 Y-32.576 I-2.643 J6.235
N4125 X-12.6 Y-31.182 I-1.199 J1.396
N4130 X-12.645 Y-30.992 I-0.5 J-0.017
N4135 X-13.378 Y-30.784 I-0.455 J-0.207 F30000.
N4140 G1 X-16.662 Y-32.985
N4145 G3 X-16.591 Y-33.855 I0.278 J-0.415
N4150 X-16.402 Y-33.9 I0.207 J0.455 F800.
N4155 G1 X-14.902
N4160 G3 X-13.45 Y-33.487 I-0.111 J3.148
N4165 X-12.6 Y-31.937 I-0.997 J1.555
N4170 X-12.645 Y-31.747 I-0.5 J-0.017
N4175 X-13.415 Y-31.566 I-0.455 J-0.207 F30000.
N4180 G1 X-15.199 Y-33.012
N4185 G3 X-15.092 Y-33.855 I0.315 J-0.388
N4190 X-14.902 Y-33.9 I0.207 J0.455 F800.
N4195 G1 X-13.806
N4200 X-13.712 Y-33.895
N4205 X-13.654 Y-33.89
N4210 X-13.411 Y-33.828
N4215 X-13.185 Y-33.718
N4220 X-12.987 Y-33.565
N4225 X-12.823 Y-33.375
N4230 X-12.701 Y-33.156
N4235 X-12.625 Y-32.917
N4240 X-12.6 Y-32.668
N4245 G3 X-12.645 Y-32.478 I-0.5 J-0.017
N4250 X-13.46 Y-32.338 I-0.455 J-0.207 F30000.
N4255 G1 X-14.149 Y-33.053
N4260 G3 X-13.996 Y-33.855 I0.36 J-0.347
N4265 X-13.806 Y-33.9 I0.207 J0.455 F800.
N4270 G1 X-13.282
N4275 X-13.227 Y-33.897
N4280 X-13.194 Y-33.894
N4285 X-13.004 Y-33.838
N4290 X-12.839 Y-33.73
N4295 X-12.71 Y-33.581
N4300 X-12.628 Y-33.401
N4305 X-12.6 Y-33.206
N4310 G3 X-12.636 Y-33.013 I-0.66 J-0.023
N4315 X-13.438 Y-32.592 I-0.625 J-0.215 F30000.
N4320 X-13.475 Y-33.865 I0.179 J-0.642
N4325 X-13.282 Y-33.9 I0.216 J0.631 F800.
N4330 G1 X-13.102
N4335 G3 X-12.602 Y-33.426 I-0.022 J0.524
N4340 G1 X-12.6 Y-33.276
N4345 Y-30.281
N4350 X-12.669 Y-30.098
N4355 X-12.713 Y-29.982 F30000.
N4360 X-15.344 Y-26.538
N4365 G2 X-15.899 Y-25.04 I1.944 J1.572
N4370 G1 Y-17.104
N4375 G2 X-15.456 Y-15.756 I2.499 J-0.075
N4380 G1 X-12.675 Y-11.806
N4385 X-12.61 Y-11.713 F800.
N4390 X-12.6 Y-11.631
N4395 Y-10.366
N4400 G3 X-12.985 Y-9.011 I-3.179 J-0.172
N4405 X-14.218 Y-7.343 I-5.685 J-2.913
N4410 X-16.963 Y-5.318 I-8.031 J-8.011
N4415 X-17.824 Y-5.1 I-0.852 J-1.558
N4420 G1 X-20.032
N4425 G3 X-20.222 Y-5.145 I0.017 J-0.5
N4430 X-20.297 Y-6.012 I0.207 J-0.455 F30000.
N4435 G1 X-13.383 Y-10.76
N4440 G3 X-12.645 Y-10.556 I0.283 J0.412
N4445 X-12.6 Y-10.366 I-0.455 J0.207 F800.
N4450 G1 Y-9.235
N4455 G3 X-12.96 Y-7.924 I-2.956 J-0.106
N4460 X-14.191 Y-6.291 I-5.331 J-2.739
N4465 X-15.323 Y-5.345 I-5.443 J-5.367
N4470 X-16.244 Y-5.1 I-0.928 J-1.632
N4475 X-16.434 Y-5.145 I0.017 J-0.5
N4480 X-16.605 Y-5.927 I0.207 J-0.455 F30000.
N4485 G1 X-13.478 Y-9.545
N4490 G3 X-12.645 Y-9.425 I0.378 J0.327
N4495 X-12.6 Y-9.235 I-0.455 J0.207 F800.
N4500 G1 Y-8.12
N4505 G3 X-12.941 Y-6.866 I-2.809 J-0.092
N4510 X-13.883 Y-5.562 I-4.385 J-2.175
N4515 X-15.102 Y-5.1 I-1.223 J-1.386
N4520 X-15.292 Y-5.145 I0.017 J-0.5
N4525 X-15.476 Y-5.91 I0.207 J-0.455 F30000.
N4530 G1 X-13.491 Y-8.413
N4535 G3 X-12.645 Y-8.309 I0.392 J0.311
N4540 X-12.6 Y-8.12 I-0.455 J0.207 F800.
N4545 G1 Y-6.989
N4550 G3 X-13.108 Y-5.68 I-2.004 J-0.024
N4555 X-14.2 Y-5.117 I-1.353 J-1.285
N4560 G1 X-14.449 Y-5.1
N4565 G3 X-14.639 Y-5.145 I0.017 J-0.5
N4570 X-14.79 Y-5.948 I0.207 J-0.455 F30000.
N4575 G1 X-13.458 Y-7.32
N4580 G3 X-12.645 Y-7.179 I0.359 J0.348
N4585 X-12.6 Y-6.989 I-0.455 J0.207 F800.
N4590 G1 Y-6.173
N4595 X-12.604 Y-6.086
N4600 X-12.609 Y-6.038
N4605 X-12.664 Y-5.822
N4610 X-12.762 Y-5.621
N4615 X-12.898 Y-5.444
N4620 X-13.067 Y-5.298
N4625 X-13.262 Y-5.19
N4630 X-13.475 Y-5.123
N4635 X-13.697 Y-5.1
N4640 G3 X-13.892 Y-5.125 I0.036 J-1.039
N4645 X-14.661 Y-6.424 I0.231 J-1.014 F30000.
N4650 X-12.625 Y-6.367 I1.011 J0.288
N4655 X-12.6 Y-6.173 I-1.025 J0.231 F800.
N4660 X-12.602 Y-5.646 I-6.502 J0.237
N4665 X-12.802 Y-5.21 I-0.673 J-0.044
N4670 X-12.98 Y-5.129 I-0.331 J-0.487
N4675 X-13.367 Y-5.158 I-0.153 J-0.568
N4680 X-12.93 Y-6.163 I0.219 J-0.502
N4685 X-12.601 Y-5.673 I-0.219 J0.502
N4690 X-13.102 Y-5.099 I-0.526 J0.046
N4695 G1 X-13.252 Y-5.1
N4700 X-17.824
N4705 X-18.013 Y-5.153
N4710 X-18.051 Y-5.164 F30000.
N4715 X-30.65 Y-14.277
N4720 X-32.3 Y-14.982
N4725 X-34.25 Y-15.389
N4730 X-35.9 Y-15.373
N4735 X-37.55 Y-15.043
N4740 X-38.83 Y-14.558
N4745 X-48.949 Y-9.547
N4750 X-51.516 Y-6.745
N4755 X-51.649 Y-6.6 F800.
N4760 X-52.631
N4765 G3 X-53.957 Y-7.008 I0.111 J-2.719
N4770 X-55.326 Y-8.114 I2.69 J-4.729
N4775 X-56.962 Y-10.473 I7.816 J-7.167
N4780 X-57.299 Y-11.164 I4.622 J-2.686
N4785 G1 X-57.355 Y-11.361
N4790 X-57.389 Y-11.562
N4795 X-57.4 Y-11.766
N4800 Y-14.109
N4805 G3 X-57.355 Y-14.299 I0.5 J0.017
N4810 X-56.473 Y-14.352 I0.455 J0.207 F30000.
N4815 G1 X-52.221 Y-7.359
N4820 G3 X-52.441 Y-6.645 I-0.427 J0.26
N4825 X-52.631 Y-6.6 I-0.207 J-0.455 F800.
N4830 G1 X-53.681
N4835 G3 X-54.957 Y-7. I0.139 J-2.68
N4840 X-56.315 Y-8.101 I2.651 J-4.657
N4845 X-57.182 Y-9.211 I5.225 J-4.977
N4850 X-57.4 Y-10.083 I1.667 J-0.881
N4855 X-57.355 Y-10.273 I0.5 J0.017
N4860 X-56.561 Y-10.432 I0.455 J0.207 F30000.
N4865 G1 X-53.359 Y-7.467
N4870 G3 X-53.491 Y-6.645 I-0.34 J0.367
N4875 X-53.681 Y-6.6 I-0.207 J-0.455 F800.
N4880 G1 X-54.648
N4885 G3 X-55.952 Y-6.996 I0.09 J-2.642
N4890 X-56.971 Y-7.777 I1.901 J-3.537
N4895 X-57.4 Y-8.958 I1.428 J-1.187
N4900 X-57.355 Y-9.148 I0.5 J0.017
N4905 X-56.582 Y-9.327 I0.455 J0.207 F30000.
N4910 G1 X-54.348 Y-7.486
N4915 G3 X-54.458 Y-6.645 I-0.318 J0.386
N4920 X-54.648 Y-6.6 I-0.207 J-0.455 F800.
N4925 G1 X-55.698
N4930 G3 X-57.252 Y-7.645 I0.036 J-1.732
N4935 G1 X-57.334 Y-7.872
N4940 X-57.383 Y-8.107
N4945 X-57.4 Y-8.347
N4950 G3 X-57.355 Y-8.537 I0.5 J0.017
N4955 X-56.54 Y-8.677 I0.455 J0.207 F30000.
N4960 G1 X-55.356 Y-7.447
N4965 G3 X-55.508 Y-6.645 I-0.36 J0.347
N4970 X-55.698 Y-6.6 I-0.207 J-0.455 F800.
N4975 G1 X-56.418
N4980 X-56.482 Y-6.603
N4985 X-56.525 Y-6.608
N4990 X-56.76 Y-6.671
N4995 X-56.972 Y-6.788
N5000 X-57.151 Y-6.952
N5005 X-57.287 Y-7.153
N5010 X-57.371 Y-7.381
N5015 X-57.4 Y-7.622
N5020 G3 X-57.373 Y-7.816 I0.953 J0.033
N5025 X-56.168 Y-8.501 I0.927 J0.227 F30000.
N5030 X-56.224 Y-6.627 I-0.284 J0.929
N5035 X-56.418 Y-6.6 I-0.228 J-0.945 F800.
N5040 X-56.936 Y-6.605 I-0.205 J-5.781
N5045 G1 X-57. Y-6.619
N5050 X-57.062 Y-6.637
N5055 X-57.123 Y-6.661
N5060 G3 X-57.308 Y-7.142 I0.263 J-0.378
N5065 X-56.446 Y-6.942 I0.431 J0.1
N5070 X-56.863 Y-6.6 I-0.431 J-0.1
N5075 X-57.4 Y-7.071 I-0.018 J-0.521
N5080 G1 Y-7.221
N5085 Y-11.766
N5090 X-57.388 Y-11.815 Z-4.993
N5095 X-57.378 Y-11.861 Z-4.973
N5100 X-57.368 Y-11.9 Z-4.942
N5105 X-57.361 Y-11.931 Z-4.901
N5110 X-57.357 Y-11.95 Z-4.854
N5115 X-57.355 Y-11.956 Z-4.804
N5120 G0 Z4.
(2D CONTOUR3 2)
N5130 M8
N5135 G0 X-14. Y-18.399
N5140 Z4.
N5145 Z1.
N5150 G1 Z-4.5 F400.
N5155 G18 G2 X-13.5 Z-5. I0.5 K0.
N5160 G1 X-13. F800.
N5165 G17 G3 X-12.5 Y-17.899 I0. J0.5
N5170 G1 Y-5.5
N5175 G3 X-13. Y-5. I-0.5 J0.
N5180 G1 X-29.
N5185 G3 X-29.5 Y-5.5 I0. J-0.5
N5190 G1 Y-6.5
N5195 G2 X-35. Y-12. I-5.5 J0.
N5200 G1 X-35.021
N5205 G2 X-40.502 Y-6.958 I0. J5.5
N5210 G3 X-41. Y-6.5 I-0.498 J-0.042
N5215 G1 X-57.
N5220 G3 X-57.5 Y-7. I0. J-0.5
N5225 G1 Y-31.5
N5230 Y-32.5 F450.
N5235 X-41. F800.
N5240 G3 X-40.502 Y-32.042 I0. J0.5
N5245 G2 X-35.021 Y-27. I5.481 J-0.458
N5250 G1 X-35.
N5255 G2 X-29.5 Y-32.5 I0. J-5.5
N5260 G1 Y-33.5
N5265 G3 X-29. Y-34. I0.5 J0.
N5270 G1 X-13.
N5275 G3 X-12.5 Y-33.5 I0. J0.5
N5280 G1 Y-21.101
N5285 G3 X-13. Y-20.601 I-0.5 J0.
N5290 G1 X-13.5
N5295 G18 G3 X-14. Z-4.5 I0. K0.5
N5300 G0 Z4.
N5305 G17
N5310 M9
N5315 G53 G0 Z0.
N5320 M30
%
