%
(BASEPLATE 30MM S1 PILOT HOLES)
(T3  D=2.5 CR=0. TAPER=118DEG - ZMIN=-20. - DRILL)
N10 G90 G94 G17 G91.1
N15 G21
N20 G53 G0 Z0.
(DRILL2)
N25 M9
N30 T3 M6
N35 S4500 M3
N40 G54
N45 M8
N55 G0 X70. Y-343.
N60 G43 Z4. H3
N70 G0 Z2.
N75 G98 G83 X70. Y-343. Z-20. R2. Q1. F100.
N80 Y-423.
N85 X150. Y-413.
N90 Y-423.
N95 Y-433.
N100 Y-443.
N105 Y-453.
N110 Y-463.
N115 Y-473.
N120 Y-483.
N125 X190.
N130 Y-473.
N135 Y-463.
N140 Y-453.
N145 Y-443.
N150 Y-433.
N155 Y-423.
N160 Y-413.
N165 X270. Y-423.
N170 Y-343.
N175 Y-263.
N180 Y-183.
N185 Y-103.
N190 Y-23.
N195 X190. Y-33.
N200 Y-43.
N205 Y-53.
N210 Y-63.
N215 Y-73.
N220 Y-83.
N225 Y-93.
N230 Y-103.
N235 X150.
N240 Y-93.
N245 Y-83.
N250 Y-73.
N255 Y-63.
N260 Y-53.
N265 Y-43.
N270 Y-33.
N275 X70. Y-23.
N280 Y-103.
N285 Y-183.
N290 Y-263.
N295 G80
N300 G0 Z4.
N310 M9
N315 G53 Z0.
N320 M30
%
