%
(1)
(T3 D=2.5 CR=0 TAPER=118deg - ZMIN=-20 - drill)
N10 G90 G94
N15 G17
N20 G21

N30 G90

(Drill2)
N35 M9
N40 T3 M6
N45 S4500 M3
N50 G54
N55 M8
N65 G0 X120 Y175
N70 G43 Z4 H3
N80 Z2
N85 G98 G83 X120 Y175 Z-20 R-6 Q1 F100
N90 G80
N100 X70 Y157 Z2
N105 G83 X70 Y157 Z-20 R2 Q1 F100
N110 G80
N120 X20 Y175 Z2
N125 G83 X20 Y175 Z-20 R-6 Q1 F100
N130 G80
N140 X70 Y237 Z2
N145 G83 X70 Y237 Z-20 R2 Q1 F100
N150 G80
N160 X120 Y325 Z2
N165 G83 X120 Y325 Z-20 R-6 Q1 F100
N170 G80
N180 X70 Y317 Z2
N185 G83 X70 Y317 Z-20 R2 Q1 F100
N190 G80
N200 X20 Y325 Z2
N205 G83 X20 Y325 Z-20 R-6 Q1 F100
N210 G80
N220 X70 Y397 Z2
N225 G83 X70 Y397 Z-20 R2 Q1 F100
N230 G80
N240 X20 Y475 Z2
N245 G83 X20 Y475 Z-20 R-6 Q1 F100
N250 G80
N260 X70 Y477 Z2
N265 G83 X70 Y477 Z-20 R2 Q1 F100
N270 G80
N280 X120 Y475 Z2
N285 G83 X120 Y475 Z-20 R-6 Q1 F100
N290 G80
N300 X150 Y467 Z2
N305 G83 X150 Y467 Z-20 R2 Q1 F100
N310 Y457
N315 Y447
N320 Y437
N325 Y427
N330 Y417
N335 Y407
N340 Y397
N345 X190
N350 Y407
N355 Y417
N360 Y427
N365 Y437
N370 Y447
N375 Y457
N380 Y467
N385 G80
N395 X220 Y475 Z2
N400 G83 X220 Y475 Z-20 R-6 Q1 F100
N405 G80
N415 X270 Y477 Z2
N420 G83 X270 Y477 Z-20 R2 Q1 F100
N425 G80
N435 X320 Y475 Z2
N440 G83 X320 Y475 Z-20 R-6 Q1 F100
N445 G80
N455 X270 Y397 Z2
N460 G83 X270 Y397 Z-20 R2 Q1 F100
N465 G80
N475 X220 Y325 Z2
N480 G83 X220 Y325 Z-20 R-6 Q1 F100
N485 G80
N495 X270 Y317 Z2
N500 G83 X270 Y317 Z-20 R2 Q1 F100
N505 G80
N515 X320 Y325 Z2
N520 G83 X320 Y325 Z-20 R-6 Q1 F100
N525 G80
N535 X270 Y237 Z2
N540 G83 X270 Y237 Z-20 R2 Q1 F100
N545 G80
N555 X220 Y175 Z2
N560 G83 X220 Y175 Z-20 R-6 Q1 F100
N565 G80
N575 X270 Y157 Z2
N580 G83 X270 Y157 Z-20 R2 Q1 F100
N585 G80
N595 X320 Y175 Z2
N600 G83 X320 Y175 Z-20 R-6 Q1 F100
N605 Y25
N610 G80
N620 X270 Y77 Z2
N625 G83 X270 Y77 Z-20 R2 Q1 F100
N630 G80
N640 X220 Y25 Z2
N645 G83 X220 Y25 Z-20 R-6 Q1 F100
N650 G80
N660 X190 Y17 Z2
N665 G83 X190 Y17 Z-20 R2 Q1 F100
N670 Y27
N675 Y37
N680 Y47
N685 Y57
N690 Y67
N695 Y77
N700 Y87
N705 X150
N710 Y77
N715 Y67
N720 Y57
N725 Y47
N730 Y37
N735 Y27
N740 Y17
N745 G80
N755 X120 Y25 Z2
N760 G83 X120 Y25 Z-20 R-6 Q1 F100
N765 G80
N775 X70 Y77 Z2
N780 G83 X70 Y77 Z-20 R2 Q1 F100
N785 G80
N795 X20 Y25 Z2
N800 G83 X20 Y25 Z-20 R-6 Q1 F100
N805 G80
N810 Z4
N820 M9
N825 G28 G91 Z0
N830 G28 X0 Y0
N835 M30
%
