%
(1)
(T3  D=2 CR=0 TAPER=118deg - ZMIN=-7 - drill)
G90 G94
G17
G21
G28 G91 Z25 F1000
G90

(Drill3)
M9
T3 M6
S16001 M3
G54
M8
G0 X290.6 Y7
Z25
Z5
Z2
G1 Z-1.2 F200.3
G0 Z-0.7
G1 Z-2.3 F200.3
G0 Z-1.8
G1 Z-3.3 F200.3
G0 Z5
Z-1.3
G1 Z-4.2 F200.3
G0 Z-3.7
G1 Z-5 F200.3
G0 Z-4.5
G1 Z-5.7 F200.3
G0 Z-5.2
G1 Z-6.3 F200.3
G0 Z5
Z-4.3
G1 Z-6.8 F200.3
G0 Z-6.3
G1 Z-7 F200.3
G0 Z5
Y69
Z2
G1 Z-1.2 F200.3
G0 Z-0.7
G1 Z-2.3 F200.3
G0 Z-1.8
G1 Z-3.3 F200.3
G0 Z5
Z-1.3
G1 Z-4.2 F200.3
G0 Z-3.7
G1 Z-5 F200.3
G0 Z-4.5
G1 Z-5.7 F200.3
G0 Z-5.2
G1 Z-6.3 F200.3
G0 Z5
Z-4.3
G1 Z-6.8 F200.3
G0 Z-6.3
G1 Z-7 F200.3
G0 Z5
Y130.999
Z2
G1 Z-1.2 F200.3
G0 Z-0.7
G1 Z-2.3 F200.3
G0 Z-1.8
G1 Z-3.3 F200.3
G0 Z5
Z-1.3
G1 Z-4.2 F200.3
G0 Z-3.7
G1 Z-5 F200.3
G0 Z-4.5
G1 Z-5.7 F200.3
G0 Z-5.2
G1 Z-6.3 F200.3
G0 Z5
Z-4.3
G1 Z-6.8 F200.3
G0 Z-6.3
G1 Z-7 F200.3
G0 Z5
Y192.999
Z2
G1 Z-1.2 F200.3
G0 Z-0.7
G1 Z-2.3 F200.3
G0 Z-1.8
G1 Z-3.3 F200.3
G0 Z5
Z-1.3
G1 Z-4.2 F200.3
G0 Z-3.7
G1 Z-5 F200.3
G0 Z-4.5
G1 Z-5.7 F200.3
G0 Z-5.2
G1 Z-6.3 F200.3
G0 Z5
Z-4.3
G1 Z-6.8 F200.3
G0 Z-6.3
G1 Z-7 F200.3
G0 Z5
X150 Y147.001
Z2
G1 Z-1.2 F200.3
G0 Z-0.7
G1 Z-2.3 F200.3
G0 Z-1.8
G1 Z-3.3 F200.3
G0 Z5
Z-1.3
G1 Z-4.2 F200.3
G0 Z-3.7
G1 Z-5 F200.3
G0 Z-4.5
G1 Z-5.7 F200.3
G0 Z-5.2
G1 Z-6.3 F200.3
G0 Z5
Z-4.3
G1 Z-6.8 F200.3
G0 Z-6.3
G1 Z-7 F200.3
G0 Z5
X180
Z2
G1 Z-1.2 F200.3
G0 Z-0.7
G1 Z-2.3 F200.3
G0 Z-1.8
G1 Z-3.3 F200.3
G0 Z5
Z-1.3
G1 Z-4.2 F200.3
G0 Z-3.7
G1 Z-5 F200.3
G0 Z-4.5
G1 Z-5.7 F200.3
G0 Z-5.2
G1 Z-6.3 F200.3
G0 Z5
Z-4.3
G1 Z-6.8 F200.3
G0 Z-6.3
G1 Z-7 F200.3
G0 Z5
X178 Y130
Z2
G1 Z-1.2 F200.3
G0 Z-0.7
G1 Z-2.3 F200.3
G0 Z-1.8
G1 Z-3.3 F200.3
G0 Z5
Z-1.3
G1 Z-4.2 F200.3
G0 Z-3.7
G1 Z-5 F200.3
G0 Z-4.5
G1 Z-5.7 F200.3
G0 Z-5.2
G1 Z-6.3 F200.3
G0 Z5
Z-4.3
G1 Z-6.8 F200.3
G0 Z-6.3
G1 Z-7 F200.3
G0 Z5
X169.15 Y122.55
Z2
G1 Z-1.2 F200.3
G0 Z-0.7
G1 Z-2.3 F200.3
G0 Z-1.8
G1 Z-3.3 F200.3
G0 Z5
Z-1.3
G1 Z-4.2 F200.3
G0 Z-3.7
G1 Z-5 F200.3
G0 Z-4.5
G1 Z-5.7 F200.3
G0 Z-5.2
G1 Z-6.3 F200.3
G0 Z5
Z-4.3
G1 Z-6.8 F200.3
G0 Z-6.3
G1 Z-7 F200.3
G0 Z5
X158 Y130
Z2
G1 Z-1.2 F200.3
G0 Z-0.7
G1 Z-2.3 F200.3
G0 Z-1.8
G1 Z-3.3 F200.3
G0 Z5
Z-1.3
G1 Z-4.2 F200.3
G0 Z-3.7
G1 Z-5 F200.3
G0 Z-4.5
G1 Z-5.7 F200.3
G0 Z-5.2
G1 Z-6.3 F200.3
G0 Z5
Z-4.3
G1 Z-6.8 F200.3
G0 Z-6.3
G1 Z-7 F200.3
G0 Z5
X138
Z2
G1 Z-1.2 F200.3
G0 Z-0.7
G1 Z-2.3 F200.3
G0 Z-1.8
G1 Z-3.3 F200.3
G0 Z5
Z-1.3
G1 Z-4.2 F200.3
G0 Z-3.7
G1 Z-5 F200.3
G0 Z-4.5
G1 Z-5.7 F200.3
G0 Z-5.2
G1 Z-6.3 F200.3
G0 Z5
Z-4.3
G1 Z-6.8 F200.3
G0 Z-6.3
G1 Z-7 F200.3
G0 Z5
X126.85 Y122.55
Z2
G1 Z-1.2 F200.3
G0 Z-0.7
G1 Z-2.3 F200.3
G0 Z-1.8
G1 Z-3.3 F200.3
G0 Z5
Z-1.3
G1 Z-4.2 F200.3
G0 Z-3.7
G1 Z-5 F200.3
G0 Z-4.5
G1 Z-5.7 F200.3
G0 Z-5.2
G1 Z-6.3 F200.3
G0 Z5
Z-4.3
G1 Z-6.8 F200.3
G0 Z-6.3
G1 Z-7 F200.3
G0 Z5
X118 Y130
Z2
G1 Z-1.2 F200.3
G0 Z-0.7
G1 Z-2.3 F200.3
G0 Z-1.8
G1 Z-3.3 F200.3
G0 Z5
Z-1.3
G1 Z-4.2 F200.3
G0 Z-3.7
G1 Z-5 F200.3
G0 Z-4.5
G1 Z-5.7 F200.3
G0 Z-5.2
G1 Z-6.3 F200.3
G0 Z5
Z-4.3
G1 Z-6.8 F200.3
G0 Z-6.3
G1 Z-7 F200.3
G0 Z5
X120 Y147.001
Z2
G1 Z-1.2 F200.3
G0 Z-0.7
G1 Z-2.3 F200.3
G0 Z-1.8
G1 Z-3.3 F200.3
G0 Z5
Z-1.3
G1 Z-4.2 F200.3
G0 Z-3.7
G1 Z-5 F200.3
G0 Z-4.5
G1 Z-5.7 F200.3
G0 Z-5.2
G1 Z-6.3 F200.3
G0 Z5
Z-4.3
G1 Z-6.8 F200.3
G0 Z-6.3
G1 Z-7 F200.3
G0 Z5
X90
Z2
G1 Z-1.2 F200.3
G0 Z-0.7
G1 Z-2.3 F200.3
G0 Z-1.8
G1 Z-3.3 F200.3
G0 Z5
Z-1.3
G1 Z-4.2 F200.3
G0 Z-3.7
G1 Z-5 F200.3
G0 Z-4.5
G1 Z-5.7 F200.3
G0 Z-5.2
G1 Z-6.3 F200.3
G0 Z5
Z-4.3
G1 Z-6.8 F200.3
G0 Z-6.3
G1 Z-7 F200.3
G0 Z5
X90.6 Y130.999
Z2
G1 Z-1.2 F200.3
G0 Z-0.7
G1 Z-2.3 F200.3
G0 Z-1.8
G1 Z-3.3 F200.3
G0 Z5
Z-1.3
G1 Z-4.2 F200.3
G0 Z-3.7
G1 Z-5 F200.3
G0 Z-4.5
G1 Z-5.7 F200.3
G0 Z-5.2
G1 Z-6.3 F200.3
G0 Z5
Z-4.3
G1 Z-6.8 F200.3
G0 Z-6.3
G1 Z-7 F200.3
G0 Z5
X60 Y147.001
Z2
G1 Z-1.2 F200.3
G0 Z-0.7
G1 Z-2.3 F200.3
G0 Z-1.8
G1 Z-3.3 F200.3
G0 Z5
Z-1.3
G1 Z-4.2 F200.3
G0 Z-3.7
G1 Z-5 F200.3
G0 Z-4.5
G1 Z-5.7 F200.3
G0 Z-5.2
G1 Z-6.3 F200.3
G0 Z5
Z-4.3
G1 Z-6.8 F200.3
G0 Z-6.3
G1 Z-7 F200.3
G0 Z5
X56 Y159.001
Z2
G1 Z-1.2 F200.3
G0 Z-0.7
G1 Z-2.3 F200.3
G0 Z-1.8
G1 Z-3.3 F200.3
G0 Z5
Z-1.3
G1 Z-4.2 F200.3
G0 Z-3.7
G1 Z-5 F200.3
G0 Z-4.5
G1 Z-5.7 F200.3
G0 Z-5.2
G1 Z-6.3 F200.3
G0 Z5
Z-4.3
G1 Z-6.8 F200.3
G0 Z-6.3
G1 Z-7 F200.3
G0 Z5
X71
Z2
G1 Z-1.2 F200.3
G0 Z-0.7
G1 Z-2.3 F200.3
G0 Z-1.8
G1 Z-3.3 F200.3
G0 Z5
Z-1.3
G1 Z-4.2 F200.3
G0 Z-3.7
G1 Z-5 F200.3
G0 Z-4.5
G1 Z-5.7 F200.3
G0 Z-5.2
G1 Z-6.3 F200.3
G0 Z5
Z-4.3
G1 Z-6.8 F200.3
G0 Z-6.3
G1 Z-7 F200.3
G0 Z5
Y179.001
Z2
G1 Z-1.2 F200.3
G0 Z-0.7
G1 Z-2.3 F200.3
G0 Z-1.8
G1 Z-3.3 F200.3
G0 Z5
Z-1.3
G1 Z-4.2 F200.3
G0 Z-3.7
G1 Z-5 F200.3
G0 Z-4.5
G1 Z-5.7 F200.3
G0 Z-5.2
G1 Z-6.3 F200.3
G0 Z5
Z-4.3
G1 Z-6.8 F200.3
G0 Z-6.3
G1 Z-7 F200.3
G0 Z5
X56
Z2
G1 Z-1.2 F200.3
G0 Z-0.7
G1 Z-2.3 F200.3
G0 Z-1.8
G1 Z-3.3 F200.3
G0 Z5
Z-1.3
G1 Z-4.2 F200.3
G0 Z-3.7
G1 Z-5 F200.3
G0 Z-4.5
G1 Z-5.7 F200.3
G0 Z-5.2
G1 Z-6.3 F200.3
G0 Z5
Z-4.3
G1 Z-6.8 F200.3
G0 Z-6.3
G1 Z-7 F200.3
G0 Z5
X60 Y195.001
Z2
G1 Z-1.2 F200.3
G0 Z-0.7
G1 Z-2.3 F200.3
G0 Z-1.8
G1 Z-3.3 F200.3
G0 Z5
Z-1.3
G1 Z-4.2 F200.3
G0 Z-3.7
G1 Z-5 F200.3
G0 Z-4.5
G1 Z-5.7 F200.3
G0 Z-5.2
G1 Z-6.3 F200.3
G0 Z5
Z-4.3
G1 Z-6.8 F200.3
G0 Z-6.3
G1 Z-7 F200.3
G0 Z5
X90
Z2
G1 Z-1.2 F200.3
G0 Z-0.7
G1 Z-2.3 F200.3
G0 Z-1.8
G1 Z-3.3 F200.3
G0 Z5
Z-1.3
G1 Z-4.2 F200.3
G0 Z-3.7
G1 Z-5 F200.3
G0 Z-4.5
G1 Z-5.7 F200.3
G0 Z-5.2
G1 Z-6.3 F200.3
G0 Z5
Z-4.3
G1 Z-6.8 F200.3
G0 Z-6.3
G1 Z-7 F200.3
G0 Z5
X120
Z2
G1 Z-1.2 F200.3
G0 Z-0.7
G1 Z-2.3 F200.3
G0 Z-1.8
G1 Z-3.3 F200.3
G0 Z5
Z-1.3
G1 Z-4.2 F200.3
G0 Z-3.7
G1 Z-5 F200.3
G0 Z-4.5
G1 Z-5.7 F200.3
G0 Z-5.2
G1 Z-6.3 F200.3
G0 Z5
Z-4.3
G1 Z-6.8 F200.3
G0 Z-6.3
G1 Z-7 F200.3
G0 Z5
X150
Z2
G1 Z-1.2 F200.3
G0 Z-0.7
G1 Z-2.3 F200.3
G0 Z-1.8
G1 Z-3.3 F200.3
G0 Z5
Z-1.3
G1 Z-4.2 F200.3
G0 Z-3.7
G1 Z-5 F200.3
G0 Z-4.5
G1 Z-5.7 F200.3
G0 Z-5.2
G1 Z-6.3 F200.3
G0 Z5
Z-4.3
G1 Z-6.8 F200.3
G0 Z-6.3
G1 Z-7 F200.3
G0 Z5
X180
Z2
G1 Z-1.2 F200.3
G0 Z-0.7
G1 Z-2.3 F200.3
G0 Z-1.8
G1 Z-3.3 F200.3
G0 Z5
Z-1.3
G1 Z-4.2 F200.3
G0 Z-3.7
G1 Z-5 F200.3
G0 Z-4.5
G1 Z-5.7 F200.3
G0 Z-5.2
G1 Z-6.3 F200.3
G0 Z5
Z-4.3
G1 Z-6.8 F200.3
G0 Z-6.3
G1 Z-7 F200.3
G0 Z5
X208.6 Y192.999
Z2
G1 Z-1.2 F200.3
G0 Z-0.7
G1 Z-2.3 F200.3
G0 Z-1.8
G1 Z-3.3 F200.3
G0 Z5
Z-1.3
G1 Z-4.2 F200.3
G0 Z-3.7
G1 Z-5 F200.3
G0 Z-4.5
G1 Z-5.7 F200.3
G0 Z-5.2
G1 Z-6.3 F200.3
G0 Z5
Z-4.3
G1 Z-6.8 F200.3
G0 Z-6.3
G1 Z-7 F200.3
G0 Z5
X240 Y195.001
Z2
G1 Z-1.2 F200.3
G0 Z-0.7
G1 Z-2.3 F200.3
G0 Z-1.8
G1 Z-3.3 F200.3
G0 Z5
Z-1.3
G1 Z-4.2 F200.3
G0 Z-3.7
G1 Z-5 F200.3
G0 Z-4.5
G1 Z-5.7 F200.3
G0 Z-5.2
G1 Z-6.3 F200.3
G0 Z5
Z-4.3
G1 Z-6.8 F200.3
G0 Z-6.3
G1 Z-7 F200.3
G0 Z5
X244 Y179.001
Z2
G1 Z-1.2 F200.3
G0 Z-0.7
G1 Z-2.3 F200.3
G0 Z-1.8
G1 Z-3.3 F200.3
G0 Z5
Z-1.3
G1 Z-4.2 F200.3
G0 Z-3.7
G1 Z-5 F200.3
G0 Z-4.5
G1 Z-5.7 F200.3
G0 Z-5.2
G1 Z-6.3 F200.3
G0 Z5
Z-4.3
G1 Z-6.8 F200.3
G0 Z-6.3
G1 Z-7 F200.3
G0 Z5
X229
Z2
G1 Z-1.2 F200.3
G0 Z-0.7
G1 Z-2.3 F200.3
G0 Z-1.8
G1 Z-3.3 F200.3
G0 Z5
Z-1.3
G1 Z-4.2 F200.3
G0 Z-3.7
G1 Z-5 F200.3
G0 Z-4.5
G1 Z-5.7 F200.3
G0 Z-5.2
G1 Z-6.3 F200.3
G0 Z5
Z-4.3
G1 Z-6.8 F200.3
G0 Z-6.3
G1 Z-7 F200.3
G0 Z5
Y159.001
Z2
G1 Z-1.2 F200.3
G0 Z-0.7
G1 Z-2.3 F200.3
G0 Z-1.8
G1 Z-3.3 F200.3
G0 Z5
Z-1.3
G1 Z-4.2 F200.3
G0 Z-3.7
G1 Z-5 F200.3
G0 Z-4.5
G1 Z-5.7 F200.3
G0 Z-5.2
G1 Z-6.3 F200.3
G0 Z5
Z-4.3
G1 Z-6.8 F200.3
G0 Z-6.3
G1 Z-7 F200.3
G0 Z5
X244
Z2
G1 Z-1.2 F200.3
G0 Z-0.7
G1 Z-2.3 F200.3
G0 Z-1.8
G1 Z-3.3 F200.3
G0 Z5
Z-1.3
G1 Z-4.2 F200.3
G0 Z-3.7
G1 Z-5 F200.3
G0 Z-4.5
G1 Z-5.7 F200.3
G0 Z-5.2
G1 Z-6.3 F200.3
G0 Z5
Z-4.3
G1 Z-6.8 F200.3
G0 Z-6.3
G1 Z-7 F200.3
G0 Z5
X240 Y147.001
Z2
G1 Z-1.2 F200.3
G0 Z-0.7
G1 Z-2.3 F200.3
G0 Z-1.8
G1 Z-3.3 F200.3
G0 Z5
Z-1.3
G1 Z-4.2 F200.3
G0 Z-3.7
G1 Z-5 F200.3
G0 Z-4.5
G1 Z-5.7 F200.3
G0 Z-5.2
G1 Z-6.3 F200.3
G0 Z5
Z-4.3
G1 Z-6.8 F200.3
G0 Z-6.3
G1 Z-7 F200.3
G0 Z5
X210
Z2
G1 Z-1.2 F200.3
G0 Z-0.7
G1 Z-2.3 F200.3
G0 Z-1.8
G1 Z-3.3 F200.3
G0 Z5
Z-1.3
G1 Z-4.2 F200.3
G0 Z-3.7
G1 Z-5 F200.3
G0 Z-4.5
G1 Z-5.7 F200.3
G0 Z-5.2
G1 Z-6.3 F200.3
G0 Z5
Z-4.3
G1 Z-6.8 F200.3
G0 Z-6.3
G1 Z-7 F200.3
G0 Z5
X208.6 Y130.999
Z2
G1 Z-1.2 F200.3
G0 Z-0.7
G1 Z-2.3 F200.3
G0 Z-1.8
G1 Z-3.3 F200.3
G0 Z5
Z-1.3
G1 Z-4.2 F200.3
G0 Z-3.7
G1 Z-5 F200.3
G0 Z-4.5
G1 Z-5.7 F200.3
G0 Z-5.2
G1 Z-6.3 F200.3
G0 Z5
Z-4.3
G1 Z-6.8 F200.3
G0 Z-6.3
G1 Z-7 F200.3
G0 Z5
X178 Y110
Z2
G1 Z-1.2 F200.3
G0 Z-0.7
G1 Z-2.3 F200.3
G0 Z-1.8
G1 Z-3.3 F200.3
G0 Z5
Z-1.3
G1 Z-4.2 F200.3
G0 Z-3.7
G1 Z-5 F200.3
G0 Z-4.5
G1 Z-5.7 F200.3
G0 Z-5.2
G1 Z-6.3 F200.3
G0 Z5
Z-4.3
G1 Z-6.8 F200.3
G0 Z-6.3
G1 Z-7 F200.3
G0 Z5
Y90
Z2
G1 Z-1.2 F200.3
G0 Z-0.7
G1 Z-2.3 F200.3
G0 Z-1.8
G1 Z-3.3 F200.3
G0 Z5
Z-1.3
G1 Z-4.2 F200.3
G0 Z-3.7
G1 Z-5 F200.3
G0 Z-4.5
G1 Z-5.7 F200.3
G0 Z-5.2
G1 Z-6.3 F200.3
G0 Z5
Z-4.3
G1 Z-6.8 F200.3
G0 Z-6.3
G1 Z-7 F200.3
G0 Z5
X208.6 Y69
Z2
G1 Z-1.2 F200.3
G0 Z-0.7
G1 Z-2.3 F200.3
G0 Z-1.8
G1 Z-3.3 F200.3
G0 Z5
Z-1.3
G1 Z-4.2 F200.3
G0 Z-3.7
G1 Z-5 F200.3
G0 Z-4.5
G1 Z-5.7 F200.3
G0 Z-5.2
G1 Z-6.3 F200.3
G0 Z5
Z-4.3
G1 Z-6.8 F200.3
G0 Z-6.3
G1 Z-7 F200.3
G0 Z5
X210 Y53.001
Z2
G1 Z-1.2 F200.3
G0 Z-0.7
G1 Z-2.3 F200.3
G0 Z-1.8
G1 Z-3.3 F200.3
G0 Z5
Z-1.3
G1 Z-4.2 F200.3
G0 Z-3.7
G1 Z-5 F200.3
G0 Z-4.5
G1 Z-5.7 F200.3
G0 Z-5.2
G1 Z-6.3 F200.3
G0 Z5
Z-4.3
G1 Z-6.8 F200.3
G0 Z-6.3
G1 Z-7 F200.3
G0 Z5
X240
Z2
G1 Z-1.2 F200.3
G0 Z-0.7
G1 Z-2.3 F200.3
G0 Z-1.8
G1 Z-3.3 F200.3
G0 Z5
Z-1.3
G1 Z-4.2 F200.3
G0 Z-3.7
G1 Z-5 F200.3
G0 Z-4.5
G1 Z-5.7 F200.3
G0 Z-5.2
G1 Z-6.3 F200.3
G0 Z5
Z-4.3
G1 Z-6.8 F200.3
G0 Z-6.3
G1 Z-7 F200.3
G0 Z5
X244 Y41.001
Z2
G1 Z-1.2 F200.3
G0 Z-0.7
G1 Z-2.3 F200.3
G0 Z-1.8
G1 Z-3.3 F200.3
G0 Z5
Z-1.3
G1 Z-4.2 F200.3
G0 Z-3.7
G1 Z-5 F200.3
G0 Z-4.5
G1 Z-5.7 F200.3
G0 Z-5.2
G1 Z-6.3 F200.3
G0 Z5
Z-4.3
G1 Z-6.8 F200.3
G0 Z-6.3
G1 Z-7 F200.3
G0 Z5
X229
Z2
G1 Z-1.2 F200.3
G0 Z-0.7
G1 Z-2.3 F200.3
G0 Z-1.8
G1 Z-3.3 F200.3
G0 Z5
Z-1.3
G1 Z-4.2 F200.3
G0 Z-3.7
G1 Z-5 F200.3
G0 Z-4.5
G1 Z-5.7 F200.3
G0 Z-5.2
G1 Z-6.3 F200.3
G0 Z5
Z-4.3
G1 Z-6.8 F200.3
G0 Z-6.3
G1 Z-7 F200.3
G0 Z5
Y21.001
Z2
G1 Z-1.2 F200.3
G0 Z-0.7
G1 Z-2.3 F200.3
G0 Z-1.8
G1 Z-3.3 F200.3
G0 Z5
Z-1.3
G1 Z-4.2 F200.3
G0 Z-3.7
G1 Z-5 F200.3
G0 Z-4.5
G1 Z-5.7 F200.3
G0 Z-5.2
G1 Z-6.3 F200.3
G0 Z5
Z-4.3
G1 Z-6.8 F200.3
G0 Z-6.3
G1 Z-7 F200.3
G0 Z5
X244
Z2
G1 Z-1.2 F200.3
G0 Z-0.7
G1 Z-2.3 F200.3
G0 Z-1.8
G1 Z-3.3 F200.3
G0 Z5
Z-1.3
G1 Z-4.2 F200.3
G0 Z-3.7
G1 Z-5 F200.3
G0 Z-4.5
G1 Z-5.7 F200.3
G0 Z-5.2
G1 Z-6.3 F200.3
G0 Z5
Z-4.3
G1 Z-6.8 F200.3
G0 Z-6.3
G1 Z-7 F200.3
G0 Z5
X240 Y5.001
Z2
G1 Z-1.2 F200.3
G0 Z-0.7
G1 Z-2.3 F200.3
G0 Z-1.8
G1 Z-3.3 F200.3
G0 Z5
Z-1.3
G1 Z-4.2 F200.3
G0 Z-3.7
G1 Z-5 F200.3
G0 Z-4.5
G1 Z-5.7 F200.3
G0 Z-5.2
G1 Z-6.3 F200.3
G0 Z5
Z-4.3
G1 Z-6.8 F200.3
G0 Z-6.3
G1 Z-7 F200.3
G0 Z5
X208.6 Y7
Z2
G1 Z-1.2 F200.3
G0 Z-0.7
G1 Z-2.3 F200.3
G0 Z-1.8
G1 Z-3.3 F200.3
G0 Z5
Z-1.3
G1 Z-4.2 F200.3
G0 Z-3.7
G1 Z-5 F200.3
G0 Z-4.5
G1 Z-5.7 F200.3
G0 Z-5.2
G1 Z-6.3 F200.3
G0 Z5
Z-4.3
G1 Z-6.8 F200.3
G0 Z-6.3
G1 Z-7 F200.3
G0 Z5
X180 Y5.001
Z2
G1 Z-1.2 F200.3
G0 Z-0.7
G1 Z-2.3 F200.3
G0 Z-1.8
G1 Z-3.3 F200.3
G0 Z5
Z-1.3
G1 Z-4.2 F200.3
G0 Z-3.7
G1 Z-5 F200.3
G0 Z-4.5
G1 Z-5.7 F200.3
G0 Z-5.2
G1 Z-6.3 F200.3
G0 Z5
Z-4.3
G1 Z-6.8 F200.3
G0 Z-6.3
G1 Z-7 F200.3
G0 Z5
X150
Z2
G1 Z-1.2 F200.3
G0 Z-0.7
G1 Z-2.3 F200.3
G0 Z-1.8
G1 Z-3.3 F200.3
G0 Z5
Z-1.3
G1 Z-4.2 F200.3
G0 Z-3.7
G1 Z-5 F200.3
G0 Z-4.5
G1 Z-5.7 F200.3
G0 Z-5.2
G1 Z-6.3 F200.3
G0 Z5
Z-4.3
G1 Z-6.8 F200.3
G0 Z-6.3
G1 Z-7 F200.3
G0 Z5
X120
Z2
G1 Z-1.2 F200.3
G0 Z-0.7
G1 Z-2.3 F200.3
G0 Z-1.8
G1 Z-3.3 F200.3
G0 Z5
Z-1.3
G1 Z-4.2 F200.3
G0 Z-3.7
G1 Z-5 F200.3
G0 Z-4.5
G1 Z-5.7 F200.3
G0 Z-5.2
G1 Z-6.3 F200.3
G0 Z5
Z-4.3
G1 Z-6.8 F200.3
G0 Z-6.3
G1 Z-7 F200.3
G0 Z5
X90
Z2
G1 Z-1.2 F200.3
G0 Z-0.7
G1 Z-2.3 F200.3
G0 Z-1.8
G1 Z-3.3 F200.3
G0 Z5
Z-1.3
G1 Z-4.2 F200.3
G0 Z-3.7
G1 Z-5 F200.3
G0 Z-4.5
G1 Z-5.7 F200.3
G0 Z-5.2
G1 Z-6.3 F200.3
G0 Z5
Z-4.3
G1 Z-6.8 F200.3
G0 Z-6.3
G1 Z-7 F200.3
G0 Z5
X60
Z2
G1 Z-1.2 F200.3
G0 Z-0.7
G1 Z-2.3 F200.3
G0 Z-1.8
G1 Z-3.3 F200.3
G0 Z5
Z-1.3
G1 Z-4.2 F200.3
G0 Z-3.7
G1 Z-5 F200.3
G0 Z-4.5
G1 Z-5.7 F200.3
G0 Z-5.2
G1 Z-6.3 F200.3
G0 Z5
Z-4.3
G1 Z-6.8 F200.3
G0 Z-6.3
G1 Z-7 F200.3
G0 Z5
X56 Y21.001
Z2
G1 Z-1.2 F200.3
G0 Z-0.7
G1 Z-2.3 F200.3
G0 Z-1.8
G1 Z-3.3 F200.3
G0 Z5
Z-1.3
G1 Z-4.2 F200.3
G0 Z-3.7
G1 Z-5 F200.3
G0 Z-4.5
G1 Z-5.7 F200.3
G0 Z-5.2
G1 Z-6.3 F200.3
G0 Z5
Z-4.3
G1 Z-6.8 F200.3
G0 Z-6.3
G1 Z-7 F200.3
G0 Z5
X71
Z2
G1 Z-1.2 F200.3
G0 Z-0.7
G1 Z-2.3 F200.3
G0 Z-1.8
G1 Z-3.3 F200.3
G0 Z5
Z-1.3
G1 Z-4.2 F200.3
G0 Z-3.7
G1 Z-5 F200.3
G0 Z-4.5
G1 Z-5.7 F200.3
G0 Z-5.2
G1 Z-6.3 F200.3
G0 Z5
Z-4.3
G1 Z-6.8 F200.3
G0 Z-6.3
G1 Z-7 F200.3
G0 Z5
Y41.001
Z2
G1 Z-1.2 F200.3
G0 Z-0.7
G1 Z-2.3 F200.3
G0 Z-1.8
G1 Z-3.3 F200.3
G0 Z5
Z-1.3
G1 Z-4.2 F200.3
G0 Z-3.7
G1 Z-5 F200.3
G0 Z-4.5
G1 Z-5.7 F200.3
G0 Z-5.2
G1 Z-6.3 F200.3
G0 Z5
Z-4.3
G1 Z-6.8 F200.3
G0 Z-6.3
G1 Z-7 F200.3
G0 Z5
X56
Z2
G1 Z-1.2 F200.3
G0 Z-0.7
G1 Z-2.3 F200.3
G0 Z-1.8
G1 Z-3.3 F200.3
G0 Z5
Z-1.3
G1 Z-4.2 F200.3
G0 Z-3.7
G1 Z-5 F200.3
G0 Z-4.5
G1 Z-5.7 F200.3
G0 Z-5.2
G1 Z-6.3 F200.3
G0 Z5
Z-4.3
G1 Z-6.8 F200.3
G0 Z-6.3
G1 Z-7 F200.3
G0 Z5
X60 Y53.001
Z2
G1 Z-1.2 F200.3
G0 Z-0.7
G1 Z-2.3 F200.3
G0 Z-1.8
G1 Z-3.3 F200.3
G0 Z5
Z-1.3
G1 Z-4.2 F200.3
G0 Z-3.7
G1 Z-5 F200.3
G0 Z-4.5
G1 Z-5.7 F200.3
G0 Z-5.2
G1 Z-6.3 F200.3
G0 Z5
Z-4.3
G1 Z-6.8 F200.3
G0 Z-6.3
G1 Z-7 F200.3
G0 Z5
X90
Z2
G1 Z-1.2 F200.3
G0 Z-0.7
G1 Z-2.3 F200.3
G0 Z-1.8
G1 Z-3.3 F200.3
G0 Z5
Z-1.3
G1 Z-4.2 F200.3
G0 Z-3.7
G1 Z-5 F200.3
G0 Z-4.5
G1 Z-5.7 F200.3
G0 Z-5.2
G1 Z-6.3 F200.3
G0 Z5
Z-4.3
G1 Z-6.8 F200.3
G0 Z-6.3
G1 Z-7 F200.3
G0 Z5
X90.6 Y68.999
Z2
G1 Z-1.2 F200.3
G0 Z-0.7
G1 Z-2.3 F200.3
G0 Z-1.8
G1 Z-3.3 F200.3
G0 Z5
Z-1.3
G1 Z-4.2 F200.3
G0 Z-3.7
G1 Z-5 F200.3
G0 Z-4.5
G1 Z-5.7 F200.3
G0 Z-5.2
G1 Z-6.3 F200.3
G0 Z5
Z-4.3
G1 Z-6.8 F200.3
G0 Z-6.3
G1 Z-7 F200.3
G0 Z5
X120 Y53.001
Z2
G1 Z-1.2 F200.3
G0 Z-0.7
G1 Z-2.3 F200.3
G0 Z-1.8
G1 Z-3.3 F200.3
G0 Z5
Z-1.3
G1 Z-4.2 F200.3
G0 Z-3.7
G1 Z-5 F200.3
G0 Z-4.5
G1 Z-5.7 F200.3
G0 Z-5.2
G1 Z-6.3 F200.3
G0 Z5
Z-4.3
G1 Z-6.8 F200.3
G0 Z-6.3
G1 Z-7 F200.3
G0 Z5
X118 Y70
Z2
G1 Z-1.2 F200.3
G0 Z-0.7
G1 Z-2.3 F200.3
G0 Z-1.8
G1 Z-3.3 F200.3
G0 Z5
Z-1.3
G1 Z-4.2 F200.3
G0 Z-3.7
G1 Z-5 F200.3
G0 Z-4.5
G1 Z-5.7 F200.3
G0 Z-5.2
G1 Z-6.3 F200.3
G0 Z5
Z-4.3
G1 Z-6.8 F200.3
G0 Z-6.3
G1 Z-7 F200.3
G0 Z5
X126.85 Y77.45
Z2
G1 Z-1.2 F200.3
G0 Z-0.7
G1 Z-2.3 F200.3
G0 Z-1.8
G1 Z-3.3 F200.3
G0 Z5
Z-1.3
G1 Z-4.2 F200.3
G0 Z-3.7
G1 Z-5 F200.3
G0 Z-4.5
G1 Z-5.7 F200.3
G0 Z-5.2
G1 Z-6.3 F200.3
G0 Z5
Z-4.3
G1 Z-6.8 F200.3
G0 Z-6.3
G1 Z-7 F200.3
G0 Z5
X138 Y70
Z2
G1 Z-1.2 F200.3
G0 Z-0.7
G1 Z-2.3 F200.3
G0 Z-1.8
G1 Z-3.3 F200.3
G0 Z5
Z-1.3
G1 Z-4.2 F200.3
G0 Z-3.7
G1 Z-5 F200.3
G0 Z-4.5
G1 Z-5.7 F200.3
G0 Z-5.2
G1 Z-6.3 F200.3
G0 Z5
Z-4.3
G1 Z-6.8 F200.3
G0 Z-6.3
G1 Z-7 F200.3
G0 Z5
X158
Z2
G1 Z-1.2 F200.3
G0 Z-0.7
G1 Z-2.3 F200.3
G0 Z-1.8
G1 Z-3.3 F200.3
G0 Z5
Z-1.3
G1 Z-4.2 F200.3
G0 Z-3.7
G1 Z-5 F200.3
G0 Z-4.5
G1 Z-5.7 F200.3
G0 Z-5.2
G1 Z-6.3 F200.3
G0 Z5
Z-4.3
G1 Z-6.8 F200.3
G0 Z-6.3
G1 Z-7 F200.3
G0 Z5
X169.15 Y77.45
Z2
G1 Z-1.2 F200.3
G0 Z-0.7
G1 Z-2.3 F200.3
G0 Z-1.8
G1 Z-3.3 F200.3
G0 Z5
Z-1.3
G1 Z-4.2 F200.3
G0 Z-3.7
G1 Z-5 F200.3
G0 Z-4.5
G1 Z-5.7 F200.3
G0 Z-5.2
G1 Z-6.3 F200.3
G0 Z5
Z-4.3
G1 Z-6.8 F200.3
G0 Z-6.3
G1 Z-7 F200.3
G0 Z5
X178 Y70
Z2
G1 Z-1.2 F200.3
G0 Z-0.7
G1 Z-2.3 F200.3
G0 Z-1.8
G1 Z-3.3 F200.3
G0 Z5
Z-1.3
G1 Z-4.2 F200.3
G0 Z-3.7
G1 Z-5 F200.3
G0 Z-4.5
G1 Z-5.7 F200.3
G0 Z-5.2
G1 Z-6.3 F200.3
G0 Z5
Z-4.3
G1 Z-6.8 F200.3
G0 Z-6.3
G1 Z-7 F200.3
G0 Z5
X180 Y53.001
Z2
G1 Z-1.2 F200.3
G0 Z-0.7
G1 Z-2.3 F200.3
G0 Z-1.8
G1 Z-3.3 F200.3
G0 Z5
Z-1.3
G1 Z-4.2 F200.3
G0 Z-3.7
G1 Z-5 F200.3
G0 Z-4.5
G1 Z-5.7 F200.3
G0 Z-5.2
G1 Z-6.3 F200.3
G0 Z5
Z-4.3
G1 Z-6.8 F200.3
G0 Z-6.3
G1 Z-7 F200.3
G0 Z5
X150
Z2
G1 Z-1.2 F200.3
G0 Z-0.7
G1 Z-2.3 F200.3
G0 Z-1.8
G1 Z-3.3 F200.3
G0 Z5
Z-1.3
G1 Z-4.2 F200.3
G0 Z-3.7
G1 Z-5 F200.3
G0 Z-4.5
G1 Z-5.7 F200.3
G0 Z-5.2
G1 Z-6.3 F200.3
G0 Z5
Z-4.3
G1 Z-6.8 F200.3
G0 Z-6.3
G1 Z-7 F200.3
G0 Z5
X118 Y90
Z2
G1 Z-1.2 F200.3
G0 Z-0.7
G1 Z-2.3 F200.3
G0 Z-1.8
G1 Z-3.3 F200.3
G0 Z5
Z-1.3
G1 Z-4.2 F200.3
G0 Z-3.7
G1 Z-5 F200.3
G0 Z-4.5
G1 Z-5.7 F200.3
G0 Z-5.2
G1 Z-6.3 F200.3
G0 Z5
Z-4.3
G1 Z-6.8 F200.3
G0 Z-6.3
G1 Z-7 F200.3
G0 Z5
Y110
Z2
G1 Z-1.2 F200.3
G0 Z-0.7
G1 Z-2.3 F200.3
G0 Z-1.8
G1 Z-3.3 F200.3
G0 Z5
Z-1.3
G1 Z-4.2 F200.3
G0 Z-3.7
G1 Z-5 F200.3
G0 Z-4.5
G1 Z-5.7 F200.3
G0 Z-5.2
G1 Z-6.3 F200.3
G0 Z5
Z-4.3
G1 Z-6.8 F200.3
G0 Z-6.3
G1 Z-7 F200.3
G0 Z5
X8.6 Y130.999
Z2
G1 Z-1.2 F200.3
G0 Z-0.7
G1 Z-2.3 F200.3
G0 Z-1.8
G1 Z-3.3 F200.3
G0 Z5
Z-1.3
G1 Z-4.2 F200.3
G0 Z-3.7
G1 Z-5 F200.3
G0 Z-4.5
G1 Z-5.7 F200.3
G0 Z-5.2
G1 Z-6.3 F200.3
G0 Z5
Z-4.3
G1 Z-6.8 F200.3
G0 Z-6.3
G1 Z-7 F200.3
G0 Z5
Y68.999
Z2
G1 Z-1.2 F200.3
G0 Z-0.7
G1 Z-2.3 F200.3
G0 Z-1.8
G1 Z-3.3 F200.3
G0 Z5
Z-1.3
G1 Z-4.2 F200.3
G0 Z-3.7
G1 Z-5 F200.3
G0 Z-4.5
G1 Z-5.7 F200.3
G0 Z-5.2
G1 Z-6.3 F200.3
G0 Z5
Z-4.3
G1 Z-6.8 F200.3
G0 Z-6.3
G1 Z-7 F200.3
G0 Z5
Z25
M9
G28 G91 Z0
G28 X0 Y0
M30
%
