%
(1)
(T1  D=6. CR=0. - ZMIN=-3.5 - FLAT END MILL)
N10 G90 G94 G17 G91.1
N15 G21
N20 G53 G0 Z0.
(2D ADAPTIVE3 2)
N25 M9
N30 T1 M6
N35 S3300 M3
N40 G54
N45 M8
N55 G0 X-124.82 Y-19.381
N60 G43 Z4. H1
N65 G0 Z-2.3
N70 G1 Z-2.9 F900.
N75 X-124.812 Y-19.383 Z-2.994
N80 X-124.791 Y-19.389 Z-3.085
N85 X-124.756 Y-19.398 Z-3.172
N90 X-124.709 Y-19.41 Z-3.253
N95 X-124.649 Y-19.425 Z-3.324
N100 X-124.58 Y-19.443 Z-3.385
N105 X-124.502 Y-19.463 Z-3.435
N110 X-124.418 Y-19.484 Z-3.471
N115 X-124.329 Y-19.507 Z-3.493
N120 X-124.238 Y-19.53 Z-3.5
N125 G3 X-120.972 Y-20. I3.801 J14.839
N130 G1 X-120.925 F450.
N135 G3 X-120.578 Y-19.349 I-1.521 J1.229 F1000.
N140 X-120.229 Y-17.955 I-5.995 J2.241
N145 X-120.007 Y-15.724 I-17.758 J2.893
N150 X-119.901 Y-11.42 I-75.661 J4.018
N155 X-119.884 Y-1.856 I-858.554 J6.347
N160 G1 X-119.899 Y-1.592
N165 G3 X-121.736 Y0. I-1.837 J-0.264
N170 G1 X-121.956 Y-0.086
N175 X-122.11 Y-0.147 F30000.
N180 X-122.316 Y-0.6
N185 X-123.336 Y-15.757
N190 G3 X-122.829 Y-17.638 I2.476 J-0.342
N195 G1 X-121.106 Y-19.865
N200 X-121.03 Y-19.964 F900.
N205 X-120.925 Y-20.
N210 X-120.685 F450.
N215 G3 X-120.079 Y-19.299 I-1.278 J1.716 F1000.
N220 X-119.509 Y-17.936 I-4.381 J2.633
N225 X-119.116 Y-15.92 I-11.026 J3.195
N230 X-118.891 Y-12.882 I-29.726 J3.732
N235 X-118.807 Y-8.106 I-118.281 J4.465
N240 X-118.799 Y-3.23 I-286.843 J2.899
N245 X-119.019 Y-1.708 I-7.126 J-0.254
N250 X-119.169 Y-1.308 I-10.473 J-3.685
N255 X-121.21 Y0. I-2.041 J-0.939
N260 X-121.438 Y-0.054 I0.021 J-0.6
N265 X-121.789 Y-0.616 I0.249 J-0.546 F30000.
N270 G1 X-121.263 Y-19.417
N275 G3 X-120.912 Y-19.946 I0.6 J0.017
N280 X-120.685 Y-20. I0.249 J0.546 F900.
N285 G1 X-120.346 F1000.
N290 G3 X-120.052 Y-19.825 I-0.421 J1.047
N295 X-119.224 Y-18.858 I-1.907 J2.47
N300 X-118.535 Y-17.214 I-5.56 J3.298
N305 X-118.084 Y-14.974 I-12.686 J3.716
N310 X-117.828 Y-11.845 I-30.905 J4.101
N315 X-117.724 Y-7.085 I-107.081 J4.725
N320 X-117.745 Y-3.906 I-51.395 J1.26
N325 X-117.995 Y-2.208 I-10.253 J-0.644
N330 X-118.356 Y-1.261 I-5.334 J-1.493
N335 X-120.431 Y0. I-2.078 J-1.081
N340 X-120.658 Y-0.054 I0.021 J-0.6
N345 X-121.01 Y-0.602 I0.249 J-0.546 F30000.
N350 G1 X-120.925 Y-19.403
N355 G3 X-120.574 Y-19.946 I0.6 J0.003
N360 X-120.346 Y-20. I0.249 J0.546 F900.
N365 G1 X-119.95 F1000.
N370 G3 X-119.155 Y-19.536 I-0.547 J1.85
N375 X-118.291 Y-18.448 I-2.579 J2.935
N380 X-117.553 Y-16.676 I-6.431 J3.72
N385 X-117.046 Y-14.224 I-13.948 J4.163
N390 X-116.752 Y-10.739 I-33.298 J4.565
N395 X-116.654 Y-5.293 I-87.648 J4.287
N400 X-116.898 Y-2.93 I-15.432 J-0.396
N405 X-117.439 Y-1.334 I-6.678 J-1.375
N410 X-118.066 Y-0.536 I-2.542 J-1.352
N415 X-119.558 Y0. I-1.5 J-1.83
N420 X-119.786 Y-0.054 I0.021 J-0.6
N425 X-120.137 Y-0.587 I0.249 J-0.546 F30000.
N430 G1 X-120.529 Y-19.388
N435 G3 X-120.178 Y-19.946 I0.6 J-0.013
N440 X-119.95 Y-20. I0.249 J0.546 F900.
N445 G1 X-119.491 F1000.
N450 G3 X-118.609 Y-19.611 I-0.305 J1.887
N455 X-117.629 Y-18.578 I-2.219 J3.084
N460 X-116.772 Y-16.872 I-5.761 J3.965
N465 X-116.145 Y-14.481 I-12.152 J4.466
N470 X-115.763 Y-11.311 I-26.078 J4.742
N475 X-115.609 Y-5.701 I-56.155 J4.355
N480 X-115.859 Y-3.35 I-17.599 J-0.686
N485 X-116.38 Y-1.644 I-8.373 J-1.623
N490 X-116.827 Y-0.878 I-4.508 J-2.122
N495 X-118.136 Y-0.058 I-1.851 J-1.499
N500 G1 X-118.395 Y-0.015
N505 X-118.656 Y0.
N510 G3 X-118.884 Y-0.054 I0.021 J-0.6
N515 X-119.235 Y-0.573 I0.249 J-0.546 F30000.
N520 G1 X-120.07 Y-19.374
N525 G3 X-119.719 Y-19.946 I0.599 J-0.027
N530 X-119.491 Y-20. I0.249 J0.546 F900.
N535 G1 X-118.907 F1000.
N540 G3 X-117.855 Y-19.56 I-0.267 J2.117
N545 X-116.763 Y-18.416 I-2.522 J3.498
N550 X-115.778 Y-16.401 I-6.597 J4.473
N555 X-115.071 Y-13.394 I-15.272 J5.178
N560 X-114.689 Y-9.195 I-37.008 J5.488
N565 X-114.725 Y-4.979 I-32.033 J1.833
N570 X-115.11 Y-2.764 I-14.099 J-1.31
N575 X-115.67 Y-1.331 I-6.82 J-1.84
N580 X-116.398 Y-0.458 I-2.325 J-1.198
N585 X-117.89 Y-0.001 I-1.4 J-1.906
N590 G1 X-117.968 Y-0.008
N595 X-118.044 Y-0.026
N600 X-118.117 Y-0.054
N605 G3 X-118.468 Y-0.567 I0.249 J-0.546 F30000.
N610 G1 X-119.485 Y-19.368
N615 G3 X-119.135 Y-19.946 I0.599 J-0.032
N620 X-118.907 Y-20. I0.249 J0.546 F900.
N625 G1 X-118.3 F1000.
N630 G3 X-117.255 Y-19.644 I-0.122 J2.07
N635 X-116.145 Y-18.63 I-2.171 J3.49
N640 X-114.952 Y-16.431 I-6.09 J4.727
N645 X-114.226 Y-13.718 I-13.999 J5.198
N650 X-113.742 Y-9.247 I-32.242 J5.756
N655 X-113.801 Y-5.033 I-28.265 J1.709
N660 X-114.285 Y-2.551 I-13.736 J-1.387
N665 X-114.877 Y-1.186 I-6.387 J-1.962
N670 X-116.419 Y-0.052 I-2.056 J-1.181
N675 G1 X-116.665 Y-0.013
N680 X-116.914 Y0.
N685 X-117.789
N690 G3 X-118.016 Y-0.054 I0.021 J-0.6
N695 X-118.367 Y-0.583 I0.249 J-0.546 F30000.
N700 G1 X-118.879 Y-19.384
N705 G3 X-118.528 Y-19.946 I0.6 J-0.016
N710 X-118.3 Y-20. I0.249 J0.546 F900.
N715 G1 X-117.556 F1000.
N720 G3 X-116.461 Y-19.624 I-0.143 J2.202
N725 X-115.288 Y-18.554 I-2.289 J3.685
N730 X-114.073 Y-16.349 I-6.351 J4.938
N735 X-113.262 Y-13.369 I-14.579 J5.566
N740 X-112.759 Y-8.055 I-31.379 J5.651
N745 X-113.013 Y-4.13 I-21.724 J0.564
N750 X-113.606 Y-1.963 I-11.215 J-1.904
N755 X-114.139 Y-0.966 I-5.091 J-2.079
N760 X-116.03 Y0. I-1.893 J-1.371
N765 G1 X-116.914
N770 G3 X-117.141 Y-0.054 I0.021 J-0.6
N775 X-117.492 Y-0.579 I0.249 J-0.546 F30000.
N780 G1 X-118.135 Y-19.38
N785 G3 X-117.784 Y-19.946 I0.6 J-0.02
N790 X-117.556 Y-20. I0.249 J0.546 F900.
N795 G1 X-116.792 F1000.
N800 G3 X-115.644 Y-19.607 I-0.144 J2.292
N805 X-114.422 Y-18.49 I-2.393 J3.847
N810 X-113.191 Y-16.289 I-6.581 J5.123
N815 X-112.347 Y-13.317 I-14.632 J5.761
N820 X-111.894 Y-5.758 I-28.674 J5.513
N825 X-112.365 Y-2.988 I-16.478 J-1.378
N830 X-113.054 Y-1.27 I-7.706 J-2.093
N835 X-113.937 Y-0.334 I-2.276 J-1.265
N840 X-115.145 Y0. I-1.215 J-2.038
N845 G1 X-116.03
N850 G3 X-116.258 Y-0.054 I0.021 J-0.6
N855 X-116.609 Y-0.575 I0.249 J-0.546 F30000.
N860 G1 X-117.37 Y-19.376
N865 G3 X-117.02 Y-19.946 I0.6 J-0.024
N870 X-116.792 Y-20. I0.249 J0.546 F900.
N875 G1 X-116.027 F1000.
N880 G3 X-114.815 Y-19.593 I-0.115 J2.353
N885 X-113.725 Y-18.649 I-2.318 J3.779
N890 X-112.415 Y-16.498 I-6.147 J5.217
N895 X-111.491 Y-13.551 I-13.726 J5.919
N900 X-110.98 Y-5.72 I-26.504 J5.662
N905 X-111.555 Y-2.685 I-15.55 J-1.372
N910 X-112.175 Y-1.25 I-7.291 J-2.301
N915 X-113.056 Y-0.328 I-2.234 J-1.253
N920 X-114.253 Y0. I-1.203 J-2.039
N925 G1 X-115.145
N930 G3 X-115.373 Y-0.054 I0.021 J-0.6
N935 X-115.723 Y-0.572 I0.249 J-0.546 F30000.
N940 G1 X-116.606 Y-19.372
N945 G3 X-116.255 Y-19.946 I0.599 J-0.028
N950 X-116.027 Y-20. I0.249 J0.546 F900.
N955 G1 X-115.217 F1000.
N960 G3 X-113.975 Y-19.584 I-0.118 J2.413
N965 X-112.849 Y-18.609 I-2.389 J3.897
N970 X-111.528 Y-16.461 I-6.316 J5.364
N975 X-110.521 Y-13.247 I-14.101 J6.185
N980 X-110.067 Y-5.694 I-25.207 J5.305
N985 X-110.661 Y-2.663 I-15.462 J-1.457
N990 X-111.29 Y-1.231 I-7.276 J-2.345
N995 X-112.168 Y-0.324 I-2.212 J-1.262
N1000 X-113.358 Y0. I-1.196 J-2.041
N1005 G1 X-114.253
N1010 G3 X-114.481 Y-0.054 I0.021 J-0.6
N1015 X-114.832 Y-0.569 I0.249 J-0.546 F30000.
N1020 G1 X-115.795 Y-19.37
N1025 G3 X-115.445 Y-19.946 I0.599 J-0.031
N1030 X-115.217 Y-20. I0.249 J0.546 F900.
N1035 G1 X-114.371 F1000.
N1040 G3 X-113.124 Y-19.576 I-0.143 J2.469
N1045 X-111.967 Y-18.575 I-2.458 J4.007
N1050 X-110.638 Y-16.431 I-6.467 J5.495
N1055 X-109.608 Y-13.224 I-14.057 J6.283
N1060 X-109.184 Y-5.394 I-24.114 J5.233
N1065 X-109.765 Y-2.645 I-15.227 J-1.782
N1070 X-110.4 Y-1.217 I-7.187 J-2.343
N1075 X-111.275 Y-0.321 I-2.194 J-1.267
N1080 X-112.459 Y0. I-1.19 J-2.042
N1085 G1 X-113.358
N1090 G3 X-113.586 Y-0.054 I0.021 J-0.6
N1095 X-113.936 Y-0.567 I0.249 J-0.546 F30000.
N1100 G1 X-114.95 Y-19.368
N1105 G3 X-114.599 Y-19.946 I0.599 J-0.032
N1110 X-114.371 Y-20. I0.249 J0.546 F900.
N1115 G1 X-113.553 F1000.
N1120 G3 X-112.399 Y-19.65 I-0.1 J2.403
N1125 X-111.08 Y-18.543 I-2.344 J4.135
N1130 X-109.743 Y-16.404 I-6.556 J5.584
N1135 X-108.637 Y-12.928 I-14.312 J6.47
N1140 X-108.274 Y-5.374 I-23.414 J4.909
N1145 X-108.867 Y-2.628 I-15.112 J-1.824
N1150 X-109.508 Y-1.204 I-7.154 J-2.362
N1155 X-110.599 Y-0.205 I-2.133 J-1.235
N1160 X-111.559 Y0. I-0.967 J-2.178
N1165 G1 X-112.459
N1170 G3 X-112.687 Y-0.054 I0.021 J-0.6
N1175 X-113.038 Y-0.565 I0.249 J-0.546 F30000.
N1180 G1 X-114.131 Y-19.366
N1185 G3 X-113.78 Y-19.946 I0.599 J-0.035
N1190 X-113.553 Y-20. I0.249 J0.546 F900.
N1195 G1 X-112.697 F1000.
N1200 G3 X-111.533 Y-19.645 I-0.107 J2.439
N1205 X-110.191 Y-18.521 I-2.385 J4.209
N1210 X-108.848 Y-16.386 I-6.651 J5.675
N1215 X-107.725 Y-12.915 I-14.233 J6.523
N1220 X-107.364 Y-5.362 I-22.852 J4.875
N1225 X-107.965 Y-2.618 I-15.027 J-1.853
N1230 X-108.61 Y-1.195 I-7.135 J-2.376
N1235 X-109.13 Y-0.568 I-2.354 J-1.419
N1240 X-110.656 Y0. I-1.528 J-1.772
N1245 G1 X-111.559
N1250 G3 X-111.787 Y-0.054 I0.021 J-0.6
N1255 X-112.137 Y-0.563 I0.249 J-0.546 F30000.
N1260 G1 X-113.275 Y-19.364
N1265 G3 X-112.925 Y-19.946 I0.599 J-0.036
N1270 X-112.697 Y-20. I0.249 J0.546 F900.
N1275 G1 X-111.852 F1000.
N1280 G3 X-110.659 Y-19.64 I-0.094 J2.469
N1285 X-109.298 Y-18.501 I-2.418 J4.27
N1290 X-107.949 Y-16.369 I-6.728 J5.751
N1295 X-106.813 Y-12.903 I-14.163 J6.563
N1300 X-106.491 Y-5.073 I-22.352 J4.841
N1305 X-107.063 Y-2.609 I-14.897 J-2.16
N1310 X-107.716 Y-1.179 I-7.039 J-2.352
N1315 X-108.23 Y-0.565 I-2.38 J-1.469
N1320 X-109.752 Y0. I-1.522 J-1.769
N1325 G1 X-110.656
N1330 G3 X-110.884 Y-0.054 I0.021 J-0.6
N1335 X-111.234 Y-0.562 I0.249 J-0.546 F30000.
N1340 G1 X-112.43 Y-19.362
N1345 G3 X-112.08 Y-19.946 I0.599 J-0.038
N1350 X-111.852 Y-20. I0.249 J0.546 F900.
N1355 G1 X-110.952 F1000.
N1360 G3 X-109.781 Y-19.638 I-0.13 J2.498
N1365 X-108.403 Y-18.485 I-2.452 J4.329
N1370 X-106.932 Y-16.101 I-7.022 J5.977
N1375 X-105.843 Y-12.618 I-14.675 J6.5
N1380 X-105.582 Y-5.064 I-22.091 J4.547
N1385 X-106.158 Y-2.602 I-14.846 J-2.178
N1390 X-106.815 Y-1.173 I-7.022 J-2.36
N1395 X-107.328 Y-0.562 I-2.32 J-1.425
N1400 X-108.847 Y0. I-1.521 J-1.778
N1405 G1 X-109.752
N1410 G3 X-109.98 Y-0.054 I0.021 J-0.6
N1415 X-110.33 Y-0.561 I0.249 J-0.546 F30000.
N1420 G1 X-111.53 Y-19.362
N1425 G3 X-111.18 Y-19.946 I0.599 J-0.038
N1430 X-110.952 Y-20. I0.249 J0.546 F900.
N1435 G1 X-110.089 F1000.
N1440 G3 X-108.895 Y-19.635 I-0.118 J2.516
N1445 X-107.505 Y-18.471 I-2.475 J4.371
N1450 X-106.029 Y-16.089 I-7.073 J6.029
N1455 X-104.932 Y-12.61 I-14.613 J6.522
N1460 X-104.673 Y-5.057 I-21.835 J4.531
N1465 X-105.348 Y-2.331 I-14.156 J-2.06
N1470 X-106.05 Y-0.963 I-6.021 J-2.227
N1475 X-107.941 Y0. I-1.896 J-1.385
N1480 G1 X-108.847
N1485 G3 X-109.075 Y-0.054 I0.021 J-0.6
N1490 X-109.425 Y-0.56 I0.249 J-0.546 F30000.
N1495 G1 X-110.667 Y-19.361
N1500 G3 X-110.317 Y-19.946 I0.599 J-0.04
N1505 X-110.089 Y-20. I0.249 J0.546 F900.
N1510 G1 X-109.234 F1000.
N1515 G3 X-108.005 Y-19.631 I-0.092 J2.534
N1520 X-106.604 Y-18.459 I-2.493 J4.405
N1525 X-105.125 Y-16.079 I-7.115 J6.071
N1530 X-104.021 Y-12.602 I-14.563 J6.538
N1535 X-103.764 Y-5.049 I-21.633 J4.518
N1540 X-104.443 Y-2.324 I-14.115 J-2.07
N1545 X-105.145 Y-0.96 I-6.011 J-2.232
N1550 X-107.034 Y0. I-1.894 J-1.388
N1555 G1 X-107.941
N1560 G3 X-108.169 Y-0.054 I0.021 J-0.6
N1565 X-108.519 Y-0.558 I0.249 J-0.546 F30000.
N1570 G1 X-109.811 Y-19.359
N1575 G3 X-109.461 Y-19.946 I0.599 J-0.041
N1580 X-109.234 Y-20. I0.249 J0.546 F900.
N1585 G1 X-108.334 F1000.
N1590 G3 X-107.113 Y-19.629 I-0.109 J2.55
N1595 X-105.702 Y-18.45 I-2.512 J4.439
N1600 X-104.22 Y-16.071 I-7.151 J6.107
N1605 X-103.111 Y-12.596 I-14.522 J6.552
N1610 X-102.855 Y-5.044 I-21.472 J4.508
N1615 X-103.537 Y-2.319 I-14.083 J-2.078
N1620 X-104.239 Y-0.958 I-6.003 J-2.236
N1625 X-106.127 Y0. I-1.892 J-1.389
N1630 G1 X-107.034
N1635 G3 X-107.262 Y-0.054 I0.021 J-0.6
N1640 X-107.612 Y-0.558 I0.249 J-0.546 F30000.
N1645 G1 X-108.911 Y-19.359
N1650 G3 X-108.562 Y-19.946 I0.599 J-0.041
N1655 X-108.334 Y-20. I0.249 J0.546 F900.
N1660 G1 X-107.434 F1000.
N1665 G3 X-106.218 Y-19.628 I-0.12 J2.564
N1670 X-104.8 Y-18.443 I-2.526 J4.465
N1675 X-103.316 Y-16.066 I-7.176 J6.135
N1680 X-102.146 Y-12.317 I-14.745 J6.659
N1685 X-101.946 Y-5.041 I-21.362 J4.228
N1690 X-102.629 Y-2.317 I-14.044 J-2.078
N1695 X-103.333 Y-0.956 I-5.997 J-2.237
N1700 X-105.219 Y0. I-1.891 J-1.391
N1705 G1 X-106.127
N1710 G3 X-106.355 Y-0.054 I0.021 J-0.6
N1715 X-106.704 Y-0.558 I0.249 J-0.546 F30000.
N1720 G1 X-108.012 Y-19.359
N1725 G3 X-107.662 Y-19.946 I0.599 J-0.042
N1730 X-107.434 Y-20. I0.249 J0.546 F900.
N1735 G1 X-106.534 F1000.
N1740 G3 X-105.321 Y-19.627 I-0.129 J2.575
N1745 X-103.898 Y-18.438 I-2.538 J4.486
N1750 X-102.41 Y-16.063 I-7.196 J6.159
N1755 X-101.236 Y-12.314 I-14.712 J6.668
N1760 X-101.079 Y-4.761 I-21.193 J4.218
N1765 X-101.722 Y-2.315 I-13.906 J-2.348
N1770 X-102.425 Y-0.956 I-5.954 J-2.217
N1775 X-104.311 Y0. I-1.89 J-1.391
N1780 G1 X-105.219
N1785 G3 X-105.447 Y-0.054 I0.021 J-0.6
N1790 X-105.796 Y-0.558 I0.249 J-0.546 F30000.
N1795 G1 X-107.112 Y-19.358
N1800 G3 X-106.762 Y-19.946 I0.599 J-0.042
N1805 X-106.534 Y-20. I0.249 J0.546 F900.
N1810 G1 X-105.634 F1000.
N1815 G3 X-104.421 Y-19.626 I-0.134 J2.584
N1820 X-102.994 Y-18.433 I-2.548 J4.503
N1825 X-101.505 Y-16.059 I-7.213 J6.178
N1830 X-100.327 Y-12.312 I-14.685 J6.676
N1835 X-100.17 Y-4.759 I-21.114 J4.216
N1840 X-100.814 Y-2.314 I-13.887 J-2.349
N1845 X-101.517 Y-0.955 I-5.952 J-2.218
N1850 X-103.402 Y0. I-1.89 J-1.392
N1855 G1 X-104.311
N1860 G3 X-104.538 Y-0.054 I0.021 J-0.6
N1865 X-104.888 Y-0.557 I0.249 J-0.546 F30000.
N1870 G1 X-106.212 Y-19.358
N1875 G3 X-105.862 Y-19.946 I0.599 J-0.042
N1880 X-105.634 Y-20. I0.249 J0.546 F900.
N1885 G1 X-104.735 F1000.
N1890 G3 X-103.52 Y-19.625 I-0.136 J2.592
N1895 X-102.089 Y-18.43 I-2.556 J4.517
N1900 X-100.598 Y-16.057 I-7.227 J6.194
N1905 X-99.417 Y-12.311 I-14.664 J6.682
N1910 X-99.261 Y-4.757 I-21.051 J4.214
N1915 X-99.905 Y-2.313 I-13.869 J-2.349
N1920 X-100.609 Y-0.954 I-5.95 J-2.219
N1925 X-102.493 Y0. I-1.889 J-1.392
N1930 G1 X-103.402
N1935 G3 X-103.63 Y-0.054 I0.021 J-0.6
N1940 X-103.98 Y-0.557 I0.249 J-0.546 F30000.
N1945 G1 X-105.312 Y-19.358
N1950 G3 X-104.963 Y-19.946 I0.598 J-0.042
N1955 X-104.735 Y-20. I0.249 J0.546 F900.
N1960 G1 X-103.835 F1000.
N1965 G3 X-102.618 Y-19.624 I-0.136 J2.597
N1970 X-101.183 Y-18.427 I-2.562 J4.528
N1975 X-99.691 Y-16.055 I-7.237 J6.207
N1980 X-98.508 Y-12.309 I-14.647 J6.688
N1985 X-98.352 Y-4.756 I-21. J4.213
N1990 X-98.997 Y-2.312 I-13.857 J-2.35
N1995 X-99.7 Y-0.954 I-5.947 J-2.22
N2000 X-101.584 Y0. I-1.889 J-1.393
N2005 G1 X-102.493
N2010 G3 X-102.721 Y-0.054 I0.021 J-0.6
N2015 X-103.071 Y-0.557 I0.249 J-0.546 F30000.
N2020 G1 X-104.412 Y-19.358
N2025 G3 X-104.063 Y-19.946 I0.598 J-0.043
N2030 X-103.835 Y-20. I0.249 J0.546 F900.
N2035 G1 X-102.935 F1000.
N2040 G3 X-101.714 Y-19.623 I-0.135 J2.602
N2045 X-100.277 Y-18.424 I-2.567 J4.537
N2050 X-98.784 Y-16.053 I-7.247 J6.218
N2055 X-97.599 Y-12.308 I-14.635 J6.692
N2060 X-97.442 Y-4.755 I-20.959 J4.213
N2065 X-98.088 Y-2.311 I-13.846 J-2.35
N2070 X-98.792 Y-0.953 I-5.946 J-2.221
N2075 X-100.675 Y0. I-1.888 J-1.393
N2080 G1 X-101.584
N2085 G3 X-101.812 Y-0.054 I0.021 J-0.6
N2090 X-102.162 Y-0.557 I0.249 J-0.546 F30000.
N2095 G1 X-103.513 Y-19.357
N2100 G3 X-103.163 Y-19.946 I0.598 J-0.043
N2105 X-102.935 Y-20. I0.249 J0.546 F900.
N2110 G1 X-102.035 F1000.
N2115 G3 X-100.81 Y-19.622 I-0.132 J2.605
N2120 X-99.371 Y-18.422 I-2.57 J4.544
N2125 X-97.877 Y-16.051 I-7.254 J6.227
N2130 X-96.69 Y-12.307 I-14.624 J6.696
N2135 X-96.533 Y-4.754 I-20.926 J4.213
N2140 X-97.179 Y-2.31 I-13.838 J-2.35
N2145 X-97.883 Y-0.953 I-5.944 J-2.222
N2150 X-99.766 Y0. I-1.888 J-1.394
N2155 G1 X-100.515
N2160 G3 X-100.743 Y-0.054 I0.021 J-0.6
N2165 X-101.092 Y-0.551 I0.249 J-0.546 F30000.
N2170 G1 X-102.612 Y-19.352
N2175 G3 X-102.263 Y-19.946 I0.598 J-0.048
N2180 X-102.035 Y-20. I0.249 J0.546 F900.
N2185 G1 X-101.135 F1000.
N2190 G3 X-99.905 Y-19.622 I-0.128 J2.607
N2195 X-98.464 Y-18.42 I-2.573 J4.549
N2200 X-96.97 Y-16.049 I-7.26 J6.234
N2205 X-95.781 Y-12.306 I-14.615 J6.7
N2210 X-95.624 Y-4.753 I-20.898 J4.213
N2215 X-96.27 Y-2.309 I-13.83 J-2.35
N2220 X-96.974 Y-0.952 I-5.942 J-2.222
N2225 X-98.857 Y0. I-1.888 J-1.394
N2230 G1 X-99.615
N2235 G3 X-99.843 Y-0.054 I0.021 J-0.6
N2240 X-100.192 Y-0.551 I0.249 J-0.546 F30000.
N2245 G1 X-101.713 Y-19.352
N2250 G3 X-101.363 Y-19.946 I0.598 J-0.048
N2255 X-101.135 Y-20. I0.249 J0.546 F900.
N2260 G1 X-100.236 F1000.
N2265 G3 X-98.999 Y-19.621 I-0.123 J2.61
N2270 X-97.557 Y-18.419 I-2.575 J4.553
N2275 X-96.062 Y-16.048 I-7.265 J6.24
N2280 X-94.872 Y-12.305 I-14.609 J6.703
N2285 X-94.715 Y-4.752 I-20.876 J4.213
N2290 X-95.361 Y-2.308 I-13.822 J-2.35
N2295 X-96.065 Y-0.952 I-5.94 J-2.222
N2300 X-97.948 Y0. I-1.888 J-1.394
N2305 G1 X-98.715
N2310 G3 X-98.943 Y-0.054 I0.021 J-0.6
N2315 X-99.292 Y-0.551 I0.249 J-0.546 F30000.
N2320 G1 X-100.813 Y-19.352
N2325 G3 X-100.464 Y-19.946 I0.598 J-0.048
N2330 X-100.236 Y-20. I0.249 J0.546 F900.
N2335 G1 X-99.336 F1000.
N2340 G3 X-98.092 Y-19.62 I-0.118 J2.612
N2345 X-96.65 Y-18.417 I-2.577 J4.557
N2350 X-95.154 Y-16.047 I-7.269 J6.244
N2355 X-93.963 Y-12.304 I-14.604 J6.706
N2360 X-93.805 Y-4.752 I-20.858 J4.214
N2365 X-94.452 Y-2.307 I-13.817 J-2.349
N2370 X-95.156 Y-0.952 I-5.939 J-2.222
N2375 X-97.039 Y0. I-1.887 J-1.394
N2380 G1 X-97.815
N2385 G3 X-98.043 Y-0.054 I0.021 J-0.6
N2390 X-98.392 Y-0.551 I0.249 J-0.546 F30000.
N2395 G1 X-99.913 Y-19.352
N2400 G3 X-99.564 Y-19.946 I0.598 J-0.048
N2405 X-99.336 Y-20. I0.249 J0.546 F900.
N2410 G1 X-98.436 F1000.
N2415 G3 X-97.186 Y-19.62 I-0.112 J2.613
N2420 X-95.742 Y-18.416 I-2.578 J4.56
N2425 X-94.246 Y-16.046 I-7.272 J6.248
N2430 X-93.055 Y-12.303 I-14.6 J6.708
N2435 X-92.896 Y-4.751 I-20.843 J4.215
N2440 X-93.543 Y-2.307 I-13.813 J-2.349
N2445 X-94.247 Y-0.952 I-5.938 J-2.222
N2450 X-96.129 Y0. I-1.887 J-1.394
N2455 G1 X-96.915
N2460 G3 X-97.143 Y-0.054 I0.021 J-0.6
N2465 X-97.493 Y-0.551 I0.249 J-0.546 F30000.
N2470 G1 X-99.013 Y-19.352
N2475 G3 X-98.664 Y-19.946 I0.598 J-0.048
N2480 X-98.436 Y-20. I0.249 J0.546 F900.
N2485 G1 X-97.536 F1000.
N2490 G3 X-96.279 Y-19.619 I-0.105 J2.615
N2495 X-94.834 Y-18.415 I-2.579 J4.562
N2500 X-93.338 Y-16.045 I-7.275 J6.252
N2505 X-92.146 Y-12.303 I-14.597 J6.71
N2510 X-91.987 Y-4.75 I-20.831 J4.215
N2515 X-92.634 Y-2.306 I-13.808 J-2.349
N2520 X-93.338 Y-0.952 I-5.936 J-2.222
N2525 X-95.22 Y0. I-1.887 J-1.395
N2530 G1 X-96.016
N2535 G3 X-96.244 Y-0.054 I0.021 J-0.6
N2540 X-96.593 Y-0.551 I0.249 J-0.546 F30000.
N2545 G1 X-98.113 Y-19.352
N2550 G3 X-97.764 Y-19.946 I0.598 J-0.048
N2555 X-97.536 Y-20. I0.249 J0.546 F900.
N2560 G1 X-96.637 F1000.
N2565 G3 X-95.371 Y-19.619 I-0.099 J2.618
N2570 X-93.926 Y-18.414 I-2.581 J4.564
N2575 X-92.429 Y-16.044 I-7.278 J6.255
N2580 X-91.237 Y-12.302 I-14.594 J6.712
N2585 X-91.078 Y-4.75 I-20.821 J4.216
N2590 X-91.725 Y-2.306 I-13.805 J-2.348
N2595 X-92.428 Y-0.951 I-5.934 J-2.222
N2600 X-94.311 Y0. I-1.887 J-1.395
N2605 G1 X-95.22
N2610 G3 X-95.448 Y-0.054 I0.021 J-0.6
N2615 X-95.798 Y-0.555 I0.249 J-0.546 F30000.
N2620 G1 X-97.214 Y-19.355
N2625 G3 X-96.864 Y-19.946 I0.598 J-0.045
N2630 X-96.637 Y-20. I0.249 J0.546 F900.
N2635 G1 X-95.737 F1000.
N2640 G3 X-94.464 Y-19.618 I-0.092 J2.62
N2645 X-93.018 Y-18.413 I-2.582 J4.566
N2650 X-91.521 Y-16.044 I-7.28 J6.257
N2655 X-90.328 Y-12.301 I-14.593 J6.714
N2660 X-90.169 Y-4.749 I-20.812 J4.217
N2665 X-90.816 Y-2.305 I-13.801 J-2.348
N2670 X-91.519 Y-0.951 I-5.933 J-2.222
N2675 X-93.402 Y0. I-1.887 J-1.395
N2680 G1 X-94.311
N2685 G3 X-94.539 Y-0.054 I0.021 J-0.6
N2690 X-94.888 Y-0.554 I0.249 J-0.546 F30000.
N2695 G1 X-96.314 Y-19.355
N2700 G3 X-95.965 Y-19.946 I0.598 J-0.045
N2705 X-95.737 Y-20. I0.249 J0.546 F900.
N2710 G1 X-94.792 F1000.
N2715 G3 X-93.558 Y-19.62 I-0.132 J2.623
N2720 X-92.111 Y-18.413 I-2.587 J4.574
N2725 X-90.613 Y-16.044 I-7.284 J6.262
N2730 X-89.42 Y-12.302 I-14.591 J6.716
N2735 X-89.259 Y-4.75 I-20.806 J4.219
N2740 X-89.907 Y-2.306 I-13.802 J-2.347
N2745 X-90.61 Y-0.952 I-5.934 J-2.221
N2750 X-92.492 Y0. I-1.887 J-1.395
N2755 G1 X-93.402
N2760 G3 X-93.63 Y-0.054 I0.021 J-0.6
N2765 X-93.979 Y-0.555 I0.249 J-0.546 F30000.
N2770 G1 X-95.37 Y-19.356
N2775 G3 X-95.02 Y-19.946 I0.598 J-0.044
N2780 X-94.792 Y-20. I0.249 J0.546 F900.
N2785 G1 X-93.893 F1000.
N2790 G3 X-92.649 Y-19.619 I-0.123 J2.62
N2795 X-91.202 Y-18.413 I-2.586 J4.573
N2800 X-89.705 Y-16.044 I-7.286 J6.263
N2805 X-88.511 Y-12.302 I-14.59 J6.718
N2810 X-88.35 Y-4.75 I-20.8 J4.22
N2815 X-88.997 Y-2.306 I-13.801 J-2.347
N2820 X-89.701 Y-0.951 I-5.935 J-2.221
N2825 X-91.583 Y0. I-1.887 J-1.395
N2830 G1 X-92.492
N2835 G3 X-92.72 Y-0.054 I0.021 J-0.6
N2840 X-93.07 Y-0.555 I0.249 J-0.546 F30000.
N2845 G1 X-94.47 Y-19.356
N2850 G3 X-94.121 Y-19.946 I0.598 J-0.045
N2855 X-93.893 Y-20. I0.249 J0.546 F900.
N2860 G1 X-92.956 F1000.
N2865 G3 X-91.742 Y-19.621 I-0.156 J2.631
N2870 X-90.295 Y-18.414 I-2.593 J4.582
N2875 X-88.797 Y-16.045 I-7.29 J6.267
N2880 X-87.602 Y-12.303 I-14.59 J6.72
N2885 X-87.441 Y-4.751 I-20.796 J4.222
N2890 X-88.088 Y-2.307 I-13.802 J-2.345
N2895 X-88.791 Y-0.952 I-5.936 J-2.221
N2900 X-90.674 Y0. I-1.887 J-1.394
N2905 G1 X-91.583
N2910 G3 X-91.811 Y-0.054 I0.021 J-0.6
N2915 X-92.161 Y-0.556 I0.249 J-0.546 F30000.
N2920 G1 X-93.534 Y-19.357
N2925 G3 X-93.184 Y-19.946 I0.598 J-0.044
N2930 X-92.956 Y-20. I0.249 J0.546 F900.
N2935 G1 X-92.057 F1000.
N2940 G3 X-90.834 Y-19.62 I-0.145 J2.625
N2945 X-89.386 Y-18.413 I-2.591 J4.58
N2950 X-87.888 Y-16.045 I-7.29 J6.268
N2955 X-86.693 Y-12.303 I-14.59 J6.721
N2960 X-86.532 Y-4.751 I-20.792 J4.223
N2965 X-87.179 Y-2.307 I-13.8 J-2.345
N2970 X-87.882 Y-0.952 I-5.935 J-2.221
N2975 X-89.765 Y0. I-1.887 J-1.394
N2980 G1 X-90.674
N2985 G3 X-90.902 Y-0.054 I0.021 J-0.6
N2990 X-91.251 Y-0.556 I0.249 J-0.546 F30000.
N2995 G1 X-92.634 Y-19.356
N3000 G3 X-92.285 Y-19.946 I0.598 J-0.044
N3005 X-92.057 Y-20. I0.249 J0.546 F900.
N3010 G1 X-91.157 F1000.
N3015 G3 X-89.926 Y-19.62 I-0.136 J2.623
N3020 X-88.478 Y-18.413 I-2.589 J4.578
N3025 X-86.98 Y-16.044 I-7.291 J6.268
N3030 X-85.785 Y-12.303 I-14.59 J6.723
N3035 X-85.623 Y-4.75 I-20.789 J4.223
N3040 X-86.27 Y-2.306 I-13.798 J-2.344
N3045 X-86.973 Y-0.952 I-5.935 J-2.221
N3050 X-88.855 Y0. I-1.887 J-1.395
N3055 G1 X-89.765
N3060 G3 X-89.993 Y-0.054 I0.021 J-0.6
N3065 X-90.342 Y-0.555 I0.249 J-0.546 F30000.
N3070 G1 X-91.734 Y-19.356
N3075 G3 X-91.385 Y-19.946 I0.598 J-0.044
N3080 X-91.157 Y-20. I0.249 J0.546 F900.
N3085 G1 X-90.257 F1000.
N3090 G3 X-89.017 Y-19.619 I-0.126 J2.622
N3095 X-87.569 Y-18.412 I-2.588 J4.577
N3100 X-86.071 Y-16.044 I-7.291 J6.269
N3105 X-84.876 Y-12.302 I-14.59 J6.723
N3110 X-84.714 Y-4.75 I-20.786 J4.224
N3115 X-85.361 Y-2.306 I-13.796 J-2.344
N3120 X-86.064 Y-0.952 I-5.934 J-2.221
N3125 X-87.946 Y0. I-1.887 J-1.395
N3130 G1 X-88.855
N3135 G3 X-89.083 Y-0.054 I0.021 J-0.6
N3140 X-89.433 Y-0.555 I0.249 J-0.546 F30000.
N3145 G1 X-90.834 Y-19.356
N3150 G3 X-90.485 Y-19.946 I0.598 J-0.045
N3155 X-90.257 Y-20. I0.249 J0.546 F900.
N3160 G1 X-89.357 F1000.
N3165 G3 X-88.108 Y-19.619 I-0.117 J2.621
N3170 X-86.66 Y-18.412 I-2.587 J4.576
N3175 X-85.162 Y-16.043 I-7.291 J6.269
N3180 X-83.967 Y-12.302 I-14.591 J6.724
N3185 X-83.805 Y-4.75 I-20.784 J4.224
N3190 X-84.452 Y-2.306 I-13.795 J-2.344
N3195 X-85.155 Y-0.951 I-5.933 J-2.221
N3200 X-87.037 Y0. I-1.887 J-1.395
N3205 G1 X-87.946
N3210 G3 X-88.174 Y-0.054 I0.021 J-0.6
N3215 X-88.524 Y-0.555 I0.249 J-0.546 F30000.
N3220 G1 X-89.935 Y-19.355
N3225 G3 X-89.585 Y-19.946 I0.598 J-0.045
N3230 X-89.357 Y-20. I0.249 J0.546 F900.
N3235 G1 X-88.457 F1000.
N3240 G3 X-87.2 Y-19.618 I-0.109 J2.622
N3245 X-85.752 Y-18.411 I-2.587 J4.576
N3250 X-84.254 Y-16.043 I-7.291 J6.27
N3255 X-83.058 Y-12.301 I-14.59 J6.725
N3260 X-82.896 Y-4.749 I-20.782 J4.225
N3265 X-83.543 Y-2.305 I-13.793 J-2.344
N3270 X-84.245 Y-0.951 I-5.932 J-2.221
N3275 X-86.128 Y0. I-1.887 J-1.395
N3280 G1 X-87.037
N3285 G3 X-87.265 Y-0.054 I0.021 J-0.6
N3290 X-87.614 Y-0.554 I0.249 J-0.546 F30000.
N3295 G1 X-89.035 Y-19.355
N3300 G3 X-88.685 Y-19.946 I0.598 J-0.045
N3305 X-88.457 Y-20. I0.249 J0.546 F900.
N3310 G1 X-87.558 F1000.
N3315 G3 X-86.291 Y-19.618 I-0.1 J2.623
N3320 X-84.843 Y-18.411 I-2.587 J4.576
N3325 X-83.345 Y-16.042 I-7.292 J6.27
N3330 X-82.149 Y-12.301 I-14.591 J6.725
N3335 X-81.987 Y-4.749 I-20.78 J4.225
N3340 X-82.634 Y-2.305 I-13.791 J-2.343
N3345 X-83.336 Y-0.951 I-5.931 J-2.22
N3350 X-85.219 Y0. I-1.887 J-1.395
N3355 G1 X-86.128
N3360 G3 X-86.356 Y-0.054 I0.021 J-0.6
N3365 X-86.705 Y-0.554 I0.249 J-0.546 F30000.
N3370 G1 X-88.135 Y-19.355
N3375 G3 X-87.786 Y-19.946 I0.598 J-0.045
N3380 X-87.558 Y-20. I0.249 J0.546 F900.
N3385 G1 X-86.658 F1000.
N3390 G3 X-85.382 Y-19.617 I-0.092 J2.625
N3395 X-83.934 Y-18.41 I-2.587 J4.576
N3400 X-82.436 Y-16.042 I-7.292 J6.271
N3405 X-81.24 Y-12.3 I-14.591 J6.726
N3410 X-81.078 Y-4.748 I-20.779 J4.225
N3415 X-81.725 Y-2.304 I-13.79 J-2.343
N3420 X-82.427 Y-0.951 I-5.93 J-2.22
N3425 X-84.31 Y0. I-1.887 J-1.395
N3430 G1 X-85.219
N3435 G3 X-85.447 Y-0.054 I0.021 J-0.6
N3440 X-85.796 Y-0.554 I0.249 J-0.546 F30000.
N3445 G1 X-87.235 Y-19.355
N3450 G3 X-86.886 Y-19.946 I0.598 J-0.046
N3455 X-86.658 Y-20. I0.249 J0.546 F900.
N3460 G1 X-85.704 F1000.
N3465 G3 X-84.476 Y-19.619 I-0.142 J2.63
N3470 X-83.026 Y-18.411 I-2.593 J4.584
N3475 X-81.528 Y-16.043 I-7.295 J6.274
N3480 X-80.332 Y-12.302 I-14.591 J6.728
N3485 X-80.168 Y-4.75 I-20.777 J4.227
N3490 X-80.815 Y-2.306 I-13.793 J-2.342
N3495 X-81.518 Y-0.952 I-5.932 J-2.22
N3500 X-83.4 Y0. I-1.887 J-1.395
N3505 G1 X-84.31
N3510 G3 X-84.537 Y-0.054 I0.021 J-0.6
N3515 X-84.887 Y-0.555 I0.249 J-0.546 F30000.
N3520 G1 X-86.281 Y-19.356
N3525 G3 X-85.932 Y-19.946 I0.598 J-0.044
N3530 X-85.704 Y-20. I0.249 J0.546 F900.
N3535 G1 X-84.804 F1000.
N3540 G3 X-83.567 Y-19.619 I-0.131 J2.625
N3545 X-82.118 Y-18.411 I-2.591 J4.582
N3550 X-80.619 Y-16.043 I-7.295 J6.274
N3555 X-79.423 Y-12.302 I-14.591 J6.728
N3560 X-79.259 Y-4.75 I-20.776 J4.228
N3565 X-79.906 Y-2.306 I-13.792 J-2.342
N3570 X-80.609 Y-0.952 I-5.932 J-2.22
N3575 X-82.491 Y0. I-1.887 J-1.395
N3580 G1 X-83.239
N3585 G3 X-83.467 Y-0.054 I0.021 J-0.6
N3590 X-83.816 Y-0.55 I0.249 J-0.546 F30000.
N3595 G1 X-85.381 Y-19.351
N3600 G3 X-85.032 Y-19.946 I0.598 J-0.05
N3605 X-84.804 Y-20. I0.249 J0.546 F900.
N3610 G1 X-83.904 F1000.
N3615 G3 X-82.658 Y-19.619 I-0.121 J2.623
N3620 X-81.209 Y-18.411 I-2.59 J4.58
N3625 X-79.71 Y-16.043 I-7.295 J6.274
N3630 X-78.514 Y-12.301 I-14.591 J6.729
N3635 X-78.35 Y-4.749 I-20.775 J4.229
N3640 X-78.997 Y-2.305 I-13.791 J-2.342
N3645 X-79.7 Y-0.952 I-5.931 J-2.22
N3650 X-81.582 Y0. I-1.887 J-1.395
N3655 G1 X-82.339
N3660 G3 X-82.567 Y-0.054 I0.021 J-0.6
N3665 X-82.916 Y-0.55 I0.249 J-0.546 F30000.
N3670 G1 X-84.481 Y-19.351
N3675 G3 X-84.132 Y-19.946 I0.598 J-0.05
N3680 X-83.904 Y-20. I0.249 J0.546 F900.
N3685 G1 X-83.004 F1000.
N3690 G3 X-81.749 Y-19.618 I-0.112 J2.623
N3695 X-80.3 Y-18.411 I-2.589 J4.579
N3700 X-78.802 Y-16.042 I-7.295 J6.274
N3705 X-77.605 Y-12.301 I-14.592 J6.729
N3710 X-77.441 Y-4.749 I-20.774 J4.229
N3715 X-78.088 Y-2.305 I-13.79 J-2.342
N3720 X-78.791 Y-0.951 I-5.931 J-2.22
N3725 X-80.673 Y0. I-1.887 J-1.395
N3730 G1 X-81.439
N3735 G3 X-81.667 Y-0.054 I0.021 J-0.6
N3740 X-82.016 Y-0.55 I0.249 J-0.546 F30000.
N3745 G1 X-83.581 Y-19.351
N3750 G3 X-83.232 Y-19.946 I0.598 J-0.05
N3755 X-83.004 Y-20. I0.249 J0.546 F900.
N3760 G1 X-82.06 F1000.
N3765 G3 X-80.841 Y-19.62 I-0.153 J2.633
N3770 X-79.392 Y-18.412 I-2.596 J4.588
N3775 X-77.893 Y-16.043 I-7.298 J6.277
N3780 X-76.696 Y-12.302 I-14.592 J6.731
N3785 X-76.532 Y-4.75 I-20.774 J4.23
N3790 X-77.178 Y-2.306 I-13.793 J-2.341
N3795 X-77.881 Y-0.952 I-5.932 J-2.219
N3800 X-79.764 Y0. I-1.887 J-1.394
N3805 G1 X-80.539
N3810 G3 X-80.767 Y-0.054 I0.021 J-0.6
N3815 X-81.116 Y-0.551 I0.249 J-0.546 F30000.
N3820 G1 X-82.637 Y-19.352
N3825 G3 X-82.288 Y-19.946 I0.598 J-0.048
N3830 X-82.06 Y-20. I0.249 J0.546 F900.
N3835 G1 X-81.16 F1000.
N3840 G3 X-79.932 Y-19.62 I-0.141 J2.627
N3845 X-78.483 Y-18.412 I-2.593 J4.584
N3850 X-76.984 Y-16.043 I-7.298 J6.276
N3855 X-75.788 Y-12.302 I-14.593 J6.731
N3860 X-75.623 Y-4.75 I-20.773 J4.231
N3865 X-76.269 Y-2.306 I-13.792 J-2.341
N3870 X-76.972 Y-0.952 I-5.933 J-2.22
N3875 X-78.855 Y0. I-1.887 J-1.394
N3880 G1 X-79.64
N3885 G3 X-79.867 Y-0.054 I0.021 J-0.6
N3890 X-80.217 Y-0.551 I0.249 J-0.546 F30000.
N3895 G1 X-81.737 Y-19.352
N3900 G3 X-81.388 Y-19.946 I0.598 J-0.048
N3905 X-81.16 Y-20. I0.249 J0.546 F900.
N3910 G1 X-80.26 F1000.
N3915 G3 X-79.023 Y-19.619 I-0.131 J2.624
N3920 X-77.574 Y-18.411 I-2.591 J4.582
N3925 X-76.076 Y-16.043 I-7.297 J6.276
N3930 X-74.879 Y-12.302 I-14.593 J6.731
N3935 X-74.714 Y-4.75 I-20.773 J4.231
N3940 X-75.36 Y-2.306 I-13.791 J-2.34
N3945 X-76.063 Y-0.952 I-5.932 J-2.22
N3950 X-77.946 Y0. I-1.887 J-1.394
N3955 G1 X-78.74
N3960 G3 X-78.968 Y-0.054 I0.021 J-0.6
N3965 X-79.317 Y-0.551 I0.249 J-0.546 F30000.
N3970 G1 X-80.838 Y-19.352
N3975 G3 X-80.488 Y-19.946 I0.598 J-0.048
N3980 X-80.26 Y-20. I0.249 J0.546 F900.
N3985 G1 X-79.361 F1000.
N3990 G3 X-78.114 Y-19.619 I-0.121 J2.623
N3995 X-76.665 Y-18.411 I-2.59 J4.581
N4000 X-75.167 Y-16.043 I-7.297 J6.276
N4005 X-73.97 Y-12.302 I-14.593 J6.731
N4010 X-73.805 Y-4.75 I-20.772 J4.231
N4015 X-74.451 Y-2.305 I-13.79 J-2.34
N4020 X-75.154 Y-0.952 I-5.931 J-2.22
N4025 X-77.037 Y0. I-1.887 J-1.395
N4030 G1 X-77.946
N4035 G3 X-78.174 Y-0.054 I0.021 J-0.6
N4040 X-78.523 Y-0.555 I0.249 J-0.546 F30000.
N4045 G1 X-79.938 Y-19.355
N4050 G3 X-79.588 Y-19.946 I0.598 J-0.045
N4055 X-79.361 Y-20. I0.249 J0.546 F900.
N4060 G1 X-78.461 F1000.
N4065 G3 X-77.205 Y-19.618 I-0.112 J2.623
N4070 X-75.756 Y-18.41 I-2.589 J4.58
N4075 X-74.258 Y-16.042 I-7.296 J6.275
N4080 X-73.061 Y-12.301 I-14.594 J6.731
N4085 X-72.896 Y-4.749 I-20.772 J4.231
N4090 X-73.543 Y-2.305 I-13.788 J-2.34
N4095 X-74.245 Y-0.951 I-5.93 J-2.219
N4100 X-76.128 Y0. I-1.887 J-1.395
N4105 G1 X-77.037
N4110 G3 X-77.265 Y-0.054 I0.021 J-0.6
N4115 X-77.614 Y-0.554 I0.249 J-0.546 F30000.
N4120 G1 X-79.038 Y-19.355
N4125 G3 X-78.689 Y-19.946 I0.598 J-0.045
N4130 X-78.461 Y-20. I0.249 J0.546 F900.
N4135 G1 X-77.561 F1000.
N4140 G3 X-76.296 Y-19.618 I-0.103 J2.624
N4145 X-74.847 Y-18.41 I-2.589 J4.579
N4150 X-73.349 Y-16.042 I-7.296 J6.275
N4155 X-72.152 Y-12.301 I-14.594 J6.731
N4160 X-71.987 Y-4.749 I-20.771 J4.231
N4165 X-72.634 Y-2.305 I-13.787 J-2.34
N4170 X-73.336 Y-0.951 I-5.929 J-2.219
N4175 X-75.219 Y0. I-1.887 J-1.395
N4180 G1 X-76.128
N4185 G3 X-76.356 Y-0.054 I0.021 J-0.6
N4190 X-76.705 Y-0.554 I0.249 J-0.546 F30000.
N4195 G1 X-78.138 Y-19.355
N4200 G3 X-77.789 Y-19.946 I0.598 J-0.046
N4205 X-77.561 Y-20. I0.249 J0.546 F900.
N4210 G1 X-76.661 F1000.
N4215 G3 X-75.387 Y-19.617 I-0.094 J2.626
N4220 X-73.938 Y-18.41 I-2.588 J4.578
N4225 X-72.44 Y-16.041 I-7.296 J6.275
N4230 X-71.243 Y-12.3 I-14.594 J6.731
N4235 X-71.078 Y-4.748 I-20.771 J4.231
N4240 X-71.725 Y-2.304 I-13.786 J-2.34
N4245 X-72.427 Y-0.951 I-5.928 J-2.219
N4250 X-74.31 Y0. I-1.887 J-1.395
N4255 G1 X-75.219
N4260 G3 X-75.447 Y-0.054 I0.021 J-0.6
N4265 X-75.796 Y-0.554 I0.249 J-0.546 F30000.
N4270 G1 X-77.239 Y-19.354
N4275 G3 X-76.889 Y-19.946 I0.598 J-0.046
N4280 X-76.661 Y-20. I0.249 J0.546 F900.
N4285 G1 X-75.717 F1000.
N4290 G3 X-74.48 Y-19.619 I-0.132 J2.628
N4295 X-73.03 Y-18.41 I-2.593 J4.584
N4300 X-71.531 Y-16.042 I-7.298 J6.277
N4305 X-70.334 Y-12.301 I-14.593 J6.732
N4310 X-70.169 Y-4.749 I-20.77 J4.232
N4315 X-70.815 Y-2.305 I-13.789 J-2.34
N4320 X-71.518 Y-0.952 I-5.93 J-2.219
N4325 X-73.401 Y0. I-1.887 J-1.395
N4330 G1 X-74.31
N4335 G3 X-74.538 Y-0.054 I0.021 J-0.6
N4340 X-74.887 Y-0.555 I0.249 J-0.546 F30000.
N4345 G1 X-76.294 Y-19.356
N4350 G3 X-75.945 Y-19.946 I0.598 J-0.045
N4355 X-75.717 Y-20. I0.249 J0.546 F900.
N4360 G1 X-74.817 F1000.
N4365 G3 X-73.571 Y-19.619 I-0.122 J2.624
N4370 X-72.121 Y-18.41 I-2.591 J4.582
N4375 X-70.622 Y-16.042 I-7.298 J6.277
N4380 X-69.425 Y-12.301 I-14.594 J6.733
N4385 X-69.26 Y-4.749 I-20.77 J4.232
N4390 X-69.906 Y-2.305 I-13.789 J-2.34
N4395 X-70.609 Y-0.952 I-5.93 J-2.219
N4400 X-72.492 Y0. I-1.887 J-1.395
N4405 G1 X-73.401
N4410 G3 X-73.629 Y-0.054 I0.021 J-0.6
N4415 X-73.978 Y-0.555 I0.249 J-0.546 F30000.
N4420 G1 X-75.395 Y-19.355
N4425 G3 X-75.045 Y-19.946 I0.598 J-0.045
N4430 X-74.817 Y-20. I0.249 J0.546 F900.
N4435 G1 X-73.881 F1000.
N4440 G3 X-72.663 Y-19.62 I-0.153 J2.633
N4445 X-71.213 Y-18.411 I-2.597 J4.589
N4450 X-69.714 Y-16.043 I-7.301 J6.279
N4455 X-68.516 Y-12.302 I-14.594 J6.734
N4460 X-68.351 Y-4.75 I-20.77 J4.234
N4465 X-68.997 Y-2.306 I-13.791 J-2.339
N4470 X-69.7 Y-0.952 I-5.932 J-2.219
N4475 X-71.583 Y0. I-1.887 J-1.394
N4480 G1 X-72.492
N4485 G3 X-72.719 Y-0.054 I0.021 J-0.6
N4490 X-73.069 Y-0.555 I0.249 J-0.546 F30000.
N4495 G1 X-74.458 Y-19.356
N4500 G3 X-74.109 Y-19.946 I0.598 J-0.044
N4505 X-73.881 Y-20. I0.249 J0.546 F900.
N4510 G1 X-72.981 F1000.
N4515 G3 X-71.754 Y-19.62 I-0.142 J2.628
N4520 X-70.304 Y-18.411 I-2.594 J4.586
N4525 X-68.805 Y-16.043 I-7.3 J6.279
N4530 X-67.608 Y-12.302 I-14.595 J6.734
N4535 X-67.442 Y-4.75 I-20.77 J4.234
N4540 X-68.088 Y-2.306 I-13.791 J-2.339
N4545 X-68.791 Y-0.952 I-5.932 J-2.219
N4550 X-70.674 Y0. I-1.887 J-1.394
N4555 G1 X-71.583
N4560 G3 X-71.81 Y-0.054 I0.021 J-0.6
N4565 X-72.16 Y-0.555 I0.249 J-0.546 F30000.
N4570 G1 X-73.559 Y-19.356
N4575 G3 X-73.209 Y-19.946 I0.598 J-0.045
N4580 X-72.981 Y-20. I0.249 J0.546 F900.
N4585 G1 X-72.081 F1000.
N4590 G3 X-70.844 Y-19.619 I-0.131 J2.625
N4595 X-69.395 Y-18.411 I-2.592 J4.583
N4600 X-67.896 Y-16.043 I-7.299 J6.278
N4605 X-66.699 Y-12.302 I-14.595 J6.734
N4610 X-66.533 Y-4.75 I-20.77 J4.234
N4615 X-67.179 Y-2.306 I-13.789 J-2.339
N4620 X-67.882 Y-0.952 I-5.931 J-2.219
N4625 X-69.765 Y0. I-1.887 J-1.394
N4630 G1 X-70.674
N4635 G3 X-70.901 Y-0.054 I0.021 J-0.6
N4640 X-71.251 Y-0.555 I0.249 J-0.546 F30000.
N4645 G1 X-72.659 Y-19.356
N4650 G3 X-72.309 Y-19.946 I0.598 J-0.045
N4655 X-72.081 Y-20. I0.249 J0.546 F900.
N4660 G1 X-71.182 F1000.
N4665 G3 X-69.935 Y-19.619 I-0.121 J2.624
N4670 X-68.486 Y-18.411 I-2.591 J4.582
N4675 X-66.987 Y-16.042 I-7.298 J6.277
N4680 X-65.79 Y-12.301 I-14.595 J6.734
N4685 X-65.624 Y-4.749 I-20.77 J4.234
N4690 X-66.27 Y-2.305 I-13.788 J-2.339
N4695 X-66.973 Y-0.952 I-5.931 J-2.219
N4700 X-68.856 Y0. I-1.887 J-1.394
N4705 G1 X-69.765
N4710 G3 X-69.992 Y-0.054 I0.021 J-0.6
N4715 X-70.342 Y-0.555 I0.249 J-0.546 F30000.
N4720 G1 X-71.759 Y-19.355
N4725 G3 X-71.409 Y-19.946 I0.598 J-0.045
N4730 X-71.182 Y-20. I0.249 J0.546 F900.
N4735 G1 X-70.282 F1000.
N4740 G3 X-69.026 Y-19.618 I-0.112 J2.624
N4745 X-67.577 Y-18.41 I-2.59 J4.581
N4750 X-66.078 Y-16.042 I-7.298 J6.277
N4755 X-64.881 Y-12.301 I-14.595 J6.734
N4760 X-64.715 Y-4.749 I-20.77 J4.233
N4765 X-65.361 Y-2.305 I-13.787 J-2.339
N4770 X-66.064 Y-0.952 I-5.929 J-2.219
N4775 X-67.947 Y0. I-1.887 J-1.395
N4780 G1 X-68.856
N4785 G3 X-69.083 Y-0.054 I0.021 J-0.6
N4790 X-69.433 Y-0.554 I0.249 J-0.546 F30000.
N4795 G1 X-70.859 Y-19.355
N4800 G3 X-70.51 Y-19.946 I0.598 J-0.045
N4805 X-70.282 Y-20. I0.249 J0.546 F900.
N4810 G1 X-69.382 F1000.
N4815 G3 X-68.117 Y-19.618 I-0.103 J2.624
N4820 X-66.668 Y-18.41 I-2.589 J4.58
N4825 X-65.169 Y-16.042 I-7.298 J6.277
N4830 X-63.972 Y-12.301 I-14.596 J6.734
N4835 X-63.806 Y-4.749 I-20.769 J4.233
N4840 X-64.453 Y-2.305 I-13.786 J-2.339
N4845 X-65.155 Y-0.951 I-5.928 J-2.219
N4850 X-67.038 Y0. I-1.887 J-1.395
N4855 G1 X-67.947
N4860 G3 X-68.174 Y-0.054 I0.021 J-0.6
N4865 X-68.524 Y-0.554 I0.249 J-0.546 F30000.
N4870 G1 X-69.959 Y-19.355
N4875 G3 X-69.61 Y-19.946 I0.598 J-0.046
N4880 X-69.382 Y-20. I0.249 J0.546 F900.
N4885 G1 X-68.482 F1000.
N4890 G3 X-67.208 Y-19.617 I-0.094 J2.626
N4895 X-65.759 Y-18.409 I-2.589 J4.579
N4900 X-64.26 Y-16.041 I-7.298 J6.276
N4905 X-63.063 Y-12.3 I-14.595 J6.733
N4910 X-62.897 Y-4.748 I-20.769 J4.233
N4915 X-63.544 Y-2.304 I-13.785 J-2.339
N4920 X-64.246 Y-0.951 I-5.928 J-2.219
N4925 X-66.129 Y0. I-1.887 J-1.395
N4930 G1 X-67.038
N4935 G3 X-67.265 Y-0.054 I0.021 J-0.6
N4940 X-67.615 Y-0.554 I0.249 J-0.546 F30000.
N4945 G1 X-69.059 Y-19.354
N4950 G3 X-68.71 Y-19.946 I0.598 J-0.046
N4955 X-68.482 Y-20. I0.249 J0.546 F900.
N4960 G1 X-67.528 F1000.
N4965 G3 X-66.301 Y-19.619 I-0.144 J2.632
N4970 X-64.85 Y-18.411 I-2.595 J4.588
N4975 X-63.352 Y-16.042 I-7.301 J6.279
N4980 X-62.154 Y-12.302 I-14.595 J6.735
N4985 X-61.988 Y-4.75 I-20.768 J4.234
N4990 X-62.634 Y-2.305 I-13.789 J-2.339
N4995 X-63.337 Y-0.952 I-5.93 J-2.218
N5000 X-65.22 Y0. I-1.887 J-1.394
N5005 G1 X-65.963
N5010 G3 X-66.191 Y-0.054 I0.021 J-0.6
N5015 X-66.54 Y-0.55 I0.249 J-0.546 F30000.
N5020 G1 X-68.105 Y-19.351
N5025 G3 X-67.756 Y-19.946 I0.598 J-0.05
N5030 X-67.528 Y-20. I0.249 J0.546 F900.
N5035 G1 X-66.628 F1000.
N5040 G3 X-65.391 Y-19.619 I-0.132 J2.626
N5045 X-63.942 Y-18.411 I-2.593 J4.585
N5050 X-62.443 Y-16.042 I-7.3 J6.279
N5055 X-61.245 Y-12.302 I-14.595 J6.735
N5060 X-61.079 Y-4.75 I-20.768 J4.235
N5065 X-61.725 Y-2.305 I-13.789 J-2.339
N5070 X-62.428 Y-0.952 I-5.931 J-2.219
N5075 X-64.311 Y0. I-1.887 J-1.394
N5080 G1 X-65.063
N5085 G3 X-65.291 Y-0.054 I0.021 J-0.6
N5090 X-65.64 Y-0.55 I0.249 J-0.546 F30000.
N5095 G1 X-67.205 Y-19.351
N5100 G3 X-66.856 Y-19.946 I0.598 J-0.05
N5105 X-66.628 Y-20. I0.249 J0.546 F900.
N5110 G1 X-65.728 F1000.
N5115 G3 X-64.482 Y-19.619 I-0.122 J2.624
N5120 X-63.033 Y-18.41 I-2.591 J4.582
N5125 X-61.534 Y-16.042 I-7.299 J6.278
N5130 X-60.336 Y-12.301 I-14.595 J6.735
N5135 X-60.17 Y-4.749 I-20.768 J4.234
N5140 X-60.816 Y-2.305 I-13.788 J-2.338
N5145 X-61.519 Y-0.952 I-5.93 J-2.219
N5150 X-63.402 Y0. I-1.887 J-1.394
N5155 G1 X-64.163
N5160 G3 X-64.391 Y-0.054 I0.021 J-0.6
N5165 X-64.74 Y-0.55 I0.249 J-0.546 F30000.
N5170 G1 X-66.305 Y-19.351
N5175 G3 X-65.956 Y-19.946 I0.598 J-0.05
N5180 X-65.728 Y-20. I0.249 J0.546 F900.
N5185 G1 X-64.829 F1000.
N5190 G3 X-63.573 Y-19.618 I-0.112 J2.624
N5195 X-62.123 Y-18.41 I-2.59 J4.581
N5200 X-60.625 Y-16.042 I-7.299 J6.278
N5205 X-59.427 Y-12.301 I-14.596 J6.735
N5210 X-59.261 Y-4.749 I-20.768 J4.234
N5215 X-59.907 Y-2.305 I-13.787 J-2.339
N5220 X-60.61 Y-0.952 I-5.929 J-2.219
N5225 X-62.493 Y0. I-1.887 J-1.395
N5230 G1 X-63.263
N5235 G3 X-63.491 Y-0.054 I0.021 J-0.6
N5240 X-63.84 Y-0.55 I0.249 J-0.546 F30000.
N5245 G1 X-65.406 Y-19.351
N5250 G3 X-65.056 Y-19.946 I0.598 J-0.05
N5255 X-64.829 Y-20. I0.249 J0.546 F900.
N5260 G1 X-63.884 F1000.
N5265 G3 X-62.665 Y-19.62 I-0.153 J2.634
N5270 X-61.215 Y-18.411 I-2.597 J4.59
N5275 X-59.716 Y-16.043 I-7.302 J6.28
N5280 X-58.518 Y-12.302 I-14.596 J6.736
N5285 X-58.352 Y-4.75 I-20.768 J4.235
N5290 X-58.998 Y-2.306 I-13.79 J-2.338
N5295 X-59.701 Y-0.952 I-5.931 J-2.218
N5300 X-61.584 Y0. I-1.887 J-1.394
N5305 G1 X-62.364
N5310 G3 X-62.592 Y-0.054 I0.021 J-0.6
N5315 X-62.941 Y-0.551 I0.249 J-0.546 F30000.
N5320 G1 X-64.461 Y-19.352
N5325 G3 X-64.112 Y-19.946 I0.598 J-0.048
N5330 X-63.884 Y-20. I0.249 J0.546 F900.
N5335 G1 X-62.984 F1000.
N5340 G3 X-61.756 Y-19.619 I-0.141 J2.628
N5345 X-60.306 Y-18.411 I-2.594 J4.586
N5350 X-58.807 Y-16.043 I-7.301 J6.28
N5355 X-57.609 Y-12.302 I-14.596 J6.736
N5360 X-57.443 Y-4.75 I-20.768 J4.236
N5365 X-58.089 Y-2.306 I-13.79 J-2.338
N5370 X-58.792 Y-0.952 I-5.931 J-2.219
N5375 X-60.675 Y0. I-1.887 J-1.394
N5380 G1 X-61.464
N5385 G3 X-61.692 Y-0.054 I0.021 J-0.6
N5390 X-62.041 Y-0.551 I0.249 J-0.546 F30000.
N5395 G1 X-63.562 Y-19.352
N5400 G3 X-63.212 Y-19.946 I0.598 J-0.048
N5405 X-62.984 Y-20. I0.249 J0.546 F900.
N5410 G1 X-62.085 F1000.
N5415 G3 X-60.847 Y-19.619 I-0.13 J2.625
N5420 X-59.397 Y-18.411 I-2.592 J4.584
N5425 X-57.898 Y-16.043 I-7.3 J6.279
N5430 X-56.7 Y-12.302 I-14.596 J6.736
N5435 X-56.534 Y-4.75 I-20.768 J4.235
N5440 X-57.18 Y-2.306 I-13.788 J-2.338
N5445 X-57.883 Y-0.952 I-5.931 J-2.219
N5450 X-59.766 Y0. I-1.887 J-1.394
N5455 G1 X-60.564
N5460 G3 X-60.792 Y-0.054 I0.021 J-0.6
N5465 X-61.141 Y-0.551 I0.249 J-0.546 F30000.
N5470 G1 X-62.662 Y-19.352
N5475 G3 X-62.313 Y-19.946 I0.598 J-0.048
N5480 X-62.085 Y-20. I0.249 J0.546 F900.
N5485 G1 X-61.185 F1000.
N5490 G3 X-59.937 Y-19.619 I-0.12 J2.624
N5495 X-58.488 Y-18.41 I-2.591 J4.582
N5500 X-56.989 Y-16.042 I-7.3 J6.278
N5505 X-55.791 Y-12.301 I-14.596 J6.735
N5510 X-55.625 Y-4.749 I-20.768 J4.235
N5515 X-56.271 Y-2.305 I-13.787 J-2.338
N5520 X-56.974 Y-0.952 I-5.93 J-2.219
N5525 X-58.857 Y0. I-1.887 J-1.394
N5530 G1 X-59.766
N5535 G3 X-59.994 Y-0.054 I0.021 J-0.6
N5540 X-60.343 Y-0.554 I0.249 J-0.546 F30000.
N5545 G1 X-61.762 Y-19.355
N5550 G3 X-61.413 Y-19.946 I0.598 J-0.045
N5555 X-61.185 Y-20. I0.249 J0.546 F900.
N5560 G1 X-60.285 F1000.
N5565 G3 X-59.028 Y-19.618 I-0.111 J2.624
N5570 X-57.579 Y-18.41 I-2.59 J4.581
N5575 X-56.08 Y-16.042 I-7.299 J6.278
N5580 X-54.882 Y-12.301 I-14.596 J6.735
N5585 X-54.716 Y-4.749 I-20.768 J4.235
N5590 X-55.363 Y-2.305 I-13.787 J-2.338
N5595 X-56.065 Y-0.952 I-5.929 J-2.219
N5600 X-57.948 Y0. I-1.887 J-1.395
N5605 G1 X-58.857
N5610 G3 X-59.085 Y-0.054 I0.021 J-0.6
N5615 X-59.434 Y-0.554 I0.249 J-0.546 F30000.
N5620 G1 X-60.862 Y-19.355
N5625 G3 X-60.513 Y-19.946 I0.598 J-0.045
N5630 X-60.285 Y-20. I0.249 J0.546 F900.
N5635 G1 X-59.385 F1000.
N5640 G3 X-58.119 Y-19.618 I-0.102 J2.625
N5645 X-56.67 Y-18.41 I-2.589 J4.58
N5650 X-55.171 Y-16.041 I-7.299 J6.277
N5655 X-53.973 Y-12.301 I-14.596 J6.735
N5660 X-53.807 Y-4.749 I-20.768 J4.234
N5665 X-54.454 Y-2.304 I-13.785 J-2.339
N5670 X-55.156 Y-0.951 I-5.928 J-2.219
N5675 X-57.039 Y0. I-1.887 J-1.395
N5680 G1 X-57.948
N5685 G3 X-58.176 Y-0.054 I0.021 J-0.6
N5690 X-58.525 Y-0.554 I0.249 J-0.546 F30000.
N5695 G1 X-59.963 Y-19.355
N5700 G3 X-59.613 Y-19.946 I0.598 J-0.046
N5705 X-59.385 Y-20. I0.249 J0.546 F900.
N5710 G1 X-58.486 F1000.
N5715 G3 X-57.21 Y-19.617 I-0.093 J2.626
N5720 X-55.761 Y-18.409 I-2.589 J4.58
N5725 X-54.262 Y-16.041 I-7.298 J6.277
N5730 X-53.064 Y-12.3 I-14.596 J6.735
N5735 X-52.898 Y-4.748 I-20.768 J4.234
N5740 X-53.545 Y-2.304 I-13.784 J-2.339
N5745 X-54.247 Y-0.951 I-5.927 J-2.219
N5750 X-56.13 Y0. I-1.887 J-1.395
N5755 G1 X-57.039
N5760 G3 X-57.267 Y-0.054 I0.021 J-0.6
N5765 X-57.616 Y-0.554 I0.249 J-0.546 F30000.
N5770 G1 X-59.063 Y-19.354
N5775 G3 X-58.713 Y-19.946 I0.598 J-0.046
N5780 X-58.486 Y-20. I0.249 J0.546 F900.
N5785 G1 X-57.541 F1000.
N5790 G3 X-56.302 Y-19.619 I-0.131 J2.628
N5795 X-54.852 Y-18.41 I-2.593 J4.585
N5800 X-53.353 Y-16.042 I-7.3 J6.279
N5805 X-52.156 Y-12.301 I-14.596 J6.735
N5810 X-51.989 Y-4.749 I-20.767 J4.235
N5815 X-52.636 Y-2.305 I-13.787 J-2.338
N5820 X-53.338 Y-0.952 I-5.929 J-2.218
N5825 X-55.221 Y0. I-1.887 J-1.395
N5830 G1 X-56.13
N5835 G3 X-56.358 Y-0.054 I0.021 J-0.6
N5840 X-56.707 Y-0.555 I0.249 J-0.546 F30000.
N5845 G1 X-58.119 Y-19.355
N5850 G3 X-57.769 Y-19.946 I0.598 J-0.045
N5855 X-57.541 Y-20. I0.249 J0.546 F900.
N5860 G1 X-56.641 F1000.
N5865 G3 X-55.393 Y-19.618 I-0.12 J2.625
N5870 X-53.943 Y-18.41 I-2.591 J4.583
N5875 X-52.444 Y-16.042 I-7.3 J6.279
N5880 X-51.247 Y-12.301 I-14.596 J6.736
N5885 X-51.08 Y-4.749 I-20.767 J4.235
N5890 X-51.727 Y-2.305 I-13.787 J-2.338
N5895 X-52.429 Y-0.952 I-5.929 J-2.218
N5900 X-54.312 Y0. I-1.887 J-1.395
N5905 G1 X-55.221
N5910 G3 X-55.449 Y-0.054 I0.021 J-0.6
N5915 X-55.798 Y-0.554 I0.249 J-0.546 F30000.
N5920 G1 X-57.219 Y-19.355
N5925 G3 X-56.869 Y-19.946 I0.598 J-0.045
N5930 X-56.641 Y-20. I0.249 J0.546 F900.
N5935 G1 X-55.705 F1000.
N5940 G3 X-54.485 Y-19.62 I-0.151 J2.633
N5945 X-53.035 Y-18.411 I-2.597 J4.59
N5950 X-51.536 Y-16.043 I-7.302 J6.281
N5955 X-50.338 Y-12.302 I-14.596 J6.736
N5960 X-50.171 Y-4.75 I-20.767 J4.236
N5965 X-50.817 Y-2.306 I-13.789 J-2.338
N5970 X-51.52 Y-0.952 I-5.931 J-2.218
N5975 X-53.403 Y0. I-1.887 J-1.394
N5980 G1 X-54.312
N5985 G3 X-54.54 Y-0.054 I0.021 J-0.6
N5990 X-54.889 Y-0.555 I0.249 J-0.546 F30000.
N5995 G1 X-56.283 Y-19.356
N6000 G3 X-55.933 Y-19.946 I0.598 J-0.044
N6005 X-55.705 Y-20. I0.249 J0.546 F900.
N6010 G1 X-54.805 F1000.
N6015 G3 X-53.576 Y-19.619 I-0.14 J2.628
N6020 X-52.126 Y-18.411 I-2.594 J4.586
N6025 X-50.627 Y-16.043 I-7.301 J6.28
N6030 X-49.429 Y-12.302 I-14.596 J6.736
N6035 X-49.262 Y-4.75 I-20.767 J4.236
N6040 X-49.908 Y-2.306 I-13.789 J-2.338
N6045 X-50.611 Y-0.952 I-5.931 J-2.218
N6050 X-52.494 Y0. I-1.887 J-1.394
N6055 G1 X-53.403
N6060 G3 X-53.631 Y-0.054 I0.021 J-0.6
N6065 X-53.98 Y-0.555 I0.249 J-0.546 F30000.
N6070 G1 X-55.383 Y-19.356
N6075 G3 X-55.033 Y-19.946 I0.598 J-0.045
N6080 X-54.805 Y-20. I0.249 J0.546 F900.
N6085 G1 X-53.906 F1000.
N6090 G3 X-52.666 Y-19.619 I-0.129 J2.625
N6095 X-51.217 Y-18.411 I-2.592 J4.584
N6100 X-49.718 Y-16.042 I-7.301 J6.279
N6105 X-48.52 Y-12.302 I-14.596 J6.736
N6110 X-48.353 Y-4.75 I-20.768 J4.236
N6115 X-49. Y-2.306 I-13.788 J-2.338
N6120 X-49.702 Y-0.952 I-5.931 J-2.219
N6125 X-51.585 Y0. I-1.887 J-1.394
N6130 G1 X-52.494
N6135 G3 X-52.722 Y-0.054 I0.021 J-0.6
N6140 X-53.071 Y-0.555 I0.249 J-0.546 F30000.
N6145 G1 X-54.483 Y-19.355
N6150 G3 X-54.133 Y-19.946 I0.598 J-0.045
N6155 X-53.906 Y-20. I0.249 J0.546 F900.
N6160 G1 X-53.006 F1000.
N6165 G3 X-51.757 Y-19.618 I-0.119 J2.624
N6170 X-50.308 Y-18.41 I-2.591 J4.582
N6175 X-48.809 Y-16.042 I-7.3 J6.279
N6180 X-47.611 Y-12.301 I-14.597 J6.736
N6185 X-47.444 Y-4.749 I-20.768 J4.236
N6190 X-48.091 Y-2.305 I-13.787 J-2.338
N6195 X-48.793 Y-0.952 I-5.93 J-2.219
N6200 X-50.676 Y0. I-1.887 J-1.394
N6205 G1 X-51.585
N6210 G3 X-51.813 Y-0.054 I0.021 J-0.6
N6215 X-52.162 Y-0.554 I0.249 J-0.546 F30000.
N6220 G1 X-53.583 Y-19.355
N6225 G3 X-53.234 Y-19.946 I0.598 J-0.045
N6230 X-53.006 Y-20. I0.249 J0.546 F900.
N6235 G1 X-52.106 F1000.
N6240 G3 X-50.848 Y-19.618 I-0.11 J2.624
N6245 X-49.398 Y-18.41 I-2.59 J4.581
N6250 X-47.9 Y-16.042 I-7.299 J6.278
N6255 X-46.702 Y-12.301 I-14.597 J6.736
N6260 X-46.536 Y-4.749 I-20.768 J4.235
N6265 X-47.182 Y-2.305 I-13.786 J-2.338
N6270 X-47.884 Y-0.952 I-5.929 J-2.219
N6275 X-49.767 Y0. I-1.887 J-1.395
N6280 G1 X-50.676
N6285 G3 X-50.904 Y-0.054 I0.021 J-0.6
N6290 X-51.253 Y-0.554 I0.249 J-0.546 F30000.
N6295 G1 X-52.683 Y-19.355
N6300 G3 X-52.334 Y-19.946 I0.598 J-0.046
N6305 X-52.106 Y-20. I0.249 J0.546 F900.
N6310 G1 X-51.206 F1000.
N6315 G3 X-49.939 Y-19.618 I-0.101 J2.625
N6320 X-48.489 Y-18.41 I-2.589 J4.58
N6325 X-46.991 Y-16.041 I-7.299 J6.278
N6330 X-45.793 Y-12.3 I-14.597 J6.735
N6335 X-45.627 Y-4.749 I-20.767 J4.235
N6340 X-46.273 Y-2.304 I-13.785 J-2.338
N6345 X-46.975 Y-0.951 I-5.928 J-2.219
N6350 X-48.858 Y0. I-1.887 J-1.395
N6355 G1 X-49.767
N6360 G3 X-49.995 Y-0.054 I0.021 J-0.6
N6365 X-50.344 Y-0.554 I0.249 J-0.546 F30000.
N6370 G1 X-51.784 Y-19.355
N6375 G3 X-51.434 Y-19.946 I0.598 J-0.046
N6380 X-51.206 Y-20. I0.249 J0.546 F900.
N6385 G1 X-50.306 F1000.
N6390 G3 X-49.03 Y-19.617 I-0.092 J2.627
N6395 X-47.58 Y-18.409 I-2.589 J4.58
N6400 X-46.081 Y-16.041 I-7.299 J6.278
N6405 X-44.884 Y-12.3 I-14.597 J6.735
N6410 X-44.718 Y-4.748 I-20.767 J4.234
N6415 X-45.364 Y-2.304 I-13.784 J-2.339
N6420 X-46.067 Y-0.951 I-5.927 J-2.219
N6425 X-47.949 Y0. I-1.887 J-1.395
N6430 G1 X-48.858
N6435 G3 X-49.086 Y-0.054 I0.021 J-0.6
N6440 X-49.435 Y-0.554 I0.249 J-0.546 F30000.
N6445 G1 X-50.884 Y-19.354
N6450 G3 X-50.534 Y-19.946 I0.598 J-0.046
N6455 X-50.306 Y-20. I0.249 J0.546 F900.
N6460 G1 X-49.352 F1000.
N6465 G3 X-48.122 Y-19.619 I-0.141 J2.631
N6470 X-46.672 Y-18.41 I-2.595 J4.588
N6475 X-45.173 Y-16.042 I-7.301 J6.28
N6480 X-43.975 Y-12.301 I-14.596 J6.736
N6485 X-43.809 Y-4.749 I-20.767 J4.236
N6490 X-44.455 Y-2.305 I-13.788 J-2.338
N6495 X-45.157 Y-0.952 I-5.929 J-2.218
N6500 X-47.04 Y0. I-1.887 J-1.394
N6505 G1 X-47.787
N6510 G3 X-48.015 Y-0.054 I0.021 J-0.6
N6515 X-48.364 Y-0.55 I0.249 J-0.546 F30000.
N6520 G1 X-49.929 Y-19.351
N6525 G3 X-49.58 Y-19.946 I0.598 J-0.05
N6530 X-49.352 Y-20. I0.249 J0.546 F900.
N6535 G1 X-48.452 F1000.
N6540 G3 X-47.213 Y-19.619 I-0.129 J2.626
N6545 X-45.763 Y-18.41 I-2.593 J4.585
N6550 X-44.264 Y-16.042 I-7.301 J6.28
N6555 X-43.066 Y-12.301 I-14.596 J6.736
N6560 X-42.9 Y-4.75 I-20.767 J4.236
N6565 X-43.546 Y-2.305 I-13.788 J-2.338
N6570 X-44.248 Y-0.952 I-5.93 J-2.218
N6575 X-46.131 Y0. I-1.887 J-1.394
N6580 G1 X-46.887
N6585 G3 X-47.115 Y-0.054 I0.021 J-0.6
N6590 X-47.464 Y-0.55 I0.249 J-0.546 F30000.
N6595 G1 X-49.029 Y-19.351
N6600 G3 X-48.68 Y-19.946 I0.598 J-0.05
N6605 X-48.452 Y-20. I0.249 J0.546 F900.
N6610 G1 X-47.553 F1000.
N6615 G3 X-46.304 Y-19.618 I-0.119 J2.624
N6620 X-44.854 Y-18.41 I-2.591 J4.583
N6625 X-43.355 Y-16.042 I-7.3 J6.279
N6630 X-42.157 Y-12.301 I-14.596 J6.736
N6635 X-41.991 Y-4.749 I-20.767 J4.236
N6640 X-42.637 Y-2.305 I-13.787 J-2.338
N6645 X-43.339 Y-0.952 I-5.929 J-2.218
N6650 X-45.222 Y0. I-1.887 J-1.394
N6655 G1 X-45.987
N6660 G3 X-46.215 Y-0.054 I0.021 J-0.6
N6665 X-46.564 Y-0.55 I0.249 J-0.546 F30000.
N6670 G1 X-48.13 Y-19.351
N6675 G3 X-47.781 Y-19.946 I0.598 J-0.05
N6680 X-47.553 Y-20. I0.249 J0.546 F900.
N6685 G1 X-46.608 F1000.
N6690 G3 X-45.396 Y-19.62 I-0.161 J2.637
N6695 X-43.946 Y-18.411 I-2.599 J4.592
N6700 X-42.447 Y-16.043 I-7.304 J6.282
N6705 X-41.249 Y-12.302 I-14.596 J6.737
N6710 X-41.082 Y-4.75 I-20.767 J4.237
N6715 X-41.728 Y-2.306 I-13.789 J-2.337
N6720 X-42.43 Y-0.952 I-5.931 J-2.218
N6725 X-44.313 Y0. I-1.887 J-1.394
N6730 G1 X-45.088
N6735 G3 X-45.316 Y-0.054 I0.021 J-0.6
N6740 X-45.665 Y-0.551 I0.249 J-0.546 F30000.
N6745 G1 X-47.185 Y-19.352
N6750 G3 X-46.836 Y-19.946 I0.598 J-0.048
N6755 X-46.608 Y-20. I0.249 J0.546 F900.
N6760 G1 X-45.709 F1000.
N6765 G3 X-44.487 Y-19.62 I-0.148 J2.63
N6770 X-43.037 Y-18.411 I-2.596 J4.589
N6775 X-41.538 Y-16.043 I-7.303 J6.281
N6780 X-40.34 Y-12.302 I-14.597 J6.737
N6785 X-40.173 Y-4.75 I-20.767 J4.237
N6790 X-40.819 Y-2.306 I-13.79 J-2.337
N6795 X-41.521 Y-0.952 I-5.931 J-2.218
N6800 X-43.404 Y0. I-1.887 J-1.394
N6805 G1 X-44.188
N6810 G3 X-44.416 Y-0.054 I0.021 J-0.6
N6815 X-44.765 Y-0.551 I0.249 J-0.546 F30000.
N6820 G1 X-46.286 Y-19.352
N6825 G3 X-45.936 Y-19.946 I0.598 J-0.048
N6830 X-45.709 Y-20. I0.249 J0.546 F900.
N6835 G1 X-44.809 F1000.
N6840 G3 X-43.577 Y-19.619 I-0.137 J2.627
N6845 X-42.128 Y-18.411 I-2.594 J4.586
N6850 X-40.629 Y-16.043 I-7.302 J6.28
N6855 X-39.431 Y-12.302 I-14.597 J6.737
N6860 X-39.264 Y-4.75 I-20.768 J4.237
N6865 X-39.91 Y-2.306 I-13.789 J-2.337
N6870 X-40.612 Y-0.952 I-5.931 J-2.218
N6875 X-42.495 Y0. I-1.887 J-1.394
N6880 G1 X-43.288
N6885 G3 X-43.516 Y-0.054 I0.021 J-0.6
N6890 X-43.865 Y-0.551 I0.249 J-0.546 F30000.
N6895 G1 X-45.386 Y-19.352
N6900 G3 X-45.037 Y-19.946 I0.598 J-0.048
N6905 X-44.809 Y-20. I0.249 J0.546 F900.
N6910 G1 X-43.909 F1000.
N6915 G3 X-42.668 Y-19.619 I-0.127 J2.625
N6920 X-41.218 Y-18.411 I-2.592 J4.584
N6925 X-39.719 Y-16.042 I-7.301 J6.279
N6930 X-38.522 Y-12.302 I-14.597 J6.737
N6935 X-38.355 Y-4.75 I-20.768 J4.236
N6940 X-39.001 Y-2.306 I-13.788 J-2.338
N6945 X-39.704 Y-0.952 I-5.93 J-2.218
N6950 X-41.586 Y0. I-1.887 J-1.394
N6955 G1 X-42.495
N6960 G3 X-42.723 Y-0.054 I0.021 J-0.6
N6965 X-43.073 Y-0.555 I0.249 J-0.546 F30000.
N6970 G1 X-44.486 Y-19.355
N6975 G3 X-44.137 Y-19.946 I0.598 J-0.045
N6980 X-43.909 Y-20. I0.249 J0.546 F900.
N6985 G1 X-43.009 F1000.
N6990 G3 X-41.759 Y-19.618 I-0.117 J2.624
N6995 X-40.309 Y-18.41 I-2.591 J4.582
N7000 X-38.81 Y-16.042 I-7.3 J6.279
N7005 X-37.613 Y-12.301 I-14.597 J6.736
N7010 X-37.446 Y-4.749 I-20.768 J4.236
N7015 X-38.092 Y-2.305 I-13.787 J-2.338
N7020 X-38.795 Y-0.952 I-5.93 J-2.218
N7025 X-40.677 Y0. I-1.887 J-1.394
N7030 G1 X-41.586
N7035 G3 X-41.814 Y-0.054 I0.021 J-0.6
N7040 X-42.164 Y-0.554 I0.249 J-0.546 F30000.
N7045 G1 X-43.587 Y-19.355
N7050 G3 X-43.237 Y-19.946 I0.598 J-0.045
N7055 X-43.009 Y-20. I0.249 J0.546 F900.
N7060 G1 X-42.109 F1000.
N7065 G3 X-40.85 Y-19.618 I-0.108 J2.624
N7070 X-39.4 Y-18.41 I-2.59 J4.581
N7075 X-37.901 Y-16.042 I-7.299 J6.278
N7080 X-36.704 Y-12.301 I-14.597 J6.736
N7085 X-36.537 Y-4.749 I-20.768 J4.235
N7090 X-37.183 Y-2.305 I-13.786 J-2.338
N7095 X-37.886 Y-0.952 I-5.929 J-2.219
N7100 X-39.768 Y0. I-1.887 J-1.395
N7105 G1 X-40.677
N7110 G3 X-40.905 Y-0.054 I0.021 J-0.6
N7115 X-41.255 Y-0.554 I0.249 J-0.546 F30000.
N7120 G1 X-42.687 Y-19.355
N7125 G3 X-42.337 Y-19.946 I0.598 J-0.046
N7130 X-42.109 Y-20. I0.249 J0.546 F900.
N7135 G1 X-41.21 F1000.
N7140 G3 X-39.94 Y-19.617 I-0.099 J2.625
N7145 X-38.491 Y-18.409 I-2.589 J4.58
N7150 X-36.992 Y-16.041 I-7.299 J6.278
N7155 X-35.794 Y-12.3 I-14.597 J6.735
N7160 X-35.628 Y-4.748 I-20.767 J4.235
N7165 X-36.275 Y-2.304 I-13.785 J-2.338
N7170 X-36.977 Y-0.951 I-5.928 J-2.219
N7175 X-38.859 Y0. I-1.887 J-1.395
N7180 G1 X-39.768
N7185 G3 X-39.996 Y-0.054 I0.021 J-0.6
N7190 X-40.346 Y-0.554 I0.249 J-0.546 F30000.
N7195 G1 X-41.787 Y-19.355
N7200 G3 X-41.437 Y-19.946 I0.598 J-0.046
N7205 X-41.21 Y-20. I0.249 J0.546 F900.
N7210 G1 X-40.31 F1000.
N7215 G3 X-39.031 Y-19.617 I-0.09 J2.627
N7220 X-37.582 Y-18.409 I-2.589 J4.58
N7225 X-36.083 Y-16.041 I-7.299 J6.278
N7230 X-34.885 Y-12.3 I-14.597 J6.735
N7235 X-34.719 Y-4.748 I-20.767 J4.235
N7240 X-35.366 Y-2.304 I-13.783 J-2.338
N7245 X-36.068 Y-0.951 I-5.927 J-2.219
N7250 X-37.95 Y0. I-1.887 J-1.395
N7255 G1 X-38.859
N7260 G3 X-39.087 Y-0.054 I0.021 J-0.6
N7265 X-39.437 Y-0.553 I0.249 J-0.546 F30000.
N7270 G1 X-40.887 Y-19.354
N7275 G3 X-40.538 Y-19.946 I0.598 J-0.046
N7280 X-40.31 Y-20. I0.249 J0.546 F900.
N7285 G1 X-39.365 F1000.
N7290 G3 X-38.124 Y-19.619 I-0.128 J2.628
N7295 X-36.673 Y-18.41 I-2.593 J4.585
N7300 X-35.175 Y-16.042 I-7.3 J6.279
N7305 X-33.977 Y-12.301 I-14.596 J6.736
N7310 X-33.81 Y-4.749 I-20.767 J4.236
N7315 X-34.457 Y-2.305 I-13.786 J-2.338
N7320 X-35.159 Y-0.952 I-5.928 J-2.218
N7325 X-37.042 Y0. I-1.887 J-1.395
N7330 G1 X-37.95
N7335 G3 X-38.178 Y-0.054 I0.021 J-0.6
N7340 X-38.528 Y-0.555 I0.249 J-0.546 F30000.
N7345 G1 X-39.943 Y-19.355
N7350 G3 X-39.593 Y-19.946 I0.598 J-0.045
N7355 X-39.365 Y-20. I0.249 J0.546 F900.
N7360 G1 X-38.429 F1000.
N7365 G3 X-37.216 Y-19.62 I-0.159 J2.637
N7370 X-35.765 Y-18.411 I-2.599 J4.592
N7375 X-34.266 Y-16.043 I-7.303 J6.282
N7380 X-33.068 Y-12.302 I-14.596 J6.737
N7385 X-32.901 Y-4.75 I-20.767 J4.237
N7390 X-33.547 Y-2.306 I-13.79 J-2.337
N7395 X-34.25 Y-0.952 I-5.931 J-2.218
N7400 X-36.133 Y0. I-1.887 J-1.394
N7405 G1 X-37.042
N7410 G3 X-37.269 Y-0.054 I0.021 J-0.6
N7415 X-37.619 Y-0.555 I0.249 J-0.546 F30000.
N7420 G1 X-39.007 Y-19.356
N7425 G3 X-38.657 Y-19.946 I0.598 J-0.044
N7430 X-38.429 Y-20. I0.249 J0.546 F900.
N7435 G1 X-37.529 F1000.
N7440 G3 X-36.306 Y-19.62 I-0.147 J2.63
N7445 X-34.856 Y-18.411 I-2.596 J4.588
N7450 X-33.357 Y-16.043 I-7.303 J6.281
N7455 X-32.159 Y-12.302 I-14.597 J6.737
N7460 X-31.992 Y-4.75 I-20.767 J4.237
N7465 X-32.638 Y-2.306 I-13.789 J-2.337
N7470 X-33.341 Y-0.952 I-5.931 J-2.218
N7475 X-35.224 Y0. I-1.887 J-1.394
N7480 G1 X-36.133
N7485 G3 X-36.36 Y-0.054 I0.021 J-0.6
N7490 X-36.71 Y-0.555 I0.249 J-0.546 F30000.
N7495 G1 X-38.107 Y-19.356
N7500 G3 X-37.757 Y-19.946 I0.598 J-0.044
N7505 X-37.529 Y-20. I0.249 J0.546 F900.
N7510 G1 X-36.63 F1000.
N7515 G3 X-35.397 Y-19.619 I-0.136 J2.626
N7520 X-33.947 Y-18.411 I-2.594 J4.585
N7525 X-32.448 Y-16.043 I-7.301 J6.28
N7530 X-31.25 Y-12.302 I-14.597 J6.737
N7535 X-31.083 Y-4.75 I-20.767 J4.237
N7540 X-31.729 Y-2.306 I-13.789 J-2.337
N7545 X-32.432 Y-0.952 I-5.931 J-2.218
N7550 X-34.315 Y0. I-1.887 J-1.394
N7555 G1 X-35.224
N7560 G3 X-35.452 Y-0.054 I0.021 J-0.6
N7565 X-35.801 Y-0.555 I0.249 J-0.546 F30000.
N7570 G1 X-37.207 Y-19.356
N7575 G3 X-36.858 Y-19.946 I0.598 J-0.045
N7580 X-36.63 Y-20. I0.249 J0.546 F900.
N7585 G1 X-35.73 F1000.
N7590 G3 X-34.488 Y-19.619 I-0.126 J2.624
N7595 X-33.038 Y-18.411 I-2.592 J4.583
N7600 X-31.539 Y-16.042 I-7.301 J6.279
N7605 X-30.341 Y-12.302 I-14.597 J6.737
N7610 X-30.174 Y-4.75 I-20.767 J4.236
N7615 X-30.82 Y-2.305 I-13.788 J-2.337
N7620 X-31.523 Y-0.952 I-5.93 J-2.218
N7625 X-33.406 Y0. I-1.887 J-1.394
N7630 G1 X-34.315
N7635 G3 X-34.543 Y-0.054 I0.021 J-0.6
N7640 X-34.892 Y-0.555 I0.249 J-0.546 F30000.
N7645 G1 X-36.307 Y-19.355
N7650 G3 X-35.958 Y-19.946 I0.598 J-0.045
N7655 X-35.73 Y-20. I0.249 J0.546 F900.
N7660 G1 X-34.83 F1000.
N7665 G3 X-33.578 Y-19.618 I-0.116 J2.624
N7670 X-32.129 Y-18.41 I-2.591 J4.582
N7675 X-30.63 Y-16.042 I-7.3 J6.279
N7680 X-29.432 Y-12.301 I-14.597 J6.736
N7685 X-29.265 Y-4.749 I-20.767 J4.236
N7690 X-29.912 Y-2.305 I-13.786 J-2.338
N7695 X-30.614 Y-0.952 I-5.929 J-2.218
N7700 X-32.497 Y0. I-1.887 J-1.394
N7705 G1 X-33.406
N7710 G3 X-33.634 Y-0.054 I0.021 J-0.6
N7715 X-33.983 Y-0.554 I0.249 J-0.546 F30000.
N7720 G1 X-35.407 Y-19.355
N7725 G3 X-35.058 Y-19.946 I0.598 J-0.045
N7730 X-34.83 Y-20. I0.249 J0.546 F900.
N7735 G1 X-33.93 F1000.
N7740 G3 X-32.669 Y-19.618 I-0.107 J2.624
N7745 X-31.22 Y-18.41 I-2.59 J4.581
N7750 X-29.721 Y-16.042 I-7.299 J6.278
N7755 X-28.523 Y-12.301 I-14.597 J6.736
N7760 X-28.357 Y-4.749 I-20.767 J4.235
N7765 X-29.003 Y-2.305 I-13.785 J-2.338
N7770 X-29.705 Y-0.952 I-5.929 J-2.218
N7775 X-31.588 Y0. I-1.887 J-1.395
N7780 G1 X-32.497
N7785 G3 X-32.725 Y-0.054 I0.021 J-0.6
N7790 X-33.074 Y-0.554 I0.249 J-0.546 F30000.
N7795 G1 X-34.508 Y-19.355
N7800 G3 X-34.158 Y-19.946 I0.598 J-0.046
N7805 X-33.93 Y-20. I0.249 J0.546 F900.
N7810 G1 X-33.031 F1000.
N7815 G3 X-31.76 Y-19.617 I-0.098 J2.626
N7820 X-30.31 Y-18.409 I-2.589 J4.58
N7825 X-28.812 Y-16.041 I-7.299 J6.278
N7830 X-27.614 Y-12.3 I-14.597 J6.736
N7835 X-27.448 Y-4.748 I-20.767 J4.235
N7840 X-28.094 Y-2.304 I-13.784 J-2.338
N7845 X-28.796 Y-0.951 I-5.928 J-2.219
N7850 X-30.679 Y0. I-1.887 J-1.395
N7855 G1 X-31.588
N7860 G3 X-31.816 Y-0.054 I0.021 J-0.6
N7865 X-32.165 Y-0.554 I0.249 J-0.546 F30000.
N7870 G1 X-33.608 Y-19.354
N7875 G3 X-33.258 Y-19.946 I0.598 J-0.046
N7880 X-33.031 Y-20. I0.249 J0.546 F900.
N7885 G1 X-32.131 F1000.
N7890 G3 X-30.851 Y-19.617 I-0.089 J2.628
N7895 X-29.401 Y-18.409 I-2.589 J4.58
N7900 X-27.903 Y-16.041 I-7.299 J6.278
N7905 X-26.705 Y-12.3 I-14.597 J6.735
N7910 X-26.539 Y-4.748 I-20.767 J4.235
N7915 X-27.185 Y-2.304 I-13.783 J-2.338
N7920 X-27.887 Y-0.951 I-5.927 J-2.218
N7925 X-29.77 Y0. I-1.887 J-1.395
N7930 G1 X-30.511
N7935 G3 X-30.739 Y-0.054 I0.021 J-0.6
N7940 X-31.088 Y-0.548 I0.249 J-0.546 F30000.
N7945 G1 X-32.708 Y-19.349
N7950 G3 X-32.359 Y-19.946 I0.598 J-0.051
N7955 X-32.131 Y-20. I0.249 J0.546 F900.
N7960 G1 X-31.177 F1000.
N7965 G3 X-29.943 Y-19.619 I-0.138 J2.63
N7970 X-28.493 Y-18.41 I-2.594 J4.587
N7975 X-26.994 Y-16.042 I-7.301 J6.28
N7980 X-25.796 Y-12.301 I-14.596 J6.736
N7985 X-25.63 Y-4.749 I-20.766 J4.236
N7990 X-26.276 Y-2.305 I-13.787 J-2.338
N7995 X-26.978 Y-0.952 I-5.929 J-2.218
N8000 X-28.861 Y0. I-1.887 J-1.394
N8005 G1 X-29.611
N8010 G3 X-29.839 Y-0.054 I0.021 J-0.6
N8015 X-30.188 Y-0.55 I0.249 J-0.546 F30000.
N8020 G1 X-31.754 Y-19.351
N8025 G3 X-31.404 Y-19.946 I0.598 J-0.05
N8030 X-31.177 Y-20. I0.249 J0.546 F900.
N8035 G1 X-30.277 F1000.
N8040 G3 X-29.034 Y-19.619 I-0.126 J2.626
N8045 X-27.584 Y-18.41 I-2.592 J4.584
N8050 X-26.085 Y-16.042 I-7.301 J6.28
N8055 X-24.887 Y-12.301 I-14.596 J6.736
N8060 X-24.721 Y-4.749 I-20.766 J4.236
N8065 X-25.367 Y-2.305 I-13.787 J-2.338
N8070 X-26.069 Y-0.952 I-5.929 J-2.218
N8075 X-27.952 Y0. I-1.887 J-1.394
N8080 G1 X-28.712
N8085 G3 X-28.939 Y-0.054 I0.021 J-0.6
N8090 X-29.289 Y-0.55 I0.249 J-0.546 F30000.
N8095 G1 X-30.854 Y-19.351
N8100 G3 X-30.505 Y-19.946 I0.598 J-0.05
N8105 X-30.277 Y-20. I0.249 J0.546 F900.
N8110 G1 X-29.377 F1000.
N8115 G3 X-28.125 Y-19.618 I-0.116 J2.624
N8120 X-26.675 Y-18.41 I-2.591 J4.583
N8125 X-25.176 Y-16.042 I-7.3 J6.279
N8130 X-23.978 Y-12.301 I-14.597 J6.736
N8135 X-23.812 Y-4.749 I-20.767 J4.236
N8140 X-24.458 Y-2.305 I-13.786 J-2.338
N8145 X-25.16 Y-0.952 I-5.929 J-2.218
N8150 X-27.043 Y0. I-1.887 J-1.395
N8155 G1 X-27.812
N8160 G3 X-28.04 Y-0.054 I0.021 J-0.6
N8165 X-28.389 Y-0.55 I0.249 J-0.546 F30000.
N8170 G1 X-29.954 Y-19.351
N8175 G3 X-29.605 Y-19.946 I0.598 J-0.05
N8180 X-29.377 Y-20. I0.249 J0.546 F900.
N8185 G1 X-28.433 F1000.
N8190 G3 X-27.217 Y-19.62 I-0.157 J2.636
N8195 X-25.767 Y-18.411 I-2.598 J4.592
N8200 X-24.268 Y-16.043 I-7.303 J6.282
N8205 X-23.07 Y-12.302 I-14.597 J6.737
N8210 X-22.903 Y-4.75 I-20.767 J4.237
N8215 X-23.549 Y-2.306 I-13.789 J-2.337
N8220 X-24.251 Y-0.952 I-5.931 J-2.218
N8225 X-26.134 Y0. I-1.887 J-1.394
N8230 G1 X-26.912
N8235 G3 X-27.14 Y-0.054 I0.021 J-0.6
N8240 X-27.489 Y-0.551 I0.249 J-0.546 F30000.
N8245 G1 X-29.01 Y-19.352
N8250 G3 X-28.661 Y-19.946 I0.598 J-0.048
N8255 X-28.433 Y-20. I0.249 J0.546 F900.
N8260 G1 X-27.533 F1000.
N8265 G3 X-26.308 Y-19.62 I-0.145 J2.629
N8270 X-24.858 Y-18.411 I-2.595 J4.588
N8275 X-23.359 Y-16.043 I-7.302 J6.281
N8280 X-22.161 Y-12.302 I-14.597 J6.737
N8285 X-21.994 Y-4.75 I-20.767 J4.237
N8290 X-22.64 Y-2.306 I-13.789 J-2.337
N8295 X-23.342 Y-0.952 I-5.931 J-2.218
N8300 X-25.225 Y0. I-1.887 J-1.394
N8305 G1 X-26.012
N8310 G3 X-26.24 Y-0.054 I0.021 J-0.6
N8315 X-26.589 Y-0.551 I0.249 J-0.546 F30000.
N8320 G1 X-28.11 Y-19.352
N8325 G3 X-27.761 Y-19.946 I0.598 J-0.048
N8330 X-27.533 Y-20. I0.249 J0.546 F900.
N8335 G1 X-26.633 F1000.
N8340 G3 X-25.398 Y-19.619 I-0.134 J2.626
N8345 X-23.949 Y-18.411 I-2.593 J4.585
N8350 X-22.45 Y-16.043 I-7.301 J6.28
N8355 X-21.252 Y-12.302 I-14.597 J6.737
N8360 X-21.085 Y-4.75 I-20.767 J4.237
N8365 X-21.731 Y-2.306 I-13.788 J-2.337
N8370 X-22.433 Y-0.952 I-5.931 J-2.218
N8375 X-24.316 Y0. I-1.887 J-1.394
N8380 G1 X-25.112
N8385 G3 X-25.34 Y-0.054 I0.021 J-0.6
N8390 X-25.69 Y-0.551 I0.249 J-0.546 F30000.
N8395 G1 X-27.21 Y-19.352
N8400 G3 X-26.861 Y-19.946 I0.598 J-0.048
N8405 X-26.633 Y-20. I0.249 J0.546 F900.
N8410 G1 X-25.733 F1000.
N8415 G3 X-24.489 Y-19.619 I-0.124 J2.624
N8420 X-23.039 Y-18.41 I-2.592 J4.583
N8425 X-21.54 Y-16.042 I-7.301 J6.279
N8430 X-20.343 Y-12.302 I-14.597 J6.737
N8435 X-20.176 Y-4.75 I-20.767 J4.236
N8440 X-20.822 Y-2.305 I-13.787 J-2.337
N8445 X-21.525 Y-0.952 I-5.93 J-2.218
N8450 X-23.407 Y0. I-1.887 J-1.394
N8455 G1 X-24.316
N8460 G3 X-24.544 Y-0.054 I0.021 J-0.6
N8465 X-24.894 Y-0.555 I0.249 J-0.546 F30000.
N8470 G1 X-26.311 Y-19.355
N8475 G3 X-25.961 Y-19.946 I0.598 J-0.045
N8480 X-25.733 Y-20. I0.249 J0.546 F900.
N8485 G1 X-24.833 F1000.
N8490 G3 X-23.58 Y-19.618 I-0.114 J2.624
N8495 X-22.13 Y-18.41 I-2.591 J4.582
N8500 X-20.631 Y-16.042 I-7.3 J6.279
N8505 X-19.434 Y-12.301 I-14.597 J6.736
N8510 X-19.267 Y-4.749 I-20.767 J4.236
N8515 X-19.913 Y-2.305 I-13.786 J-2.338
N8520 X-20.616 Y-0.952 I-5.929 J-2.218
N8525 X-22.498 Y0. I-1.887 J-1.395
N8530 G1 X-23.407
N8535 G3 X-23.635 Y-0.054 I0.021 J-0.6
N8540 X-23.985 Y-0.554 I0.249 J-0.546 F30000.
N8545 G1 X-25.411 Y-19.355
N8550 G3 X-25.061 Y-19.946 I0.598 J-0.045
N8555 X-24.833 Y-20. I0.249 J0.546 F900.
N8560 G1 X-23.934 F1000.
N8565 G3 X-22.671 Y-19.618 I-0.105 J2.624
N8570 X-21.221 Y-18.41 I-2.59 J4.581
N8575 X-19.722 Y-16.042 I-7.299 J6.278
N8580 X-18.524 Y-12.301 I-14.597 J6.736
N8585 X-18.358 Y-4.749 I-20.767 J4.235
N8590 X-19.004 Y-2.305 I-13.785 J-2.338
N8595 X-19.707 Y-0.951 I-5.928 J-2.218
N8600 X-21.589 Y0. I-1.887 J-1.395
N8605 G1 X-22.498
N8610 G3 X-22.726 Y-0.054 I0.021 J-0.6
N8615 X-23.076 Y-0.554 I0.249 J-0.546 F30000.
N8620 G1 X-24.511 Y-19.355
N8625 G3 X-24.162 Y-19.946 I0.598 J-0.046
N8630 X-23.934 Y-20. I0.249 J0.546 F900.
N8635 G1 X-23.034 F1000.
N8640 G3 X-21.761 Y-19.617 I-0.096 J2.626
N8645 X-20.312 Y-18.409 I-2.589 J4.58
N8650 X-18.813 Y-16.041 I-7.299 J6.278
N8655 X-17.615 Y-12.3 I-14.597 J6.736
N8660 X-17.449 Y-4.748 I-20.767 J4.235
N8665 X-18.096 Y-2.304 I-13.784 J-2.338
N8670 X-18.798 Y-0.951 I-5.927 J-2.219
N8675 X-20.68 Y0. I-1.887 J-1.395
N8680 G1 X-21.589
N8685 G3 X-21.817 Y-0.054 I0.021 J-0.6
N8690 X-22.167 Y-0.554 I0.249 J-0.546 F30000.
N8695 G1 X-23.611 Y-19.354
N8700 G3 X-23.262 Y-19.946 I0.598 J-0.046
N8705 X-23.034 Y-20. I0.249 J0.546 F900.
N8710 G1 X-22.09 F1000.
N8715 G3 X-20.854 Y-19.619 I-0.134 J2.629
N8720 X-19.404 Y-18.41 I-2.594 J4.586
N8725 X-17.905 Y-16.042 I-7.301 J6.28
N8730 X-16.707 Y-12.301 I-14.596 J6.736
N8735 X-16.54 Y-4.749 I-20.767 J4.236
N8740 X-17.186 Y-2.305 I-13.787 J-2.338
N8745 X-17.889 Y-0.952 I-5.929 J-2.218
N8750 X-19.771 Y0. I-1.887 J-1.394
N8755 G1 X-20.68
N8760 G3 X-20.908 Y-0.054 I0.021 J-0.6
N8765 X-21.258 Y-0.555 I0.249 J-0.546 F30000.
N8770 G1 X-22.667 Y-19.356
N8775 G3 X-22.317 Y-19.946 I0.598 J-0.045
N8780 X-22.09 Y-20. I0.249 J0.546 F900.
N8785 G1 X-21.19 F1000.
N8790 G3 X-19.944 Y-19.619 I-0.123 J2.625
N8795 X-18.495 Y-18.41 I-2.592 J4.584
N8800 X-16.996 Y-16.042 I-7.3 J6.279
N8805 X-15.798 Y-12.301 I-14.596 J6.736
N8810 X-15.631 Y-4.749 I-20.767 J4.236
N8815 X-16.277 Y-2.305 I-13.787 J-2.338
N8820 X-16.98 Y-0.952 I-5.929 J-2.218
N8825 X-18.862 Y0. I-1.887 J-1.394
N8830 G1 X-19.771
N8835 G3 X-19.999 Y-0.054 I0.021 J-0.6
N8840 X-20.349 Y-0.554 I0.249 J-0.546 F30000.
N8845 G1 X-21.767 Y-19.355
N8850 G3 X-21.418 Y-19.946 I0.598 J-0.045
N8855 X-21.19 Y-20. I0.249 J0.546 F900.
N8860 G1 X-20.254 F1000.
N8865 G3 X-19.036 Y-19.62 I-0.155 J2.634
N8870 X-17.586 Y-18.411 I-2.598 J4.591
N8875 X-16.087 Y-16.043 I-7.303 J6.281
N8880 X-14.889 Y-12.302 I-14.597 J6.737
N8885 X-14.722 Y-4.75 I-20.767 J4.237
N8890 X-15.368 Y-2.306 I-13.789 J-2.337
N8895 X-16.071 Y-0.952 I-5.931 J-2.218
N8900 X-17.954 Y0. I-1.887 J-1.394
N8905 G1 X-18.862
N8910 G3 X-19.09 Y-0.054 I0.021 J-0.6
N8915 X-19.44 Y-0.555 I0.249 J-0.546 F30000.
N8920 G1 X-20.831 Y-19.356
N8925 G3 X-20.481 Y-19.946 I0.598 J-0.044
N8930 X-20.254 Y-20. I0.249 J0.546 F900.
N8935 G1 X-19.354 F1000.
N8940 G3 X-18.127 Y-19.62 I-0.143 J2.628
N8945 X-16.677 Y-18.411 I-2.595 J4.587
N8950 X-15.178 Y-16.043 I-7.302 J6.281
N8955 X-13.98 Y-12.302 I-14.597 J6.737
N8960 X-13.813 Y-4.75 I-20.767 J4.237
N8965 X-14.459 Y-2.306 I-13.789 J-2.337
N8970 X-15.162 Y-0.952 I-5.931 J-2.218
N8975 X-17.045 Y0. I-1.887 J-1.394
N8980 G1 X-17.954
N8985 G3 X-18.181 Y-0.054 I0.021 J-0.6
N8990 X-18.531 Y-0.555 I0.249 J-0.546 F30000.
N8995 G1 X-19.931 Y-19.356
N9000 G3 X-19.582 Y-19.946 I0.598 J-0.045
N9005 X-19.354 Y-20. I0.249 J0.546 F900.
N9010 G1 X-18.454 F1000.
N9015 G3 X-17.218 Y-19.619 I-0.132 J2.626
N9020 X-15.768 Y-18.411 I-2.593 J4.585
N9025 X-14.269 Y-16.043 I-7.301 J6.28
N9030 X-13.071 Y-12.302 I-14.597 J6.737
N9035 X-12.904 Y-4.75 I-20.767 J4.237
N9040 X-13.55 Y-2.306 I-13.788 J-2.337
N9045 X-14.253 Y-0.952 I-5.931 J-2.218
N9050 X-16.136 Y0. I-1.887 J-1.394
N9055 G1 X-17.045
N9060 G3 X-17.272 Y-0.054 I0.021 J-0.6
N9065 X-17.622 Y-0.555 I0.249 J-0.546 F30000.
N9070 G1 X-19.031 Y-19.356
N9075 G3 X-18.682 Y-19.946 I0.598 J-0.045
N9080 X-18.454 Y-20. I0.249 J0.546 F900.
N9085 G1 X-17.554 F1000.
N9090 G3 X-16.308 Y-19.619 I-0.122 J2.624
N9095 X-14.859 Y-18.41 I-2.591 J4.583
N9100 X-13.36 Y-16.042 I-7.3 J6.279
N9105 X-12.162 Y-12.301 I-14.597 J6.737
N9110 X-11.995 Y-4.75 I-20.767 J4.236
N9115 X-12.641 Y-2.305 I-13.787 J-2.337
N9120 X-13.344 Y-0.952 I-5.93 J-2.218
N9125 X-15.227 Y0. I-1.887 J-1.394
N9130 G1 X-16.136
N9135 G3 X-16.364 Y-0.054 I0.021 J-0.6
N9140 X-16.713 Y-0.554 I0.249 J-0.546 F30000.
N9145 G1 X-18.132 Y-19.355
N9150 G3 X-17.782 Y-19.946 I0.598 J-0.045
N9155 X-17.554 Y-20. I0.249 J0.546 F900.
N9160 G1 X-16.654 F1000.
N9165 G3 X-15.399 Y-19.618 I-0.112 J2.624
N9170 X-13.95 Y-18.41 I-2.59 J4.581
N9175 X-12.451 Y-16.042 I-7.3 J6.279
N9180 X-11.253 Y-12.301 I-14.597 J6.736
N9185 X-11.086 Y-4.749 I-20.767 J4.236
N9190 X-11.733 Y-2.305 I-13.786 J-2.338
N9195 X-12.435 Y-0.952 I-5.929 J-2.218
N9200 X-14.318 Y0. I-1.887 J-1.395
N9205 G1 X-15.227
N9210 G3 X-15.455 Y-0.054 I0.021 J-0.6
N9215 X-15.804 Y-0.554 I0.249 J-0.546 F30000.
N9220 G1 X-17.232 Y-19.355
N9225 G3 X-16.882 Y-19.946 I0.598 J-0.045
N9230 X-16.654 Y-20. I0.249 J0.546 F900.
N9235 G1 X-15.755 F1000.
N9240 G3 X-14.49 Y-19.618 I-0.103 J2.625
N9245 X-13.04 Y-18.41 I-2.59 J4.581
N9250 X-11.542 Y-16.041 I-7.299 J6.278
N9255 X-10.344 Y-12.301 I-14.597 J6.736
N9260 X-10.178 Y-4.749 I-20.767 J4.235
N9265 X-10.824 Y-2.305 I-13.785 J-2.338
N9270 X-11.526 Y-0.951 I-5.928 J-2.218
N9275 X-13.409 Y0. I-1.887 J-1.395
N9280 G1 X-14.318
N9285 G3 X-14.546 Y-0.054 I0.021 J-0.6
N9290 X-14.895 Y-0.554 I0.249 J-0.546 F30000.
N9295 G1 X-16.332 Y-19.355
N9300 G3 X-15.982 Y-19.946 I0.598 J-0.046
N9305 X-15.755 Y-20. I0.249 J0.546 F900.
N9310 G1 X-14.855 F1000.
N9315 G3 X-13.581 Y-19.617 I-0.094 J2.626
N9320 X-12.131 Y-18.409 I-2.589 J4.58
N9325 X-10.633 Y-16.041 I-7.299 J6.278
N9330 X-9.435 Y-12.3 I-14.597 J6.736
N9335 X-9.269 Y-4.748 I-20.767 J4.235
N9340 X-9.915 Y-2.304 I-13.784 J-2.338
N9345 X-10.617 Y-0.951 I-5.927 J-2.218
N9350 X-12.5 Y0. I-1.887 J-1.395
N9355 G1 X-13.409
N9360 G3 X-13.637 Y-0.054 I0.021 J-0.6
N9365 X-13.986 Y-0.554 I0.249 J-0.546 F30000.
N9370 G1 X-15.432 Y-19.354
N9375 G3 X-15.083 Y-19.946 I0.598 J-0.046
N9380 X-14.855 Y-20. I0.249 J0.546 F900.
N9385 G1 X-13.901 F1000.
N9390 G3 X-12.673 Y-19.619 I-0.144 J2.632
N9395 X-11.223 Y-18.41 I-2.596 J4.589
N9400 X-9.724 Y-16.042 I-7.302 J6.28
N9405 X-8.526 Y-12.302 I-14.596 J6.737
N9410 X-8.359 Y-4.75 I-20.767 J4.236
N9415 X-9.006 Y-2.305 I-13.788 J-2.338
N9420 X-9.708 Y-0.952 I-5.929 J-2.218
N9425 X-11.591 Y0. I-1.887 J-1.394
N9430 G1 X-12.335
N9435 G3 X-12.563 Y-0.054 I0.021 J-0.6
N9440 X-12.912 Y-0.55 I0.249 J-0.546 F30000.
N9445 G1 X-14.478 Y-19.351
N9450 G3 X-14.128 Y-19.946 I0.598 J-0.05
N9455 X-13.901 Y-20. I0.249 J0.546 F900.
N9460 G1 X-13.001 F1000.
N9465 G3 X-11.764 Y-19.619 I-0.132 J2.626
N9470 X-10.314 Y-18.41 I-2.593 J4.585
N9475 X-8.815 Y-16.042 I-7.301 J6.28
N9480 X-7.617 Y-12.302 I-14.596 J6.737
N9485 X-7.45 Y-4.75 I-20.767 J4.236
N9490 X-8.097 Y-2.305 I-13.788 J-2.338
N9495 X-8.799 Y-0.952 I-5.93 J-2.218
N9500 X-10.682 Y0. I-1.887 J-1.394
N9505 G1 X-11.436
N9510 G3 X-11.664 Y-0.054 I0.021 J-0.6
N9515 X-12.013 Y-0.55 I0.249 J-0.546 F30000.
N9520 G1 X-13.578 Y-19.351
N9525 G3 X-13.229 Y-19.946 I0.598 J-0.05
N9530 X-13.001 Y-20. I0.249 J0.546 F900.
N9535 G1 X-12.101 F1000.
N9540 G3 X-10.855 Y-19.619 I-0.122 J2.625
N9545 X-9.405 Y-18.41 I-2.592 J4.583
N9550 X-7.906 Y-16.042 I-7.3 J6.279
N9555 X-7.037 Y-13.661 I-12.492 J5.907
N9560 G1 X-7.01 Y-13.443
N9565 X-7. Y-13.224
N9570 Y-4.243
N9575 G3 X-7.571 Y-1.618 I-6.759 J-0.095
N9580 X-8.032 Y-0.846 I-3.481 J-1.556
N9585 X-9.832 Y0. I-1.803 J-1.497
N9590 X-10.06 Y-0.054 I0.021 J-0.6
N9595 X-10.323 Y-0.912 I0.249 J-0.546 F30000.
N9600 G1 X-8.112 Y-4.535
N9605 G3 X-7.054 Y-4.471 I0.512 J0.313
N9610 X-7. Y-4.243 I-0.546 J0.249 F900.
N9615 G1 Y-2.264 F1000.
N9620 G3 X-7.339 Y-0.993 I-2.442 J0.029
N9625 X-8.359 Y-0.15 I-1.83 J-1.175
N9630 G1 X-8.614 Y-0.067
N9635 X-8.878 Y-0.017
N9640 X-9.146 Y0.
N9645 G3 X-9.374 Y-0.054 I0.021 J-0.6
N9650 X-9.565 Y-1.008 I0.249 J-0.546 F30000.
N9655 G1 X-8.039 Y-2.652
N9660 G3 X-7.054 Y-2.492 I0.44 J0.408
N9665 X-7. Y-2.264 I-0.546 J0.249 F900.
N9670 G1 Y-1.311 F1000.
N9675 X-7.004 Y-1.238
N9680 X-7.008 Y-1.191
N9685 X-7.016 Y-1.136
N9690 X-7.091 Y-0.872
N9695 X-7.218 Y-0.628
N9700 X-7.39 Y-0.414
N9705 X-7.601 Y-0.239
N9710 X-7.842 Y-0.108
N9715 X-8.104 Y-0.027
N9720 X-8.377 Y0.
N9725 G3 X-8.611 Y-0.03 I0.044 J-1.274
N9730 X-9.548 Y-1.661 I0.278 J-1.244 F30000.
N9735 X-7.029 Y-1.544 I1.244 J0.396
N9740 X-7. Y-1.311 I-1.275 J0.279 F900.
N9745 G1 Y-0.825 F1000.
N9750 X-7.004 Y-0.755
N9755 X-7.007 Y-0.721
N9760 X-7.011 Y-0.689
N9765 X-7.017 Y-0.655
N9770 X-7.097 Y-0.443
N9775 X-7.23 Y-0.26
N9780 X-7.406 Y-0.119
N9785 X-7.614 Y-0.03
N9790 X-7.838 Y0.
N9795 G3 X-8.069 Y-0.043 I0.028 J-0.799
N9800 X-8.581 Y-1.012 I0.259 J-0.756 F30000.
N9805 X-7.042 Y-1.056 I0.776 J0.215
N9810 X-7. Y-0.825 I-0.762 J0.259 F900.
N9815 G1 Y-0.645 F1000.
N9820 G3 X-7.656 Y-0.001 I-0.622 J0.024
N9825 G1 X-10.536 Y0.
N9830 G3 X-10.764 Y-0.054 I0.021 J-0.6
N9835 X-11.113 Y-0.55 I0.249 J-0.546 F30000.
N9840 G1 X-12.678 Y-19.351
N9845 G3 X-12.329 Y-19.946 I0.598 J-0.05
N9850 X-12.101 Y-20. I0.249 J0.546 F900.
N9855 G1 X-11.201 F1000.
N9860 G3 X-9.946 Y-19.618 I-0.112 J2.624
N9865 X-8.496 Y-18.41 I-2.59 J4.582
N9870 X-7.179 Y-16.407 I-6.693 J5.836
N9875 X-7. Y-15.509 I-2.187 J0.902
N9880 X-7.054 Y-15.281 I-0.6 J-0.021
N9885 X-8.04 Y-15.122 I-0.546 J-0.249 F30000.
N9890 G1 X-11.621 Y-18.993
N9895 G3 X-11.429 Y-19.946 I0.44 J-0.407
N9900 X-11.201 Y-20. I0.249 J0.546 F900.
N9905 G1 X-10.257 F1000.
N9910 G3 X-9.038 Y-19.62 I-0.153 J2.634
N9915 X-7.386 Y-18.154 I-2.599 J4.594
N9920 X-7. Y-16.867 I-1.975 J1.293
N9925 X-7.054 Y-16.639 I-0.6 J-0.021
N9930 X-8.014 Y-16.453 I-0.546 J-0.249 F30000.
N9935 G1 X-10.65 Y-18.966
N9940 G3 X-10.485 Y-19.946 I0.414 J-0.434
N9945 X-10.257 Y-20. I0.249 J0.546 F900.
N9950 G1 X-9.357 F1000.
N9955 G3 X-7.475 Y-19.038 I-0.127 J2.571
N9960 X-6.999 Y-17.621 I-1.902 J1.427
N9965 G1 X-7.008 Y-17.543
N9970 X-7.026 Y-17.467
N9975 X-7.054 Y-17.393
N9980 G3 X-8.027 Y-17.221 I-0.546 J-0.249 F30000.
N9985 G1 X-9.763 Y-18.979
N9990 G3 X-9.585 Y-19.946 I0.427 J-0.422
N9995 X-9.357 Y-20. I0.249 J0.546 F900.
N10000 G1 X-8.502 F1000.
N10005 G3 X-8.22 Y-19.969 I-0.027 J1.556
N10010 G1 X-7.969 Y-19.889
N10015 X-7.734 Y-19.768
N10020 X-7.524 Y-19.61
N10025 X-7.342 Y-19.418
N10030 X-7.196 Y-19.199
N10035 X-7.088 Y-18.958
N10040 X-7.022 Y-18.703
N10045 X-7. Y-18.44
N10050 G3 X-7.054 Y-18.212 I-0.6 J-0.021
N10055 X-8.037 Y-18.05 I-0.546 J-0.249 F30000.
N10060 G1 X-8.919 Y-18.99
N10065 G3 X-8.73 Y-19.946 I0.438 J-0.41
N10070 X-8.502 Y-20. I0.249 J0.546 F900.
N10075 G1 X-7.917 F1000.
N10080 X-7.865 Y-19.997
N10085 X-7.831 Y-19.994
N10090 X-7.793 Y-19.989
N10095 X-7.539 Y-19.905
N10100 X-7.317 Y-19.754
N10105 X-7.146 Y-19.548
N10110 X-7.037 Y-19.303
N10115 X-7. Y-19.038
N10120 G3 X-7.039 Y-18.806 I-0.892 J-0.031
N10125 X-8.16 Y-18.218 I-0.853 J-0.263 F30000.
N10130 X-8.149 Y-19.962 I0.274 J-0.87
N10135 X-7.917 Y-20. I0.264 J0.873 F900.
N10140 G1 X-7.657 F1000.
N10145 G3 X-7. Y-19.355 I0.034 J0.622
N10150 G1 Y-13.224
N10155 G3 X-7.054 Y-12.996 I-0.6 J-0.021
N10160 G1 X-7.093 Y-12.911 Z-3.493
N10165 X-7.131 Y-12.828 Z-3.471
N10170 X-7.167 Y-12.748 Z-3.435
N10175 X-7.2 Y-12.675 Z-3.385
N10180 X-7.23 Y-12.61 Z-3.324
N10185 X-7.255 Y-12.555 Z-3.253
N10190 X-7.275 Y-12.51 Z-3.172
N10195 X-7.29 Y-12.477 Z-3.085
N10200 X-7.299 Y-12.457 Z-2.994
N10205 X-7.302 Y-12.45 Z-2.9
N10210 G0 Z4.
N10220 M9
N10225 G53 Z0.
N10230 M30
%
