%
(1)
(T1  D=6. CR=0. - ZMIN=-8.5 - FLAT END MILL)
N10 G90 G94 G17 G91.1
N15 G21
N20 G53 G0 Z0.
(2D ADAPTIVE3)
N25 M9
N30 T1 M6
N35 S3300 M3
N40 G54
N45 M8
N55 G0 X27.681 Y-9.602
N60 G43 Z4. H1
N65 G0 Z2.51
N70 G1 Z2.505 F900.
N75 S2800
N80 G3 X32.319 Y-12.916 Z2.192 I2.319 J-1.657 F700.
N85 X27.681 Y-9.602 Z1.88 I-2.319 J1.657
N90 X32.319 Y-12.916 Z1.567 I2.319 J-1.657
N95 X27.681 Y-9.602 Z1.254 I-2.319 J1.657
N100 X32.319 Y-12.916 Z0.942 I2.319 J-1.657
N105 X27.681 Y-9.602 Z0.629 I-2.319 J1.657
N110 X32.319 Y-12.916 Z0.316 I2.319 J-1.657
N115 X27.681 Y-9.602 Z0.004 I-2.319 J1.657
N120 X32.319 Y-12.916 Z-0.309 I2.319 J-1.657
N125 X27.681 Y-9.602 Z-0.622 I-2.319 J1.657
N130 X32.319 Y-12.916 Z-0.934 I2.319 J-1.657
N135 X27.681 Y-9.602 Z-1.247 I-2.319 J1.657
N140 X32.319 Y-12.916 Z-1.56 I2.319 J-1.657
N145 X27.681 Y-9.602 Z-1.872 I-2.319 J1.657
N150 X32.319 Y-12.916 Z-2.185 I2.319 J-1.657
N155 X27.681 Y-9.602 Z-2.498 I-2.319 J1.657
N160 X32.319 Y-12.916 Z-2.81 I2.319 J-1.657
N165 X27.681 Y-9.602 Z-3.123 I-2.319 J1.657
N170 X32.319 Y-12.916 Z-3.436 I2.319 J-1.657
N175 X27.681 Y-9.602 Z-3.748 I-2.319 J1.657
N180 X32.319 Y-12.916 Z-4.061 I2.319 J-1.657
N185 X27.681 Y-9.602 Z-4.374 I-2.319 J1.657
N190 X32.319 Y-12.916 Z-4.686 I2.319 J-1.657
N195 X27.681 Y-9.602 Z-4.999 I-2.319 J1.657
N200 X32.319 Y-12.916 Z-5.312 I2.319 J-1.657
N205 X27.681 Y-9.602 Z-5.624 I-2.319 J1.657
N210 X32.319 Y-12.916 Z-5.937 I2.319 J-1.657
N215 X27.681 Y-9.602 Z-6.25 I-2.319 J1.657
N220 X32.319 Y-12.916 Z-6.562 I2.319 J-1.657
N225 X27.681 Y-9.602 Z-6.875 I-2.319 J1.657
N230 X32.319 Y-12.916 Z-7.188 I2.319 J-1.657
N235 X27.681 Y-9.602 Z-7.5 I-2.319 J1.657
N240 X32.319 Y-12.916 Z-7.813 I2.319 J-1.657
N245 X27.681 Y-9.602 Z-8.126 I-2.319 J1.657
N250 X32.319 Y-12.916 Z-8.438 I2.319 J-1.657
N255 X32.85 Y-11.259 Z-8.5 I-2.319 J1.657
N260 X27.15 I-2.85 J0.
N265 X32.85 I2.85 J0.
N270 S3300
N275 G2 X32.932 Y-10.489 I2.594 J0.112 F1000.
N280 G3 X32.499 Y-9.095 I-2.07 J0.122
N285 X30.926 Y-7.985 I-2.381 J-1.705
N290 X26.648 Y-10.526 I-0.971 J-3.238
N295 X33.163 Y-12.597 I3.352 J-0.739
N300 X33.597 Y-10.934 I-4.686 J2.111
N305 X31.765 Y-7.69 I-3.434 J0.199
N310 X27.737 Y-7.895 I-1.846 J-3.406
N315 X30.399 Y-15.304 I2.252 J-3.374
N320 X33.397 Y-13.501 I-0.385 J4.032
N325 X34.231 Y-10.232 I-3.818 J2.715
N330 X30.883 Y-6.676 I-4.214 J-0.614
N335 X26.011 Y-8.72 I-0.98 J-4.494
N340 X33.017 Y-14.911 I3.986 J-2.549
N345 X34.9 Y-10.06 I-3.324 J4.082
N350 X30.456 Y-5.909 I-4.929 J-0.823
N355 X25.126 Y-8.859 I-0.562 J-5.276
N360 X32.792 Y-15.93 I4.87 J-2.412
N365 X35.481 Y-9.356 I-2.998 J5.063
N370 X29.873 Y-5.154 I-5.549 J-1.563
N375 X24.042 Y-9.662 I0.022 J-6.054
N380 X32.578 Y-16.874 I5.954 J-1.61
N385 X36.38 Y-11.661 I-2.737 J5.99
N390 X31.338 Y-4.565 I-6.415 J0.781
N395 X24.737 Y-6.771 I-1.471 J-6.576
N400 X31.084 Y-18.108 I5.25 J-4.506
N405 X35.919 Y-15.013 I-1.121 J7.076
N410 X30.805 Y-3.691 I-5.981 J4.115
N415 X23.003 Y-8.048 I-0.934 J-7.49
N420 X31.711 Y-18.779 I6.988 J-3.228
N425 X36.948 Y-14.843 I-1.757 J7.788
N430 X31.496 Y-3.008 I-7.007 J3.945
N435 X22.632 Y-7.046 I-1.637 J-8.156
N440 X28.823 Y-19.682 I7.349 J-4.234
N445 X36.247 Y-17.109 I1.189 J8.566
N450 X31.017 Y-2.116 I-6.322 J6.203
N455 X21.701 Y-7.071 I-1.159 J-9.058
N460 X30.427 Y-20.563 I8.286 J-4.209
N465 X37.639 Y-16.735 I-0.428 J9.513
N470 X31.675 Y-1.395 I-7.71 J5.832
N475 X21.623 Y-5.595 I-1.827 J-9.755
N480 X26.424 Y-20.74 I8.35 J-5.687
N485 X35.822 Y-19.595 I3.604 J9.557
N490 X31.327 Y-0.5 I-5.902 J8.687
N495 X20.723 Y-5.454 I-1.48 J-10.659
N500 X28.591 Y-22.134 I9.257 J-5.829
N505 X38.053 Y-18.804 I1.435 J11.032
N510 X32.261 Y0.186 I-8.128 J7.899
N515 X20.384 Y-4.45 I-2.421 J-11.329
N520 X24.39 Y-21.648 I9.582 J-6.834
N525 X35.967 Y-21.485 I5.642 J10.445
N530 X32.598 Y0.979 I-6.045 J10.578
N535 X19.873 Y-3.709 I-2.762 J-12.118
N540 X24.685 Y-22.747 I10.094 J-7.576
N545 X36.803 Y-21.98 I5.351 J11.559
N550 X33.22 Y1.708 I-6.879 J11.074
N555 X20.299 Y-1.893 I-3.389 J-12.823
N560 X23.439 Y-23.077 I9.662 J-9.392
N565 X36.637 Y-23.075 I6.597 J11.87
N570 X42.042 Y-4.101 I-6.705 J12.167
N575 X27.502 Y2.814 I-12.178 J-6.862
N580 X15.732 Y-9.524 I2.367 J-14.041
N585 X30.132 Y-25.648 I14.26 J-1.757
N590 X42.533 Y-18.589 I-0.113 J14.621
N595 X34.679 Y3.077 I-12.603 J7.687
N600 X19.721 Y-0.036 I-4.853 J-14.176
N605 X20.35 Y-23.076 I10.228 J-11.25
N610 X35.721 Y-25.432 I9.681 J11.841
N615 X45.553 Y-11.54 I-5.761 J14.503
N620 X33.173 Y4.404 I-15.638 J0.636
N625 X17.707 Y-0.855 I-3.346 J-15.533
N630 X22.338 Y-25.461 I12.255 J-10.432
N635 X37.972 Y-25.337 I7.704 J14.265
N640 X41.114 Y1.254 I-8.037 J14.431
N645 X22.765 Y4.077 I-11.281 J-12.278
N650 X13.25 Y-14.257 I7.13 J-15.336
N655 X31.303 Y-28.241 I16.752 J2.981
N660 X45.666 Y-18.344 I-1.289 J17.241
N665 X35.874 Y5.462 I-15.737 J7.444
N670 X18.007 Y1.99 I-6.053 J-16.557
N675 X17.709 Y-24.287 I11.937 J-13.275
N680 X36.021 Y-28.158 I12.323 J13.048
N685 X47.961 Y-14.021 I-6.041 J17.214
N690 X34.754 Y6.758 I-18.043 J3.118
N695 X16.617 Y1.9 I-4.933 J-17.87
N700 X18.512 Y-26.149 I13.334 J-13.188
N705 X37.406 Y-28.583 I11.527 J14.927
N710 X49.105 Y-10.037 I-7.441 J17.657
N715 X33.33 Y8.004 I-19.2 J-0.871
N720 X14.036 Y0.243 I-3.506 J-19.146
N725 X18.023 Y-26.908 I15.918 J-11.531
N730 X38.243 Y-29.2 I12.019 J15.697
N735 X49.146 Y-5.023 I-8.289 J18.284
N740 X30.788 Y9.201 I-19.262 J-5.901
N745 X11.806 Y-1.629 I-0.957 J-20.373
N750 X23.434 Y-30.797 I18.167 J-9.66
N755 X42.406 Y-27.801 I6.619 J19.652
N760 X50.741 Y-13.734 I-12.427 J16.866
N765 G1 X50.748 Y-13.627
N770 X50.75 Y-13.52
N775 Y-9.46
N780 G3 X50.672 Y-8.056 I-24.061 J-0.638
N785 X48.884 Y-1.871 I-18.887 J-2.107
N790 X30.807 Y10.107 I-18.998 J-9.041
N795 X12.094 Y0.62 I-0.981 J-21.265
N800 X9.341 Y-5.291 I17.608 J-11.796
N805 G1 X9.29 Y-5.503
N810 X9.26 Y-5.718
N815 X9.25 Y-5.935
N820 Y-15.397
N825 G3 X9.79 Y-18.432 I10.361 J0.277
N830 X11.816 Y-22.748 I17.505 J5.583
N835 X24.712 Y-32.121 I18.141 J11.401
N840 G1 X24.911 Y-32.141
N845 X25.11 Y-32.15
N850 X33.71
N855 G3 X37.023 Y-31.574 I-0.284 J11.439
N860 X41.601 Y-29.445 I-5.732 J18.312
N865 X50.619 Y-18.123 I-11.57 J18.468
N870 G1 X50.692 Y-17.873
N875 X50.735 Y-17.616
N880 X50.75 Y-17.356
N885 Y-13.52
N890 G3 X50.696 Y-13.292 I-0.6 J-0.021
N895 X49.707 Y-13.136 I-0.546 J-0.249 F30000.
N900 G1 X33.287 Y-31.146
N905 G3 X33.482 Y-32.096 I0.443 J-0.404
N910 X33.71 Y-32.15 I0.249 J0.546 F900.
N915 G1 X36.59 F1000.
N920 G3 X38.985 Y-31.684 I-0.215 J7.502
N925 X42.262 Y-30.08 I-5.195 J14.755
N930 X48.542 Y-24.114 I-11.711 J18.616
N935 X50.516 Y-20.764 I-17.911 J12.811
N940 X50.75 Y-19.747 I-2.079 J1.013
N945 G1 Y-17.356
N950 G3 X50.696 Y-17.128 I-0.6 J-0.021
N955 X49.717 Y-16.963 I-0.546 J-0.249 F30000.
N960 G1 X36.177 Y-31.136
N965 G3 X36.362 Y-32.096 I0.434 J-0.414
N970 X36.59 Y-32.15 I0.249 J0.546 F900.
N975 G1 X38.749 F1000.
N980 G3 X40.743 Y-31.741 I-0.185 J5.964
N985 X43.483 Y-30.32 I-4.571 J12.166
N990 X47.892 Y-26.419 I-11.653 J17.611
N995 X50.431 Y-22.876 I-17.172 J14.986
N1000 X50.75 Y-21.699 I-2. J1.174
N1005 G1 Y-19.894
N1010 G3 X50.696 Y-19.666 I-0.6 J-0.021
N1015 X49.721 Y-19.496 I-0.546 J-0.249 F30000.
N1020 G1 X38.341 Y-31.131
N1025 G3 X38.522 Y-32.096 I0.429 J-0.42
N1030 X38.749 Y-32.15 I0.249 J0.546 F900.
N1035 G1 X40.549 F1000.
N1040 G3 X42.358 Y-31.77 I-0.145 J5.186
N1045 X44.821 Y-30.427 I-4.121 J10.484
N1050 X48.376 Y-27.247 I-11.395 J16.318
N1055 X50.357 Y-24.712 I-16.645 J15.049
N1060 X50.75 Y-23.416 I-1.937 J1.295
N1065 G1 Y-21.699
N1070 G3 X50.696 Y-21.471 I-0.6 J-0.021
N1075 X49.721 Y-21.301 I-0.546 J-0.249 F30000.
N1080 G1 X40.141 Y-31.132
N1085 G3 X40.321 Y-32.096 I0.43 J-0.419
N1090 X40.549 Y-32.15 I0.249 J0.546 F900.
N1095 G1 X42.268 F1000.
N1100 G3 X43.876 Y-31.782 I-0.213 J4.63
N1105 X46.074 Y-30.541 I-3.774 J9.249
N1110 X49.183 Y-27.702 I-10.901 J15.06
N1115 X50.299 Y-26.353 I-13.634 J12.415
N1120 X50.75 Y-24.973 I-1.888 J1.381
N1125 G1 Y-23.416
N1130 G3 X50.696 Y-23.188 I-0.6 J-0.021
N1135 X49.719 Y-23.019 I-0.546 J-0.249 F30000.
N1140 G1 X41.858 Y-31.133
N1145 G3 X42.04 Y-32.096 I0.431 J-0.418
N1150 X42.268 Y-32.15 I0.249 J0.546 F900.
N1155 G1 X43.789 F1000.
N1160 G3 X45.246 Y-31.813 I-0.213 J4.236
N1165 X47.198 Y-30.706 I-3.32 J8.132
N1170 X50.206 Y-27.894 I-10.081 J13.794
N1175 X50.75 Y-26.397 I-1.778 J1.494
N1180 G1 Y-25.111
N1185 G3 X50.696 Y-24.883 I-0.6 J-0.021
N1190 X49.724 Y-24.711 I-0.546 J-0.249 F30000.
N1195 G1 X43.383 Y-31.129
N1200 G3 X43.561 Y-32.096 I0.427 J-0.422
N1205 X43.789 Y-32.15 I0.249 J0.546 F900.
N1210 G1 X45.148 F1000.
N1215 G3 X46.553 Y-31.837 I-0.137 J3.923
N1220 X48.487 Y-30.715 I-3.088 J7.554
N1225 X50.171 Y-29.221 I-7.387 J10.021
N1230 X50.75 Y-27.682 I-1.763 J1.541
N1235 G1 Y-26.55
N1240 G3 X50.696 Y-26.323 I-0.6 J-0.021
N1245 X49.726 Y-26.147 I-0.546 J-0.249 F30000.
N1250 G1 X44.745 Y-31.126
N1255 G3 X44.92 Y-32.096 I0.424 J-0.424
N1260 X45.148 Y-32.15 I0.249 J0.546 F900.
N1265 G1 X46.489 F1000.
N1270 G3 X48.052 Y-31.755 I-0.156 J3.91
N1275 X49.99 Y-30.5 I-3.139 J6.967
N1280 X50.75 Y-28.709 I-1.576 J1.726
N1285 G1 Y-27.81
N1290 G3 X50.696 Y-27.582 I-0.6 J-0.021
N1295 X49.722 Y-27.411 I-0.546 J-0.249 F30000.
N1300 G1 X46.081 Y-31.131
N1305 G3 X46.261 Y-32.096 I0.429 J-0.42
N1310 X46.489 Y-32.15 I0.249 J0.546 F900.
N1315 X47.925 Y-32.157 I3.375 J511.225 F1000.
N1320 X49.919 Y-31.39 I-0.409 J4.035
N1325 X50.769 Y-29.249 I-1.483 J1.828
N1330 G1 X50.761 Y-29.069
N1335 X50.754 Y-28.889
N1340 G3 X50.691 Y-28.664 I-0.598 J-0.045
N1345 X49.715 Y-28.526 I-0.536 J-0.27 F30000.
N1350 G1 X47.277 Y-31.155
N1355 G3 X47.443 Y-32.096 I0.44 J-0.408
N1360 X47.668 Y-32.161 I0.274 J0.534 F900.
N1365 G2 X48.647 Y-32.272 I-0.428 J-8.127 F1000.
N1370 G3 X49.847 Y-32. I0.111 J2.289
N1375 X50.614 Y-31.222 I-1.057 J1.81
N1380 X50.85 Y-29.888 I-1.792 J1.005
N1385 G1 X50.834 Y-29.789
N1390 X50.808 Y-29.611
N1395 G3 X50.723 Y-29.393 I-0.591 J-0.105
N1400 X49.754 Y-29.335 I-0.505 J-0.323 F30000.
N1405 G1 X48.153 Y-31.282
N1410 G3 X48.271 Y-32.154 I0.463 J-0.381
N1415 X48.485 Y-32.248 I0.345 J0.491 F900.
N1420 G2 X49.221 Y-32.416 I-2.144 J-11.131 F1000.
N1425 G3 X49.63 Y-32.41 I0.181 J1.586
N1430 G1 X49.892 Y-32.34
N1435 X50.141 Y-32.229
N1440 X50.367 Y-32.079
N1445 X50.566 Y-31.894
N1450 X50.733 Y-31.679
N1455 X50.862 Y-31.44
N1460 X50.951 Y-31.183
N1465 X50.996 Y-30.915
N1470 X50.998 Y-30.643
N1475 X50.955 Y-30.375
N1480 G3 X50.848 Y-30.166 I-0.577 J-0.163
N1485 X49.921 Y-30.148 I-0.471 J-0.372 F30000.
N1490 G1 X48.829 Y-31.427
N1495 G3 X48.902 Y-32.278 I0.456 J-0.39
N1500 X49.108 Y-32.39 I0.383 J0.462 F900.
N1505 X49.699 Y-32.565 I2.59 J7.683 F1000.
N1510 X50.221 Y-32.506 I0.109 J1.381
N1515 G1 X50.463 Y-32.395
N1520 X50.679 Y-32.239
N1525 X50.861 Y-32.044
N1530 X51.002 Y-31.818
N1535 X51.096 Y-31.569
N1540 X51.14 Y-31.306
N1545 X51.132 Y-31.039
N1550 X51.073 Y-30.78
N1555 G3 X50.95 Y-30.581 I-0.562 J-0.21
N1560 X50.042 Y-30.615 I-0.439 J-0.409 F30000.
N1565 G1 X49.267 Y-31.586
N1570 G3 X49.325 Y-32.397 I0.469 J-0.374
N1575 X49.523 Y-32.521 I0.411 J0.437 F900.
N1580 G2 X49.911 Y-32.668 I-1.874 J-5.521 F1000.
N1585 G3 X50.381 Y-32.687 I0.27 J0.876
N1590 G1 X50.617 Y-32.607
N1595 X50.83 Y-32.478
N1600 X51.01 Y-32.306
N1605 X51.149 Y-32.099
N1610 X51.24 Y-31.867
N1615 X51.279 Y-31.622
N1620 X51.265 Y-31.373
N1625 X51.198 Y-31.133
N1630 G3 X51.076 Y-30.932 I-0.839 J-0.371
N1635 X50.591 Y-30.617 I-0.717 J-0.572 F30000.
N1640 X49.664 Y-32.532 I-0.275 J-1.049
N1645 X49.866 Y-32.652 I0.653 J0.866 F900.
N1650 X50.277 Y-32.825 I1.626 J3.295 F1000.
N1655 X50.557 Y-32.836 I0.181 J0.968
N1660 G1 X50.81 Y-32.766
N1665 X51.036 Y-32.632
N1670 X51.219 Y-32.444
N1675 X51.346 Y-32.214
N1680 X51.41 Y-31.959
N1685 X51.404 Y-31.697
N1690 X51.331 Y-31.445
N1695 G3 X51.197 Y-31.252 I-0.694 J-0.336
N1700 X50.859 Y-31.043 I-0.56 J-0.53 F30000.
N1705 X49.969 Y-32.654 I-0.272 J-0.901
N1710 X50.164 Y-32.785 I0.619 J0.709 F900.
N1715 X50.496 Y-32.943 I2.016 J3.801 F1000.
N1720 X50.807 Y-32.961 I0.2 J0.791
N1725 G1 X51.03 Y-32.891
N1730 X51.228 Y-32.766
N1735 X51.385 Y-32.593
N1740 X51.492 Y-32.385
N1745 X51.54 Y-32.156
N1750 X51.526 Y-31.922
N1755 X51.451 Y-31.7
N1760 G3 X51.305 Y-31.517 I-0.578 J-0.311
N1765 X51.104 Y-31.397 I-0.432 J-0.494 F30000.
N1770 X50.207 Y-32.753 I-0.293 J-0.781
N1775 X50.391 Y-32.898 I0.604 J0.575 F900.
N1780 X50.712 Y-33.065 I1.208 J1.934 F1000.
N1785 X50.989 Y-33.085 I0.192 J0.724
N1790 G1 X51.198 Y-33.023
N1795 X51.383 Y-32.906
N1800 X51.529 Y-32.743
N1805 X51.625 Y-32.547
N1810 X51.664 Y-32.333
N1815 X51.644 Y-32.115
N1820 X51.564 Y-31.911
N1825 G3 X51.405 Y-31.74 I-0.491 J-0.297
N1830 X51.284 Y-31.674 I-0.332 J-0.468 F30000.
N1835 X50.436 Y-32.872 I-0.278 J-0.702
N1840 X50.616 Y-33.023 I0.57 J0.495 F900.
N1845 X50.941 Y-33.185 I0.813 J1.225 F1000.
N1850 G1 X50.96 Y-33.188
N1855 X50.981 Y-33.192
N1860 X51.011 Y-33.196
N1865 X51.041 Y-33.199
N1870 X51.07 Y-33.201
N1875 X51.098
N1880 X51.124 Y-33.2
N1885 X51.149 Y-33.198
N1890 X51.176 Y-33.195
N1895 X51.393 Y-33.123
N1900 X51.576 Y-32.987
N1905 X51.707 Y-32.801
N1910 X51.774 Y-32.582
N1915 X51.768 Y-32.354
N1920 X51.691 Y-32.139
N1925 G3 X51.531 Y-31.969 I-0.466 J-0.278
N1930 X51.401 Y-31.904 I-0.306 J-0.448 F30000.
N1935 X50.673 Y-33.009 I-0.222 J-0.646
N1940 X50.858 Y-33.153 I0.506 J0.459 F900.
N1945 X51.706 Y-32.172 I0.294 J0.603 F1000.
N1950 G1 X51.684 Y-32.127
N1955 X51.585 Y-31.947
N1960 X51.408 Y-31.792
N1965 X48.312 Y-29.069 F30000.
N1970 G2 X47.452 Y-27.27 I1.638 J1.889
N1975 G1 Y-15.037
N1980 G2 X47.845 Y-13.778 I2.498 J-0.09
N1985 G1 X50.618 Y-9.656
N1990 X50.75 Y-9.46 F900.
N1995 Y-5.682 F1000.
N2000 G3 X50.184 Y-2.8 I-9.029 J-0.276
N2005 X48.622 Y0.498 I-15.944 J-5.533
N2010 X38.604 Y9.223 I-18.596 J-11.237
N2015 X15.177 Y5.51 I-8.788 J-20.315
N2020 X9.45 Y-2.325 I14.587 J-16.673
N2025 X9.25 Y-3.266 I2.094 J-0.936
N2030 G1 Y-5.935
N2035 X9.34 Y-6.153
N2040 X9.412 Y-6.325 F30000.
N2045 X9.772 Y-6.509
N2050 X50.601 Y-5.852
N2055 X50.628 F900.
N2060 X50.75 Y-5.682
N2065 Y-3.164 F1000.
N2070 G3 X50.325 Y-1.138 I-6.432 J-0.292
N2075 X48.797 Y1.862 I-13.212 J-4.841
N2080 X44.28 Y6.841 I-17.835 J-11.641
N2085 X20.687 Y10.062 I-14.454 J-17.851
N2090 X9.541 Y-0.074 I9.134 J-21.241
N2095 X9.25 Y-1.198 I2.008 J-1.118
N2100 G1 Y-3.266
N2105 X9.34 Y-3.484
N2110 X9.412 Y-3.655 F30000.
N2115 X9.772 Y-3.84
N2120 X50.601 Y-3.333
N2125 X50.628 F900.
N2130 X50.75 Y-3.164
N2135 Y-1.266 F1000.
N2140 G3 X50.34 Y0.596 I-5.461 J-0.226
N2145 X49.014 Y3.068 I-11.07 J-4.346
N2150 X45.459 Y7.038 I-16.732 J-11.406
N2155 X35.77 Y12.119 I-15.477 J-17.734
N2160 G1 X35.569 Y12.141
N2165 X35.367 Y12.15
N2170 X25.611
N2175 G3 X22.294 Y11.592 I0.268 J-11.735
N2180 X17.915 Y9.697 I5.936 J-19.716
N2185 X9.61 Y1.831 I11.822 J-20.802
N2190 X9.25 Y0.59 I1.948 J-1.237
N2195 G1 Y-1.198
N2200 G3 X9.304 Y-1.426 I0.6 J0.021
N2205 X10.227 Y-1.643 I0.546 J0.249 F30000.
N2210 G1 X25.967 Y11.084
N2215 G3 X25.838 Y12.096 I-0.377 J0.467
N2220 X25.611 Y12.15 I-0.249 J-0.546 F900.
N2225 G1 X22.551 F1000.
N2230 G3 X20.377 Y11.746 I0.281 J-7.561
N2235 X17.057 Y10.233 I5.098 J-15.591
N2240 X10.839 Y5.016 I12.043 J-20.668
N2245 X9.554 Y3.366 I13.234 J-11.626
N2250 X9.249 Y2.204 I2.13 J-1.18
N2255 G1 X9.25 Y0.59
N2260 G3 X9.304 Y0.362 I0.6 J0.021
N2265 X10.242 Y0.156 I0.546 J0.249 F30000.
N2270 G1 X22.922 Y11.096
N2275 G3 X22.779 Y12.096 I-0.392 J0.454
N2280 X22.551 Y12.15 I-0.249 J-0.546 F900.
N2285 G1 X20.391 F1000.
N2290 G3 X18.356 Y11.739 I0.203 J-6.248
N2295 X15.592 Y10.363 I4.773 J-13.054
N2300 X10.853 Y6.413 I12.291 J-19.561
N2305 X9.721 Y5.108 I13.17 J-12.568
N2310 X9.25 Y3.701 I1.87 J-1.408
N2315 G1 Y2.204
N2320 G3 X9.304 Y1.976 I0.6 J0.021
N2325 X10.248 Y1.776 I0.546 J0.249 F30000.
N2330 G1 X20.768 Y11.101
N2335 G3 X20.619 Y12.096 I-0.398 J0.449
N2340 X20.391 Y12.15 I-0.249 J-0.546 F900.
N2345 G1 X18.492 F1000.
N2350 G3 X16.596 Y11.739 I0.19 J-5.456
N2355 X14.119 Y10.421 I4.469 J-11.382
N2360 X10.277 Y7.14 I12.166 J-18.139
N2365 X9.633 Y6.389 I4.31 J-4.346
N2370 X9.25 Y5.106 I1.963 J-1.285
N2375 G1 Y3.852
N2380 G3 X9.304 Y3.624 I0.6 J0.021
N2385 X10.249 Y3.425 I0.546 J0.249 F30000.
N2390 G1 X18.87 Y11.102
N2395 G3 X18.72 Y12.096 I-0.399 J0.448
N2400 X18.492 Y12.15 I-0.249 J-0.546 F900.
N2405 G1 X16.791 F1000.
N2410 G3 X15.049 Y11.763 I0.175 J-4.903
N2415 X12.835 Y10.548 I4.01 J-9.935
N2420 X9.816 Y7.957 I10.404 J-15.174
N2425 X9.249 Y6.428 I1.806 J-1.539
N2430 G1 X9.25 Y5.106
N2435 G3 X9.304 Y4.878 I0.6 J0.021
N2440 X10.258 Y4.687 I0.546 J0.249 F30000.
N2445 G1 X17.179 Y11.111
N2450 G3 X17.019 Y12.096 I-0.408 J0.44
N2455 X16.791 Y12.15 I-0.249 J-0.546 F900.
N2460 G1 X15.171 F1000.
N2465 G3 X13.617 Y11.792 I0.215 J-4.486
N2470 X11.424 Y10.542 I3.744 J-9.115
N2475 X9.885 Y9.251 I6.774 J-9.646
N2480 X9.25 Y7.65 I1.714 J-1.606
N2485 G1 Y6.55
N2490 G3 X9.304 Y6.323 I0.6 J0.021
N2495 X10.26 Y6.134 I0.546 J0.249 F30000.
N2500 G1 X15.561 Y11.113
N2505 G3 X15.399 Y12.096 I-0.411 J0.437
N2510 X15.171 Y12.15 I-0.249 J-0.546 F900.
N2515 G1 X13.732 F1000.
N2520 G3 X12.259 Y11.817 I0.165 J-4.154
N2525 X10.049 Y10.482 I3.013 J-7.482
N2530 X9.25 Y8.709 I1.572 J-1.776
N2535 G1 Y7.81
N2540 G3 X9.304 Y7.582 I0.6 J0.021
N2545 X10.266 Y7.399 I0.546 J0.249 F30000.
N2550 G1 X14.127 Y11.118
N2555 G3 X13.959 Y12.096 I-0.416 J0.432
N2560 X13.732 Y12.15 I-0.249 J-0.546 F900.
N2565 G2 X12.293 Y12.157 I-0.319 J88.317 F1000.
N2570 G3 X10.078 Y11.342 I0.268 J-4.146
N2575 X9.234 Y9.212 I1.485 J-1.821
N2580 G1 X9.239 Y9.069
N2585 X9.246 Y8.889
N2590 G3 X9.309 Y8.664 I0.598 J0.045
N2595 X10.277 Y8.518 I0.536 J0.27 F30000.
N2600 G1 X12.803 Y11.143
N2605 G3 X12.643 Y12.094 I-0.432 J0.416
N2610 X12.417 Y12.157 I-0.272 J-0.535 F900.
N2615 G2 X11.465 Y12.256 I0.234 J6.881 F1000.
N2620 G3 X10.149 Y11.968 I-0.183 J-2.313
N2625 X9.271 Y10.933 I1.076 J-1.802
N2630 X9.167 Y9.789 I1.945 J-0.754
N2635 G1 X9.192 Y9.609
N2640 G3 X9.277 Y9.391 I0.591 J0.105
N2645 X10.24 Y9.326 I0.505 J0.323 F30000.
N2650 G1 X11.889 Y11.267
N2655 G3 X11.771 Y12.151 I-0.457 J0.389
N2660 X11.555 Y12.243 I-0.338 J-0.495 F900.
N2665 G2 X10.846 Y12.398 I1.686 J9.385 F1000.
N2670 G3 X10.371 Y12.395 I-0.227 J-1.456
N2675 G1 X10.108 Y12.321
N2680 X9.861 Y12.207
N2685 X9.635 Y12.053
N2690 X9.438 Y11.866
N2695 X9.272 Y11.649
N2700 X9.144 Y11.409
N2705 X9.057 Y11.15
N2710 X9.012 Y10.882
N2715 X9.011 Y10.609
N2720 X9.054 Y10.34
N2725 G3 X9.16 Y10.131 I0.578 J0.162
N2730 X10.084 Y10.108 I0.471 J0.371 F30000.
N2735 G1 X11.217 Y11.408
N2740 G3 X11.14 Y12.27 I-0.452 J0.394
N2745 X10.933 Y12.378 I-0.376 J-0.467 F900.
N2750 G2 X10.457 Y12.527 I1.584 J5.904 F1000.
N2755 G3 X9.991 Y12.542 I-0.269 J-1.071
N2760 G1 X9.74 Y12.469
N2765 X9.507 Y12.35
N2770 X9.301 Y12.189
N2775 X9.129 Y11.992
N2780 X8.996 Y11.766
N2785 X8.909 Y11.52
N2790 X8.87 Y11.261
N2795 X8.88 Y10.999
N2800 X8.939 Y10.744
N2805 G3 X9.062 Y10.545 I0.562 J0.21
N2810 X9.977 Y10.588 I0.439 J0.409 F30000.
N2815 G1 X10.748 Y11.591
N2820 G3 X10.689 Y12.389 I-0.476 J0.366
N2825 X10.492 Y12.516 I-0.416 J-0.432 F900.
N2830 X10.083 Y12.667 I-5.151 J-13.281 F1000.
N2835 X9.635 Y12.675 I-0.241 J-0.927
N2840 G1 X9.398 Y12.593
N2845 X9.184 Y12.462
N2850 X9.002 Y12.288
N2855 X8.863 Y12.08
N2860 X8.771 Y11.846
N2865 X8.731 Y11.598
N2870 X8.745 Y11.347
N2875 X8.813 Y11.105
N2880 G3 X8.934 Y10.904 I0.862 J0.38
N2885 X9.43 Y10.576 I0.741 J0.582 F30000.
N2890 X10.371 Y12.519 I0.286 J1.061
N2895 X10.168 Y12.638 I-0.655 J-0.882 F900.
N2900 X9.72 Y12.822 I-1.6 J-3.263 F1000.
N2905 X9.463 Y12.827 I-0.154 J-1.209
N2910 G1 X9.206 Y12.755
N2915 X8.977 Y12.618
N2920 X8.791 Y12.426
N2925 X8.663 Y12.192
N2930 X8.6 Y11.933
N2935 X8.607 Y11.666
N2940 X8.685 Y11.411
N2945 G3 X8.82 Y11.219 I0.695 J0.346
N2950 X9.156 Y11.013 I0.559 J0.537 F30000.
N2955 X10.055 Y12.643 I0.275 J0.912
N2960 X9.859 Y12.774 I-0.624 J-0.719 F900.
N2965 X9.498 Y12.941 I-1.746 J-3.32 F1000.
N2970 X9.207 Y12.95 I-0.176 J-0.905
N2975 G1 X8.982 Y12.879
N2980 X8.782 Y12.752
N2985 X8.624 Y12.576
N2990 X8.517 Y12.365
N2995 X8.469 Y12.133
N3000 X8.484 Y11.897
N3005 X8.561 Y11.673
N3010 G3 X8.708 Y11.491 I0.581 J0.317
N3015 X8.911 Y11.37 I0.434 J0.5 F30000.
N3020 X9.812 Y12.743 I0.294 J0.789
N3025 X9.627 Y12.888 I-0.607 J-0.584 F900.
N3030 X9.304 Y13.055 I-1.035 J-1.605 F1000.
N3035 X9.025 Y13.075 I-0.191 J-0.706
N3040 G1 X8.815 Y13.013
N3045 X8.629 Y12.896
N3050 X8.482 Y12.733
N3055 X8.385 Y12.536
N3060 X8.345 Y12.32
N3065 X8.365 Y12.102
N3070 X8.443 Y11.897
N3075 G3 X8.601 Y11.724 I0.499 J0.297
N3080 X8.729 Y11.654 I0.341 J0.47 F30000.
N3085 X9.581 Y12.862 I0.279 J0.708
N3090 X9.401 Y13.013 I-0.573 J-0.501 F900.
N3095 X9.073 Y13.178 I-0.879 J-1.343 F1000.
N3100 G1 X9.055 Y13.18
N3105 X9.032 Y13.184
N3110 X9.002 Y13.188
N3115 X8.971 Y13.191
N3120 X8.942 Y13.193
N3125 X8.914
N3130 X8.888 Y13.192
N3135 X8.863 Y13.19
N3140 X8.834 Y13.187
N3145 X8.617 Y13.114
N3150 X8.433 Y12.976
N3155 X8.301 Y12.788
N3160 X8.235 Y12.568
N3165 X8.241 Y12.338
N3170 X8.318 Y12.122
N3175 G3 X8.479 Y11.952 I0.461 J0.276
N3180 X8.585 Y11.897 I0.301 J0.445 F30000.
N3185 X9.362 Y12.983 I0.25 J0.642
N3190 X9.182 Y13.134 I-0.527 J-0.444 F900.
N3195 X8.224 Y12.307 I-0.333 J-0.583 F1000.
N3200 G1 X8.316 Y12.127
N3205 X8.332 Y12.097
N3210 X8.415 Y11.947
N3215 X8.452 Y11.906 Z-8.493
N3220 X8.486 Y11.867 Z-8.474
N3225 X8.517 Y11.833 Z-8.443
N3230 X8.542 Y11.805 Z-8.402
N3235 X8.559 Y11.785 Z-8.353
N3240 X8.57 Y11.777 Z-8.31
N3245 X8.573 Y11.774 Z-8.264
N3250 G0 Z2.51
N3255 X9.995 Y-15.113
N3260 Z-7.3
N3265 G1 Z-7.9 F900.
N3270 X9.988 Y-15.114 Z-7.994
N3275 X9.966 Y-15.118 Z-8.085
N3280 X9.931 Y-15.125 Z-8.172
N3285 X9.882 Y-15.133 Z-8.253
N3290 X9.822 Y-15.144 Z-8.324
N3295 X9.751 Y-15.157 Z-8.385
N3300 X9.672 Y-15.171 Z-8.435
N3305 X9.587 Y-15.186 Z-8.471
N3310 X9.497 Y-15.202 Z-8.493
N3315 X9.404 Y-15.219 Z-8.5
N3320 G3 X9.25 Y-15.397 I0.033 J-0.185
N3325 G1 Y-18.095 F1000.
N3330 G3 X9.733 Y-20.472 I7.207 J0.229
N3335 X11.236 Y-23.486 I14.036 J5.117
N3340 X16.796 Y-29.387 I18.13 J11.51
N3345 X21.374 Y-31.967 I13.003 J17.727
N3350 X22.279 Y-32.15 I0.901 J2.123
N3355 G1 X25.11
N3360 G3 X25.338 Y-32.096 I-0.021 J0.6
N3365 X25.486 Y-31.1 I-0.249 J0.546 F30000.
N3370 G1 X10.246 Y-17.666
N3375 G3 X9.304 Y-17.867 I-0.397 J-0.45
N3380 X9.25 Y-18.095 I0.546 J-0.249 F900.
N3385 G1 Y-20.254 F1000.
N3390 G3 X9.666 Y-22.149 I5.749 J0.269
N3395 X11.119 Y-24.871 I11.856 J4.581
N3400 X14.878 Y-29.033 I17.058 J11.629
N3405 X19.062 Y-31.883 I14.752 J17.161
N3410 X20.144 Y-32.15 I1.079 J2.044
N3415 G1 X22.279
N3420 G3 X22.506 Y-32.096 I-0.021 J0.6
N3425 X22.661 Y-31.106 I-0.249 J0.546 F30000.
N3430 G1 X10.253 Y-19.831
N3435 G3 X9.304 Y-20.026 I-0.404 J-0.444
N3440 X9.25 Y-20.254 I0.546 J-0.249 F900.
N3445 G1 Y-21.972 F1000.
N3450 G3 X9.642 Y-23.737 I5.022 J0.19
N3455 X10.852 Y-25.953 I9.913 J3.974
N3460 X14.037 Y-29.504 I15.806 J10.972
N3465 X17.079 Y-31.79 I14.955 J16.736
N3470 X18.323 Y-32.15 I1.241 J1.959
N3475 G1 X20.031
N3480 G3 X20.259 Y-32.096 I-0.021 J0.6
N3485 X20.421 Y-31.113 I-0.249 J0.546 F30000.
N3490 G1 X10.261 Y-21.556
N3495 G3 X9.304 Y-21.744 I-0.411 J-0.437
N3500 X9.25 Y-21.972 I0.546 J-0.249 F900.
N3505 G1 Y-23.591 F1000.
N3510 G3 X9.61 Y-25.173 I4.511 J0.195
N3515 X10.864 Y-27.364 I8.98 J3.684
N3520 X13.736 Y-30.441 I14.643 J10.792
N3525 X15.351 Y-31.724 I13.148 J14.893
N3530 X16.696 Y-32.15 I1.345 J1.909
N3535 G1 X18.323
N3540 G3 X18.551 Y-32.096 I-0.021 J0.6
N3545 X18.713 Y-31.113 I-0.249 J0.546 F30000.
N3550 G1 X10.26 Y-23.175
N3555 G3 X9.304 Y-23.363 I-0.411 J-0.437
N3560 X9.25 Y-23.591 I0.546 J-0.249 F900.
N3565 G1 Y-25.03 F1000.
N3570 G3 X9.581 Y-26.518 I4.134 J0.139
N3575 X10.694 Y-28.466 I7.903 J3.225
N3580 X13.389 Y-31.325 I13.48 J10.004
N3585 X14.2 Y-31.918 I2.613 J2.724
N3590 X15.22 Y-32.15 I1.027 J2.152
N3595 G1 X16.696
N3600 G3 X16.924 Y-32.096 I-0.021 J0.6
N3605 X17.088 Y-31.116 I-0.249 J0.546 F30000.
N3610 G1 X10.263 Y-24.617
N3615 G3 X9.304 Y-24.802 I-0.414 J-0.435
N3620 X9.25 Y-25.03 I0.546 J-0.249 F900.
N3625 G1 Y-26.47 F1000.
N3630 G3 X9.555 Y-27.804 I3.835 J0.173
N3635 X10.678 Y-29.728 I7.379 J3.019
N3640 X12.384 Y-31.597 I10.597 J7.961
N3645 X13.893 Y-32.15 I1.51 J1.786
N3650 G1 X15.22
N3655 G3 X15.447 Y-32.096 I-0.021 J0.6
N3660 X15.611 Y-31.114 I-0.249 J0.546 F30000.
N3665 G1 X10.262 Y-26.055
N3670 G3 X9.304 Y-26.242 I-0.412 J-0.436
N3675 X9.25 Y-26.47 I0.546 J-0.249 F900.
N3680 G1 Y-27.729 F1000.
N3685 G3 X9.637 Y-29.286 I3.838 J0.128
N3690 X10.845 Y-31.17 I7.172 J3.266
N3695 X11.722 Y-31.908 I2.092 J1.597
N3700 X12.76 Y-32.15 I1.043 J2.126
N3705 G1 X13.732
N3710 G3 X13.959 Y-32.096 I-0.021 J0.6
N3715 X14.132 Y-31.123 I-0.249 J0.546 F30000.
N3720 G1 X10.271 Y-27.322
N3725 G3 X9.304 Y-27.501 I-0.421 J-0.428
N3730 X9.25 Y-27.729 I0.546 J-0.249 F900.
N3735 G1 X9.246 Y-29.091 F1000.
N3740 G3 X9.702 Y-30.665 I3.811 J0.251
N3745 X10.328 Y-31.566 I2.849 J1.311
N3750 X12.112 Y-32.173 I1.567 J1.683
N3755 G2 X12.76 Y-32.15 I0.675 J-9.705
N3760 G3 X12.988 Y-32.096 I-0.021 J0.599
N3765 X13.137 Y-31.101 I-0.249 J0.546 F30000.
N3770 G1 X10.24 Y-28.539
N3775 G3 X9.307 Y-28.718 I-0.398 J-0.449
N3780 X9.244 Y-28.944 I0.536 J-0.27 F900.
N3785 G2 X9.144 Y-29.973 I-8.586 J0.316 F1000.
N3790 G3 X9.515 Y-31.353 I2.547 J-0.056
N3795 X10.535 Y-32.151 I1.735 J1.169
N3800 X11.572 Y-32.24 I0.688 J1.932
N3805 G1 X11.752 Y-32.214
N3810 X11.851 Y-32.201
N3815 G3 X12.07 Y-32.118 I-0.098 J0.592
N3820 X12.142 Y-31.152 I-0.317 J0.509 F30000.
N3825 G1 X10.144 Y-29.449
N3830 G3 X9.256 Y-29.572 I-0.389 J-0.457
N3835 X9.166 Y-29.789 I0.499 J-0.333 F900.
N3840 G2 X9.008 Y-30.542 I-11.303 J1.985 F1000.
N3845 G3 X9.031 Y-31.106 I1.53 J-0.219
N3850 G1 X9.114 Y-31.356
N3855 X9.236 Y-31.591
N3860 X9.392 Y-31.804
N3865 X9.58 Y-31.989
N3870 X9.794 Y-32.144
N3875 X10.029 Y-32.263
N3880 X10.281 Y-32.344
N3885 X10.542 Y-32.386
N3890 X10.806
N3895 X11.067 Y-32.345
N3900 G3 X11.276 Y-32.24 I-0.159 J0.579
N3905 X11.308 Y-31.32 I-0.368 J0.474 F30000.
N3910 G1 X10.008 Y-30.153
N3915 G3 X9.137 Y-30.227 I-0.401 J-0.446
N3920 X9.03 Y-30.436 I0.471 J-0.372 F900.
N3925 G2 X8.873 Y-30.947 I-6.627 J1.762 F1000.
N3930 G3 X8.865 Y-31.419 I1.132 J-0.253
N3935 G1 X8.942 Y-31.668
N3940 X9.064 Y-31.899
N3945 X9.227 Y-32.103
N3950 X9.425 Y-32.273
N3955 X9.651 Y-32.403
N3960 X9.898 Y-32.488
N3965 X10.156 Y-32.526
N3970 X10.417 Y-32.515
N3975 X10.671 Y-32.456
N3980 G3 X10.87 Y-32.332 I-0.211 J0.562
N3985 X10.831 Y-31.422 I-0.41 J0.439 F30000.
N3990 G1 X9.822 Y-30.63
N3995 G3 X9.013 Y-30.692 I-0.371 J-0.472
N4000 X8.89 Y-30.891 I0.438 J-0.41 F900.
N4005 X8.731 Y-31.323 I16.694 J-6.386 F1000.
N4010 X8.735 Y-31.787 I0.986 J-0.224
N4015 G1 X8.822 Y-32.021
N4020 X8.957 Y-32.231
N4025 X9.133 Y-32.408
N4030 X9.343 Y-32.543
N4035 X9.577 Y-32.63
N4040 X9.824 Y-32.666
N4045 X10.072 Y-32.649
N4050 X10.312 Y-32.579
N4055 G3 X10.517 Y-32.465 I-0.325 J0.829
N4060 X10.858 Y-31.932 I-0.53 J0.715 F30000.
N4065 X8.887 Y-31.027 I-1.089 J0.227
N4070 X8.764 Y-31.228 I0.882 J-0.678 F900.
N4075 X8.58 Y-31.681 I3.211 J-1.57 F1000.
N4080 X8.577 Y-31.937 I1.315 J-0.144
N4085 G1 X8.65 Y-32.192
N4090 X8.786 Y-32.42
N4095 X8.977 Y-32.604
N4100 X9.209 Y-32.732
N4105 X9.467 Y-32.796
N4110 X9.732 Y-32.791
N4115 X9.987 Y-32.716
N4120 G3 X10.181 Y-32.584 I-0.344 J0.712
N4125 X10.4 Y-32.233 I-0.538 J0.58 F30000.
N4130 X8.76 Y-31.335 I-0.915 J0.276
N4135 X8.63 Y-31.531 I0.726 J-0.621 F900.
N4140 X8.464 Y-31.89 I2.503 J-1.377 F1000.
N4145 X8.451 Y-32.175 I0.868 J-0.184
N4150 G1 X8.518 Y-32.401
N4155 X8.643 Y-32.602
N4160 X8.815 Y-32.763
N4165 X9.024 Y-32.873
N4170 X9.254 Y-32.925
N4175 X9.489 Y-32.914
N4180 X9.714 Y-32.842
N4185 G3 X9.899 Y-32.699 I-0.297 J0.574
N4190 X10.025 Y-32.489 I-0.482 J0.431 F30000.
N4195 X8.659 Y-31.588 I-0.79 J0.287
N4200 X8.512 Y-31.771 I0.575 J-0.613 F900.
N4205 X8.341 Y-32.111 I1.527 J-0.982 F1000.
N4210 X8.327 Y-32.369 I0.785 J-0.171
N4215 G1 X8.391 Y-32.58
N4220 X8.509 Y-32.767
N4225 X8.673 Y-32.914
N4230 X8.871 Y-33.011
N4235 X9.089 Y-33.051
N4240 X9.308 Y-33.03
N4245 X9.514 Y-32.95
N4250 G3 X9.686 Y-32.791 I-0.299 J0.496
N4255 X9.754 Y-32.666 I-0.471 J0.337 F30000.
N4260 X8.541 Y-31.813 I-0.71 J0.279
N4265 X8.39 Y-31.993 I0.503 J-0.574 F900.
N4270 X8.214 Y-32.378 I1.106 J-0.739 F1000.
N4275 G1 X8.215 Y-32.41
N4280 X8.212 Y-32.44
N4285 X8.211 Y-32.469
N4290 X8.212 Y-32.496
N4295 X8.213 Y-32.521
N4300 X8.216 Y-32.546
N4305 X8.286 Y-32.768
N4310 X8.422 Y-32.957
N4315 X8.611 Y-33.092
N4320 X8.834 Y-33.161
N4325 X9.066 Y-33.156
N4330 X9.286 Y-33.077
N4335 G3 X9.455 Y-32.917 I-0.28 J0.466
N4340 X9.517 Y-32.797 I-0.45 J0.306 F30000.
N4345 X8.412 Y-32.044 I-0.648 J0.236
N4350 X8.265 Y-32.226 I0.456 J-0.518 F900.
N4355 X9.23 Y-33.104 I0.584 J-0.327 F1000.
N4360 G1 X9.377 Y-33.027
N4365 X9.412 Y-33.007
N4370 G3 X9.585 Y-32.849 I-0.31 J0.514
N4375 G1 X12.202 Y-30.328 F30000.
N4380 X50.613 Y-1.444
N4385 X50.718 Y-1.365 F900.
N4390 X50.75 Y-1.266
N4395 Y0.434 F1000.
N4400 G3 X50.369 Y2.122 I-4.829 J-0.204
N4405 X49.142 Y4.329 I-9.591 J-3.884
N4410 X46.128 Y7.657 I-15.398 J-10.917
N4415 X39.134 Y11.979 I-15.913 J-17.932
N4420 X38.263 Y12.15 I-0.862 J-2.089
N4425 G1 X35.51
N4430 G3 X35.282 Y12.096 I0.021 J-0.6
N4435 X35.168 Y11.072 I0.249 J-0.546 F30000.
N4440 G1 X49.788 Y-0.023
N4445 G3 X50.696 Y0.206 I0.363 J0.478
N4450 X50.75 Y0.434 I-0.546 J0.249 F900.
N4455 G1 Y1.972 F1000.
N4460 G3 X50.399 Y3.526 I-4.379 J-0.172
N4465 X49.3 Y5.483 I-8.379 J-3.417
N4470 X46.446 Y8.576 I-14.233 J-10.271
N4475 X41.528 Y11.896 I-15.675 J-17.92
N4480 X40.473 Y12.15 I-1.047 J-2.034
N4485 G1 X38.389
N4490 G3 X38.162 Y12.096 I0.021 J-0.6
N4495 X38.032 Y11.085 I0.249 J-0.546 F30000.
N4500 G1 X49.772 Y1.528
N4505 G3 X50.696 Y1.744 I0.379 J0.465
N4510 X50.75 Y1.972 I-0.546 J0.249 F900.
N4515 G1 Y3.411 F1000.
N4520 G3 X50.428 Y4.847 I-4.024 J-0.148
N4525 X49.309 Y6.791 I-7.721 J-3.152
N4530 X46.807 Y9.447 I-13.07 J-9.802
N4535 X43.559 Y11.814 I-14.974 J-17.137
N4540 X42.355 Y12.15 I-1.2 J-1.976
N4545 G1 X40.473
N4550 G3 X40.246 Y12.096 I0.021 J-0.6
N4555 X40.108 Y11.091 I0.249 J-0.546 F30000.
N4560 G1 X49.764 Y2.973
N4565 G3 X50.696 Y3.183 I0.386 J0.459
N4570 X50.75 Y3.411 I-0.546 J0.249 F900.
N4575 G1 Y4.752 F1000.
N4580 G3 X50.347 Y6.364 I-3.987 J-0.141
N4585 X49.324 Y8.04 I-7.309 J-3.307
N4590 X46.769 Y10.644 I-12.506 J-9.718
N4595 X45.146 Y11.865 I-10.599 J-12.405
N4600 X44.018 Y12.151 I-1.146 J-2.152
N4605 G1 X42.355 Y12.15
N4610 G3 X42.127 Y12.096 I0.021 J-0.6
N4615 X41.982 Y11.098 I0.249 J-0.546 F30000.
N4620 G1 X49.756 Y4.32
N4625 G3 X50.696 Y4.524 I0.394 J0.452
N4630 X50.75 Y4.752 I-0.546 J0.249 F900.
N4635 G1 Y6.11 F1000.
N4640 G3 X50.371 Y7.585 I-3.777 J-0.183
N4645 X49.343 Y9.246 I-6.92 J-3.136
N4650 X46.917 Y11.663 I-11.654 J-9.271
N4655 X45.492 Y12.15 I-1.421 J-1.831
N4660 G1 X44.149
N4665 G3 X43.921 Y12.096 I0.021 J-0.6
N4670 X43.767 Y11.106 I0.249 J-0.546 F30000.
N4675 G1 X49.747 Y5.686
N4680 G3 X50.696 Y5.882 I0.403 J0.445
N4685 X50.75 Y6.11 I-0.546 J0.249 F900.
N4690 G1 Y7.369 F1000.
N4695 G3 X50.389 Y8.78 I-3.607 J-0.171
N4700 X49.18 Y10.639 I-6.9 J-3.165
N4705 X48.155 Y11.693 I-6.007 J-4.817
N4710 X46.762 Y12.151 I-1.404 J-1.926
N4715 G1 X45.492 Y12.15
N4720 G3 X45.264 Y12.096 I0.021 J-0.6
N4725 X45.113 Y11.104 I0.249 J-0.546 F30000.
N4730 G1 X49.75 Y6.943
N4735 G3 X50.696 Y7.141 I0.401 J0.447
N4740 X50.75 Y7.369 I-0.546 J0.249 F900.
N4745 G1 Y8.529 F1000.
N4750 G3 X50.401 Y9.952 I-3.485 J-0.101
N4755 X49.548 Y11.335 I-5.411 J-2.382
N4760 X47.569 Y12.155 I-1.786 J-1.513
N4765 G1 X47.389 Y12.151
N4770 X47.209 Y12.15
N4775 X46.762
N4780 G3 X46.534 Y12.096 I0.021 J-0.6
N4785 X46.384 Y11.102 I0.249 J-0.546 F30000.
N4790 G1 X49.751 Y8.102
N4795 G3 X50.696 Y8.301 I0.399 J0.448
N4800 X50.75 Y8.529 I-0.546 J0.249 F900.
N4805 G2 X50.804 Y9.652 I10.99 J0.036 F1000.
N4810 G3 X50.311 Y11.258 I-3.098 J-0.073
N4815 X49.228 Y12.084 I-1.883 J-1.345
N4820 X48.139 Y12.198 I-0.776 J-2.142
N4825 X47.921 Y12.114 I0.103 J-0.591
N4830 X47.808 Y11.194 I0.322 J-0.507 F30000.
N4835 G1 X49.762 Y9.14
N4840 G3 X50.708 Y9.239 I0.435 J0.414
N4845 X50.789 Y9.459 I-0.511 J0.315 F900.
N4850 G2 X50.925 Y10.264 I7.188 J-0.8 F1000.
N4855 G3 X50.659 Y11.455 I-1.719 J0.242
N4860 X48.662 Y12.282 I-1.589 J-1.012
N4865 X48.451 Y12.18 I0.15 J-0.581
N4870 X48.411 Y11.255 I0.361 J-0.479 F30000.
N4875 G1 X49.928 Y9.891
N4880 G3 X50.803 Y9.969 I0.401 J0.446
N4885 X50.908 Y10.178 I-0.474 J0.368 F900.
N4890 G2 X51.058 Y10.747 I12.375 J-2.963 F1000.
N4895 G3 X51.066 Y11.249 I-1.116 J0.268
N4900 G1 X50.986 Y11.513
N4905 X50.859 Y11.758
N4910 X50.691 Y11.976
N4915 X50.485 Y12.16
N4920 X50.25 Y12.304
N4925 X49.993 Y12.403
N4930 X49.722 Y12.454
N4935 X49.446 Y12.456
N4940 X49.174 Y12.408
N4945 G3 X48.969 Y12.297 I0.178 J-0.573
N4950 X48.971 Y11.371 I0.383 J-0.462 F30000.
N4955 G1 X50.102 Y10.443
N4960 G3 X50.922 Y10.498 I0.381 J0.464
N4965 X51.045 Y10.697 I-0.439 J0.409 F900.
N4970 X51.215 Y11.212 I-5.72 J2.169 F1000.
N4975 X51.187 Y11.693 I-1.132 J0.175
N4980 G1 X51.091 Y11.932
N4985 X50.949 Y12.146
N4990 X50.766 Y12.328
N4995 X50.55 Y12.468
N5000 X50.31 Y12.561
N5005 X50.056 Y12.603
N5010 X49.798 Y12.592
N5015 X49.548 Y12.53
N5020 G3 X49.34 Y12.421 I0.354 J-0.935
N5025 X48.926 Y11.807 I0.563 J-0.826 F30000.
N5030 X51.059 Y10.87 I1.162 J-0.251
N5035 X51.175 Y11.075 I-0.971 J0.685 F900.
N5040 X51.333 Y11.46 I-7.493 J3.304 F1000.
N5045 X51.359 Y11.829 I-0.83 J0.245
N5050 G1 X51.295 Y12.064
N5055 X51.18 Y12.278
N5060 X51.019 Y12.461
N5065 X50.822 Y12.603
N5070 X50.597 Y12.697
N5075 X50.358 Y12.739
N5080 X50.114 Y12.726
N5085 X49.881 Y12.658
N5090 G3 X49.683 Y12.532 I0.347 J-0.76
N5095 X49.422 Y12.119 I0.545 J-0.634 F30000.
N5100 X51.188 Y11.209 I0.979 J-0.268
N5105 X51.314 Y11.408 I-0.787 J0.641 F900.
N5110 X51.483 Y11.797 I-3.155 J1.604 F1000.
N5115 X51.466 Y12.2 I-0.933 J0.163
N5120 G1 X51.354 Y12.444
N5125 X51.178 Y12.646
N5130 X50.952 Y12.79
N5135 X50.695 Y12.865
N5140 X50.426 Y12.864
N5145 X50.17 Y12.787
N5150 G3 X49.98 Y12.649 I0.328 J-0.651
N5155 X49.809 Y12.376 I0.518 J-0.513 F30000.
N5160 X51.295 Y11.472 I0.84 J-0.292
N5165 X51.433 Y11.663 I-0.646 J0.612 F900.
N5170 X51.587 Y11.962 I-5.854 J3.209 F1000.
N5175 X51.624 Y12.214 I-0.646 J0.224
N5180 G1 X51.575 Y12.448
N5185 X51.463 Y12.658
N5190 X51.295 Y12.828
N5195 X51.087 Y12.944
N5200 X50.854 Y12.996
N5205 X50.616 Y12.981
N5210 X50.392 Y12.899
N5215 G3 X50.217 Y12.744 I0.301 J-0.516
N5220 X50.134 Y12.594 I0.476 J-0.361 F30000.
N5225 X51.41 Y11.721 I0.744 J-0.281
N5230 X51.559 Y11.902 I-0.531 J0.592 F900.
N5235 X51.715 Y12.2 I-1.355 J0.896 F1000.
N5240 G1 X51.719 Y12.218
N5245 X51.725 Y12.242
N5250 X51.731 Y12.274
N5255 X51.736 Y12.304
N5260 X51.739 Y12.332
N5265 X51.741 Y12.36
N5270 Y12.386
N5275 Y12.41
N5280 X51.739 Y12.44
N5285 X51.686 Y12.647
N5290 X51.578 Y12.831
N5295 X51.424 Y12.977
N5300 X51.234 Y13.075
N5305 X51.025 Y13.117
N5310 X50.813 Y13.098
N5315 X50.614 Y13.021
N5320 G3 X50.443 Y12.861 I0.287 J-0.475
N5325 X50.385 Y12.753 I0.457 J-0.315 F30000.
N5330 X51.523 Y11.932 I0.671 J-0.269
N5335 X51.675 Y12.111 I-0.467 J0.551 F900.
N5340 G1 X51.708 Y12.171 F1000.
N5345 G3 X51.624 Y13.027 I-0.568 J0.376
N5350 X50.808 Y13.129 I-0.474 J-0.48
N5355 G1 X50.628 Y13.03
N5360 G3 X50.456 Y12.872 I0.31 J-0.514
N5365 G1 X50.4 Y12.796 Z-8.493
N5370 X50.346 Y12.723 Z-8.471
N5375 X50.294 Y12.652 Z-8.435
N5380 X50.246 Y12.588 Z-8.385
N5385 X50.204 Y12.53 Z-8.324
N5390 X50.168 Y12.481 Z-8.253
N5395 X50.139 Y12.441 Z-8.172
N5400 X50.117 Y12.412 Z-8.085
N5405 X50.104 Y12.395 Z-7.994
N5410 X50.1 Y12.389 Z-7.9
N5415 G0 Z4.
N5425 M9
N5430 G53 Z0.
N5435 M30
%
