%
(1)
(T1  D=6. CR=0. - ZMIN=-8. - FLAT END MILL)
N10 G90 G94 G17 G91.1
N15 G21
N20 G53 G0 Z0.
(2D ADAPTIVE3 2)
N25 M9
N30 T1 M6
N35 S3300 M3
N40 G54
N45 M8
N55 G0 X-12.545 Y32.717
N60 G43 Z4. H1
N65 G0 Z2.51
N70 G1 Z2.505 F900.
N75 S2800
N80 G3 X-7.996 Y29.282 Z2.192 I2.274 J-1.718 F700.
N85 X-12.545 Y32.717 Z1.88 I-2.274 J1.718
N90 X-7.996 Y29.282 Z1.567 I2.274 J-1.718
N95 X-12.545 Y32.717 Z1.254 I-2.274 J1.718
N100 X-7.996 Y29.282 Z0.942 I2.274 J-1.718
N105 X-12.545 Y32.717 Z0.629 I-2.274 J1.718
N110 X-7.996 Y29.282 Z0.316 I2.274 J-1.718
N115 X-12.545 Y32.717 Z0.004 I-2.274 J1.718
N120 X-7.996 Y29.282 Z-0.309 I2.274 J-1.718
N125 X-12.545 Y32.717 Z-0.622 I-2.274 J1.718
N130 X-7.996 Y29.282 Z-0.934 I2.274 J-1.718
N135 X-12.545 Y32.717 Z-1.247 I-2.274 J1.718
N140 X-7.996 Y29.282 Z-1.56 I2.274 J-1.718
N145 X-12.545 Y32.717 Z-1.872 I-2.274 J1.718
N150 X-7.996 Y29.282 Z-2.185 I2.274 J-1.718
N155 X-12.545 Y32.717 Z-2.498 I-2.274 J1.718
N160 X-7.996 Y29.282 Z-2.81 I2.274 J-1.718
N165 X-12.545 Y32.717 Z-3.123 I-2.274 J1.718
N170 X-7.996 Y29.282 Z-3.436 I2.274 J-1.718
N175 X-7.421 Y31. Z-3.5 I-2.274 J1.718
N180 X-13.121 I-2.85 J0.
N185 X-7.421 I2.85 J0.
N190 S3300
N195 G2 X-7.338 Y31.769 I2.594 J0.112 F1000.
N200 G3 X-7.772 Y33.164 I-2.07 J0.122
N205 X-9.344 Y34.274 I-2.381 J-1.705
N210 X-13.623 Y31.733 I-0.971 J-3.238
N215 X-7.107 Y29.661 I3.352 J-0.739
N220 X-6.673 Y31.324 I-4.686 J2.111
N225 X-8.506 Y34.569 I-3.435 J0.199
N230 X-12.534 Y34.364 I-1.846 J-3.406
N235 X-9.872 Y26.955 I2.252 J-3.374
N240 X-6.874 Y28.758 I-0.385 J4.032
N245 X-6.04 Y32.027 I-3.818 J2.715
N250 X-9.388 Y35.582 I-4.214 J-0.614
N255 X-14.26 Y33.539 I-0.98 J-4.494
N260 X-7.254 Y27.348 I3.986 J-2.549
N265 X-5.371 Y32.199 I-3.324 J4.082
N270 X-9.814 Y36.35 I-4.929 J-0.823
N275 X-15.145 Y33.4 I-0.562 J-5.276
N280 X-7.478 Y26.329 I4.87 J-2.412
N285 X-4.789 Y32.903 I-2.998 J5.063
N290 X-10.397 Y37.105 I-5.549 J-1.563
N295 X-16.229 Y32.597 I0.022 J-6.054
N300 X-7.693 Y25.385 I5.954 J-1.61
N305 X-3.891 Y30.598 I-2.737 J5.99
N310 X-8.933 Y37.694 I-6.415 J0.781
N315 X-15.533 Y35.488 I-1.471 J-6.576
N320 X-9.187 Y24.151 I5.25 J-4.506
N325 X-4.352 Y27.245 I-1.121 J7.076
N330 X-9.466 Y38.568 I-5.981 J4.115
N335 X-17.267 Y34.21 I-0.934 J-7.49
N340 X-8.559 Y23.48 I6.988 J-3.228
N345 X-3.323 Y27.416 I-1.757 J7.788
N350 X-8.774 Y39.251 I-7.007 J3.945
N355 X-17.639 Y35.213 I-1.637 J-8.156
N360 X-11.448 Y22.577 I7.349 J-4.234
N365 X-4.023 Y25.15 I1.189 J8.566
N370 X-9.253 Y40.143 I-6.322 J6.203
N375 X-18.57 Y35.188 I-1.159 J-9.058
N380 X-9.843 Y21.696 I8.286 J-4.209
N385 X-2.632 Y25.524 I-0.428 J9.513
N390 X-8.596 Y40.864 I-7.71 J5.832
N395 X-9.659 Y41.002 I-1.366 J-6.347
N400 G1 X-10.63 Y41.
N405 G3 X-12.309 Y40.838 I0.223 J-11.099
N410 X-20.071 Y33.529 I1.882 J-9.774
N415 X-20.399 Y30.999 I9.289 J-2.494
N420 X-20.3 Y29.597 I14.663 J0.332
N425 X-12.032 Y21.018 I10.017 J1.381
N430 G1 X-11.879 Y21.005
N435 X-11.726 Y21.
N440 X-9.551
N445 G3 X-5.01 Y22.316 I-0.209 J9.214
N450 X0.002 Y33.111 I-5.321 J9.031
N455 X-5.702 Y40.764 I-10.328 J-1.745
N460 X-6.72 Y40.999 I-1.015 J-2.075
N465 G1 X-9.551 Y41.
N470 X-9.56 Y40.999
N475 G2 X-9.784 Y40.964 I-0.531 J2.732
N480 G1 X-9.8 Y40.963 F30000.
N485 G2 X-9.863 Y40.959 I-0.063 J0.597
N490 G1 X-10.319
N495 G2 X-10.382 Y40.963 I0. J0.6
N500 G1 X-10.398 Y40.964
N505 G2 X-10.622 Y40.999 I0.307 J2.766 F900.
N510 G1 X-10.63 Y41.
N515 X-13.329 F1000.
N520 G3 X-15.402 Y40.494 I0.203 J-5.338
N525 X-18.145 Y38.563 I3.633 J-8.074
N530 X-20.169 Y35.679 I7.379 J-7.331
N535 X-20.4 Y34.669 I2.086 J-1.008
N540 G1 Y31.075
N545 Y30.999
N550 X-20.361 Y30.844
N555 X-20.265 Y30.46 F30000.
N560 G3 X-15.569 Y29.92 I2.441 J0.54
N565 G1 X-11.937 Y37.476
N570 G3 X-12.609 Y40.555 I-2.232 J1.126
N575 G1 X-13.101 Y40.946
N580 G3 X-13.329 Y41. I-0.249 J-0.546 F900.
N585 G1 X-14.948 F1000.
N590 G3 X-16.56 Y40.599 I0.157 J-4.074
N595 X-18.628 Y39.187 I3.048 J-6.687
N600 X-20.106 Y37.442 I6.299 J-6.831
N605 X-20.4 Y36.301 I2.128 J-1.157
N610 G1 Y34.777
N615 G3 X-20.346 Y34.549 I0.6 J0.021
N620 X-19.346 Y34.406 I0.546 J0.249 F30000.
N625 G1 X-14.515 Y40.008
N630 G3 X-14.72 Y40.946 I-0.454 J0.392
N635 X-14.948 Y41. I-0.249 J-0.546 F900.
N640 G1 X-16.306 F1000.
N645 G3 X-17.859 Y40.562 I0.181 J-3.618
N650 X-19.907 Y38.969 I3.054 J-6.037
N655 X-20.4 Y37.532 I1.858 J-1.441
N660 X-20.346 Y37.304 I0.6 J0.021
N665 X-19.42 Y37.089 I0.546 J0.249 F30000.
N670 G1 X-15.947 Y39.936
N675 G3 X-16.078 Y40.946 I-0.38 J0.464
N680 X-16.306 Y41. I-0.249 J-0.546 F900.
N685 G1 X-17.467 F1000.
N690 G3 X-18.894 Y40.605 I0.131 J-3.256
N695 X-19.786 Y39.981 I1.163 J-2.61
N700 X-20.4 Y38.402 I1.736 J-1.584
N705 X-20.346 Y38.174 I0.6 J0.021
N710 X-19.41 Y37.967 I0.546 J0.249 F30000.
N715 G1 X-17.098 Y39.944
N720 G3 X-17.239 Y40.946 I-0.39 J0.456
N725 X-17.467 Y41. I-0.249 J-0.546 F900.
N730 G1 X-18.546 F1000.
N735 G3 X-19.299 Y40.836 I0.002 J-1.83
N740 X-20.4 Y39.133 I0.768 J-1.704
N745 X-20.346 Y38.905 I0.6 J0.021
N750 X-19.374 Y38.732 I0.546 J0.249 F30000.
N755 G1 X-18.141 Y39.978
N760 G3 X-18.318 Y40.946 I-0.427 J0.422
N765 X-18.546 Y41. I-0.249 J-0.546 F900.
N770 G1 X-19.266 F1000.
N775 X-19.345 Y40.996
N780 X-19.386 Y40.992
N785 X-19.432 Y40.985
N790 X-19.693 Y40.906
N795 X-19.928 Y40.768
N800 X-20.126 Y40.581
N805 X-20.275 Y40.352
N810 X-20.368 Y40.096
N815 X-20.4 Y39.825
N820 G3 X-20.366 Y39.593 I1.1 J0.038
N825 X-18.983 Y38.809 I1.067 J0.271 F30000.
N830 X-19.033 Y40.967 I-0.322 J1.072
N835 X-19.266 Y41. I-0.272 J-1.085 F900.
N840 X-19.792 Y40.996 I-0.214 J-6.565 F1000.
N845 X-20.246 Y40.789 I0.115 J-0.852
N850 G1 X-20.288 Y40.722
N855 X-20.321 Y40.651
N860 X-20.346 Y40.576
N865 G3 X-20.321 Y40.146 I0.646 J-0.178
N870 X-19.173 Y40.614 I0.574 J0.234
N875 X-19.498 Y40.948 I-0.574 J-0.234
N880 X-19.726 Y40.999 I-0.249 J-0.568 F900.
N885 X-20.401 Y40.354 I-0.048 J-0.625 F1000.
N890 G1 X-20.4 Y36.301
N895 X-20.346 Y36.073
N900 Y36.071
N905 X-20.397 Y31.235 F30000.
N910 X-20.4 Y30.999 F900.
N915 Y28.121 F1000.
N920 G3 X-19.884 Y25.974 I5.521 J0.191
N925 X-17.769 Y23.02 I8.337 J3.735
N930 X-15.125 Y21.171 I7.135 J7.389
N935 X-14.238 Y20.999 I0.902 J2.275
N940 G1 X-11.89 Y21.
N945 G3 X-11.662 Y21.053 I-0.021 J0.6
N950 X-11.529 Y22.062 I-0.249 J0.546 F30000.
N955 G1 X-19.419 Y28.563
N960 G3 X-20.346 Y28.349 I-0.382 J-0.463
N965 X-20.4 Y28.121 I0.546 J-0.249 F900.
N970 G1 Y26.502 F1000.
N975 G3 X-19.986 Y24.79 I4.198 J0.108
N980 X-18.577 Y22.712 I6.822 J3.109
N985 X-16.991 Y21.327 I6.781 J6.167
N990 X-15.793 Y20.999 I1.208 J2.063
N995 G1 X-14.238 Y21.
N1000 G3 X-14.01 Y21.053 I-0.021 J0.6
N1005 X-13.862 Y22.049 I-0.249 J0.546 F30000.
N1010 G1 X-19.403 Y26.931
N1015 G3 X-20.346 Y26.73 I-0.397 J-0.45
N1020 X-20.4 Y26.502 I0.546 J-0.249 F900.
N1025 G1 Y25.063 F1000.
N1030 G3 X-19.954 Y23.482 I3.69 J0.188
N1035 X-18.425 Y21.487 I5.988 J3.005
N1040 X-16.991 Y20.999 I1.448 J1.901
N1045 G1 X-16.913 Y21.007
N1050 X-16.836 Y21.025
N1055 X-16.763 Y21.053
N1060 G3 X-16.546 Y21.977 I-0.249 J0.546 F30000.
N1065 G1 X-19.334 Y25.419
N1070 G3 X-20.346 Y25.291 I-0.466 J-0.378
N1075 X-20.4 Y25.063 I0.546 J-0.249 F900.
N1080 G1 Y23.884 F1000.
N1085 G3 X-20.001 Y22.444 I3.299 J0.137
N1090 X-18.836 Y21.224 I2.249 J0.982
N1095 X-17.833 Y20.999 I1.011 J2.163
N1100 X-17.605 Y21.053 I-0.021 J0.6
N1105 X-17.399 Y21.99 I-0.249 J0.546 F30000.
N1110 G1 X-19.345 Y24.255
N1115 G3 X-20.346 Y24.112 I-0.455 J-0.391
N1120 X-20.4 Y23.884 I0.546 J-0.249 F900.
N1125 G1 Y22.805 F1000.
N1130 X-20.392 Y22.654
N1135 G3 X-18.575 Y21. I1.817 J0.17
N1140 X-18.347 Y21.053 I-0.021 J0.6
N1145 X-18.175 Y22.027 I-0.249 J0.546 F30000.
N1150 G1 X-19.379 Y23.212
N1155 G3 X-20.346 Y23.033 I-0.421 J-0.428
N1160 X-20.4 Y22.805 I0.546 J-0.249 F900.
N1165 G1 Y22.085 F1000.
N1170 X-20.397 Y22.034
N1175 X-20.393 Y21.993
N1180 X-20.324 Y21.727
N1185 X-20.193 Y21.486
N1190 X-20.01 Y21.283
N1195 X-19.783 Y21.128
N1200 X-19.526 Y21.032
N1205 X-19.254 Y21.
N1210 G3 X-19.021 Y21.034 I-0.037 J1.056
N1215 X-18.285 Y22.381 I-0.27 J1.022 F30000.
N1220 X-20.366 Y22.318 I-1.031 J-0.333
N1225 X-20.4 Y22.085 I1.05 J-0.271 F900.
N1230 X-20.396 Y21.603 I4.416 J-0.207 F1000.
N1235 G1 X-20.358 Y21.43
N1240 X-20.28 Y21.272
N1245 X-20.165 Y21.136
N1250 G3 X-19.525 Y21.074 I0.375 J0.537
N1255 X-20.029 Y22.214 I-0.252 J0.57
N1260 X-20.348 Y21.894 I0.252 J-0.57
N1265 X-20.4 Y21.666 I0.571 J-0.25 F900.
N1270 X-19.805 Y21. I0.622 J-0.043 F1000.
N1275 G1 X-19.626
N1280 X-15.793
N1285 X-15.566 Y21.053
N1290 X-15.564
N1295 X-9.787 Y21.002 F30000.
N1300 X-9.551 Y21. F900.
N1305 X-7.032 F1000.
N1310 G3 X-5.025 Y21.499 I-0.241 J5.255
N1315 X-2.478 Y23.228 I-3.645 J8.109
N1320 X0.946 Y30.431 I-7.681 J8.067
N1325 X-3.742 Y40.561 I-11.258 J0.94
N1330 X-5.102 Y40.999 I-1.357 J-1.879
N1335 G1 X-6.72 Y41.
N1340 G3 X-6.948 Y40.946 I0.021 J-0.6
N1345 X-7.299 Y40.41 I0.249 J-0.546 F30000.
N1350 G1 X-7.611 Y21.609
N1355 G3 X-7.26 Y21.053 I0.6 J-0.01
N1360 X-7.032 Y21. I0.249 J0.546 F900.
N1365 G1 X-5.494 F1000.
N1370 G3 X-3.85 Y21.403 I-0.132 J4.088
N1375 X-1.776 Y22.812 I-3.1 J6.795
N1380 X0.908 Y26.724 I-7.529 J8.043
N1385 X-2.231 Y40.432 I-11.206 J4.647
N1390 X-3.757 Y41. I-1.527 J-1.768
N1395 G1 X-5.102
N1400 G3 X-5.33 Y40.946 I0.021 J-0.6
N1405 X-5.681 Y40.412 I0.249 J-0.546 F30000.
N1410 G1 X-6.073 Y21.612
N1415 G3 X-5.722 Y21.053 I0.6 J-0.013
N1420 X-5.494 Y21. I0.249 J0.546 F900.
N1425 G1 X-4.154 F1000.
N1430 G3 X-2.538 Y21.444 I-0.136 J3.654
N1435 X-0.759 Y22.738 I-3.083 J6.104
N1440 X1.602 Y26.203 I-7.645 J7.747
N1445 X1.589 Y36.586 I-11.78 J5.177
N1450 X-0.929 Y40.355 I-11.566 J-5.002
N1455 X-2.544 Y41. I-1.626 J-1.725
N1460 G1 X-3.614
N1465 G3 X-3.842 Y40.946 I0.021 J-0.6
N1470 X-4.193 Y40.417 I0.249 J-0.546 F30000.
N1475 G1 X-4.733 Y21.616
N1480 G3 X-4.382 Y21.053 I0.6 J-0.017
N1485 X-4.154 Y21. I0.249 J0.546 F900.
N1490 G1 X-2.895 F1000.
N1495 G3 X-1.496 Y21.398 I-0.187 J3.311
N1500 X0.217 Y22.668 I-2.88 J5.671
N1505 X2.28 Y25.664 I-7.494 J7.37
N1510 X3.441 Y33.066 I-12.099 J5.689
N1515 X0.543 Y39.982 I-13.631 J-1.646
N1520 X-0.128 Y40.617 I-2.592 J-2.069
N1525 X-1.411 Y41. I-1.288 J-1.973
N1530 G1 X-2.544
N1535 G3 X-2.772 Y40.946 I0.021 J-0.6
N1540 X-3.123 Y40.411 I0.249 J-0.546 F30000.
N1545 G1 X-3.474 Y21.61
N1550 G3 X-3.123 Y21.053 I0.6 J-0.011
N1555 X-2.895 Y21. I0.249 J0.546 F900.
N1560 G1 X-1.815 F1000.
N1565 G3 X-0.479 Y21.371 I-0.135 J3.075
N1570 X1.171 Y22.609 I-2.72 J5.342
N1575 X3.07 Y25.38 I-7.32 J7.054
N1580 X4.411 Y31.367 I-12.351 J5.911
N1585 X1.909 Y39.585 I-14.584 J0.05
N1590 X1.384 Y40.252 I-6.207 J-4.352
N1595 X-0.329 Y41. I-1.715 J-1.591
N1600 G1 X-1.276
N1605 G3 X-1.503 Y40.946 I0.021 J-0.6
N1610 X-1.854 Y40.417 I0.249 J-0.546 F30000.
N1615 G1 X-2.394 Y21.616
N1620 G3 X-2.043 Y21.053 I0.6 J-0.017
N1625 X-1.815 Y21. I0.249 J0.546 F900.
N1630 G1 X-0.736 F1000.
N1635 G3 X0.687 Y21.445 I-0.179 J3.067
N1640 X2.106 Y22.556 I-2.815 J5.058
N1645 X3.975 Y25.348 I-7.269 J6.888
N1650 X5.256 Y30.502 I-12.646 J5.879
N1655 X3.074 Y39.379 I-15.338 J0.936
N1660 X2.446 Y40.235 I-6.421 J-4.049
N1665 X0.718 Y41. I-1.729 J-1.575
N1670 G1 X-0.196
N1675 G3 X-0.424 Y40.946 I0.021 J-0.6
N1680 X-0.775 Y40.417 I0.249 J-0.546 F30000.
N1685 G1 X-1.315 Y21.616
N1690 G3 X-0.964 Y21.053 I0.6 J-0.017
N1695 X-0.736 Y21. I0.249 J0.546 F900.
N1700 G1 X0.263 F1000.
N1705 G3 X1.65 Y21.428 I-0.148 J2.941
N1710 X3.033 Y22.515 I-2.714 J4.872
N1715 X4.759 Y25.067 I-7.036 J6.62
N1720 X6.087 Y29.924 I-12.68 J6.076
N1725 X4.208 Y39.158 I-16.015 J1.55
N1730 X3.546 Y40.143 I-6.971 J-3.977
N1735 X1.737 Y41. I-1.813 J-1.489
N1740 G1 X0.883
N1745 G3 X0.655 Y40.946 I0.021 J-0.6
N1750 X0.305 Y40.42 I0.249 J-0.546 F30000.
N1755 G1 X-0.316 Y21.619
N1760 G3 X0.035 Y21.053 I0.6 J-0.02
N1765 X0.263 Y21. I0.249 J0.546 F900.
N1770 G1 X1.243 F1000.
N1775 G3 X2.599 Y21.415 I-0.133 J2.853
N1780 X4.138 Y22.686 I-2.773 J4.923
N1785 X5.777 Y25.295 I-7.463 J6.51
N1790 X6.966 Y29.904 I-13.197 J5.86
N1795 X5.444 Y38.667 I-16.734 J1.608
N1800 X4.555 Y40.133 I-7.511 J-3.552
N1805 X2.736 Y41. I-1.826 J-1.49
N1810 G1 X1.737
N1815 G3 X1.509 Y40.946 I0.021 J-0.6
N1820 X1.158 Y40.416 I0.249 J-0.546 F30000.
N1825 G1 X0.664 Y21.615
N1830 G3 X1.015 Y21.053 I0.6 J-0.016
N1835 X1.243 Y21. I0.249 J0.546 F900.
N1840 G1 X2.242 F1000.
N1845 G3 X3.535 Y21.404 I-0.165 J2.797
N1850 X5.048 Y22.658 I-2.722 J4.824
N1855 X6.675 Y25.275 I-7.408 J6.419
N1860 X7.818 Y29.609 I-13.335 J5.834
N1865 X6.524 Y38.416 I-17.337 J1.952
N1870 X5.601 Y40.057 I-8.185 J-3.524
N1875 G1 X5.546 Y40.121
N1880 G3 X3.722 Y41. I-1.824 J-1.455
N1885 G1 X2.862
N1890 G3 X2.634 Y40.946 I0.021 J-0.6
N1895 X2.283 Y40.42 I0.249 J-0.546 F30000.
N1900 G1 X1.663 Y21.619
N1905 G3 X2.014 Y21.053 I0.6 J-0.02
N1910 X2.242 Y21. I0.249 J0.546 F900.
N1915 G1 X3.141 F1000.
N1920 G3 X4.464 Y21.398 I-0.103 J2.735
N1925 X5.955 Y22.637 I-2.666 J4.726
N1930 X7.571 Y25.26 I-7.353 J6.34
N1935 X8.701 Y29.597 I-13.546 J5.847
N1940 X7.586 Y38.16 I-17.914 J2.02
N1945 X6.704 Y39.876 I-9.152 J-3.617
N1950 X5.945 Y40.638 I-2.269 J-1.502
N1955 X4.695 Y41. I-1.255 J-2.
N1960 G1 X3.722
N1965 G3 X3.494 Y40.946 I0.021 J-0.6
N1970 X3.143 Y40.418 I0.249 J-0.546 F30000.
N1975 G1 X2.562 Y21.618
N1980 G3 X2.913 Y21.053 I0.6 J-0.019
N1985 X3.141 Y21. I0.249 J0.546 F900.
N1990 G1 X4.122 F1000.
N1995 G3 X5.383 Y21.391 I-0.148 J2.705
N2000 X6.856 Y22.616 I-2.635 J4.666
N2005 X8.465 Y25.244 I-7.309 J6.282
N2010 X9.554 Y29.305 I-13.579 J5.817
N2015 X8.633 Y37.895 I-18.394 J2.374
N2020 X7.809 Y39.656 I-10.207 J-3.703
N2025 X7.326 Y40.3 I-3.454 J-2.089
N2030 X5.659 Y41. I-1.669 J-1.64
N2035 G1 X4.841
N2040 G3 X4.613 Y40.946 I0.021 J-0.6
N2045 X4.263 Y40.423 I0.249 J-0.546 F30000.
N2050 G1 X3.543 Y21.622
N2055 G3 X3.894 Y21.053 I0.6 J-0.023
N2060 X4.122 Y21. I0.249 J0.546 F900.
N2065 G1 X5.021 F1000.
N2070 G3 X6.298 Y21.387 I-0.113 J2.667
N2075 X7.756 Y22.602 I-2.601 J4.607
N2080 X9.246 Y24.975 I-7.082 J6.1
N2085 X10.403 Y29.017 I-13.366 J6.012
N2090 X9.575 Y37.895 I-18.759 J2.728
N2095 X8.764 Y39.656 I-10.194 J-3.627
N2100 X8.288 Y40.294 I-3.432 J-2.062
N2105 X6.616 Y41. I-1.674 J-1.634
N2110 G1 X5.659
N2115 G3 X5.431 Y40.946 I0.021 J-0.6
N2120 X5.08 Y40.42 I0.249 J-0.546 F30000.
N2125 G1 X4.442 Y21.619
N2130 G3 X4.793 Y21.053 I0.6 J-0.02
N2135 X5.021 Y21. I0.249 J0.546 F900.
N2140 G1 X5.921 F1000.
N2145 G3 X7.208 Y21.385 I-0.091 J2.646
N2150 X8.655 Y22.591 I-2.577 J4.564
N2155 X10.14 Y24.966 I-7.053 J6.062
N2160 X11.292 Y29.01 I-13.492 J6.029
N2165 X10.601 Y37.628 I-19.161 J2.801
N2170 X9.713 Y39.657 I-10.427 J-3.358
N2175 X9.243 Y40.289 I-3.473 J-2.09
N2180 X7.566 Y41. I-1.679 J-1.629
N2185 G1 X6.616
N2190 G3 X6.388 Y40.946 I0.021 J-0.6
N2195 X6.037 Y40.422 I0.249 J-0.546 F30000.
N2200 G1 X5.342 Y21.621
N2205 G3 X5.693 Y21.053 I0.6 J-0.022
N2210 X5.921 Y21. I0.249 J0.546 F900.
N2215 G1 X6.875 F1000.
N2220 G3 X8.112 Y21.381 I-0.132 J2.63
N2225 X9.551 Y22.581 I-2.564 J4.538
N2230 X11.034 Y24.958 I-7.034 J6.036
N2235 X12.183 Y29.003 I-13.607 J6.053
N2240 X11.536 Y37.627 I-19.472 J2.874
N2245 X10.779 Y39.442 I-11.244 J-3.622
N2250 X10.193 Y40.286 I-3.891 J-2.076
N2255 X8.511 Y41. I-1.687 J-1.636
N2260 G1 X7.72
N2265 G3 X7.492 Y40.946 I0.021 J-0.6
N2270 X7.141 Y40.427 I0.249 J-0.546 F30000.
N2275 G1 X6.296 Y21.626
N2280 G3 X6.647 Y21.053 I0.599 J-0.027
N2285 X6.874 Y21. I0.249 J0.546 F900.
N2290 G1 X7.774 F1000.
N2295 G3 X9.016 Y21.379 I-0.119 J2.612
N2300 X10.448 Y22.574 I-2.549 J4.51
N2305 X11.928 Y24.953 I-7.019 J6.016
N2310 X13.033 Y28.72 I-13.523 J6.012
N2315 X12.547 Y37.357 I-19.722 J3.222
N2320 X11.717 Y39.445 I-11.345 J-3.298
N2325 X11.137 Y40.283 I-3.905 J-2.083
N2330 X9.452 Y41. I-1.69 J-1.633
N2335 G1 X8.619
N2340 G3 X8.391 Y40.946 I0.021 J-0.6
N2345 X8.041 Y40.427 I0.249 J-0.546 F30000.
N2350 G1 X7.196 Y21.626
N2355 G3 X7.546 Y21.053 I0.599 J-0.027
N2360 X7.774 Y21. I0.249 J0.546 F900.
N2365 G1 X8.674 F1000.
N2370 G3 X9.917 Y21.377 I-0.111 J2.6
N2375 X11.343 Y22.568 I-2.537 J4.49
N2380 X12.822 Y24.948 I-7.01 J6.003
N2385 X13.926 Y28.716 I-13.616 J6.039
N2390 X13.475 Y37.356 I-19.943 J3.289
N2395 X12.652 Y39.447 I-11.375 J-3.269
N2400 X12.077 Y40.28 I-3.892 J-2.071
N2405 X10.389 Y41. I-1.693 J-1.631
N2410 G1 X9.452
N2415 G3 X9.224 Y40.946 I0.021 J-0.6
N2420 X8.873 Y40.425 I0.249 J-0.546 F30000.
N2425 G1 X8.095 Y21.624
N2430 G3 X8.446 Y21.053 I0.599 J-0.025
N2435 X8.674 Y21. I0.249 J0.546 F900.
N2440 G1 X9.618 F1000.
N2445 G3 X10.814 Y21.374 I-0.159 J2.604
N2450 X12.238 Y22.563 I-2.538 J4.486
N2455 X13.715 Y24.944 I-7.01 J5.998
N2460 X14.821 Y28.711 I-13.703 J6.069
N2465 X14.474 Y37.082 I-20.164 J3.356
N2470 X13.585 Y39.448 I-11.571 J-2.997
N2475 X13.014 Y40.277 I-3.933 J-2.098
N2480 X11.323 Y41. I-1.696 J-1.629
N2485 G1 X10.389
N2490 G3 X10.161 Y40.946 I0.021 J-0.6
N2495 X9.81 Y40.424 I0.249 J-0.546 F30000.
N2500 G1 X9.039 Y21.624
N2505 G3 X9.39 Y21.053 I0.599 J-0.025
N2510 X9.618 Y21. I0.249 J0.546 F900.
N2515 G1 X10.517 F1000.
N2520 G3 X11.712 Y21.373 I-0.155 J2.594
N2525 X13.133 Y22.56 I-2.532 J4.475
N2530 X14.609 Y24.941 I-7.01 J5.995
N2535 X15.717 Y28.708 I-13.783 J6.1
N2540 X15.398 Y37.081 I-20.312 J3.418
N2545 X14.642 Y39.197 I-12.323 J-3.208
N2550 X14.121 Y40.068 I-5.382 J-2.628
N2555 X12.254 Y41. I-1.869 J-1.409
N2560 G1 X11.323
N2565 G3 X11.095 Y40.946 I0.021 J-0.6
N2570 X10.744 Y40.426 I0.249 J-0.546 F30000.
N2575 G1 X9.939 Y21.625
N2580 G3 X10.289 Y21.053 I0.599 J-0.026
N2585 X10.517 Y21. I0.249 J0.546 F900.
N2590 G1 X11.417 F1000.
N2595 G3 X12.609 Y21.372 I-0.155 J2.589
N2600 X14.027 Y22.557 I-2.527 J4.467
N2605 X15.503 Y24.938 I-7.012 J5.995
N2610 X16.614 Y28.705 I-13.856 J6.132
N2615 X16.32 Y37.08 I-20.428 J3.476
N2620 X15.569 Y39.198 I-12.352 J-3.186
N2625 X15.052 Y40.066 I-5.378 J-2.619
N2630 X13.184 Y41. I-1.87 J-1.406
N2635 G1 X12.397
N2640 G3 X12.169 Y40.946 I0.021 J-0.6
N2645 X11.819 Y40.431 I0.249 J-0.546 F30000.
N2650 G1 X10.838 Y21.63
N2655 G3 X11.189 Y21.053 I0.599 J-0.031
N2660 X11.417 Y21. I0.249 J0.546 F900.
N2665 G1 X12.316 F1000.
N2670 G3 X13.505 Y21.372 I-0.157 J2.586
N2675 X14.922 Y22.555 I-2.525 J4.463
N2680 X16.398 Y24.937 I-7.017 J5.998
N2685 X17.512 Y28.702 I-13.923 J6.165
N2690 X17.307 Y36.805 I-20.569 J3.533
N2695 X16.496 Y39.199 I-12.464 J-2.888
N2700 X15.98 Y40.064 I-5.445 J-2.655
N2705 X14.111 Y41. I-1.872 J-1.404
N2710 G1 X13.297
N2715 G3 X13.069 Y40.946 I0.021 J-0.6
N2720 X12.718 Y40.431 I0.249 J-0.546 F30000.
N2725 G1 X11.738 Y21.63
N2730 G3 X12.088 Y21.053 I0.599 J-0.031
N2735 X12.316 Y21. I0.249 J0.546 F900.
N2740 G1 X13.171 F1000.
N2745 G3 X14.403 Y21.373 I-0.108 J2.572
N2750 X15.818 Y22.556 I-2.516 J4.45
N2755 X17.294 Y24.937 I-7.021 J6.001
N2760 X18.411 Y28.702 I-13.984 J6.195
N2765 X18.226 Y36.805 I-20.643 J3.583
N2770 X17.419 Y39.2 I-12.456 J-2.861
N2775 X16.907 Y40.063 I-5.44 J-2.649
N2780 X15.036 Y41. I-1.873 J-1.403
N2785 G1 X14.111
N2790 G3 X13.883 Y40.946 I0.021 J-0.6
N2795 X13.532 Y40.43 I0.249 J-0.546 F30000.
N2800 G1 X12.593 Y21.629
N2805 G3 X12.943 Y21.053 I0.599 J-0.03
N2810 X13.171 Y21. I0.249 J0.546 F900.
N2815 G1 X14.071 F1000.
N2820 G3 X15.298 Y21.373 I-0.113 J2.573
N2825 X16.714 Y22.556 I-2.517 J4.451
N2830 X18.19 Y24.937 I-7.03 J6.008
N2835 X19.31 Y28.701 I-14.04 J6.227
N2840 X19.144 Y36.805 I-20.699 J3.63
N2845 X18.342 Y39.201 I-12.452 J-2.838
N2850 X17.832 Y40.061 I-5.437 J-2.643
N2855 X15.96 Y41. I-1.874 J-1.402
N2860 G1 X15.036
N2865 G3 X14.808 Y40.946 I0.021 J-0.6
N2870 X14.458 Y40.431 I0.249 J-0.546 F30000.
N2875 G1 X13.492 Y21.63
N2880 G3 X13.843 Y21.053 I0.599 J-0.031
N2885 X14.071 Y21. I0.249 J0.546 F900.
N2890 G1 X14.97 F1000.
N2895 G3 X16.194 Y21.373 I-0.117 J2.573
N2900 X17.61 Y22.556 I-2.518 J4.453
N2905 X19.087 Y24.937 I-7.041 J6.018
N2910 X20.211 Y28.7 I-14.09 J6.257
N2915 X20.062 Y36.804 I-20.74 J3.674
N2920 X19.379 Y38.945 I-13.162 J-3.023
N2925 X18.755 Y40.06 I-5.622 J-2.411
N2930 X16.883 Y41. I-1.876 J-1.403
N2935 G1 X15.96
N2940 G3 X15.732 Y40.946 I0.021 J-0.6
N2945 X15.382 Y40.431 I0.249 J-0.546 F30000.
N2950 G1 X14.392 Y21.631
N2955 G3 X14.742 Y21.053 I0.599 J-0.032
N2960 X14.97 Y21. I0.249 J0.546 F900.
N2965 G1 X15.87 F1000.
N2970 G3 X17.089 Y21.373 I-0.121 J2.574
N2975 X18.506 Y22.557 I-2.521 J4.457
N2980 X19.984 Y24.937 I-7.053 J6.028
N2985 X21.112 Y28.699 I-14.136 J6.287
N2990 X21.038 Y36.529 I-20.824 J3.718
N2995 X20.184 Y39.203 I-12.631 J-2.558
N3000 X19.677 Y40.059 I-5.533 J-2.698
N3005 X17.804 Y41. I-1.876 J-1.4
N3010 G1 X16.883
N3015 G3 X16.655 Y40.946 I0.021 J-0.6
N3020 X16.304 Y40.432 I0.249 J-0.546 F30000.
N3025 G1 X15.291 Y21.631
N3030 G3 X15.642 Y21.053 I0.599 J-0.032
N3035 X15.87 Y21. I0.249 J0.546 F900.
N3040 G1 X16.769 F1000.
N3045 G3 X17.985 Y21.373 I-0.125 J2.575
N3050 X19.403 Y22.557 I-2.523 J4.461
N3055 X20.882 Y24.937 I-7.065 J6.039
N3060 X22.013 Y28.698 I-14.177 J6.315
N3065 X21.954 Y36.528 I-20.848 J3.756
N3070 X21.218 Y38.947 I-13.223 J-2.7
N3075 X20.599 Y40.058 I-5.643 J-2.417
N3080 X18.724 Y41. I-1.877 J-1.401
N3085 G1 X17.804
N3090 G3 X17.576 Y40.946 I0.021 J-0.6
N3095 X17.226 Y40.433 I0.249 J-0.546 F30000.
N3100 G1 X16.191 Y21.632
N3105 G3 X16.541 Y21.053 I0.599 J-0.033
N3110 X16.769 Y21. I0.249 J0.546 F900.
N3115 G1 X17.669 F1000.
N3120 G3 X18.882 Y21.373 I-0.129 J2.577
N3125 X20.301 Y22.558 I-2.526 J4.466
N3130 X21.781 Y24.938 I-7.077 J6.051
N3135 X22.916 Y28.697 I-14.214 J6.342
N3140 X22.869 Y36.528 I-20.864 J3.792
N3145 X22.137 Y38.947 I-13.216 J-2.681
N3150 X21.519 Y40.057 I-5.635 J-2.409
N3155 X19.644 Y41. I-1.878 J-1.4
N3160 G1 X18.874
N3165 G3 X18.646 Y40.946 I0.021 J-0.6
N3170 X18.296 Y40.438 I0.249 J-0.546 F30000.
N3175 G1 X17.091 Y21.638
N3180 G3 X17.441 Y21.053 I0.599 J-0.038
N3185 X17.669 Y21. I0.249 J0.546 F900.
N3190 G1 X18.568 F1000.
N3195 G3 X19.779 Y21.373 I-0.133 J2.579
N3200 X21.199 Y22.559 I-2.529 J4.471
N3205 X22.68 Y24.938 I-7.089 J6.062
N3210 X23.818 Y28.697 I-14.248 J6.368
N3215 X23.784 Y36.527 I-20.874 J3.825
N3220 X23.054 Y38.947 I-13.21 J-2.665
N3225 X22.438 Y40.057 I-5.628 J-2.402
N3230 X20.562 Y41. I-1.879 J-1.399
N3235 G1 X19.773
N3240 G3 X19.545 Y40.946 I0.021 J-0.6
N3245 X19.195 Y40.438 I0.249 J-0.546 F30000.
N3250 G1 X17.99 Y21.638
N3255 G3 X18.34 Y21.053 I0.599 J-0.038
N3260 X18.568 Y21. I0.249 J0.546 F900.
N3265 G1 X19.468 F1000.
N3270 G3 X20.676 Y21.373 I-0.136 J2.581
N3275 X22.098 Y22.56 I-2.532 J4.476
N3280 X23.579 Y24.939 I-7.101 J6.074
N3285 X24.721 Y28.696 I-14.278 J6.393
N3290 X24.699 Y36.527 I-20.88 J3.855
N3295 X23.971 Y38.947 I-13.203 J-2.649
N3300 X23.356 Y40.056 I-5.622 J-2.396
N3305 X21.48 Y41. I-1.879 J-1.398
N3310 G1 X20.673
N3315 G3 X20.445 Y40.946 I0.021 J-0.6
N3320 X20.095 Y40.438 I0.249 J-0.546 F30000.
N3325 G1 X18.89 Y21.638
N3330 G3 X19.24 Y21.053 I0.599 J-0.038
N3335 X19.468 Y21. I0.249 J0.546 F900.
N3340 G1 X20.367 F1000.
N3345 G3 X21.574 Y21.373 I-0.139 J2.584
N3350 X22.997 Y22.561 I-2.536 J4.482
N3355 X24.479 Y24.939 I-7.112 J6.085
N3360 X25.625 Y28.696 I-14.305 J6.416
N3365 X25.613 Y36.526 I-20.881 J3.883
N3370 X24.887 Y38.948 I-13.196 J-2.635
N3375 X24.273 Y40.055 I-5.615 J-2.39
N3380 X22.397 Y41. I-1.88 J-1.398
N3385 G1 X21.48
N3390 G3 X21.252 Y40.946 I0.021 J-0.6
N3395 X20.902 Y40.435 I0.249 J-0.546 F30000.
N3400 G1 X19.789 Y21.635
N3405 G3 X20.139 Y21.053 I0.599 J-0.035
N3410 X20.367 Y21. I0.249 J0.546 F900.
N3415 G1 X21.267 F1000.
N3420 G3 X22.473 Y21.373 I-0.141 J2.586
N3425 X23.897 Y22.563 I-2.539 J4.487
N3430 X25.38 Y24.94 I-7.124 J6.097
N3435 X26.529 Y28.695 I-14.329 J6.438
N3440 X26.527 Y36.526 I-20.88 J3.909
N3445 X25.803 Y38.948 I-13.189 J-2.622
N3450 X25.19 Y40.055 I-5.61 J-2.384
N3455 X23.313 Y41. I-1.88 J-1.397
N3460 G1 X22.397
N3465 G3 X22.169 Y40.946 I0.021 J-0.6
N3470 X21.819 Y40.436 I0.249 J-0.546 F30000.
N3475 G1 X20.689 Y21.635
N3480 G3 X21.039 Y21.053 I0.599 J-0.036
N3485 X21.267 Y21. I0.249 J0.546 F900.
N3490 G1 X22.166 F1000.
N3495 G3 X23.372 Y21.374 I-0.142 J2.588
N3500 X24.797 Y22.564 I-2.542 J4.493
N3505 X26.281 Y24.94 I-7.135 J6.108
N3510 X27.433 Y28.695 I-14.352 J6.458
N3515 X27.44 Y36.526 I-20.877 J3.933
N3520 X26.718 Y38.948 I-13.182 J-2.61
N3525 X26.106 Y40.054 I-5.604 J-2.38
N3530 X24.229 Y41. I-1.88 J-1.397
N3535 G1 X23.313
N3540 G3 X23.085 Y40.946 I0.021 J-0.6
N3545 X22.735 Y40.436 I0.249 J-0.546 F30000.
N3550 G1 X21.588 Y21.636
N3555 G3 X21.938 Y21.053 I0.599 J-0.037
N3560 X22.166 Y21. I0.249 J0.546 F900.
N3565 G1 X23.066 F1000.
N3570 G3 X24.271 Y21.374 I-0.144 J2.591
N3575 X25.698 Y22.565 I-2.545 J4.498
N3580 X27.183 Y24.941 I-7.145 J6.118
N3585 X28.338 Y28.695 I-14.372 J6.477
N3590 X28.353 Y36.526 I-20.873 J3.955
N3595 X27.633 Y38.949 I-13.175 J-2.599
N3600 X27.022 Y40.054 I-5.6 J-2.375
N3605 X25.144 Y41. I-1.881 J-1.396
N3610 G1 X24.229
N3615 G3 X24.001 Y40.946 I0.021 J-0.6
N3620 X23.651 Y40.437 I0.249 J-0.546 F30000.
N3625 G1 X22.488 Y21.636
N3630 G3 X22.838 Y21.053 I0.599 J-0.037
N3635 X23.066 Y21. I0.249 J0.546 F900.
N3640 G1 X23.965 F1000.
N3645 G3 X25.172 Y21.374 I-0.144 J2.593
N3650 X26.599 Y22.566 I-2.548 J4.503
N3655 X28.085 Y24.942 I-7.155 J6.128
N3660 X29.243 Y28.695 I-14.39 J6.495
N3665 X29.266 Y36.525 I-20.867 J3.975
N3670 X28.547 Y38.949 I-13.169 J-2.589
N3675 X27.937 Y40.053 I-5.595 J-2.371
N3680 X26.059 Y41. I-1.881 J-1.396
N3685 G1 X25.144
N3690 G3 X24.916 Y40.946 I0.021 J-0.6
N3695 X24.566 Y40.437 I0.249 J-0.546 F30000.
N3700 G1 X23.387 Y21.637
N3705 G3 X23.737 Y21.053 I0.599 J-0.038
N3710 X23.965 Y21. I0.249 J0.546 F900.
N3715 G1 X24.865 F1000.
N3720 G3 X26.072 Y21.375 I-0.144 J2.595
N3725 X27.501 Y22.568 I-2.551 J4.508
N3730 X28.988 Y24.943 I-7.164 J6.137
N3735 X30.149 Y28.695 I-14.407 J6.512
N3740 X30.229 Y36.249 I-20.921 J3.999
N3745 X29.461 Y38.95 I-13.32 J-2.326
N3750 X28.851 Y40.053 I-5.65 J-2.403
N3755 X26.973 Y41. I-1.882 J-1.396
N3760 G1 X26.059
N3765 G3 X25.831 Y40.946 I0.021 J-0.6
N3770 X25.481 Y40.438 I0.249 J-0.546 F30000.
N3775 G1 X24.287 Y21.637
N3780 G3 X24.637 Y21.053 I0.599 J-0.038
N3785 X24.865 Y21. I0.249 J0.546 F900.
N3790 G1 X25.764 F1000.
N3795 G3 X26.973 Y21.375 I-0.143 J2.596
N3800 X28.404 Y22.569 I-2.553 J4.512
N3805 X29.891 Y24.944 I-7.173 J6.146
N3810 X31.054 Y28.695 I-14.422 J6.528
N3815 X31.141 Y36.249 I-20.914 J4.017
N3820 X30.374 Y38.95 I-13.31 J-2.316
N3825 X29.765 Y40.052 I-5.647 J-2.4
N3830 X27.887 Y41. I-1.882 J-1.395
N3835 G1 X26.973
N3840 G3 X26.745 Y40.946 I0.021 J-0.6
N3845 X26.395 Y40.438 I0.249 J-0.546 F30000.
N3850 G1 X25.186 Y21.638
N3855 G3 X25.536 Y21.053 I0.599 J-0.038
N3860 X25.764 Y21. I0.249 J0.546 F900.
N3865 G1 X26.664 F1000.
N3870 G3 X27.875 Y21.375 I-0.142 J2.598
N3875 X29.306 Y22.57 I-2.555 J4.517
N3880 X30.795 Y24.944 I-7.181 J6.155
N3885 X31.96 Y28.695 I-14.436 J6.542
N3890 X32.052 Y36.249 I-20.908 J4.033
N3895 X31.288 Y38.95 I-13.301 J-2.307
N3900 X30.679 Y40.052 I-5.644 J-2.398
N3905 X28.8 Y41. I-1.882 J-1.395
N3910 G1 X28.049
N3915 G3 X27.821 Y40.946 I0.021 J-0.6
N3920 X27.471 Y40.444 I0.249 J-0.546 F30000.
N3925 G1 X26.086 Y21.643
N3930 G3 X26.436 Y21.053 I0.598 J-0.044
N3935 X26.664 Y21. I0.249 J0.546 F900.
N3940 G1 X27.563 F1000.
N3945 G3 X28.777 Y21.376 I-0.14 J2.599
N3950 X30.21 Y22.571 I-2.557 J4.521
N3955 X31.699 Y24.945 I-7.189 J6.163
N3960 X32.866 Y28.695 I-14.448 J6.556
N3965 X32.964 Y36.249 I-20.901 J4.048
N3970 X32.2 Y38.951 I-13.292 J-2.299
N3975 X31.593 Y40.052 I-5.642 J-2.395
N3980 X29.713 Y41. I-1.882 J-1.394
N3985 G1 X28.948
N3990 G3 X28.72 Y40.946 I0.021 J-0.6
N3995 X28.371 Y40.444 I0.249 J-0.546 F30000.
N4000 G1 X26.986 Y21.643
N4005 G3 X27.335 Y21.053 I0.598 J-0.044
N4010 X27.563 Y21. I0.249 J0.546 F900.
N4015 G1 X28.463 F1000.
N4020 G3 X29.68 Y21.376 I-0.138 J2.6
N4025 X31.113 Y22.572 I-2.559 J4.524
N4030 X32.603 Y24.946 I-7.196 J6.171
N4035 X33.773 Y28.695 I-14.46 J6.568
N4040 X33.875 Y36.249 I-20.894 J4.062
N4045 X33.113 Y38.951 I-13.283 J-2.291
N4050 X32.506 Y40.051 I-5.64 J-2.393
N4055 X30.626 Y41. I-1.883 J-1.394
N4060 G1 X29.848
N4065 G3 X29.62 Y40.946 I0.021 J-0.6
N4070 X29.27 Y40.444 I0.249 J-0.546 F30000.
N4075 G1 X27.885 Y21.643
N4080 G3 X28.235 Y21.053 I0.598 J-0.044
N4085 X28.463 Y21. I0.249 J0.546 F900.
N4090 G1 X29.362 F1000.
N4095 G3 X30.583 Y21.376 I-0.135 J2.601
N4100 X32.017 Y22.573 I-2.561 J4.528
N4105 X33.508 Y24.947 I-7.203 J6.178
N4110 X34.679 Y28.696 I-14.47 J6.58
N4115 X34.787 Y36.249 I-20.888 J4.074
N4120 X34.025 Y38.951 I-13.275 J-2.284
N4125 X33.418 Y40.051 I-5.637 J-2.391
N4130 X31.539 Y41. I-1.883 J-1.394
N4135 G1 X30.747
N4140 G3 X30.519 Y40.946 I0.021 J-0.6
N4145 X30.17 Y40.444 I0.249 J-0.546 F30000.
N4150 G1 X28.785 Y21.643
N4155 G3 X29.134 Y21.053 I0.598 J-0.044
N4160 X29.362 Y21. I0.249 J0.546 F900.
N4165 G1 X30.262 F1000.
N4170 G3 X31.486 Y21.377 I-0.132 J2.602
N4175 X32.922 Y22.575 I-2.563 J4.531
N4180 X34.412 Y24.947 I-7.21 J6.184
N4185 X35.586 Y28.696 I-14.48 J6.591
N4190 X35.698 Y36.249 I-20.881 J4.086
N4195 X34.937 Y38.952 I-13.267 J-2.277
N4200 X34.331 Y40.051 I-5.635 J-2.389
N4205 X32.451 Y41. I-1.883 J-1.393
N4210 G1 X31.539
N4215 G3 X31.311 Y40.946 I0.021 J-0.6
N4220 X30.961 Y40.441 I0.249 J-0.546 F30000.
N4225 G1 X29.684 Y21.64
N4230 G3 X30.034 Y21.053 I0.599 J-0.041
N4235 X30.262 Y21. I0.249 J0.546 F900.
N4240 G1 X31.161 F1000.
N4245 G3 X32.39 Y21.377 I-0.128 J2.603
N4250 X33.826 Y22.576 I-2.564 J4.533
N4255 X35.318 Y24.948 I-7.215 J6.191
N4260 X36.493 Y28.696 I-14.489 J6.601
N4265 X36.608 Y36.249 I-20.874 J4.097
N4270 X35.848 Y38.952 I-13.26 J-2.271
N4275 X35.243 Y40.05 I-5.633 J-2.388
N4280 X33.363 Y41. I-1.883 J-1.393
N4285 G1 X32.451
N4290 G3 X32.223 Y40.946 I0.021 J-0.6
N4295 X31.873 Y40.441 I0.249 J-0.546 F30000.
N4300 G1 X30.584 Y21.64
N4305 G3 X30.933 Y21.053 I0.599 J-0.041
N4310 X31.161 Y21. I0.249 J0.546 F900.
N4315 G1 X32.061 F1000.
N4320 G3 X33.294 Y21.378 I-0.124 J2.604
N4325 X34.731 Y22.577 I-2.565 J4.536
N4330 X36.223 Y24.949 I-7.221 J6.196
N4335 X37.4 Y28.696 I-14.497 J6.611
N4340 X37.519 Y36.249 I-20.868 J4.107
N4345 X36.76 Y38.952 I-13.254 J-2.266
N4350 X36.155 Y40.05 I-5.631 J-2.387
N4355 X34.275 Y41. I-1.883 J-1.393
N4360 G1 X33.363
N4365 G3 X33.135 Y40.946 I0.021 J-0.6
N4370 X32.785 Y40.441 I0.249 J-0.546 F30000.
N4375 G1 X31.483 Y21.641
N4380 G3 X31.833 Y21.053 I0.599 J-0.041
N4385 X32.061 Y21. I0.249 J0.546 F900.
N4390 G1 X32.96 F1000.
N4395 G3 X34.198 Y21.378 I-0.12 J2.605
N4400 X35.637 Y22.578 I-2.567 J4.539
N4405 X37.129 Y24.95 I-7.226 J6.202
N4410 X38.307 Y28.697 I-14.504 J6.62
N4415 X38.43 Y36.25 I-20.861 J4.116
N4420 X37.775 Y38.692 I-13.851 J-2.403
N4425 X37.067 Y40.05 I-5.961 J-2.243
N4430 X35.186 Y41. I-1.885 J-1.397
N4435 G1 X34.275
N4440 G3 X34.047 Y40.946 I0.021 J-0.6
N4445 X33.697 Y40.442 I0.249 J-0.546 F30000.
N4450 G1 X32.383 Y21.641
N4455 G3 X32.732 Y21.053 I0.599 J-0.042
N4460 X32.96 Y21. I0.249 J0.546 F900.
N4465 G1 X33.86 F1000.
N4470 G3 X35.103 Y21.378 I-0.115 J2.606
N4475 X36.542 Y22.579 I-2.568 J4.541
N4480 X38.035 Y24.95 I-7.231 J6.207
N4485 X39.214 Y28.697 I-14.511 J6.628
N4490 X39.34 Y36.25 I-20.855 J4.125
N4495 X38.686 Y38.692 I-13.846 J-2.398
N4500 X37.979 Y40.05 I-5.958 J-2.241
N4505 X36.098 Y41. I-1.885 J-1.397
N4510 G1 X35.186
N4515 G3 X34.958 Y40.946 I0.021 J-0.6
N4520 X34.609 Y40.442 I0.249 J-0.546 F30000.
N4525 G1 X33.282 Y21.641
N4530 G3 X33.632 Y21.053 I0.599 J-0.042
N4535 X33.86 Y21. I0.249 J0.546 F900.
N4540 G1 X34.759 F1000.
N4545 G3 X36.008 Y21.379 I-0.11 J2.608
N4550 X37.448 Y22.58 I-2.569 J4.543
N4555 X38.941 Y24.951 I-7.236 J6.212
N4560 X40.122 Y28.697 I-14.518 J6.635
N4565 X40.251 Y36.25 I-20.849 J4.133
N4570 X39.597 Y38.692 I-13.841 J-2.394
N4575 X38.89 Y40.05 I-5.956 J-2.24
N4580 X37.009 Y41. I-1.886 J-1.397
N4585 G1 X36.098
N4590 G3 X35.87 Y40.946 I0.021 J-0.6
N4595 X35.52 Y40.442 I0.249 J-0.546 F30000.
N4600 G1 X34.182 Y21.642
N4605 G3 X34.531 Y21.053 I0.598 J-0.043
N4610 X34.759 Y21. I0.249 J0.546 F900.
N4615 G1 X35.703 F1000.
N4620 G3 X36.912 Y21.377 I-0.155 J2.62
N4625 X38.353 Y22.579 I-2.578 J4.556
N4630 X39.847 Y24.95 I-7.244 J6.219
N4635 X41.029 Y28.696 I-14.523 J6.644
N4640 X41.161 Y36.249 I-20.844 J4.141
N4645 X40.508 Y38.691 I-13.841 J-2.389
N4650 X39.801 Y40.05 I-5.956 J-2.238
N4655 X37.92 Y41. I-1.886 J-1.397
N4660 G1 X37.009
N4665 G3 X36.781 Y40.946 I0.021 J-0.6
N4670 X36.431 Y40.441 I0.249 J-0.546 F30000.
N4675 G1 X35.126 Y21.641
N4680 G3 X35.475 Y21.053 I0.599 J-0.042
N4685 X35.703 Y21. I0.249 J0.546 F900.
N4690 G1 X36.603 F1000.
N4695 G3 X37.818 Y21.378 I-0.148 J2.616
N4700 X39.259 Y22.58 I-2.578 J4.556
N4705 X40.753 Y24.951 I-7.247 J6.223
N4710 X41.937 Y28.696 I-14.529 J6.65
N4715 X42.071 Y36.249 I-20.839 J4.149
N4720 X41.419 Y38.691 I-13.838 J-2.385
N4725 X40.712 Y40.05 I-5.955 J-2.236
N4730 X38.831 Y41. I-1.886 J-1.396
N4735 G1 X37.92
N4740 G3 X37.692 Y40.946 I0.021 J-0.6
N4745 X37.342 Y40.442 I0.249 J-0.546 F30000.
N4750 G1 X36.025 Y21.641
N4755 G3 X36.375 Y21.053 I0.599 J-0.042
N4760 X36.603 Y21. I0.249 J0.546 F900.
N4765 G1 X37.502 F1000.
N4770 G3 X38.724 Y21.378 I-0.141 J2.614
N4775 X40.166 Y22.58 I-2.577 J4.556
N4780 X41.66 Y24.951 I-7.251 J6.227
N4785 X42.845 Y28.696 I-14.534 J6.657
N4790 X42.981 Y36.249 I-20.834 J4.155
N4795 X42.33 Y38.692 I-13.834 J-2.382
N4800 X41.623 Y40.049 I-5.953 J-2.235
N4805 X39.742 Y41. I-1.886 J-1.396
N4810 G1 X38.831
N4815 G3 X38.603 Y40.946 I0.021 J-0.6
N4820 X38.253 Y40.442 I0.249 J-0.546 F30000.
N4825 G1 X36.925 Y21.641
N4830 G3 X37.274 Y21.053 I0.599 J-0.042
N4835 X37.502 Y21. I0.249 J0.546 F900.
N4840 G1 X38.402 F1000.
N4845 G3 X39.63 Y21.378 I-0.134 J2.613
N4850 X41.072 Y22.581 I-2.577 J4.556
N4855 X42.567 Y24.952 I-7.254 J6.23
N4860 X43.752 Y28.696 I-14.539 J6.662
N4865 X43.891 Y36.249 I-20.83 J4.161
N4870 X43.24 Y38.692 I-13.83 J-2.379
N4875 X42.534 Y40.049 I-5.951 J-2.234
N4880 X40.652 Y41. I-1.886 J-1.396
N4885 G1 X39.742
N4890 G3 X39.514 Y40.946 I0.021 J-0.6
N4895 X39.164 Y40.443 I0.249 J-0.546 F30000.
N4900 G1 X37.824 Y21.642
N4905 G3 X38.174 Y21.053 I0.598 J-0.043
N4910 X38.402 Y21. I0.249 J0.546 F900.
N4915 G1 X39.301 F1000.
N4920 G3 X40.536 Y21.379 I-0.127 J2.613
N4925 X41.979 Y22.582 I-2.577 J4.557
N4930 X43.474 Y24.952 I-7.256 J6.233
N4935 X44.66 Y28.697 I-14.543 J6.667
N4940 X44.801 Y36.249 I-20.826 J4.166
N4945 X44.15 Y38.692 I-13.827 J-2.376
N4950 X43.444 Y40.049 I-5.949 J-2.233
N4955 X41.563 Y41. I-1.886 J-1.396
N4960 G1 X40.822
N4965 G3 X40.594 Y40.946 I0.021 J-0.6
N4970 X40.244 Y40.448 I0.249 J-0.546 F30000.
N4975 G1 X38.724 Y21.647
N4980 G3 X39.074 Y21.053 I0.598 J-0.048
N4985 X39.301 Y21. I0.249 J0.546 F900.
N4990 G1 X40.201 F1000.
N4995 G3 X41.443 Y21.379 I-0.12 J2.613
N5000 X42.886 Y22.583 I-2.577 J4.558
N5005 X44.381 Y24.953 I-7.259 J6.236
N5010 X45.568 Y28.697 I-14.547 J6.672
N5015 X45.711 Y36.25 I-20.822 J4.171
N5020 X45.06 Y38.693 I-13.823 J-2.373
N5025 X44.355 Y40.049 I-5.947 J-2.232
N5030 X42.473 Y41. I-1.886 J-1.396
N5035 G1 X41.721
N5040 G3 X41.493 Y40.946 I0.021 J-0.6
N5045 X41.144 Y40.448 I0.249 J-0.546 F30000.
N5050 G1 X39.624 Y21.647
N5055 G3 X39.973 Y21.053 I0.598 J-0.048
N5060 X40.201 Y21. I0.249 J0.546 F900.
N5065 G1 X41.1 F1000.
N5070 G3 X42.35 Y21.38 I-0.113 J2.614
N5075 X43.793 Y22.583 I-2.578 J4.559
N5080 X45.289 Y24.954 I-7.262 J6.239
N5085 X46.476 Y28.698 I-14.551 J6.676
N5090 X46.621 Y36.25 I-20.818 J4.175
N5095 X45.97 Y38.693 I-13.82 J-2.371
N5100 X45.265 Y40.049 I-5.945 J-2.231
N5105 X43.383 Y41. I-1.886 J-1.396
N5110 G1 X42.621
N5115 G3 X42.393 Y40.946 I0.021 J-0.6
N5120 X42.043 Y40.448 I0.249 J-0.546 F30000.
N5125 G1 X40.523 Y21.647
N5130 G3 X40.873 Y21.053 I0.598 J-0.048
N5135 X41.1 Y21. I0.249 J0.546 F900.
N5140 G1 X42. F1000.
N5145 G3 X43.257 Y21.38 I-0.106 J2.615
N5150 X44.701 Y22.584 I-2.578 J4.56
N5155 X46.196 Y24.954 I-7.264 J6.241
N5160 X47.385 Y28.698 I-14.554 J6.68
N5165 X47.53 Y36.25 I-20.814 J4.179
N5170 X46.88 Y38.694 I-13.818 J-2.369
N5175 X46.175 Y40.049 I-5.943 J-2.23
N5180 X44.293 Y41. I-1.886 J-1.396
N5185 G1 X43.52
N5190 G3 X43.292 Y40.946 I0.021 J-0.6
N5195 X42.943 Y40.448 I0.249 J-0.546 F30000.
N5200 G1 X41.423 Y21.647
N5205 G3 X41.772 Y21.053 I0.598 J-0.048
N5210 X42. Y21. I0.249 J0.546 F900.
N5215 G1 X42.899 F1000.
N5220 G3 X44.164 Y21.381 I-0.099 J2.617
N5225 X45.608 Y22.585 I-2.579 J4.561
N5230 X47.104 Y24.955 I-7.266 J6.244
N5235 X48.293 Y28.698 I-14.557 J6.684
N5240 X48.44 Y36.251 I-20.811 J4.183
N5245 X47.79 Y38.694 I-13.814 J-2.367
N5250 X47.085 Y40.049 I-5.942 J-2.229
N5255 X45.204 Y41. I-1.886 J-1.396
N5260 G1 X44.42
N5265 G3 X44.192 Y40.946 I0.021 J-0.6
N5270 X43.842 Y40.448 I0.249 J-0.546 F30000.
N5275 G1 X42.322 Y21.647
N5280 G3 X42.672 Y21.053 I0.598 J-0.048
N5285 X42.899 Y21. I0.249 J0.546 F900.
N5290 G1 X43.799 F1000.
N5295 G3 X45.071 Y21.381 I-0.093 J2.619
N5300 X46.515 Y22.586 I-2.579 J4.562
N5305 X48.012 Y24.955 I-7.268 J6.246
N5310 X49.201 Y28.699 I-14.56 J6.688
N5315 X49.35 Y36.251 I-20.807 J4.187
N5320 X48.7 Y38.694 I-13.811 J-2.365
N5325 X47.995 Y40.049 I-5.94 J-2.228
N5330 X46.114 Y41. I-1.886 J-1.396
N5335 G1 X45.319
N5340 G3 X45.091 Y40.946 I0.021 J-0.6
N5345 X44.742 Y40.448 I0.249 J-0.546 F30000.
N5350 G1 X43.222 Y21.647
N5355 G3 X43.571 Y21.053 I0.598 J-0.048
N5360 X43.799 Y21. I0.249 J0.546 F900.
N5365 G1 X44.743 F1000.
N5370 G3 X45.977 Y21.38 I-0.132 J2.621
N5375 X47.422 Y22.585 I-2.584 J4.569
N5380 X48.919 Y24.955 I-7.272 J6.25
N5385 X50.109 Y28.698 I-14.562 J6.692
N5390 X50.259 Y36.25 I-20.804 J4.191
N5395 X49.61 Y38.693 I-13.813 J-2.363
N5400 X48.905 Y40.049 I-5.941 J-2.227
N5405 X47.023 Y41. I-1.887 J-1.396
N5410 G1 X46.114
N5415 G3 X45.886 Y40.946 I0.021 J-0.6
N5420 X45.536 Y40.443 I0.249 J-0.546 F30000.
N5425 G1 X44.165 Y21.643
N5430 G3 X44.515 Y21.053 I0.598 J-0.044
N5435 X44.743 Y21. I0.249 J0.546 F900.
N5440 G1 X45.642 F1000.
N5445 G3 X46.884 Y21.38 I-0.123 J2.618
N5450 X48.33 Y22.585 I-2.583 J4.568
N5455 X49.827 Y24.955 I-7.274 J6.252
N5460 X51.017 Y28.698 I-14.564 J6.695
N5465 X51.169 Y36.25 I-20.802 J4.195
N5470 X50.52 Y38.693 I-13.811 J-2.361
N5475 X49.815 Y40.049 I-5.94 J-2.227
N5480 X47.933 Y41. I-1.887 J-1.395
N5485 G1 X47.023
N5490 G3 X46.796 Y40.946 I0.021 J-0.6
N5495 X46.446 Y40.444 I0.249 J-0.546 F30000.
N5500 G1 X45.065 Y21.643
N5505 G3 X45.415 Y21.053 I0.598 J-0.044
N5510 X45.642 Y21. I0.249 J0.546 F900.
N5515 G1 X46.578 F1000.
N5520 G3 X47.791 Y21.379 I-0.157 J2.629
N5525 X49.237 Y22.585 I-2.59 J4.577
N5530 X50.734 Y24.954 I-7.279 J6.256
N5535 X51.926 Y28.697 I-14.567 J6.699
N5540 X52.078 Y36.249 I-20.799 J4.199
N5545 X51.43 Y38.693 I-13.812 J-2.358
N5550 X50.725 Y40.048 I-5.941 J-2.226
N5555 X48.843 Y41. I-1.887 J-1.395
N5560 G1 X47.933
N5565 G3 X47.705 Y40.946 I0.021 J-0.6
N5570 X47.356 Y40.443 I0.249 J-0.546 F30000.
N5575 G1 X46.001 Y21.642
N5580 G3 X46.351 Y21.053 I0.598 J-0.043
N5585 X46.578 Y21. I0.249 J0.546 F900.
N5590 G1 X47.478 F1000.
N5595 G3 X48.699 Y21.379 I-0.146 J2.624
N5600 X50.145 Y22.585 I-2.588 J4.575
N5605 X51.642 Y24.954 I-7.28 J6.257
N5610 X52.834 Y28.697 I-14.57 J6.702
N5615 X52.988 Y36.249 I-20.797 J4.201
N5620 X52.339 Y38.693 I-13.811 J-2.357
N5625 X51.635 Y40.048 I-5.941 J-2.226
N5630 X49.753 Y41. I-1.887 J-1.395
N5635 G1 X48.843
N5640 G3 X48.615 Y40.946 I0.021 J-0.6
N5645 X48.266 Y40.443 I0.249 J-0.546 F30000.
N5650 G1 X46.9 Y21.643
N5655 G3 X47.25 Y21.053 I0.598 J-0.043
N5660 X47.478 Y21. I0.249 J0.546 F900.
N5665 G1 X48.377 F1000.
N5670 G3 X49.606 Y21.379 I-0.137 J2.621
N5675 X51.053 Y22.585 I-2.587 J4.573
N5680 X52.55 Y24.955 I-7.281 J6.258
N5685 X53.743 Y28.697 I-14.572 J6.704
N5690 X53.897 Y36.249 I-20.795 J4.204
N5695 X53.249 Y38.693 I-13.808 J-2.356
N5700 X52.545 Y40.048 I-5.94 J-2.225
N5705 X50.662 Y41. I-1.887 J-1.395
N5710 G1 X49.753
N5715 G3 X49.525 Y40.946 I0.021 J-0.6
N5720 X49.175 Y40.444 I0.249 J-0.546 F30000.
N5725 G1 X47.8 Y21.643
N5730 G3 X48.15 Y21.053 I0.598 J-0.044
N5735 X48.377 Y21. I0.249 J0.546 F900.
N5740 G1 X49.277 F1000.
N5745 G3 X50.515 Y21.38 I-0.128 J2.62
N5750 X51.961 Y22.586 I-2.586 J4.572
N5755 X53.458 Y24.955 I-7.281 J6.259
N5760 X54.651 Y28.697 I-14.574 J6.706
N5765 X54.807 Y36.25 I-20.794 J4.206
N5770 X54.158 Y38.693 I-13.806 J-2.355
N5775 X53.454 Y40.048 I-5.939 J-2.225
N5780 X51.572 Y41. I-1.887 J-1.395
N5785 G1 X50.662
N5790 G3 X50.435 Y40.946 I0.021 J-0.6
N5795 X50.085 Y40.444 I0.249 J-0.546 F30000.
N5800 G1 X48.7 Y21.643
N5805 G3 X49.049 Y21.053 I0.598 J-0.044
N5810 X49.277 Y21. I0.249 J0.546 F900.
N5815 G1 X50.176 F1000.
N5820 G3 X51.423 Y21.38 I-0.119 J2.619
N5825 X52.869 Y22.586 I-2.585 J4.571
N5830 X54.367 Y24.955 I-7.282 J6.26
N5835 X55.56 Y28.698 I-14.576 J6.708
N5840 X55.716 Y36.25 I-20.792 J4.208
N5845 X55.068 Y38.694 I-13.802 J-2.353
N5850 X54.364 Y40.048 I-5.937 J-2.224
N5855 X52.482 Y41. I-1.887 J-1.395
N5860 G1 X51.572
N5865 G3 X51.344 Y40.946 I0.021 J-0.6
N5870 X50.995 Y40.444 I0.249 J-0.546 F30000.
N5875 G1 X49.599 Y21.644
N5880 G3 X49.949 Y21.053 I0.598 J-0.044
N5885 X50.176 Y21. I0.249 J0.546 F900.
N5890 G1 X51.076 F1000.
N5895 G3 X52.331 Y21.381 I-0.111 J2.62
N5900 X53.778 Y22.587 I-2.585 J4.571
N5905 X55.275 Y24.956 I-7.283 J6.261
N5910 X56.468 Y28.698 I-14.577 J6.71
N5915 X56.625 Y36.25 I-20.79 J4.209
N5920 X55.977 Y38.694 I-13.8 J-2.352
N5925 X55.273 Y40.049 I-5.936 J-2.224
N5930 X53.391 Y41. I-1.887 J-1.395
N5935 G1 X52.482
N5940 G3 X52.254 Y40.946 I0.021 J-0.6
N5945 X51.904 Y40.445 I0.249 J-0.546 F30000.
N5950 G1 X50.499 Y21.644
N5955 G3 X50.848 Y21.053 I0.598 J-0.045
N5960 X51.076 Y21. I0.249 J0.546 F900.
N5965 G1 X51.975 F1000.
N5970 G3 X53.239 Y21.381 I-0.102 J2.621
N5975 X54.686 Y22.587 I-2.584 J4.571
N5980 X56.183 Y24.956 I-7.284 J6.262
N5985 X57.377 Y28.699 I-14.579 J6.712
N5990 X57.534 Y36.251 I-20.788 J4.211
N5995 X56.886 Y38.694 I-13.798 J-2.351
N6000 X56.183 Y40.049 I-5.935 J-2.224
N6005 X54.301 Y41. I-1.887 J-1.395
N6010 G1 X53.391
N6015 G3 X53.163 Y40.946 I0.021 J-0.6
N6020 X52.814 Y40.445 I0.249 J-0.546 F30000.
N6025 G1 X51.398 Y21.644
N6030 G3 X51.748 Y21.053 I0.598 J-0.045
N6035 X51.975 Y21. I0.249 J0.546 F900.
N6040 G1 X52.875 F1000.
N6045 G3 X54.147 Y21.382 I-0.094 J2.622
N6050 X55.594 Y22.588 I-2.585 J4.572
N6055 X57.092 Y24.957 I-7.284 J6.263
N6060 X58.286 Y28.699 I-14.58 J6.713
N6065 X58.444 Y36.251 I-20.786 J4.212
N6070 X57.796 Y38.695 I-13.796 J-2.35
N6075 X57.092 Y40.049 I-5.933 J-2.223
N6080 X55.21 Y41. I-1.887 J-1.395
N6085 G1 X54.301
N6090 G3 X54.073 Y40.946 I0.021 J-0.6
N6095 X53.723 Y40.445 I0.249 J-0.546 F30000.
N6100 G1 X52.298 Y21.645
N6105 G3 X52.647 Y21.053 I0.598 J-0.045
N6110 X52.875 Y21. I0.249 J0.546 F900.
N6115 G1 X53.829 F1000.
N6120 G3 X55.054 Y21.38 I-0.145 J2.629
N6125 X56.502 Y22.587 I-2.591 J4.581
N6130 X58. Y24.956 I-7.288 J6.266
N6135 X59.194 Y28.698 I-14.58 J6.716
N6140 X59.353 Y36.25 I-20.785 J4.215
N6145 X58.705 Y38.694 I-13.799 J-2.349
N6150 X58.002 Y40.048 I-5.935 J-2.222
N6155 X56.12 Y41. I-1.887 J-1.395
N6160 G1 X55.21
N6165 G3 X54.982 Y40.946 I0.021 J-0.6
N6170 X54.633 Y40.444 I0.249 J-0.546 F30000.
N6175 G1 X53.251 Y21.643
N6180 G3 X53.601 Y21.053 I0.598 J-0.044
N6185 X53.829 Y21. I0.249 J0.546 F900.
N6190 G1 X54.728 F1000.
N6195 G3 X55.962 Y21.38 I-0.134 J2.624
N6200 X57.41 Y22.587 I-2.589 J4.578
N6205 X58.908 Y24.956 I-7.289 J6.267
N6210 X60.103 Y28.698 I-14.582 J6.717
N6215 X60.262 Y36.25 I-20.783 J4.217
N6220 X59.615 Y38.694 I-13.799 J-2.348
N6225 X58.911 Y40.048 I-5.935 J-2.222
N6230 X57.029 Y41. I-1.887 J-1.395
N6235 G1 X56.12
N6240 G3 X55.892 Y40.946 I0.021 J-0.6
N6245 X55.542 Y40.444 I0.249 J-0.546 F30000.
N6250 G1 X54.151 Y21.643
N6255 G3 X54.501 Y21.053 I0.598 J-0.044
N6260 X54.728 Y21. I0.249 J0.546 F900.
N6265 G1 X55.628 F1000.
N6270 G3 X56.871 Y21.38 I-0.124 J2.622
N6275 X58.319 Y22.587 I-2.588 J4.577
N6280 X59.817 Y24.956 I-7.289 J6.267
N6285 X61.011 Y28.698 I-14.583 J6.719
N6290 X61.171 Y36.25 I-20.782 J4.218
N6295 X60.524 Y38.694 I-13.797 J-2.347
N6300 X59.821 Y40.048 I-5.934 J-2.222
N6305 X57.938 Y41. I-1.887 J-1.395
N6310 G1 X57.193
N6315 G3 X56.965 Y40.946 I0.021 J-0.6
N6320 X56.616 Y40.45 I0.249 J-0.546 F30000.
N6325 G1 X55.051 Y21.649
N6330 G3 X55.4 Y21.053 I0.598 J-0.05
N6335 X55.628 Y21. I0.249 J0.546 F900.
N6340 G1 X56.527 F1000.
N6345 G3 X57.779 Y21.381 I-0.115 J2.621
N6350 X59.227 Y22.588 I-2.587 J4.576
N6355 X60.725 Y24.956 I-7.289 J6.268
N6360 X61.92 Y28.698 I-14.584 J6.72
N6365 X62.081 Y36.25 I-20.781 J4.219
N6370 X61.433 Y38.694 I-13.795 J-2.347
N6375 X60.73 Y40.048 I-5.933 J-2.222
N6380 X58.848 Y41. I-1.887 J-1.395
N6385 G1 X58.092
N6390 G3 X57.864 Y40.946 I0.021 J-0.6
N6395 X57.515 Y40.45 I0.249 J-0.546 F30000.
N6400 G1 X55.95 Y21.649
N6405 G3 X56.3 Y21.053 I0.598 J-0.05
N6410 X56.527 Y21. I0.249 J0.546 F900.
N6415 G1 X57.471 F1000.
N6420 G3 X58.686 Y21.379 I-0.156 J2.633
N6425 X60.135 Y22.587 I-2.595 J4.585
N6430 X61.633 Y24.956 I-7.293 J6.271
N6435 X62.829 Y28.697 I-14.585 J6.722
N6440 X62.99 Y36.249 I-20.78 J4.221
N6445 X62.343 Y38.693 I-13.797 J-2.345
N6450 X61.639 Y40.048 I-5.935 J-2.221
N6455 X59.757 Y41. I-1.887 J-1.395
N6460 G1 X58.992
N6465 G3 X58.764 Y40.946 I0.021 J-0.6
N6470 X58.415 Y40.448 I0.249 J-0.546 F30000.
N6475 G1 X56.894 Y21.647
N6480 G3 X57.244 Y21.053 I0.598 J-0.048
N6485 X57.471 Y21. I0.249 J0.546 F900.
N6490 G1 X58.371 F1000.
N6495 G3 X59.595 Y21.38 I-0.144 J2.627
N6500 X61.044 Y22.587 I-2.592 J4.582
N6505 X62.542 Y24.956 I-7.293 J6.271
N6510 X63.737 Y28.697 I-14.586 J6.723
N6515 X63.899 Y36.249 I-20.78 J4.223
N6520 X63.252 Y38.693 I-13.797 J-2.345
N6525 X62.549 Y40.048 I-5.935 J-2.221
N6530 X60.666 Y41. I-1.887 J-1.395
N6535 G1 X59.891
N6540 G3 X59.663 Y40.946 I0.021 J-0.6
N6545 X59.314 Y40.448 I0.249 J-0.546 F30000.
N6550 G1 X57.794 Y21.647
N6555 G3 X58.143 Y21.053 I0.598 J-0.048
N6560 X58.371 Y21. I0.249 J0.546 F900.
N6565 G1 X59.271 F1000.
N6570 G3 X60.504 Y21.38 I-0.134 J2.624
N6575 X61.952 Y22.587 I-2.59 J4.58
N6580 X63.45 Y24.956 I-7.293 J6.271
N6585 X64.646 Y28.697 I-14.587 J6.724
N6590 X64.808 Y36.249 I-20.779 J4.223
N6595 X64.161 Y38.693 I-13.796 J-2.345
N6600 X63.458 Y40.048 I-5.934 J-2.221
N6605 X61.575 Y41. I-1.887 J-1.395
N6610 G1 X60.791
N6615 G3 X60.563 Y40.946 I0.021 J-0.6
N6620 X60.214 Y40.448 I0.249 J-0.546 F30000.
N6625 G1 X58.693 Y21.647
N6630 G3 X59.043 Y21.053 I0.598 J-0.048
N6635 X59.271 Y21. I0.249 J0.546 F900.
N6640 G1 X60.17 F1000.
N6645 G3 X61.413 Y21.38 I-0.124 J2.622
N6650 X62.861 Y22.588 I-2.589 J4.578
N6655 X64.359 Y24.956 I-7.293 J6.271
N6660 X65.555 Y28.698 I-14.588 J6.724
N6665 X65.717 Y36.25 I-20.778 J4.224
N6670 X65.07 Y38.694 I-13.794 J-2.344
N6675 X64.367 Y40.048 I-5.933 J-2.221
N6680 X62.485 Y41. I-1.887 J-1.395
N6685 G1 X61.69
N6690 G3 X61.462 Y40.946 I0.021 J-0.6
N6695 X61.113 Y40.448 I0.249 J-0.546 F30000.
N6700 G1 X59.593 Y21.647
N6705 G3 X59.942 Y21.053 I0.598 J-0.048
N6710 X60.17 Y21. I0.249 J0.546 F900.
N6715 G1 X61.07 F1000.
N6720 G3 X62.321 Y21.381 I-0.115 J2.622
N6725 X63.77 Y22.588 I-2.588 J4.577
N6730 X65.268 Y24.957 I-7.292 J6.271
N6735 X66.464 Y28.698 I-14.589 J6.725
N6740 X66.626 Y36.25 I-20.777 J4.224
N6745 X65.979 Y38.694 I-13.793 J-2.344
N6750 X65.276 Y40.048 I-5.933 J-2.221
N6755 X63.394 Y41. I-1.887 J-1.395
N6760 G1 X62.485
N6765 G3 X62.257 Y40.946 I0.021 J-0.6
N6770 X61.907 Y40.445 I0.249 J-0.546 F30000.
N6775 G1 X60.492 Y21.644
N6780 G3 X60.842 Y21.053 I0.598 J-0.045
N6785 X61.07 Y21. I0.249 J0.546 F900.
N6790 G1 X61.969 F1000.
N6795 G3 X63.23 Y21.381 I-0.106 J2.623
N6800 X64.679 Y22.589 I-2.587 J4.577
N6805 X66.177 Y24.957 I-7.293 J6.271
N6810 X67.373 Y28.699 I-14.589 J6.725
N6815 X67.535 Y36.251 I-20.776 J4.225
N6820 X66.888 Y38.695 I-13.791 J-2.344
N6825 X66.185 Y40.048 I-5.931 J-2.221
N6830 X64.303 Y41. I-1.887 J-1.395
N6835 G1 X63.394
N6840 G3 X63.166 Y40.946 I0.021 J-0.6
N6845 X62.816 Y40.445 I0.249 J-0.546 F30000.
N6850 G1 X61.392 Y21.644
N6855 G3 X61.741 Y21.053 I0.598 J-0.045
N6860 X61.969 Y21. I0.249 J0.546 F900.
N6865 G1 X62.869 F1000.
N6870 G3 X64.139 Y21.382 I-0.097 J2.624
N6875 X65.587 Y22.589 I-2.587 J4.577
N6880 X67.086 Y24.958 I-7.293 J6.271
N6885 X68.282 Y28.699 I-14.589 J6.726
N6890 X68.444 Y36.251 I-20.776 J4.225
N6895 X67.797 Y38.695 I-13.79 J-2.343
N6900 X67.094 Y40.048 I-5.93 J-2.221
N6905 X65.212 Y41. I-1.887 J-1.395
N6910 G1 X64.303
N6915 G3 X64.075 Y40.946 I0.021 J-0.6
N6920 X63.726 Y40.446 I0.249 J-0.546 F30000.
N6925 G1 X62.291 Y21.645
N6930 G3 X62.641 Y21.053 I0.598 J-0.046
N6935 X62.869 Y21. I0.249 J0.546 F900.
N6940 G1 X63.768 F1000.
N6945 G3 X65.048 Y21.382 I-0.089 J2.626
N6950 X66.496 Y22.59 I-2.587 J4.577
N6955 X67.995 Y24.958 I-7.293 J6.271
N6960 X69.191 Y28.699 I-14.59 J6.726
N6965 X69.353 Y36.252 I-20.774 J4.225
N6970 X68.706 Y38.696 I-13.788 J-2.343
N6975 X68.004 Y40.048 I-5.929 J-2.22
N6980 X66.121 Y41. I-1.887 J-1.395
N6985 G1 X65.212
N6990 G3 X64.984 Y40.946 I0.021 J-0.6
N6995 X64.635 Y40.446 I0.249 J-0.546 F30000.
N7000 G1 X63.191 Y21.645
N7005 G3 X63.54 Y21.053 I0.598 J-0.046
N7010 X63.768 Y21. I0.249 J0.546 F900.
N7015 G1 X64.712 F1000.
N7020 G3 X65.955 Y21.381 I-0.126 J2.626
N7025 X67.404 Y22.589 I-2.591 J4.582
N7030 X68.903 Y24.957 I-7.295 J6.274
N7035 X70.099 Y28.698 I-14.59 J6.728
N7040 X70.263 Y36.25 I-20.773 J4.227
N7045 X69.616 Y38.695 I-13.79 J-2.342
N7050 X68.913 Y40.048 I-5.93 J-2.22
N7055 X67.03 Y41. I-1.887 J-1.395
N7060 G1 X66.121
N7065 G3 X65.893 Y40.946 I0.021 J-0.6
N7070 X65.544 Y40.445 I0.249 J-0.546 F30000.
N7075 G1 X64.135 Y21.644
N7080 G3 X64.484 Y21.053 I0.598 J-0.045
N7085 X64.712 Y21. I0.249 J0.546 F900.
N7090 G1 X65.648 F1000.
N7095 G3 X66.863 Y21.379 I-0.157 J2.635
N7100 X68.312 Y22.588 I-2.597 J4.589
N7105 X69.811 Y24.956 I-7.298 J6.276
N7110 X71.008 Y28.697 I-14.59 J6.729
N7115 X71.172 Y36.249 I-20.773 J4.229
N7120 X70.525 Y38.693 I-13.793 J-2.341
N7125 X69.822 Y40.048 I-5.932 J-2.22
N7130 X67.94 Y41. I-1.887 J-1.394
N7135 G1 X67.03
N7140 G3 X66.803 Y40.946 I0.021 J-0.6
N7145 X66.453 Y40.444 I0.249 J-0.546 F30000.
N7150 G1 X65.071 Y21.643
N7155 G3 X65.42 Y21.053 I0.598 J-0.044
N7160 X65.648 Y21. I0.249 J0.546 F900.
N7165 G1 X66.548 F1000.
N7170 G3 X67.772 Y21.38 I-0.145 J2.628
N7175 X69.221 Y22.588 I-2.594 J4.585
N7180 X70.72 Y24.956 I-7.298 J6.276
N7185 X71.917 Y28.697 I-14.591 J6.73
N7190 X72.081 Y36.249 I-20.773 J4.23
N7195 X71.434 Y38.693 I-13.793 J-2.341
N7200 X70.731 Y40.048 I-5.933 J-2.22
N7205 X68.849 Y41. I-1.887 J-1.394
N7210 G1 X67.94
N7215 G3 X67.712 Y40.946 I0.021 J-0.6
N7220 X67.362 Y40.444 I0.249 J-0.546 F30000.
N7225 G1 X65.97 Y21.643
N7230 G3 X66.32 Y21.053 I0.598 J-0.044
N7235 X66.548 Y21. I0.249 J0.546 F900.
N7240 G1 X67.447 F1000.
N7245 G3 X68.681 Y21.38 I-0.134 J2.625
N7250 X70.13 Y22.588 I-2.592 J4.583
N7255 X71.629 Y24.956 I-7.297 J6.275
N7260 X72.826 Y28.697 I-14.592 J6.73
N7265 X72.99 Y36.25 I-20.773 J4.23
N7270 X72.343 Y38.694 I-13.792 J-2.341
N7275 X71.64 Y40.048 I-5.932 J-2.22
N7280 X69.758 Y41. I-1.887 J-1.394
N7285 G1 X68.849
N7290 G3 X68.621 Y40.946 I0.021 J-0.6
N7295 X68.271 Y40.444 I0.249 J-0.546 F30000.
N7300 G1 X66.87 Y21.644
N7305 G3 X67.219 Y21.053 I0.598 J-0.045
N7310 X67.447 Y21. I0.249 J0.546 F900.
N7315 G1 X68.347 F1000.
N7320 G3 X69.59 Y21.381 I-0.124 J2.623
N7325 X71.039 Y22.588 I-2.59 J4.581
N7330 X72.538 Y24.957 I-7.296 J6.275
N7335 X73.734 Y28.698 I-14.592 J6.73
N7340 X73.899 Y36.25 I-20.773 J4.23
N7345 X73.252 Y38.694 I-13.79 J-2.341
N7350 X72.549 Y40.048 I-5.931 J-2.22
N7355 X70.667 Y41. I-1.887 J-1.395
N7360 G1 X69.758
N7365 G3 X69.53 Y40.946 I0.021 J-0.6
N7370 X69.18 Y40.445 I0.249 J-0.546 F30000.
N7375 G1 X67.769 Y21.644
N7380 G3 X68.119 Y21.053 I0.598 J-0.045
N7385 X68.347 Y21. I0.249 J0.546 F900.
N7390 G1 X69.246 F1000.
N7395 G3 X70.499 Y21.381 I-0.114 J2.623
N7400 X71.948 Y22.589 I-2.589 J4.58
N7405 X73.447 Y24.957 I-7.296 J6.275
N7410 X74.643 Y28.698 I-14.593 J6.731
N7415 X74.808 Y36.25 I-20.772 J4.23
N7420 X74.161 Y38.694 I-13.789 J-2.341
N7425 X73.458 Y40.048 I-5.931 J-2.22
N7430 X71.576 Y41. I-1.887 J-1.395
N7435 G1 X70.667
N7440 G3 X70.439 Y40.946 I0.021 J-0.6
N7445 X70.089 Y40.445 I0.249 J-0.546 F30000.
N7450 G1 X68.669 Y21.644
N7455 G3 X69.018 Y21.053 I0.598 J-0.045
N7460 X69.246 Y21. I0.249 J0.546 F900.
N7465 G1 X70.146 F1000.
N7470 G3 X71.408 Y21.382 I-0.105 J2.624
N7475 X72.857 Y22.589 I-2.589 J4.579
N7480 X74.355 Y24.958 I-7.296 J6.275
N7485 X75.552 Y28.699 I-14.593 J6.731
N7490 X75.717 Y36.251 I-20.772 J4.23
N7495 X75.07 Y38.695 I-13.788 J-2.341
N7500 X74.367 Y40.048 I-5.93 J-2.219
N7505 X72.485 Y41. I-1.887 J-1.395
N7510 G1 X71.576
N7515 G3 X71.348 Y40.946 I0.021 J-0.6
N7520 X70.999 Y40.445 I0.249 J-0.546 F30000.
N7525 G1 X69.568 Y21.645
N7530 G3 X69.918 Y21.053 I0.598 J-0.046
N7535 X70.146 Y21. I0.249 J0.546 F900.
N7540 G1 X71.045 F1000.
N7545 G3 X72.317 Y21.382 I-0.096 J2.625
N7550 X73.766 Y22.59 I-2.588 J4.578
N7555 X75.264 Y24.958 I-7.296 J6.275
N7560 X76.461 Y28.699 I-14.593 J6.731
N7565 X76.626 Y36.251 I-20.771 J4.23
N7570 X75.979 Y38.695 I-13.787 J-2.341
N7575 X75.276 Y40.048 I-5.929 J-2.22
N7580 X73.394 Y41. I-1.887 J-1.395
N7585 G1 X72.485
N7590 G3 X72.257 Y40.946 I0.021 J-0.6
N7595 X71.908 Y40.446 I0.249 J-0.546 F30000.
N7600 G1 X70.468 Y21.645
N7605 G3 X70.817 Y21.053 I0.598 J-0.046
N7610 X71.045 Y21. I0.249 J0.546 F900.
N7615 G1 X71.945 F1000.
N7620 G3 X73.226 Y21.383 I-0.087 J2.627
N7625 X74.675 Y22.59 I-2.588 J4.578
N7630 X76.173 Y24.959 I-7.296 J6.275
N7635 X77.37 Y28.7 I-14.593 J6.731
N7640 X77.535 Y36.252 I-20.77 J4.23
N7645 X76.888 Y38.696 I-13.785 J-2.341
N7650 X76.185 Y40.048 I-5.927 J-2.219
N7655 X74.303 Y41. I-1.887 J-1.395
N7660 G1 X73.564
N7665 G3 X73.336 Y40.946 I0.021 J-0.6
N7670 X72.987 Y40.451 I0.249 J-0.546 F30000.
N7675 G1 X71.368 Y21.651
N7680 G3 X71.717 Y21.053 I0.598 J-0.051
N7685 X71.945 Y21. I0.249 J0.546 F900.
N7690 G1 X72.899 F1000.
N7695 G3 X74.133 Y21.381 I-0.136 J2.629
N7700 X75.583 Y22.589 I-2.593 J4.585
N7705 X77.082 Y24.957 I-7.298 J6.277
N7710 X78.279 Y28.698 I-14.592 J6.732
N7715 X78.444 Y36.25 I-20.77 J4.232
N7720 X77.797 Y38.694 I-13.789 J-2.34
N7725 X77.095 Y40.048 I-5.93 J-2.219
N7730 X75.212 Y41. I-1.887 J-1.395
N7735 G1 X74.463
N7740 G3 X74.235 Y40.946 I0.021 J-0.6
N7745 X73.886 Y40.45 I0.249 J-0.546 F30000.
N7750 G1 X72.322 Y21.649
N7755 G3 X72.671 Y21.053 I0.598 J-0.05
N7760 X72.899 Y21. I0.249 J0.546 F900.
N7765 G1 X73.798 F1000.
N7770 G3 X75.042 Y21.381 I-0.124 J2.625
N7775 X76.492 Y22.589 I-2.591 J4.583
N7780 X77.99 Y24.957 I-7.298 J6.277
N7785 X79.188 Y28.698 I-14.593 J6.732
N7790 X79.353 Y36.25 I-20.77 J4.232
N7795 X78.706 Y38.694 I-13.789 J-2.34
N7800 X78.004 Y40.048 I-5.93 J-2.219
N7805 X76.121 Y41. I-1.887 J-1.395
N7810 G1 X75.363
N7815 G3 X75.135 Y40.946 I0.021 J-0.6
N7820 X74.786 Y40.45 I0.249 J-0.546 F30000.
N7825 G1 X73.221 Y21.649
N7830 G3 X73.57 Y21.053 I0.598 J-0.05
N7835 X73.798 Y21. I0.249 J0.546 F900.
N7840 G1 X74.698 F1000.
N7845 G3 X75.951 Y21.381 I-0.114 J2.624
N7850 X77.401 Y22.589 I-2.59 J4.581
N7855 X78.899 Y24.958 I-7.298 J6.277
N7860 X80.097 Y28.698 I-14.594 J6.733
N7865 X80.262 Y36.25 I-20.77 J4.232
N7870 X79.615 Y38.695 I-13.788 J-2.34
N7875 X78.913 Y40.048 I-5.93 J-2.219
N7880 X77.03 Y41. I-1.887 J-1.395
N7885 G1 X76.262
N7890 G3 X76.034 Y40.946 I0.021 J-0.6
N7895 X75.685 Y40.45 I0.249 J-0.546 F30000.
N7900 G1 X74.121 Y21.649
N7905 G3 X74.47 Y21.053 I0.598 J-0.05
N7910 X74.698 Y21. I0.249 J0.546 F900.
N7915 G1 X75.642 F1000.
N7920 G3 X76.859 Y21.38 I-0.154 J2.634
N7925 X78.309 Y22.588 I-2.597 J4.59
N7930 X79.808 Y24.956 I-7.301 J6.279
N7935 X81.005 Y28.697 I-14.594 J6.734
N7940 X81.171 Y36.249 I-20.769 J4.234
N7945 X80.525 Y38.694 I-13.791 J-2.339
N7950 X79.822 Y40.048 I-5.932 J-2.219
N7955 X77.939 Y41. I-1.887 J-1.394
N7960 G1 X77.162
N7965 G3 X76.934 Y40.946 I0.021 J-0.6
N7970 X76.585 Y40.448 I0.249 J-0.546 F30000.
N7975 G1 X75.064 Y21.647
N7980 G3 X75.414 Y21.053 I0.598 J-0.048
N7985 X75.642 Y21. I0.249 J0.546 F900.
N7990 G1 X76.541 F1000.
N7995 G3 X77.768 Y21.38 I-0.142 J2.628
N8000 X79.218 Y22.588 I-2.594 J4.586
N8005 X80.717 Y24.957 I-7.3 J6.279
N8010 X81.914 Y28.697 I-14.594 J6.734
N8015 X82.08 Y36.249 I-20.77 J4.234
N8020 X81.434 Y38.694 I-13.791 J-2.339
N8025 X80.731 Y40.048 I-5.931 J-2.219
N8030 X78.848 Y41. I-1.887 J-1.394
N8035 G1 X78.061
N8040 G3 X77.833 Y40.946 I0.021 J-0.6
N8045 X77.484 Y40.448 I0.249 J-0.546 F30000.
N8050 G1 X75.964 Y21.647
N8055 G3 X76.313 Y21.053 I0.598 J-0.048
N8060 X76.541 Y21. I0.249 J0.546 F900.
N8065 G1 X77.441 F1000.
N8070 G3 X78.677 Y21.38 I-0.131 J2.625
N8075 X80.127 Y22.589 I-2.592 J4.584
N8080 X81.626 Y24.957 I-7.3 J6.278
N8085 X82.823 Y28.698 I-14.595 J6.734
N8090 X82.989 Y36.25 I-20.77 J4.234
N8095 X82.343 Y38.694 I-13.79 J-2.339
N8100 X81.64 Y40.048 I-5.931 J-2.219
N8105 X79.757 Y41. I-1.887 J-1.394
N8110 G1 X78.961
N8115 G3 X78.733 Y40.946 I0.021 J-0.6
N8120 X78.384 Y40.448 I0.249 J-0.546 F30000.
N8125 G1 X76.863 Y21.647
N8130 G3 X77.213 Y21.053 I0.598 J-0.048
N8135 X77.441 Y21. I0.249 J0.546 F900.
N8140 G1 X78.34 F1000.
N8145 G3 X79.587 Y21.381 I-0.121 J2.624
N8150 X81.036 Y22.589 I-2.591 J4.582
N8155 X82.535 Y24.957 I-7.299 J6.277
N8160 X83.732 Y28.698 I-14.595 J6.734
N8165 X83.898 Y36.25 I-20.77 J4.234
N8170 X83.252 Y38.694 I-13.787 J-2.339
N8175 X82.549 Y40.048 I-5.93 J-2.219
N8180 X80.666 Y41. I-1.887 J-1.394
N8185 G1 X79.757
N8190 G3 X79.529 Y40.946 I0.021 J-0.6
N8195 X79.18 Y40.445 I0.249 J-0.546 F30000.
N8200 G1 X77.763 Y21.644
N8205 G3 X78.112 Y21.053 I0.598 J-0.045
N8210 X78.34 Y21. I0.249 J0.546 F900.
N8215 G1 X79.24 F1000.
N8220 G3 X80.496 Y21.381 I-0.111 J2.624
N8225 X81.945 Y22.589 I-2.59 J4.58
N8230 X83.444 Y24.958 I-7.298 J6.277
N8235 X84.641 Y28.698 I-14.595 J6.734
N8240 X84.807 Y36.25 I-20.769 J4.233
N8245 X84.16 Y38.695 I-13.786 J-2.339
N8250 X83.458 Y40.048 I-5.929 J-2.219
N8255 X81.575 Y41. I-1.887 J-1.395
N8260 G1 X80.666
N8265 G3 X80.438 Y40.946 I0.021 J-0.6
N8270 X80.089 Y40.445 I0.249 J-0.546 F30000.
N8275 G1 X78.662 Y21.645
N8280 G3 X79.012 Y21.053 I0.598 J-0.045
N8285 X79.24 Y21. I0.249 J0.546 F900.
N8290 G1 X80.139 F1000.
N8295 G3 X81.405 Y21.382 I-0.102 J2.624
N8300 X82.854 Y22.59 I-2.589 J4.58
N8305 X84.353 Y24.958 I-7.298 J6.277
N8310 X85.55 Y28.699 I-14.595 J6.734
N8315 X85.716 Y36.251 I-20.769 J4.233
N8320 X85.069 Y38.695 I-13.787 J-2.339
N8325 X84.367 Y40.048 I-5.929 J-2.219
N8330 X82.484 Y41. I-1.887 J-1.395
N8335 G1 X81.575
N8340 G3 X81.347 Y40.946 I0.021 J-0.6
N8345 X80.998 Y40.446 I0.249 J-0.546 F30000.
N8350 G1 X79.562 Y21.645
N8355 G3 X79.911 Y21.053 I0.598 J-0.046
N8360 X80.139 Y21. I0.249 J0.546 F900.
N8365 G1 X81.039 F1000.
N8370 G3 X82.314 Y21.382 I-0.093 J2.626
N8375 X83.763 Y22.59 I-2.589 J4.579
N8380 X85.262 Y24.958 I-7.298 J6.276
N8385 X86.459 Y28.699 I-14.595 J6.733
N8390 X86.625 Y36.251 I-20.769 J4.233
N8395 X85.978 Y38.695 I-13.785 J-2.339
N8400 X85.276 Y40.048 I-5.927 J-2.219
N8405 X83.393 Y41. I-1.887 J-1.395
N8410 G1 X82.484
N8415 G3 X82.256 Y40.946 I0.021 J-0.6
N8420 X81.907 Y40.446 I0.249 J-0.546 F30000.
N8425 G1 X80.461 Y21.645
N8430 G3 X80.811 Y21.053 I0.598 J-0.046
N8435 X81.039 Y21. I0.249 J0.546 F900.
N8440 G1 X81.983 F1000.
N8445 G3 X83.186 Y21.344 I-0.081 J2.555
N8450 X84.532 Y22.397 I-2.297 J4.325
N8455 X85.892 Y24.305 I-6.173 J5.836
N8460 X87.081 Y27.256 I-11.958 J6.535
N8465 X87.586 Y29.51 I-16.261 J4.822
N8470 G1 X87.597 Y29.641
N8475 X87.6 Y29.772
N8480 Y34.597
N8485 G3 X87.426 Y36.557 I-15.11 J-0.353
N8490 X86.642 Y39.248 I-10.786 J-1.685
N8495 X86.176 Y40.048 I-5.223 J-2.501
N8500 X84.296 Y41. I-1.882 J-1.387
N8505 G1 X83.393
N8510 G3 X83.165 Y40.946 I0.021 J-0.6
N8515 X82.913 Y40.071 I0.249 J-0.546 F30000.
N8520 G1 X86.499 Y34.602
N8525 G3 X87.547 Y34.682 I0.502 J0.329
N8530 X87.6 Y34.91 I-0.546 J0.249 F900.
N8535 G1 Y37.835 F1000.
N8540 G3 X87.122 Y39.754 I-4.494 J-0.1
N8545 X85.057 Y41. I-2.068 J-1.095
N8550 X84.829 Y40.946 I0.021 J-0.6
N8555 X84.599 Y40.038 I0.249 J-0.546 F30000.
N8560 G1 X86.522 Y37.494
N8565 G3 X87.547 Y37.607 I0.479 J0.362
N8570 X87.6 Y37.835 I-0.546 J0.249 F900.
N8575 G1 Y39.274 F1000.
N8580 X87.595 Y39.376
N8585 G3 X85.811 Y40.999 I-1.781 J-0.166
N8590 X85.583 Y40.946 I0.021 J-0.599
N8595 X85.42 Y39.964 I0.249 J-0.546 F30000.
N8600 G1 X86.589 Y38.859
N8605 G3 X87.547 Y39.047 I0.412 J0.436
N8610 X87.6 Y39.274 I-0.546 J0.249 F900.
N8615 G1 Y39.938 F1000.
N8620 X87.598 Y39.992
N8625 X87.594 Y40.031
N8630 X87.588 Y40.078
N8635 X87.512 Y40.326
N8640 X87.381 Y40.551
N8645 X87.202 Y40.739
N8650 X86.985 Y40.881
N8655 X86.74 Y40.969
N8660 X86.482 Y41.
N8665 G3 X86.25 Y40.965 I0.036 J-1.033
N8670 X85.534 Y39.651 I0.269 J-0.998 F30000.
N8675 X87.566 Y39.705 I1.008 J0.323
N8680 X87.6 Y39.938 I-1.024 J0.27 F900.
N8685 G1 Y40.354 F1000.
N8690 G3 X87.416 Y40.821 I-0.725 J-0.016
N8695 X87.213 Y40.937 I-0.399 J-0.467
N8700 X86.782 Y40.922 I-0.196 J-0.582
N8705 X87.234 Y39.829 I0.226 J-0.546
N8710 X87.554 Y40.149 I-0.226 J0.546
N8715 X87.599 Y40.379 I-0.546 J0.226 F900.
N8720 X87.056 Y40.996 I-0.617 J0.004 F1000.
N8725 G1 X86.876 Y41.
N8730 X84.296
N8735 G3 X84.068 Y40.946 I0.021 J-0.6
N8740 X83.721 Y40.473 I0.249 J-0.546 F30000.
N8745 G1 X81.408 Y21.672
N8750 G3 X81.755 Y21.053 I0.596 J-0.073
N8755 X81.983 Y21. I0.249 J0.546 F900.
N8760 G1 X82.919 F1000.
N8765 G3 X84.12 Y21.337 I-0.071 J2.559
N8770 X85.531 Y22.445 I-2.334 J4.423
N8775 X86.89 Y24.368 I-6.291 J5.886
N8780 X87.495 Y25.655 I-8.225 J4.658
N8785 G1 X87.552 Y25.885
N8790 X87.588 Y26.119
N8795 X87.6 Y26.356
N8800 Y28.784
N8805 G3 X87.547 Y29.012 I-0.6 J-0.021
N8810 X86.479 Y29.059 I-0.546 J-0.249 F30000.
N8815 G1 X82.418 Y21.895
N8820 G3 X82.691 Y21.053 I0.522 J-0.296
N8825 X82.919 Y21. I0.249 J0.546 F900.
N8830 G1 X83.873 F1000.
N8835 G3 X85.07 Y21.336 I-0.076 J2.57
N8840 X86.471 Y22.426 I-2.323 J4.432
N8845 X87.289 Y23.45 I-4.624 J4.532
N8850 X87.6 Y24.617 I-2.048 J1.171
N8855 X87.547 Y24.845 I-0.6 J-0.021
N8860 X86.584 Y25.028 I-0.546 J-0.249 F30000.
N8865 G1 X83.477 Y22.031
N8870 G3 X83.645 Y21.053 I0.417 J-0.432
N8875 X83.873 Y21. I0.249 J0.546 F900.
N8880 G1 X84.817 F1000.
N8885 G3 X86.039 Y21.342 I-0.07 J2.597
N8890 X87.064 Y22.109 I-1.494 J3.07
N8895 X87.601 Y23.602 I-1.834 J1.502
N8900 G1 X87.593 Y23.68
N8905 X87.575 Y23.756
N8910 X87.547 Y23.83
N8915 G3 X86.595 Y24.023 I-0.546 J-0.249 F30000.
N8920 G1 X84.432 Y22.042
N8925 G3 X84.589 Y21.053 I0.405 J-0.442
N8930 X84.817 Y21. I0.249 J0.546 F900.
N8935 G1 X85.797 F1000.
N8940 G3 X86.697 Y21.24 I-0.018 J1.871
N8945 G1 X86.92 Y21.392
N8950 X87.118 Y21.575
N8955 X87.286 Y21.785
N8960 X87.421 Y22.018
N8965 X87.52 Y22.269
N8970 X87.58 Y22.532
N8975 X87.6 Y22.8
N8980 G3 X87.547 Y23.028 I-0.6 J-0.021
N8985 X86.577 Y23.204 I-0.546 J-0.249 F30000.
N8990 G1 X85.394 Y22.024
N8995 G3 X85.569 Y21.053 I0.424 J-0.425
N9000 X85.797 Y21. I0.249 J0.546 F900.
N9005 G1 X86.517 F1000.
N9010 X86.592 Y21.003
N9015 X86.607 Y21.004
N9020 X86.869 Y21.06
N9025 X87.11 Y21.178
N9030 X87.314 Y21.352
N9035 X87.47 Y21.57
N9040 X87.567 Y21.82
N9045 X87.6 Y22.086
N9050 G3 X87.566 Y22.319 I-1.047 J-0.037
N9055 X86.288 Y23.063 I-1.013 J-0.269 F30000.
N9060 X86.284 Y21.034 I0.265 J-1.015
N9065 X86.517 Y21. I0.269 J1.014 F900.
N9070 X87.056 Y21.006 I0.199 J5.569 F1000.
N9075 X87.464 Y21.231 I-0.117 J0.692
N9080 X87.554 Y21.447 I-0.478 J0.326
N9085 X87.506 Y21.81 I-0.568 J0.11
N9090 X86.494 Y21.318 I-0.506 J-0.246
N9095 X86.764 Y21.054 I0.506 J0.246
N9100 X86.992 Y21.002 I0.236 J0.511 F900.
N9105 X87.596 Y21.544 I-0.003 J0.611 F1000.
N9110 G1 X87.597 Y21.78
N9115 X87.6 Y24.38 F30000.
N9120 Y24.615 F900.
N9125 Y25.366 F1000.
N9130 G3 X87.547 Y25.594 I-0.6 J-0.021
N9135 G1 X87.508 Y25.679 Z-3.493
N9140 X87.47 Y25.763 Z-3.471
N9145 X87.434 Y25.842 Z-3.435
N9150 X87.4 Y25.915 Z-3.385
N9155 X87.371 Y25.98 Z-3.324
N9160 X87.345 Y26.036 Z-3.253
N9165 X87.325 Y26.08 Z-3.172
N9170 X87.31 Y26.113 Z-3.085
N9175 X87.301 Y26.133 Z-2.994
N9180 X87.298 Y26.14 Z-2.9
N9185 G0 Z4.
(2D ADAPTIVE4)
N9195 M8
N9200 G0 X1.318 Y1.124
N9205 Z4.
N9210 Z2.51
N9215 G1 Z2.505 F900.
N9220 S2800
N9225 G3 X-1.315 Y-1.124 Z2.363 I-1.317 J-1.124 F700.
N9230 X1.318 Y1.124 Z2.22 I1.317 J1.124
N9235 X-1.315 Y-1.124 Z2.078 I-1.317 J-1.124
N9240 X1.318 Y1.124 Z1.935 I1.317 J1.124
N9245 X-1.315 Y-1.124 Z1.793 I-1.317 J-1.124
N9250 X1.318 Y1.124 Z1.651 I1.317 J1.124
N9255 X-1.315 Y-1.124 Z1.508 I-1.317 J-1.124
N9260 X1.318 Y1.124 Z1.366 I1.317 J1.124
N9265 X-1.315 Y-1.124 Z1.223 I-1.317 J-1.124
N9270 X1.318 Y1.124 Z1.081 I1.317 J1.124
N9275 X-1.315 Y-1.124 Z0.939 I-1.317 J-1.124
N9280 X1.318 Y1.124 Z0.796 I1.317 J1.124
N9285 X-1.315 Y-1.124 Z0.654 I-1.317 J-1.124
N9290 X1.318 Y1.124 Z0.512 I1.317 J1.124
N9295 X-1.315 Y-1.124 Z0.369 I-1.317 J-1.124
N9300 X1.318 Y1.124 Z0.227 I1.317 J1.124
N9305 X-1.315 Y-1.124 Z0.084 I-1.317 J-1.124
N9310 X1.318 Y1.124 Z-0.058 I1.317 J1.124
N9315 X-1.315 Y-1.124 Z-0.2 I-1.317 J-1.124
N9320 X1.318 Y1.124 Z-0.343 I1.317 J1.124
N9325 X-1.315 Y-1.124 Z-0.485 I-1.317 J-1.124
N9330 X1.318 Y1.124 Z-0.628 I1.317 J1.124
N9335 X-1.315 Y-1.124 Z-0.77 I-1.317 J-1.124
N9340 X1.318 Y1.124 Z-0.912 I1.317 J1.124
N9345 X-1.315 Y-1.124 Z-1.055 I-1.317 J-1.124
N9350 X1.318 Y1.124 Z-1.197 I1.317 J1.124
N9355 X-1.315 Y-1.124 Z-1.34 I-1.317 J-1.124
N9360 X1.318 Y1.124 Z-1.482 I1.317 J1.124
N9365 X-1.315 Y-1.124 Z-1.624 I-1.317 J-1.124
N9370 X1.318 Y1.124 Z-1.767 I1.317 J1.124
N9375 X-1.315 Y-1.124 Z-1.909 I-1.317 J-1.124
N9380 X1.318 Y1.124 Z-2.052 I1.317 J1.124
N9385 X-1.315 Y-1.124 Z-2.194 I-1.317 J-1.124
N9390 X1.318 Y1.124 Z-2.336 I1.317 J1.124
N9395 X-1.315 Y-1.124 Z-2.479 I-1.317 J-1.124
N9400 X1.318 Y1.124 Z-2.621 I1.317 J1.124
N9405 X-1.315 Y-1.124 Z-2.764 I-1.317 J-1.124
N9410 X1.318 Y1.124 Z-2.906 I1.317 J1.124
N9415 X-1.315 Y-1.124 Z-3.048 I-1.317 J-1.124
N9420 X1.318 Y1.124 Z-3.191 I1.317 J1.124
N9425 X-1.315 Y-1.124 Z-3.333 I-1.317 J-1.124
N9430 X1.318 Y1.124 Z-3.475 I1.317 J1.124
N9435 X-1.315 Y-1.124 Z-3.618 I-1.317 J-1.124
N9440 X1.318 Y1.124 Z-3.76 I1.317 J1.124
N9445 X-1.315 Y-1.124 Z-3.903 I-1.317 J-1.124
N9450 X1.318 Y1.124 Z-4.045 I1.317 J1.124
N9455 X-1.315 Y-1.124 Z-4.187 I-1.317 J-1.124
N9460 X1.318 Y1.124 Z-4.33 I1.317 J1.124
N9465 X-1.315 Y-1.124 Z-4.472 I-1.317 J-1.124
N9470 X1.318 Y1.124 Z-4.615 I1.317 J1.124
N9475 X-1.315 Y-1.124 Z-4.757 I-1.317 J-1.124
N9480 X1.318 Y1.124 Z-4.899 I1.317 J1.124
N9485 X-1.315 Y-1.124 Z-5.042 I-1.317 J-1.124
N9490 X1.318 Y1.124 Z-5.184 I1.317 J1.124
N9495 X-1.315 Y-1.124 Z-5.327 I-1.317 J-1.124
N9500 X1.318 Y1.124 Z-5.469 I1.317 J1.124
N9505 X-1.315 Y-1.124 Z-5.611 I-1.317 J-1.124
N9510 X1.318 Y1.124 Z-5.754 I1.317 J1.124
N9515 X-1.315 Y-1.124 Z-5.896 I-1.317 J-1.124
N9520 X1.318 Y1.124 Z-6.039 I1.317 J1.124
N9525 X-1.315 Y-1.124 Z-6.181 I-1.317 J-1.124
N9530 X1.318 Y1.124 Z-6.323 I1.317 J1.124
N9535 X-1.315 Y-1.124 Z-6.466 I-1.317 J-1.124
N9540 X1.318 Y1.124 Z-6.608 I1.317 J1.124
N9545 X-1.315 Y-1.124 Z-6.75 I-1.317 J-1.124
N9550 X1.318 Y1.124 Z-6.893 I1.317 J1.124
N9555 X-1.315 Y-1.124 Z-7.035 I-1.317 J-1.124
N9560 X1.318 Y1.124 Z-7.178 I1.317 J1.124
N9565 X-1.315 Y-1.124 Z-7.32 I-1.317 J-1.124
N9570 X1.318 Y1.124 Z-7.462 I1.317 J1.124
N9575 X-1.315 Y-1.124 Z-7.605 I-1.317 J-1.124
N9580 X1.318 Y1.124 Z-7.747 I1.317 J1.124
N9585 X-1.315 Y-1.124 Z-7.89 I-1.317 J-1.124
N9590 X1.732 Y0. Z-8. I1.317 J1.124
N9595 X-1.73 I-1.731 J0.
N9600 X1.732 I1.731 J0.
N9605 S3300
N9610 G1 X1.733 Y0.281 F1000.
N9615 X1.741 Y0.539
N9620 X1.704 Y0.795
N9625 X1.622 Y1.04
N9630 X1.498 Y1.266
N9635 X1.335 Y1.467
N9640 G3 X0.522 Y1.921 I-1.223 J-1.233
N9645 X-1.636 Y1.138 I-0.527 J-1.91
N9650 X1.637 Y-1.139 I1.636 J-1.139
N9655 X1.139 Y1.635 I-1.636 J1.139
N9660 G1 X1.089 Y1.657 Z-7.993
N9665 X1.041 Y1.678 Z-7.974
N9670 X0.999 Y1.696 Z-7.943
N9675 X0.965 Y1.71 Z-7.902
N9680 X0.94 Y1.721 Z-7.853
N9685 X0.927 Y1.724 Z-7.81
N9690 X0.923 Z-7.764
N9695 G0 Z2.51
N9700 X83.361 Y1.069
N9705 G1 Z2.505 F900.
N9710 S2800
N9715 G3 X80.639 Y-1.069 Z2.363 I-1.361 J-1.069 F700.
N9720 X83.361 Y1.069 Z2.22 I1.361 J1.069
N9725 X80.639 Y-1.069 Z2.078 I-1.361 J-1.069
N9730 X83.361 Y1.069 Z1.936 I1.361 J1.069
N9735 X80.639 Y-1.069 Z1.793 I-1.361 J-1.069
N9740 X83.361 Y1.069 Z1.651 I1.361 J1.069
N9745 X80.639 Y-1.069 Z1.508 I-1.361 J-1.069
N9750 X83.361 Y1.069 Z1.366 I1.361 J1.069
N9755 X80.639 Y-1.069 Z1.224 I-1.361 J-1.069
N9760 X83.361 Y1.069 Z1.081 I1.361 J1.069
N9765 X80.639 Y-1.069 Z0.939 I-1.361 J-1.069
N9770 X83.361 Y1.069 Z0.797 I1.361 J1.069
N9775 X80.639 Y-1.069 Z0.654 I-1.361 J-1.069
N9780 X83.361 Y1.069 Z0.512 I1.361 J1.069
N9785 X80.639 Y-1.069 Z0.369 I-1.361 J-1.069
N9790 X83.361 Y1.069 Z0.227 I1.361 J1.069
N9795 X80.639 Y-1.069 Z0.085 I-1.361 J-1.069
N9800 X83.361 Y1.069 Z-0.058 I1.361 J1.069
N9805 X80.639 Y-1.069 Z-0.2 I-1.361 J-1.069
N9810 X83.361 Y1.069 Z-0.342 I1.361 J1.069
N9815 X80.639 Y-1.069 Z-0.485 I-1.361 J-1.069
N9820 X83.361 Y1.069 Z-0.627 I1.361 J1.069
N9825 X80.639 Y-1.069 Z-0.769 I-1.361 J-1.069
N9830 X83.361 Y1.069 Z-0.912 I1.361 J1.069
N9835 X80.639 Y-1.069 Z-1.054 I-1.361 J-1.069
N9840 X83.361 Y1.069 Z-1.197 I1.361 J1.069
N9845 X80.639 Y-1.069 Z-1.339 I-1.361 J-1.069
N9850 X83.361 Y1.069 Z-1.481 I1.361 J1.069
N9855 X80.639 Y-1.069 Z-1.624 I-1.361 J-1.069
N9860 X83.361 Y1.069 Z-1.766 I1.361 J1.069
N9865 X80.639 Y-1.069 Z-1.908 I-1.361 J-1.069
N9870 X83.361 Y1.069 Z-2.051 I1.361 J1.069
N9875 X80.639 Y-1.069 Z-2.193 I-1.361 J-1.069
N9880 X83.361 Y1.069 Z-2.335 I1.361 J1.069
N9885 X80.639 Y-1.069 Z-2.478 I-1.361 J-1.069
N9890 X83.361 Y1.069 Z-2.62 I1.361 J1.069
N9895 X80.639 Y-1.069 Z-2.763 I-1.361 J-1.069
N9900 X83.361 Y1.069 Z-2.905 I1.361 J1.069
N9905 X80.639 Y-1.069 Z-3.047 I-1.361 J-1.069
N9910 X83.361 Y1.069 Z-3.19 I1.361 J1.069
N9915 X80.639 Y-1.069 Z-3.332 I-1.361 J-1.069
N9920 X83.361 Y1.069 Z-3.474 I1.361 J1.069
N9925 X80.639 Y-1.069 Z-3.617 I-1.361 J-1.069
N9930 X83.361 Y1.069 Z-3.759 I1.361 J1.069
N9935 X80.639 Y-1.069 Z-3.902 I-1.361 J-1.069
N9940 X83.361 Y1.069 Z-4.044 I1.361 J1.069
N9945 X80.639 Y-1.069 Z-4.186 I-1.361 J-1.069
N9950 X83.361 Y1.069 Z-4.329 I1.361 J1.069
N9955 X80.639 Y-1.069 Z-4.471 I-1.361 J-1.069
N9960 X83.361 Y1.069 Z-4.613 I1.361 J1.069
N9965 X80.639 Y-1.069 Z-4.756 I-1.361 J-1.069
N9970 X83.361 Y1.069 Z-4.898 I1.361 J1.069
N9975 X80.639 Y-1.069 Z-5.04 I-1.361 J-1.069
N9980 X83.361 Y1.069 Z-5.183 I1.361 J1.069
N9985 X80.639 Y-1.069 Z-5.325 I-1.361 J-1.069
N9990 X83.361 Y1.069 Z-5.468 I1.361 J1.069
N9995 X80.639 Y-1.069 Z-5.61 I-1.361 J-1.069
N10000 X83.361 Y1.069 Z-5.752 I1.361 J1.069
N10005 X80.639 Y-1.069 Z-5.895 I-1.361 J-1.069
N10010 X83.361 Y1.069 Z-6.037 I1.361 J1.069
N10015 X80.639 Y-1.069 Z-6.179 I-1.361 J-1.069
N10020 X83.361 Y1.069 Z-6.322 I1.361 J1.069
N10025 X80.639 Y-1.069 Z-6.464 I-1.361 J-1.069
N10030 X83.361 Y1.069 Z-6.606 I1.361 J1.069
N10035 X80.639 Y-1.069 Z-6.749 I-1.361 J-1.069
N10040 X83.361 Y1.069 Z-6.891 I1.361 J1.069
N10045 X80.639 Y-1.069 Z-7.034 I-1.361 J-1.069
N10050 X83.361 Y1.069 Z-7.176 I1.361 J1.069
N10055 X80.639 Y-1.069 Z-7.318 I-1.361 J-1.069
N10060 X83.361 Y1.069 Z-7.461 I1.361 J1.069
N10065 X80.639 Y-1.069 Z-7.603 I-1.361 J-1.069
N10070 X83.361 Y1.069 Z-7.745 I1.361 J1.069
N10075 X80.639 Y-1.069 Z-7.888 I-1.361 J-1.069
N10080 X83.73 Y0. Z-8. I1.361 J1.069
N10085 X80.269 I-1.731 J0.
N10090 X83.73 I1.731 J0.
N10095 S3300
N10100 G1 X83.731 Y0.281 F1000.
N10105 X83.74 Y0.536
N10110 X83.704 Y0.789
N10115 G3 X82.916 Y1.771 I-1.451 J-0.357
N10120 X80.577 Y-1.399 I-0.916 J-1.772
N10125 X82.017 Y-1.995 I1.429 J1.414
N10130 X83.153 Y1.627 I-0.018 J1.995
N10135 G1 X83.085 Y1.667
N10140 X83.012 Y1.697
N10145 X82.937 Y1.718
N10150 X82.845 Y1.737 Z-7.993
N10155 X82.755 Y1.756 Z-7.971
N10160 X82.67 Y1.774 Z-7.935
N10165 X82.591 Y1.79 Z-7.885
N10170 X82.521 Y1.805 Z-7.824
N10175 X82.461 Y1.818 Z-7.753
N10180 X82.413 Y1.828 Z-7.672
N10185 X82.378 Y1.835 Z-7.585
N10190 X82.357 Y1.84 Z-7.494
N10195 X82.349 Y1.841 Z-7.4
N10200 G0 Z4.
N10210 M9
N10215 G53 Z0.
N10220 M30
%
