%
(1)
(T10  D=10. CR=0. - ZMIN=23. - FLAT END MILL)
N10 G90 G94 G17 G91.1
N15 G21
N20 G53 G0 Z0.
(FACE2)
N25 M9
N30 T10 M6
N35 S3000 M3
N40 G54
N45 M8
N55 G0 X55.903 Y-44.11
N60 G43 Z33. H10
N65 #100=900. (CUTTING)
N70 #102=900. (FINISH)
N75 #103=800. (ENTRY)
N80 #104=900. (EXIT)
N85 G0 Z28.
N90 G1 Z24. F#103
N95 G18 G3 X54.903 Z23. I-1. K0.
N100 G1 X50.909
N105 X-6.909 F#102
N110 X-7. F#100
N115 G17 G2 Y-38.28 I0. J2.915
N120 G1 X51. F#102
N125 G3 Y-32.45 I0. J2.915 F#100
N130 G1 X-7. F#102
N135 G2 Y-26.62 I0. J2.915 F#100
N140 G1 X51. F#102
N145 G3 Y-20.79 I0. J2.915 F#100
N150 G1 X-7. F#102
N155 G2 Y-14.96 I0. J2.915 F#100
N160 G1 X51. F#102
N165 G3 Y-9.13 I0. J2.915 F#100
N170 G1 X-7. F#102
N175 G2 Y-3.3 I0. J2.915 F#100
N180 G1 X51. F#102
N185 G3 Y2.53 I0. J2.915 F#100
N190 G1 X-7. F#102
N195 G2 Y8.36 I0. J2.915 F#100
N200 G1 X51. F#102
N205 G3 Y14.19 I0. J2.915 F#100
N210 G1 X-7. F#102
N215 G18 G3 X-8. Z24. I0. K1. F#104
N220 G0 Z33.
N225 G17
N230 M9
N235 G53 G0 Z0.
N240 M30
%
