%
(1)
(T10  D=10. CR=0. - ZMIN=-12. - FLAT END MILL)
N10 G90 G94 G17 G91.1
N15 G21
N20 G53 G0 Z0.
(2D POCKET3)
N25 M9
N30 T10 M6
N35 S3000 M3
N40 G54
N45 M8
N55 G0 X10.614 Y2.793
N60 G43 Z6. H10
N65 #100=900. (CUTTING)
N70 #103=800. (ENTRY)
N75 #104=900. (EXIT)
N80 #107=700. (RAMPING)
N85 G0 Z3.5
N90 G1 Z3.499 F#103
N95 S2700
N100 G3 X10.632 Y2.774 Z3.272 I2.386 J2.207 F#107
N105 X10.686 Y2.718 Z3.057 I2.368 J2.226
N110 X10.774 Y2.632 Z2.865 I2.314 J2.282
N115 X10.897 Y2.522 Z2.706 I2.226 J2.368
N120 X11.05 Y2.4 Z2.589 I2.103 J2.478
N125 X11.201 Y2.294 Z2.526 I1.95 J2.6
N130 X11.365 Y2.191 Z2.5 I1.799 J2.706
N135 X14.635 Y7.809 Z2.143 I1.635 J2.809
N140 X11.365 Y2.191 Z1.787 I-1.635 J-2.809
N145 X14.635 Y7.809 Z1.43 I1.635 J2.809
N150 X11.365 Y2.191 Z1.074 I-1.635 J-2.809
N155 X14.635 Y7.809 Z0.717 I1.635 J2.809
N160 X11.365 Y2.191 Z0.361 I-1.635 J-2.809
N165 X14.635 Y7.809 Z0.004 I1.635 J2.809
N170 X11.365 Y2.191 Z-0.352 I-1.635 J-2.809
N175 X14.635 Y7.809 Z-0.709 I1.635 J2.809
N180 X11.365 Y2.191 Z-1.065 I-1.635 J-2.809
N185 X14.635 Y7.809 Z-1.422 I1.635 J2.809
N190 X11.365 Y2.191 Z-1.779 I-1.635 J-2.809
N195 X14.635 Y7.809 Z-2.135 I1.635 J2.809
N200 X11.365 Y2.191 Z-2.492 I-1.635 J-2.809
N205 X14.635 Y7.809 Z-2.848 I1.635 J2.809
N210 X11.365 Y2.191 Z-3.205 I-1.635 J-2.809
N215 X14.635 Y7.809 Z-3.561 I1.635 J2.809
N220 X11.365 Y2.191 Z-3.918 I-1.635 J-2.809
N225 X14.635 Y7.809 Z-4.274 I1.635 J2.809
N230 X11.365 Y2.191 Z-4.631 I-1.635 J-2.809
N235 X14.635 Y7.809 Z-4.987 I1.635 J2.809
N240 X11.365 Y2.191 Z-5.344 I-1.635 J-2.809
N245 X14.635 Y7.809 Z-5.701 I1.635 J2.809
N250 X11.365 Y2.191 Z-6.057 I-1.635 J-2.809
N255 X14.635 Y7.809 Z-6.414 I1.635 J2.809
N260 X11.365 Y2.191 Z-6.77 I-1.635 J-2.809
N265 X14.635 Y7.809 Z-7.127 I1.635 J2.809
N270 X11.365 Y2.191 Z-7.483 I-1.635 J-2.809
N275 X14.635 Y7.809 Z-7.84 I1.635 J2.809
N280 X11.365 Y2.191 Z-8.196 I-1.635 J-2.809
N285 X14.635 Y7.809 Z-8.553 I1.635 J2.809
N290 X11.365 Y2.191 Z-8.91 I-1.635 J-2.809
N295 X14.635 Y7.809 Z-9.266 I1.635 J2.809
N300 X11.365 Y2.191 Z-9.623 I-1.635 J-2.809
N305 X14.635 Y7.809 Z-9.979 I1.635 J2.809
N310 X11.365 Y2.191 Z-10.336 I-1.635 J-2.809
N315 X14.635 Y7.809 Z-10.692 I1.635 J2.809
N320 X11.365 Y2.191 Z-11.049 I-1.635 J-2.809
N325 X14.635 Y7.809 Z-11.405 I1.635 J2.809
N330 X11.365 Y2.191 Z-11.762 I-1.635 J-2.809
N335 X16.25 Y5. Z-12. I1.635 J2.809
N340 X13.05 I-1.6 J0.
N345 S3000
N350 X13.25 I0.1 J0. F#100
N355 X12.75 I-0.25 J0.
N360 X13.55 I0.4 J0.
N365 X12.45 I-0.55 J0.
N370 X13.85 I0.7 J0.
N375 X12.15 I-0.85 J0.
N380 X14.15 I1. J0.
N385 X11.85 I-1.15 J0.
N390 X14.45 I1.3 J0.
N395 X11.55 I-1.45 J0.
N400 X14.75 I1.6 J0.
N405 X11.25 I-1.75 J0.
N410 X15.05 I1.9 J0.
N415 X10.95 I-2.05 J0.
N420 X15.35 I2.2 J0.
N425 X10.65 I-2.35 J0.
N430 X15.65 I2.5 J0.
N435 X10.35 I-2.65 J0.
N440 X15.95 I2.8 J0.
N445 X10.05 I-2.95 J0.
N450 X16.25 I3.1 J0.
N455 X9.75 I-3.25 J0.
N460 X16.25 I3.25 J0.
N465 X16.217 Y5.256 Z-11.966 I-1. J0. F#104
N470 X16.128 Y5.479 Z-11.866 I-0.967 J-0.256
N475 X16.01 Y5.65 Z-11.707 I-0.878 J-0.479
N480 X15.898 Y5.762 Z-11.5 I-0.76 J-0.65
N485 X15.819 Y5.823 Z-11.259 I-0.648 J-0.762
N490 X15.79 Y5.841 Z-11. I-0.569 J-0.823
N495 G0 Z6.
(2D CONTOUR3)
N505 M8
N510 G0 X13.25 Y4.
N515 #102=900. (FINISH)
N520 #103=800. (ENTRY)
N525 #104=900. (EXIT)
N530 #108=300. (PLUNGE)
N535 Z6.
N540 Z3.
N545 G1 Z1. F#103
N550 Z-11. F#108
N555 G18 G2 X14.25 Z-12. I1. K0.
N560 G1 X15.25 F#103
N565 G17 G3 X16.25 Y5. I0. J1.
N570 X9.75 I-3.25 J0. F#102
N575 X16.25 I3.25 J0.
N580 X15.25 Y6. I-1. J0. F#104
N585 G1 X14.25
N590 G18 G3 X13.25 Z-11. I0. K1.
N595 G0 Z6.
N600 G17
(2D CONTOUR3 2)
N605 M8
N610 G0 X13.3 Y4.
N615 #102=900. (FINISH)
N620 #103=800. (ENTRY)
N625 #104=900. (EXIT)
N630 #108=300. (PLUNGE)
N635 Z6.
N640 Z3.
N645 G1 Z1. F#103
N650 Z-9.2 F#108
N655 G18 G2 X14.3 Z-10.2 I1. K0.
N660 G1 X15.3 F#103
N665 G17 G3 X16.3 Y5. I0. J1.
N670 X9.7 I-3.3 J0. F#102
N675 X16.3 I3.3 J0.
N680 X15.3 Y6. I-1. J0. F#104
N685 G1 X14.3
N690 G18 G3 X13.3 Z-9.2 I0. K1.
N695 G0 Z6.
N700 G17
N705 M9
N710 G53 G0 Z0.
N715 M30
%
