%
(1)
(T1  D=6. CR=0. - ZMIN=-18. - FLAT END MILL)
N10 G90 G94 G17 G91.1
N15 G21
N20 G53 G0 Z0.
(2D POCKET4)
N25 M9
N30 T1 M6
N35 S3300 M3
N40 G54
N45 M8
N55 G0 X4.143 Y-25.117
N60 G43 Z4. H1
N65 G0 Z2.8
N70 G1 Z-17.7 F900.
N75 X4.136 Y-25.114 Z-17.767
N80 X4.116 Y-25.105 Z-17.83
N85 X4.083 Y-25.091 Z-17.887
N90 X4.039 Y-25.073 Z-17.935
N95 X3.986 Y-25.051 Z-17.97
N100 X3.928 Y-25.027 Z-17.992
N105 X3.866 Y-25.001 Z-18.
N110 X3.839 Y-24.99
N115 G3 X3.716 Y-24.965 I-0.123 J-0.295 F1000.
N120 G1 X-3.72
N125 G3 X-3.842 Y-24.99 I0. J-0.315
N130 X-3.721 Y-25.566 I0.117 J-0.276
N135 G1 X3.847 Y-25.442
N140 G3 X4.1 Y-24.989 I-0.005 J0.3
N145 X3.881 Y-24.864 I-0.22 J-0.13 F250.
N150 G1 X-3.884 F1000.
N155 G3 X-4.101 Y-24.989 I0. J-0.252 F250.
N160 X-3.839 Y-25.44 I0.259 J-0.152 F1000.
N165 G1 X3.958 Y-25.36
N170 G3 X4.246 Y-24.99 I-0.003 J0.3
N175 X3.936 Y-24.745 I-0.311 J-0.075
N180 G1 X-3.94
N185 G3 X-4.247 Y-24.989 I0. J-0.315
N190 X-3.952 Y-25.357 I0.292 J-0.068
N195 G1 X4.059 Y-25.289
N200 G3 X4.356 Y-24.989 I-0.003 J0.3
N205 G1 Y-24.899
N210 G3 X4.101 Y-24.644 I-0.255 J0. F250.
N215 G1 X-4.104 F1000.
N220 G3 X-4.356 Y-24.896 I0. J-0.252 F250.
N225 G1 Y-24.99 F1000.
N230 G3 X-4.056 Y-25.29 I0.3 J0.
N235 G1 X4.175 Y-25.289
N240 G3 X4.475 Y-24.989 I0. J0.3
N245 G1 Y-24.844
N250 G3 X4.156 Y-24.525 I-0.319 J0.
N255 G1 X-4.16
N260 G3 X-4.475 Y-24.84 I0. J-0.315
N265 G1 Y-24.99
N270 G3 X-4.175 Y-25.29 I0.3 J0.
N275 G1 X4.276 Y-25.289
N280 G3 X4.576 Y-24.989 I0. J0.3
N285 G1 Y-24.679
N290 G3 X4.321 Y-24.424 I-0.255 J0. F250.
N295 G1 X-4.324 F1000.
N300 G3 X-4.576 Y-24.676 I0. J-0.252 F250.
N305 G1 Y-24.99 F1000.
N310 G3 X-4.276 Y-25.29 I0.3 J0.
N315 G1 X4.395 Y-25.289
N320 G3 X4.695 Y-24.989 I0. J0.3
N325 G1 Y-24.624
N330 G3 X4.376 Y-24.305 I-0.319 J0.
N335 G1 X-4.38
N340 G3 X-4.695 Y-24.62 I0. J-0.315
N345 G1 Y-24.989
N350 G3 X-4.395 Y-25.289 I0.3 J0.
N355 G1 X4.496 Y-25.29
N360 G3 X4.796 Y-24.99 I0. J0.3
N365 G1 Y-24.459
N370 G3 X4.541 Y-24.204 I-0.255 J0. F250.
N375 G1 X-4.544 F1000.
N380 G3 X-4.796 Y-24.456 I0. J-0.252 F250.
N385 G1 Y-24.99 F1000.
N390 G3 X-4.496 Y-25.29 I0.3 J0.
N395 G1 X4.615 Y-25.289
N400 G3 X4.915 Y-24.989 I0. J0.3
N405 G1 Y-24.404
N410 G3 X4.596 Y-24.085 I-0.319 J0.
N415 G1 X-4.6
N420 G3 X-4.915 Y-24.4 I0. J-0.315
N425 G1 Y-24.989
N430 G3 X-4.615 Y-25.289 I0.3 J0.
N435 G1 X4.716 Y-25.29
N440 G3 X5.016 Y-24.99 I0. J0.3
N445 G1 Y-24.239
N450 G3 X4.761 Y-23.984 I-0.255 J0. F250.
N455 G1 X-4.764 F1000.
N460 G3 X-5.016 Y-24.236 I0. J-0.252 F250.
N465 G1 Y-24.99 F1000.
N470 G3 X-4.716 Y-25.29 I0.3 J0.
N475 G1 X4.835 Y-25.289
N480 G3 X5.135 Y-24.989 I0. J0.3
N485 G1 Y-24.184
N490 G3 X4.816 Y-23.865 I-0.319 J0.
N495 G1 X-4.82
N500 G3 X-5.135 Y-24.18 I0. J-0.315
N505 G1 Y-24.989
N510 G3 X-4.835 Y-25.289 I0.3 J0.
N515 G1 X4.936 Y-25.29
N520 G3 X5.236 Y-24.99 I0. J0.3
N525 G1 Y-24.019
N530 G3 X4.981 Y-23.764 I-0.255 J0. F250.
N535 G1 X-4.984 F1000.
N540 G3 X-5.236 Y-24.016 I0. J-0.252 F250.
N545 G1 Y-24.99 F1000.
N550 G3 X-4.936 Y-25.29 I0.3 J0.
N555 G1 X5.055 Y-25.289
N560 G3 X5.355 Y-24.989 I0. J0.3
N565 G1 Y-23.964
N570 G3 X5.036 Y-23.645 I-0.319 J0.
N575 G1 X-5.04
N580 G3 X-5.355 Y-23.96 I0. J-0.315
N585 G1 Y-24.989
N590 G3 X-5.055 Y-25.289 I0.3 J0.
N595 G1 X5.156 Y-25.29
N600 G3 X5.456 Y-24.99 I0. J0.3
N605 G1 Y-23.799
N610 G3 X5.201 Y-23.544 I-0.255 J0. F250.
N615 G1 X-5.204 F1000.
N620 G3 X-5.456 Y-23.796 I0. J-0.252 F250.
N625 G1 Y-24.989 F1000.
N630 G3 X-5.156 Y-25.289 I0.3 J0.
N635 G1 X5.275 Y-25.29
N640 G3 X5.575 Y-24.99 I0. J0.3
N645 G1 Y-23.744
N650 G3 X5.256 Y-23.425 I-0.319 J0.
N655 G1 X-5.26
N660 G3 X-5.575 Y-23.74 I0. J-0.315
N665 G1 Y-24.989
N670 G3 X-5.275 Y-25.289 I0.3 J0.
N675 G1 X5.376 Y-25.288
N680 G3 X5.676 Y-24.988 I0. J0.3
N685 G1 Y-23.579
N690 G3 X5.421 Y-23.324 I-0.255 J0. F250.
N695 G1 X-5.424 F1000.
N700 G3 X-5.676 Y-23.576 I0. J-0.252 F250.
N705 G1 Y-24.989 F1000.
N710 G3 X-5.376 Y-25.289 I0.3 J0.
N715 G1 X5.495 Y-25.29
N720 G3 X5.795 Y-24.99 I0. J0.3
N725 G1 Y-23.524
N730 G3 X5.476 Y-23.205 I-0.319 J0.
N735 G1 X-5.48
N740 G3 X-5.795 Y-23.52 I0. J-0.315
N745 G1 Y-24.989
N750 G3 X-5.495 Y-25.289 I0.3 J0.
N755 G1 X5.596 Y-25.288
N760 G3 X5.896 Y-24.988 I0. J0.3
N765 G1 Y-23.359
N770 G3 X5.641 Y-23.104 I-0.255 J0. F250.
N775 G1 X-5.644 F1000.
N780 G3 X-5.896 Y-23.356 I0. J-0.252 F250.
N785 G1 Y-24.989 F1000.
N790 G3 X-5.596 Y-25.289 I0.3 J0.
N795 G1 X5.715 Y-25.29
N800 G3 X6.015 Y-24.99 I0. J0.3
N805 G1 Y-23.304
N810 G3 X5.696 Y-22.985 I-0.319 J0.
N815 G1 X-5.7
N820 G3 X-6.015 Y-23.3 I0. J-0.315
N825 G1 Y-24.989
N830 G3 X-5.715 Y-25.289 I0.3 J0.
N835 G1 X5.816 Y-25.288
N840 G3 X6.116 Y-24.988 I0. J0.3
N845 G1 Y-23.139
N850 G3 X5.861 Y-22.884 I-0.255 J0. F250.
N855 G1 X-5.864 F1000.
N860 G3 X-6.116 Y-23.136 I0. J-0.252 F250.
N865 G1 Y-24.989 F1000.
N870 G3 X-5.816 Y-25.289 I0.3 J0.
N875 G1 X5.935 Y-25.29
N880 G3 X6.235 Y-24.99 I0. J0.3
N885 G1 Y-23.084
N890 G3 X5.916 Y-22.765 I-0.319 J0.
N895 G1 X-5.92
N900 G3 X-6.235 Y-23.08 I0. J-0.315
N905 G1 Y-24.989
N910 G3 X-5.935 Y-25.289 I0.3 J0.
N915 G1 X6.036 Y-25.288
N920 G3 X6.336 Y-24.988 I0. J0.3
N925 G1 Y-22.919
N930 G3 X6.081 Y-22.664 I-0.255 J0. F250.
N935 G1 X-6.084 F1000.
N940 G3 X-6.336 Y-22.916 I0. J-0.252 F250.
N945 G1 Y-24.989 F1000.
N950 G3 X-6.036 Y-25.289 I0.3 J0.
N955 G1 X6.155 Y-25.288
N960 G3 X6.455 Y-24.988 I0. J0.3
N965 G1 Y-22.864
N970 G3 X6.136 Y-22.545 I-0.319 J0.
N975 G1 X-6.14
N980 G3 X-6.455 Y-22.86 I0. J-0.315
N985 G1 Y-24.988
N990 G3 X-6.155 Y-25.288 I0.3 J0.
N995 G1 X6.256 Y-25.289
N1000 G3 X6.556 Y-24.989 I0. J0.3
N1005 G1 Y-22.699
N1010 G3 X6.301 Y-22.444 I-0.255 J0. F250.
N1015 G1 X-6.304 F1000.
N1020 G3 X-6.556 Y-22.696 I0. J-0.252 F250.
N1025 G1 Y-24.989 F1000.
N1030 G3 X-6.256 Y-25.289 I0.3 J0.
N1035 G1 X6.375 Y-25.288
N1040 G3 X6.675 Y-24.988 I0. J0.3
N1045 G1 Y-22.644
N1050 G3 X6.356 Y-22.325 I-0.319 J0.
N1055 G1 X-6.36
N1060 G3 X-6.675 Y-22.64 I0. J-0.315
N1065 G1 Y-24.988
N1070 G3 X-6.375 Y-25.288 I0.3 J0.
N1075 G1 X6.476 Y-25.289
N1080 G3 X6.776 Y-24.989 I0. J0.3
N1085 G1 Y-22.479
N1090 G3 X6.521 Y-22.224 I-0.255 J0. F250.
N1095 G1 X-6.524 F1000.
N1100 G3 X-6.776 Y-22.476 I0. J-0.252 F250.
N1105 G1 Y-24.989 F1000.
N1110 G3 X-6.476 Y-25.289 I0.3 J0.
N1115 G1 X6.595 Y-25.288
N1120 G3 X6.895 Y-24.988 I0. J0.3
N1125 G1 Y-22.424
N1130 G3 X6.576 Y-22.105 I-0.319 J0.
N1135 G1 X-6.58
N1140 G3 X-6.895 Y-22.42 I0. J-0.315
N1145 G1 Y-24.988
N1150 G3 X-6.595 Y-25.288 I0.3 J0.
N1155 G1 X6.696 Y-25.289
N1160 G3 X6.996 Y-24.989 I0. J0.3
N1165 G1 Y-22.259
N1170 G3 X6.741 Y-22.004 I-0.255 J0. F250.
N1175 G1 X-6.744 F1000.
N1180 G3 X-6.996 Y-22.256 I0. J-0.252 F250.
N1185 G1 Y-24.989 F1000.
N1190 G3 X-6.696 Y-25.289 I0.3 J0.
N1195 G1 X6.815 Y-25.288
N1200 G3 X7.115 Y-24.988 I0. J0.3
N1205 G1 Y-22.204
N1210 G3 X6.796 Y-21.885 I-0.319 J0.
N1215 G1 X-6.8
N1220 G3 X-7.115 Y-22.2 I0. J-0.315
N1225 G1 Y-24.988
N1230 G3 X-6.815 Y-25.288 I0.3 J0.
N1235 G1 X6.916 Y-25.289
N1240 G3 X7.216 Y-24.989 I0. J0.3
N1245 G1 Y-22.039
N1250 G3 X6.961 Y-21.784 I-0.255 J0. F250.
N1255 G1 X-6.964 F1000.
N1260 G3 X-7.216 Y-22.036 I0. J-0.252 F250.
N1265 G1 Y-24.989 F1000.
N1270 G3 X-6.916 Y-25.289 I0.3 J0.
N1275 G1 X7.035
N1280 G3 X7.335 Y-24.989 I0. J0.3
N1285 G1 Y-21.984
N1290 G3 X7.016 Y-21.665 I-0.319 J0.
N1295 G1 X-7.02
N1300 G3 X-7.335 Y-21.98 I0. J-0.315
N1305 G1 Y-24.99
N1310 G3 X-7.035 Y-25.29 I0.3 J0.
N1315 G1 X7.136 Y-25.289
N1320 G3 X7.436 Y-24.989 I0. J0.3
N1325 G1 Y-21.819
N1330 G3 X7.181 Y-21.564 I-0.255 J0. F250.
N1335 G1 X-7.184 F1000.
N1340 G3 X-7.436 Y-21.816 I0. J-0.252 F250.
N1345 G1 Y-24.988 F1000.
N1350 G3 X-7.136 Y-25.288 I0.3 J0.
N1355 G1 X7.255 Y-25.289
N1360 G3 X7.555 Y-24.989 I0. J0.3
N1365 G1 Y-21.764
N1370 G3 X7.236 Y-21.445 I-0.319 J0.
N1375 G1 X-7.24
N1380 G3 X-7.555 Y-21.76 I0. J-0.315
N1385 G1 Y-24.99
N1390 G3 X-7.255 Y-25.29 I0.3 J0.
N1395 G1 X7.356 Y-25.289
N1400 G3 X7.656 Y-24.989 I0. J0.3
N1405 G1 Y-21.599
N1410 G3 X7.401 Y-21.344 I-0.255 J0. F250.
N1415 G1 X-7.404 F1000.
N1420 G3 X-7.656 Y-21.596 I0. J-0.252 F250.
N1425 G1 Y-24.988 F1000.
N1430 G3 X-7.356 Y-25.288 I0.3 J0.
N1435 G1 X7.475 Y-25.289
N1440 G3 X7.775 Y-24.989 I0. J0.3
N1445 G1 Y-21.544
N1450 G3 X7.456 Y-21.225 I-0.319 J0.
N1455 G1 X-7.46
N1460 G3 X-7.775 Y-21.54 I0. J-0.315
N1465 G1 Y-24.99
N1470 G3 X-7.475 Y-25.29 I0.3 J0.
N1475 G1 X7.576 Y-25.289
N1480 G3 X7.876 Y-24.989 I0. J0.3
N1485 G1 Y-21.379
N1490 G3 X7.621 Y-21.124 I-0.255 J0. F250.
N1495 G1 X-7.624 F1000.
N1500 G3 X-7.876 Y-21.376 I0. J-0.252 F250.
N1505 G1 Y-24.988 F1000.
N1510 G3 X-7.576 Y-25.288 I0.3 J0.
N1515 G1 X7.695 Y-25.289
N1520 G3 X7.995 Y-24.989 I0. J0.3
N1525 G1 Y-21.324
N1530 G3 X7.676 Y-21.005 I-0.319 J0.
N1535 G1 X-7.68
N1540 G3 X-7.995 Y-21.32 I0. J-0.315
N1545 G1 Y-24.99
N1550 G3 X-7.695 Y-25.29 I0.3 J0.
N1555 G1 X7.796 Y-25.289
N1560 G3 X8.096 Y-24.989 I0. J0.3
N1565 G1 Y-21.159
N1570 G3 X7.841 Y-20.904 I-0.255 J0. F250.
N1575 G1 X-7.844 F1000.
N1580 G3 X-8.096 Y-21.156 I0. J-0.252 F250.
N1585 G1 Y-24.99 F1000.
N1590 G3 X-7.796 Y-25.29 I0.3 J0.
N1595 G1 X7.915 Y-25.289
N1600 G3 X8.215 Y-24.989 I0. J0.3
N1605 G1 Y-21.104
N1610 G3 X7.896 Y-20.785 I-0.319 J0.
N1615 G1 X-7.9
N1620 G3 X-8.215 Y-21.1 I0. J-0.315
N1625 G1 Y-24.99
N1630 G3 X-7.915 Y-25.29 I0.3 J0.
N1635 G1 X8.016 Y-25.289
N1640 G3 X8.316 Y-24.989 I0. J0.3
N1645 G1 Y-20.939
N1650 G3 X8.061 Y-20.684 I-0.255 J0. F250.
N1655 G1 X-8.064 F1000.
N1660 G3 X-8.316 Y-20.936 I0. J-0.252 F250.
N1665 G1 Y-24.99 F1000.
N1670 G3 X-8.016 Y-25.29 I0.3 J0.
N1675 G1 X8.135 Y-25.289
N1680 G3 X8.435 Y-24.989 I0. J0.3
N1685 G1 Y-20.884
N1690 G3 X8.116 Y-20.565 I-0.319 J0.
N1695 G1 X-8.12
N1700 G3 X-8.435 Y-20.88 I0. J-0.315
N1705 G1 Y-24.989
N1710 G3 X-8.135 Y-25.289 I0.3 J0.
N1715 G1 X8.236 Y-25.29
N1720 G3 X8.536 Y-24.99 I0. J0.3
N1725 G1 Y-20.719
N1730 G3 X8.281 Y-20.464 I-0.255 J0. F250.
N1735 G1 X-8.284 F1000.
N1740 G3 X-8.536 Y-20.716 I0. J-0.252 F250.
N1745 G1 Y-24.99 F1000.
N1750 G3 X-8.236 Y-25.29 I0.3 J0.
N1755 G1 X8.355 Y-25.289
N1760 G3 X8.655 Y-24.989 I0. J0.3
N1765 G1 Y-20.664
N1770 G3 X8.336 Y-20.345 I-0.319 J0.
N1775 G1 X-8.34
N1780 G3 X-8.655 Y-20.66 I0. J-0.315
N1785 G1 Y-24.989
N1790 G3 X-8.355 Y-25.289 I0.3 J0.
N1795 G1 X8.456 Y-25.29
N1800 G3 X8.756 Y-24.99 I0. J0.3
N1805 G1 Y-20.499
N1810 G3 X8.501 Y-20.244 I-0.255 J0. F250.
N1815 G1 X-8.504 F1000.
N1820 G3 X-8.756 Y-20.496 I0. J-0.252 F250.
N1825 G1 Y-24.99 F1000.
N1830 G3 X-8.456 Y-25.29 I0.3 J0.
N1835 G1 X8.575 Y-25.289
N1840 G3 X8.875 Y-24.989 I0. J0.3
N1845 G1 Y-20.444
N1850 G3 X8.556 Y-20.125 I-0.319 J0.
N1855 G1 X-8.56
N1860 G3 X-8.875 Y-20.44 I0. J-0.315
N1865 G1 Y-24.989
N1870 G3 X-8.575 Y-25.289 I0.3 J0.
N1875 G1 X8.676 Y-25.29
N1880 G3 X8.976 Y-24.99 I0. J0.3
N1885 G1 Y-20.279
N1890 G3 X8.721 Y-20.024 I-0.255 J0. F250.
N1895 G1 X-8.724 F1000.
N1900 G3 X-8.976 Y-20.276 I0. J-0.252 F250.
N1905 G1 Y-24.99 F1000.
N1910 G3 X-8.676 Y-25.29 I0.3 J0.
N1915 G1 X8.795 Y-25.289
N1920 G3 X9.095 Y-24.989 I0. J0.3
N1925 G1 Y-20.224
N1930 G3 X8.776 Y-19.905 I-0.319 J0.
N1935 G1 X-8.78
N1940 G3 X-9.095 Y-20.22 I0. J-0.315
N1945 G1 Y-24.989
N1950 G3 X-8.795 Y-25.289 I0.3 J0.
N1955 G1 X8.896 Y-25.29
N1960 G3 X9.196 Y-24.99 I0. J0.3
N1965 G1 Y-20.059
N1970 G3 X8.941 Y-19.804 I-0.255 J0. F250.
N1975 G1 X-8.944 F1000.
N1980 G3 X-9.196 Y-20.056 I0. J-0.252 F250.
N1985 G1 Y-24.989 F1000.
N1990 G3 X-8.896 Y-25.289 I0.3 J0.
N1995 G1 X9.015 Y-25.29
N2000 G3 X9.315 Y-24.99 I0. J0.3
N2005 G1 Y-20.004
N2010 G3 X8.996 Y-19.685 I-0.319 J0.
N2015 G1 X-9.
N2020 G3 X-9.315 Y-20. I0. J-0.315
N2025 G1 Y-24.989
N2030 G3 X-9.015 Y-25.289 I0.3 J0.
N2035 G1 X9.116 Y-25.288
N2040 G3 X9.416 Y-24.988 I0. J0.3
N2045 G1 Y-19.839
N2050 G3 X9.161 Y-19.584 I-0.255 J0. F250.
N2055 G1 X-9.164 F1000.
N2060 G3 X-9.416 Y-19.836 I0. J-0.252 F250.
N2065 G1 Y-24.989 F1000.
N2070 G3 X-9.116 Y-25.289 I0.3 J0.
N2075 G1 X9.235 Y-25.29
N2080 G3 X9.535 Y-24.99 I0. J0.3
N2085 G1 Y-19.784
N2090 G3 X9.216 Y-19.465 I-0.319 J0.
N2095 G1 X-9.22
N2100 G3 X-9.535 Y-19.78 I0. J-0.315
N2105 G1 Y-24.989
N2110 G3 X-9.235 Y-25.289 I0.3 J0.
N2115 G1 X9.336 Y-25.288
N2120 G3 X9.636 Y-24.988 I0. J0.3
N2125 G1 Y-19.619
N2130 G3 X9.381 Y-19.364 I-0.255 J0. F250.
N2135 G1 X-9.384 F1000.
N2140 G3 X-9.636 Y-19.616 I0. J-0.252 F250.
N2145 G1 Y-24.989 F1000.
N2150 G3 X-9.336 Y-25.289 I0.3 J0.
N2155 G1 X9.455 Y-25.29
N2160 G3 X9.755 Y-24.99 I0. J0.3
N2165 G1 Y-19.564
N2170 G3 X9.436 Y-19.245 I-0.319 J0.
N2175 G1 X-9.44
N2180 G3 X-9.755 Y-19.56 I0. J-0.315
N2185 G1 Y-24.989
N2190 G3 X-9.455 Y-25.289 I0.3 J0.
N2195 G1 X9.56 Y-25.29
N2200 G3 X9.86 Y-24.99 I0. J0.3
N2205 G1 Y-19.25
N2210 G3 X9.75 Y-19.14 I-0.11 J0. F250.
N2215 G1 X-9.75 F1000.
N2220 G3 X-9.86 Y-19.25 I0. J-0.11 F250.
N2225 G1 Y-24.989 F1000.
N2230 G3 X-9.56 Y-25.289 I0.3 J0.
N2235 G1 X9.63
N2240 G3 X9.93 Y-24.989 I0. J0.3
N2245 G1 Y-19.25
N2250 G3 X9.75 Y-19.07 I-0.18 J0. F250.
N2255 G1 X-9.75 F1000.
N2260 G3 X-9.93 Y-19.25 I0. J-0.18 F250.
N2265 G1 Y-24.989 F1000.
N2270 G3 X-9.63 Y-25.289 I0.3 J0.
N2275 G1 X9.7 Y-25.288
N2280 G3 X10. Y-24.988 I0. J0.3
N2285 G1 Y-19.25
N2290 G3 X9.75 Y-19. I-0.25 J0. F250.
N2295 G1 X-9.75 F1000.
N2300 G3 X-10. Y-19.25 I0. J-0.25 F250.
N2305 G1 Y-24.989 F1000.
N2310 G3 X-9.996 Y-25.035 I0.3 J0.
N2315 G1 X-9.894 Y-25.684
N2320 X-9.883 Y-25.75 Z-17.992
N2325 X-9.873 Y-25.812 Z-17.97
N2330 X-9.864 Y-25.868 Z-17.935
N2335 X-9.857 Y-25.915 Z-17.887
N2340 X-9.851 Y-25.951 Z-17.83
N2345 X-9.848 Y-25.973 Z-17.767
N2350 X-9.847 Y-25.98 Z-17.7
N2355 G0 Z2.8
N2360 X-4.143 Y3.117
N2365 G1 Z-17.7 F900.
N2370 X-4.136 Y3.114 Z-17.767
N2375 X-4.116 Y3.105 Z-17.83
N2380 X-4.083 Y3.091 Z-17.887
N2385 X-4.039 Y3.073 Z-17.935
N2390 X-3.986 Y3.051 Z-17.97
N2395 X-3.928 Y3.027 Z-17.992
N2400 X-3.866 Y3.001 Z-18.
N2405 X-3.839 Y2.99
N2410 G3 X-3.716 Y2.965 I0.123 J0.295 F1000.
N2415 G1 X3.716
N2420 G3 X3.839 Y2.99 I0. J0.319
N2425 X3.718 Y3.566 I-0.116 J0.277
N2430 G1 X-3.847 Y3.442
N2435 G3 X-4.1 Y2.989 I0.005 J-0.3
N2440 X-3.881 Y2.864 I0.22 J0.13 F250.
N2445 G1 X3.881 F1000.
N2450 G3 X4.1 Y2.989 I0. J0.255 F250.
N2455 X3.839 Y3.442 I-0.258 J0.154 F1000.
N2460 G1 X-3.958 Y3.36
N2465 G3 X-4.246 Y2.99 I0.003 J-0.3
N2470 X-3.936 Y2.745 I0.311 J0.075
N2475 G1 X3.936
N2480 G3 X4.246 Y2.99 I0. J0.319
N2485 X3.952 Y3.36 I-0.292 J0.07
N2490 G1 X-4.059 Y3.289
N2495 G3 X-4.356 Y2.989 I0.003 J-0.3
N2500 G1 Y2.899
N2505 G3 X-4.101 Y2.644 I0.255 J0. F250.
N2510 G1 X4.101 F1000.
N2515 G3 X4.356 Y2.899 I0. J0.255 F250.
N2520 G1 Y2.989 F1000.
N2525 G3 X4.056 Y3.289 I-0.3 J0.
N2530 G1 X-4.175
N2535 G3 X-4.475 Y2.989 I0. J-0.3
N2540 G1 Y2.844
N2545 G3 X-4.156 Y2.525 I0.319 J0.
N2550 G1 X4.156
N2555 G3 X4.475 Y2.844 I0. J0.319
N2560 G1 Y2.99
N2565 G3 X4.175 Y3.29 I-0.3 J0.
N2570 G1 X-4.276 Y3.289
N2575 G3 X-4.576 Y2.989 I0. J-0.3
N2580 G1 Y2.679
N2585 G3 X-4.321 Y2.424 I0.255 J0. F250.
N2590 G1 X4.321 F1000.
N2595 G3 X4.576 Y2.679 I0. J0.255 F250.
N2600 G1 Y2.989 F1000.
N2605 G3 X4.276 Y3.289 I-0.3 J0.
N2610 G1 X-4.395
N2615 G3 X-4.695 Y2.989 I0. J-0.3
N2620 G1 Y2.624
N2625 G3 X-4.376 Y2.305 I0.319 J0.
N2630 G1 X4.376
N2635 G3 X4.695 Y2.624 I0. J0.319
N2640 G1 Y2.99
N2645 G3 X4.395 Y3.29 I-0.3 J0.
N2650 G1 X-4.496
N2655 G3 X-4.796 Y2.99 I0. J-0.3
N2660 G1 Y2.459
N2665 G3 X-4.541 Y2.204 I0.255 J0. F250.
N2670 G1 X4.541 F1000.
N2675 G3 X4.796 Y2.459 I0. J0.255 F250.
N2680 G1 Y2.989 F1000.
N2685 G3 X4.496 Y3.289 I-0.3 J0.
N2690 G1 X-4.615
N2695 G3 X-4.915 Y2.989 I0. J-0.3
N2700 G1 Y2.404
N2705 G3 X-4.596 Y2.085 I0.319 J0.
N2710 G1 X4.596
N2715 G3 X4.915 Y2.404 I0. J0.319
N2720 G1 Y2.989
N2725 G3 X4.615 Y3.289 I-0.3 J0.
N2730 G1 X-4.716 Y3.29
N2735 G3 X-5.016 Y2.99 I0. J-0.3
N2740 G1 Y2.239
N2745 G3 X-4.761 Y1.984 I0.255 J0. F250.
N2750 G1 X4.761 F1000.
N2755 G3 X5.016 Y2.239 I0. J0.255 F250.
N2760 G1 Y2.989 F1000.
N2765 G3 X4.716 Y3.289 I-0.3 J0.
N2770 G1 X-4.835
N2775 G3 X-5.135 Y2.989 I0. J-0.3
N2780 G1 Y2.184
N2785 G3 X-4.816 Y1.865 I0.319 J0.
N2790 G1 X4.816
N2795 G3 X5.135 Y2.184 I0. J0.319
N2800 G1 Y2.989
N2805 G3 X4.835 Y3.289 I-0.3 J0.
N2810 G1 X-4.936 Y3.29
N2815 G3 X-5.236 Y2.99 I0. J-0.3
N2820 G1 Y2.019
N2825 G3 X-4.981 Y1.764 I0.255 J0. F250.
N2830 G1 X4.981 F1000.
N2835 G3 X5.236 Y2.019 I0. J0.255 F250.
N2840 G1 Y2.989 F1000.
N2845 G3 X4.936 Y3.289 I-0.3 J0.
N2850 G1 X-5.055
N2855 G3 X-5.355 Y2.989 I0. J-0.3
N2860 G1 Y1.964
N2865 G3 X-5.036 Y1.645 I0.319 J0.
N2870 G1 X5.036
N2875 G3 X5.355 Y1.964 I0. J0.319
N2880 G1 Y2.989
N2885 G3 X5.055 Y3.289 I-0.3 J0.
N2890 G1 X-5.156 Y3.29
N2895 G3 X-5.456 Y2.99 I0. J-0.3
N2900 G1 Y1.799
N2905 G3 X-5.201 Y1.544 I0.255 J0. F250.
N2910 G1 X5.201 F1000.
N2915 G3 X5.456 Y1.799 I0. J0.255 F250.
N2920 G1 Y2.989 F1000.
N2925 G3 X5.156 Y3.289 I-0.3 J0.
N2930 G1 X-5.275 Y3.29
N2935 G3 X-5.575 Y2.99 I0. J-0.3
N2940 G1 Y1.744
N2945 G3 X-5.256 Y1.425 I0.319 J0.
N2950 G1 X5.256
N2955 G3 X5.575 Y1.744 I0. J0.319
N2960 G1 Y2.989
N2965 G3 X5.275 Y3.289 I-0.3 J0.
N2970 G1 X-5.376 Y3.288
N2975 G3 X-5.676 Y2.988 I0. J-0.3
N2980 G1 Y1.579
N2985 G3 X-5.421 Y1.324 I0.255 J0. F250.
N2990 G1 X5.421 F1000.
N2995 G3 X5.676 Y1.579 I0. J0.255 F250.
N3000 G1 Y2.989 F1000.
N3005 G3 X5.376 Y3.289 I-0.3 J0.
N3010 G1 X-5.495 Y3.29
N3015 G3 X-5.795 Y2.99 I0. J-0.3
N3020 G1 Y1.524
N3025 G3 X-5.476 Y1.205 I0.319 J0.
N3030 G1 X5.476
N3035 G3 X5.795 Y1.524 I0. J0.319
N3040 G1 Y2.989
N3045 G3 X5.495 Y3.289 I-0.3 J0.
N3050 G1 X-5.596 Y3.288
N3055 G3 X-5.896 Y2.988 I0. J-0.3
N3060 G1 Y1.359
N3065 G3 X-5.641 Y1.104 I0.255 J0. F250.
N3070 G1 X5.641 F1000.
N3075 G3 X5.896 Y1.359 I0. J0.255 F250.
N3080 G1 Y2.989 F1000.
N3085 G3 X5.596 Y3.289 I-0.3 J0.
N3090 G1 X-5.715 Y3.29
N3095 G3 X-6.015 Y2.99 I0. J-0.3
N3100 G1 Y1.304
N3105 G3 X-5.696 Y0.985 I0.319 J0.
N3110 G1 X5.696
N3115 G3 X6.015 Y1.304 I0. J0.319
N3120 G1 Y2.989
N3125 G3 X5.715 Y3.289 I-0.3 J0.
N3130 G1 X-5.816 Y3.288
N3135 G3 X-6.116 Y2.988 I0. J-0.3
N3140 G1 Y1.139
N3145 G3 X-5.861 Y0.884 I0.255 J0. F250.
N3150 G1 X5.861 F1000.
N3155 G3 X6.116 Y1.139 I0. J0.255 F250.
N3160 G1 Y2.988 F1000.
N3165 G3 X5.816 Y3.288 I-0.3 J0.
N3170 G1 X-5.935 Y3.29
N3175 G3 X-6.235 Y2.99 I0. J-0.3
N3180 G1 Y1.084
N3185 G3 X-5.916 Y0.765 I0.319 J0.
N3190 G1 X5.916
N3195 G3 X6.235 Y1.084 I0. J0.319
N3200 G1 Y2.989
N3205 G3 X5.935 Y3.289 I-0.3 J0.
N3210 G1 X-6.036 Y3.288
N3215 G3 X-6.336 Y2.988 I0. J-0.3
N3220 G1 Y0.919
N3225 G3 X-6.081 Y0.664 I0.255 J0. F250.
N3230 G1 X6.081 F1000.
N3235 G3 X6.336 Y0.919 I0. J0.255 F250.
N3240 G1 Y2.988 F1000.
N3245 G3 X6.036 Y3.288 I-0.3 J0.
N3250 G1 X-6.155
N3255 G3 X-6.455 Y2.988 I0. J-0.3
N3260 G1 Y0.864
N3265 G3 X-6.136 Y0.545 I0.319 J0.
N3270 G1 X6.136
N3275 G3 X6.455 Y0.864 I0. J0.319
N3280 G1 Y2.989
N3285 G3 X6.155 Y3.289 I-0.3 J0.
N3290 G1 X-6.256
N3295 G3 X-6.556 Y2.989 I0. J-0.3
N3300 G1 Y0.699
N3305 G3 X-6.301 Y0.444 I0.255 J0. F250.
N3310 G1 X6.301 F1000.
N3315 G3 X6.556 Y0.699 I0. J0.255 F250.
N3320 G1 Y2.988 F1000.
N3325 G3 X6.256 Y3.288 I-0.3 J0.
N3330 G1 X-6.375
N3335 G3 X-6.675 Y2.988 I0. J-0.3
N3340 G1 Y0.644
N3345 G3 X-6.356 Y0.325 I0.319 J0.
N3350 G1 X6.356
N3355 G3 X6.675 Y0.644 I0. J0.319
N3360 G1 Y2.989
N3365 G3 X6.375 Y3.289 I-0.3 J0.
N3370 G1 X-6.476
N3375 G3 X-6.776 Y2.989 I0. J-0.3
N3380 G1 Y0.479
N3385 G3 X-6.521 Y0.224 I0.255 J0. F250.
N3390 G1 X6.521 F1000.
N3395 G3 X6.776 Y0.479 I0. J0.255 F250.
N3400 G1 Y2.988 F1000.
N3405 G3 X6.476 Y3.288 I-0.3 J0.
N3410 G1 X-6.595
N3415 G3 X-6.895 Y2.988 I0. J-0.3
N3420 G1 Y0.424
N3425 G3 X-6.576 Y0.105 I0.319 J0.
N3430 G1 X6.576
N3435 G3 X6.895 Y0.424 I0. J0.319
N3440 G1 Y2.988
N3445 G3 X6.595 Y3.288 I-0.3 J0.
N3450 G1 X-6.696 Y3.289
N3455 G3 X-6.996 Y2.989 I0. J-0.3
N3460 G1 Y0.259
N3465 G3 X-6.741 Y0.004 I0.255 J0. F250.
N3470 G1 X6.741 F1000.
N3475 G3 X6.996 Y0.259 I0. J0.255 F250.
N3480 G1 Y2.99 F1000.
N3485 G3 X6.696 Y3.29 I-0.3 J0.
N3490 G1 X-6.815 Y3.288
N3495 G3 X-7.115 Y2.988 I0. J-0.3
N3500 G1 Y0.204
N3505 G3 X-6.796 Y-0.115 I0.319 J0.
N3510 G1 X6.796
N3515 G3 X7.115 Y0.204 I0. J0.319
N3520 G1 Y2.988
N3525 G3 X6.815 Y3.288 I-0.3 J0.
N3530 G1 X-6.916 Y3.289
N3535 G3 X-7.216 Y2.989 I0. J-0.3
N3540 G1 Y0.039
N3545 G3 X-6.961 Y-0.216 I0.255 J0. F250.
N3550 G1 X6.961 F1000.
N3555 G3 X7.216 Y0.039 I0. J0.255 F250.
N3560 G1 Y2.99 F1000.
N3565 G3 X6.916 Y3.29 I-0.3 J0.
N3570 G1 X-7.035 Y3.289
N3575 G3 X-7.335 Y2.989 I0. J-0.3
N3580 G1 Y-0.016
N3585 G3 X-7.016 Y-0.335 I0.319 J0.
N3590 G1 X7.016
N3595 G3 X7.335 Y-0.016 I0. J0.319
N3600 G1 Y2.988
N3605 G3 X7.035 Y3.288 I-0.3 J0.
N3610 G1 X-7.136 Y3.289
N3615 G3 X-7.436 Y2.989 I0. J-0.3
N3620 G1 Y-0.181
N3625 G3 X-7.181 Y-0.436 I0.255 J0. F250.
N3630 G1 X7.181 F1000.
N3635 G3 X7.436 Y-0.181 I0. J0.255 F250.
N3640 G1 Y2.99 F1000.
N3645 G3 X7.136 Y3.29 I-0.3 J0.
N3650 G1 X-7.255 Y3.289
N3655 G3 X-7.555 Y2.989 I0. J-0.3
N3660 G1 Y-0.236
N3665 G3 X-7.236 Y-0.555 I0.319 J0.
N3670 G1 X7.236
N3675 G3 X7.555 Y-0.236 I0. J0.319
N3680 G1 Y2.988
N3685 G3 X7.255 Y3.288 I-0.3 J0.
N3690 G1 X-7.356 Y3.289
N3695 G3 X-7.656 Y2.989 I0. J-0.3
N3700 G1 Y-0.401
N3705 G3 X-7.401 Y-0.656 I0.255 J0. F250.
N3710 G1 X7.401 F1000.
N3715 G3 X7.656 Y-0.401 I0. J0.255 F250.
N3720 G1 Y2.99 F1000.
N3725 G3 X7.356 Y3.29 I-0.3 J0.
N3730 G1 X-7.475 Y3.289
N3735 G3 X-7.775 Y2.989 I0. J-0.3
N3740 G1 Y-0.456
N3745 G3 X-7.456 Y-0.775 I0.319 J0.
N3750 G1 X7.456
N3755 G3 X7.775 Y-0.456 I0. J0.319
N3760 G1 Y2.99
N3765 G3 X7.475 Y3.29 I-0.3 J0.
N3770 G1 X-7.576 Y3.289
N3775 G3 X-7.876 Y2.989 I0. J-0.3
N3780 G1 Y-0.621
N3785 G3 X-7.621 Y-0.876 I0.255 J0. F250.
N3790 G1 X7.621 F1000.
N3795 G3 X7.876 Y-0.621 I0. J0.255 F250.
N3800 G1 Y2.989 F1000.
N3805 G3 X7.576 Y3.289 I-0.3 J0.
N3810 G1 X-7.695
N3815 G3 X-7.995 Y2.989 I0. J-0.3
N3820 G1 Y-0.676
N3825 G3 X-7.676 Y-0.995 I0.319 J0.
N3830 G1 X7.676
N3835 G3 X7.995 Y-0.676 I0. J0.319
N3840 G1 Y2.99
N3845 G3 X7.695 Y3.29 I-0.3 J0.
N3850 G1 X-7.796 Y3.289
N3855 G3 X-8.096 Y2.989 I0. J-0.3
N3860 G1 Y-0.841
N3865 G3 X-7.841 Y-1.096 I0.255 J0. F250.
N3870 G1 X7.841 F1000.
N3875 G3 X8.096 Y-0.841 I0. J0.255 F250.
N3880 G1 Y2.989 F1000.
N3885 G3 X7.796 Y3.289 I-0.3 J0.
N3890 G1 X-7.915
N3895 G3 X-8.215 Y2.989 I0. J-0.3
N3900 G1 Y-0.896
N3905 G3 X-7.896 Y-1.215 I0.319 J0.
N3910 G1 X7.896
N3915 G3 X8.215 Y-0.896 I0. J0.319
N3920 G1 Y2.99
N3925 G3 X7.915 Y3.29 I-0.3 J0.
N3930 G1 X-8.016 Y3.289
N3935 G3 X-8.316 Y2.989 I0. J-0.3
N3940 G1 Y-1.061
N3945 G3 X-8.061 Y-1.316 I0.255 J0. F250.
N3950 G1 X8.061 F1000.
N3955 G3 X8.316 Y-1.061 I0. J0.255 F250.
N3960 G1 Y2.989 F1000.
N3965 G3 X8.016 Y3.289 I-0.3 J0.
N3970 G1 X-8.135
N3975 G3 X-8.435 Y2.989 I0. J-0.3
N3980 G1 Y-1.116
N3985 G3 X-8.116 Y-1.435 I0.319 J0.
N3990 G1 X8.116
N3995 G3 X8.435 Y-1.116 I0. J0.319
N4000 G1 Y2.99
N4005 G3 X8.135 Y3.29 I-0.3 J0.
N4010 G1 X-8.236
N4015 G3 X-8.536 Y2.99 I0. J-0.3
N4020 G1 Y-1.281
N4025 G3 X-8.281 Y-1.536 I0.255 J0. F250.
N4030 G1 X8.281 F1000.
N4035 G3 X8.536 Y-1.281 I0. J0.255 F250.
N4040 G1 Y2.989 F1000.
N4045 G3 X8.236 Y3.289 I-0.3 J0.
N4050 G1 X-8.355
N4055 G3 X-8.655 Y2.989 I0. J-0.3
N4060 G1 Y-1.336
N4065 G3 X-8.336 Y-1.655 I0.319 J0.
N4070 G1 X8.336
N4075 G3 X8.655 Y-1.336 I0. J0.319
N4080 G1 Y2.989
N4085 G3 X8.355 Y3.289 I-0.3 J0.
N4090 G1 X-8.456 Y3.29
N4095 G3 X-8.756 Y2.99 I0. J-0.3
N4100 G1 Y-1.501
N4105 G3 X-8.501 Y-1.756 I0.255 J0. F250.
N4110 G1 X8.501 F1000.
N4115 G3 X8.756 Y-1.501 I0. J0.255 F250.
N4120 G1 Y2.989 F1000.
N4125 G3 X8.456 Y3.289 I-0.3 J0.
N4130 G1 X-8.575
N4135 G3 X-8.875 Y2.989 I0. J-0.3
N4140 G1 Y-1.556
N4145 G3 X-8.556 Y-1.875 I0.319 J0.
N4150 G1 X8.556
N4155 G3 X8.875 Y-1.556 I0. J0.319
N4160 G1 Y2.989
N4165 G3 X8.575 Y3.289 I-0.3 J0.
N4170 G1 X-8.676 Y3.29
N4175 G3 X-8.976 Y2.99 I0. J-0.3
N4180 G1 Y-1.721
N4185 G3 X-8.721 Y-1.976 I0.255 J0. F250.
N4190 G1 X8.721 F1000.
N4195 G3 X8.976 Y-1.721 I0. J0.255 F250.
N4200 G1 Y2.989 F1000.
N4205 G3 X8.676 Y3.289 I-0.3 J0.
N4210 G1 X-8.795
N4215 G3 X-9.095 Y2.989 I0. J-0.3
N4220 G1 Y-1.776
N4225 G3 X-8.776 Y-2.095 I0.319 J0.
N4230 G1 X8.776
N4235 G3 X9.095 Y-1.776 I0. J0.319
N4240 G1 Y2.989
N4245 G3 X8.795 Y3.289 I-0.3 J0.
N4250 G1 X-8.896 Y3.29
N4255 G3 X-9.196 Y2.99 I0. J-0.3
N4260 G1 Y-1.941
N4265 G3 X-8.941 Y-2.196 I0.255 J0. F250.
N4270 G1 X8.941 F1000.
N4275 G3 X9.196 Y-1.941 I0. J0.255 F250.
N4280 G1 Y2.989 F1000.
N4285 G3 X8.896 Y3.289 I-0.3 J0.
N4290 G1 X-9.015 Y3.29
N4295 G3 X-9.315 Y2.99 I0. J-0.3
N4300 G1 Y-1.996
N4305 G3 X-8.996 Y-2.315 I0.319 J0.
N4310 G1 X8.996
N4315 G3 X9.315 Y-1.996 I0. J0.319
N4320 G1 Y2.989
N4325 G3 X9.015 Y3.289 I-0.3 J0.
N4330 G1 X-9.116 Y3.288
N4335 G3 X-9.416 Y2.988 I0. J-0.3
N4340 G1 Y-2.161
N4345 G3 X-9.161 Y-2.416 I0.255 J0. F250.
N4350 G1 X9.161 F1000.
N4355 G3 X9.416 Y-2.161 I0. J0.255 F250.
N4360 G1 Y2.989 F1000.
N4365 G3 X9.116 Y3.289 I-0.3 J0.
N4370 G1 X-9.235 Y3.29
N4375 G3 X-9.535 Y2.99 I0. J-0.3
N4380 G1 Y-2.216
N4385 G3 X-9.216 Y-2.535 I0.319 J0.
N4390 G1 X9.216
N4395 G3 X9.535 Y-2.216 I0. J0.319
N4400 G1 Y2.989
N4405 G3 X9.235 Y3.289 I-0.3 J0.
N4410 G1 X-9.336 Y3.288
N4415 G3 X-9.636 Y2.988 I0. J-0.3
N4420 G1 Y-2.381
N4425 G3 X-9.381 Y-2.636 I0.255 J0. F250.
N4430 G1 X9.381 F1000.
N4435 G3 X9.636 Y-2.381 I0. J0.255 F250.
N4440 G1 Y2.989 F1000.
N4445 G3 X9.336 Y3.289 I-0.3 J0.
N4450 G1 X-9.455 Y3.29
N4455 G3 X-9.755 Y2.99 I0. J-0.3
N4460 G1 Y-2.436
N4465 G3 X-9.436 Y-2.755 I0.319 J0.
N4470 G1 X9.436
N4475 G3 X9.755 Y-2.436 I0. J0.319
N4480 G1 Y2.989
N4485 G3 X9.455 Y3.289 I-0.3 J0.
N4490 G1 X-9.56 Y3.29
N4495 G3 X-9.86 Y2.99 I0. J-0.3
N4500 G1 Y-2.75
N4505 G3 X-9.75 Y-2.86 I0.11 J0. F250.
N4510 G1 X9.75 F1000.
N4515 G3 X9.86 Y-2.75 I0. J0.11 F250.
N4520 G1 Y2.989 F1000.
N4525 G3 X9.56 Y3.289 I-0.3 J0.
N4530 G1 X-9.63
N4535 G3 X-9.93 Y2.989 I0. J-0.3
N4540 G1 Y-2.75
N4545 G3 X-9.75 Y-2.93 I0.18 J0. F250.
N4550 G1 X9.75 F1000.
N4555 G3 X9.93 Y-2.75 I0. J0.18 F250.
N4560 G1 Y2.989 F1000.
N4565 G3 X9.63 Y3.289 I-0.3 J0.
N4570 G1 X-9.7 Y3.288
N4575 G3 X-10. Y2.988 I0. J-0.3
N4580 G1 Y-2.75
N4585 G3 X-9.75 Y-3. I0.25 J0. F250.
N4590 G1 X9.75 F1000.
N4595 G3 X10. Y-2.75 I0. J0.25 F250.
N4600 G1 Y2.989 F1000.
N4605 G3 X9.996 Y3.035 I-0.3 J0.
N4610 G1 X9.894 Y3.684
N4615 X9.883 Y3.75 Z-17.992
N4620 X9.873 Y3.812 Z-17.97
N4625 X9.864 Y3.868 Z-17.935
N4630 X9.857 Y3.915 Z-17.887
N4635 X9.851 Y3.951 Z-17.83
N4640 X9.848 Y3.973 Z-17.767
N4645 X9.847 Y3.98 Z-17.7
N4650 G0 Z4.
(2D CONTOUR10)
N4660 M8
N4665 G0 X-9.1 Y0.3
N4670 Z4.
N4675 Z2.
N4680 G1 Z1. F900.
N4685 Z-17.7 F400.
N4690 G18 G3 X-9.4 Z-18. I-0.3 K0.
N4695 G1 X-9.7 F900.
N4700 G17 G3 X-10. Y0. I0. J-0.3
N4705 G1 Y-2.75 F1000.
N4710 G3 X-9.75 Y-3. I0.25 J0. F250.
N4715 G1 X9.75 F1000.
N4720 G3 X10. Y-2.75 I0. J0.25 F250.
N4725 G1 Y0. F1000.
N4730 G3 X9.7 Y0.3 I-0.3 J0.
N4735 G1 X9.4
N4740 G18 G3 X9.1 Z-17.7 I0. K0.3
N4745 G0 Z2.
N4750 Y-22.3
N4755 G1 Z1. F900.
N4760 Z-17.7 F400.
N4765 G2 X9.4 Z-18. I0.3 K0.
N4770 G1 X9.7 F900.
N4775 G17 G3 X10. Y-22. I0. J0.3
N4780 G1 Y-19.25 F1000.
N4785 G3 X9.75 Y-19. I-0.25 J0. F250.
N4790 G1 X-9.75 F1000.
N4795 G3 X-10. Y-19.25 I0. J-0.25 F250.
N4800 G1 Y-22. F1000.
N4805 G3 X-9.7 Y-22.3 I0.3 J0.
N4810 G1 X-9.4
N4815 G18 G2 X-9.1 Z-17.7 I0. K0.3
N4820 G0 Z4.
N4825 G17
N4830 M9
N4835 G53 G0 Z0.
N4840 M30
%
