%
(1)
(T1  D=6. CR=0. - ZMIN=-18. - FLAT END MILL)
N10 G90 G94 G17 G91.1
N15 G21
N20 G53 G0 Z0.
(2D ADAPTIVE2)
N25 M9
N30 T1 M6
N35 S3300 M3
N40 G54
N45 M8
N55 G0 X9.331 Y-28.821
N60 G43 Z4. H1
N65 G0 Z-8.795
N70 G1 Z-9.395 F900.
N75 X9.333 Y-28.814 Z-9.489
N80 X9.339 Y-28.792 Z-9.58
N85 X9.348 Y-28.758 Z-9.667
N90 X9.36 Y-28.71 Z-9.748
N95 X9.375 Y-28.651 Z-9.819
N100 X9.393 Y-28.581 Z-9.88
N105 X9.413 Y-28.503 Z-9.93
N110 X9.434 Y-28.419 Z-9.966
N115 X9.457 Y-28.331 Z-9.988
N120 X9.48 Y-28.24 Z-9.995
N125 G3 X9.95 Y-24.973 I-14.839 J3.801
N130 G1 Y-24.966 F450.
N135 G3 X9.172 Y-24.868 I-0.815 J-3.328 F1000.
N140 X6.886 Y-24.816 I-1.85 J-30.83
N145 X2.632 Y-24.807 I-2.881 J-342.582
N150 G1 X-7.93 Y-24.806
N155 G3 X-9.95 Y-26.826 I0. J-2.02
N160 G1 X-9.867 Y-27.046
N165 X-9.814 Y-27.186 F30000.
N170 X-9.54 Y-27.374
N175 X6.12 Y-28.113
N180 G3 X8.1 Y-27.198 I0.046 J2.5
N185 G1 X9.8 Y-25.148
N190 X9.95 Y-24.966 F900.
N195 Y-24.945 F450.
N200 G3 X9.264 Y-24.785 I-0.859 J-2.145 F1000.
N205 X7.58 Y-24.675 I-1.665 J-12.527
N210 X3.879 Y-24.648 I-2.577 J-100.091
N215 G1 X3.028 Y-24.643
N220 X1.043
N225 X-7.075
N230 G3 X-8.302 Y-24.735 I-0.13 J-6.483
N235 X-9.566 Y-25.6 I0.523 J-2.121
N240 X-9.95 Y-26.826 I1.77 J-1.227
N245 G1 X-9.867 Y-27.046
N250 X-9.814 Y-27.186 F30000.
N255 X-9.54 Y-27.374
N260 X6.12 Y-27.958
N265 G3 X7.961 Y-27.186 I0.034 J2.5
N270 G1 X9.794 Y-25.121
N275 X9.95 Y-24.945 F900.
N280 Y-24.908 F450.
N285 G3 X9.248 Y-24.696 I-0.99 J-2.014 F1000.
N290 X7.759 Y-24.543 I-1.668 J-8.933
N295 X4.852 Y-24.488 I-2.393 J-49.434
N300 X0.882 Y-24.48 I-2.746 J-354.167
N305 G1 X-6.209 Y-24.479
N310 G3 X-7.885 Y-24.55 I-0.289 J-13.178
N315 X-8.349 Y-24.654 I2.295 J-11.245
N320 X-9.95 Y-26.826 I0.673 J-2.172
N325 G1 X-9.867 Y-27.046
N330 X-9.814 Y-27.186 F30000.
N335 X-9.54 Y-27.374
N340 X5.76 Y-27.797
N345 G3 X7.608 Y-27.186 I0.201 J2.492
N350 G1 X9.824 Y-25.1
N355 X9.901 Y-25.028 F900.
N360 X9.95 Y-24.908
N365 Y-24.865 F450.
N370 G3 X9.246 Y-24.609 I-1.096 J-1.924 F1000.
N375 X7.735 Y-24.409 I-1.803 J-7.807
N380 X5.205 Y-24.331 I-2.323 J-34.355
N385 X0.279 Y-24.316 I-3.536 J-345.962
N390 G1 X-5.394
N395 G3 X-7.432 Y-24.368 I-0.403 J-24.144
N400 X-8.383 Y-24.567 I0.527 J-4.889
N405 X-9.593 Y-25.564 I0.877 J-2.297
N410 X-9.95 Y-26.826 I2.06 J-1.265
N415 G1 X-9.867 Y-27.046
N420 X-9.814 Y-27.186 F30000.
N425 X-9.54 Y-27.374
N430 X5.76 Y-27.651
N435 G3 X7.633 Y-27.006 I0.189 J2.493
N440 G1 X9.822 Y-25.055
N445 X9.9 Y-24.986 F900.
N450 X9.95 Y-24.865
N455 Y-24.821 F450.
N460 G3 X9.218 Y-24.516 I-1.195 J-1.838 F1000.
N465 X7.725 Y-24.278 I-1.895 J-7.078
N470 X5.318 Y-24.176 I-2.375 J-27.6
N475 X0.665 Y-24.156 I-3.243 J-209.509
N480 X-5.998 Y-24.157 I-3.267 J-655.956
N485 X-7.706 Y-24.282 I0.014 J-11.883
N490 X-8.653 Y-24.605 I0.677 J-3.536
N495 X-9.936 Y-26.551 I1.255 J-2.224
N500 G1 X-9.95 Y-26.82
N505 X-9.865 Y-27.04
N510 X-9.809 Y-27.186 F30000.
N515 X-9.54 Y-27.368
N520 X5.76 Y-27.509
N525 G3 X7.56 Y-26.918 I0.178 J2.494
N530 G1 X9.789 Y-24.985
N535 X9.947 Y-24.848 F900.
N540 X9.95 Y-24.821
N545 Y-24.772 F450.
N550 G3 X9.161 Y-24.413 I-1.32 J-1.853 F1000.
N555 X7.759 Y-24.154 I-1.928 J-6.503
N560 X5.121 Y-24.019 I-2.63 J-25.54
N565 X0.483 Y-23.994 I-3.261 J-173.909
N570 X-5.799 Y-23.996 I-2.965 J-493.112
N575 X-7.561 Y-24.135 I0.121 J-12.788
N580 X-8.697 Y-24.539 I0.69 J-3.737
N585 X-9.734 Y-25.737 I1.426 J-2.283
N590 X-9.95 Y-26.779 I2.427 J-1.046
N595 G1 X-9.855 Y-26.995
N600 X-9.771 Y-27.186 F30000.
N605 X-9.36 Y-27.358
N610 X5.94
N615 G3 X7.56 Y-26.804 I0.05 J2.499
N620 G1 X9.81 Y-24.948
N625 X9.931 Y-24.848 F900.
N630 X9.95 Y-24.772
N635 Y-24.72 F450.
N640 G3 X9.147 Y-24.32 I-1.403 J-1.81 F1000.
N645 X7.8 Y-24.034 I-1.972 J-5.978
N650 X5.166 Y-23.866 I-2.734 J-22.124
N655 X1.023 Y-23.831 I-3.061 J-118.757
N660 X-5.682 Y-23.836 I-3.045 J-447.646
N665 X-7.454 Y-23.992 I0.292 J-13.458
N670 X-8.596 Y-24.376 I0.905 J-4.58
N675 X-9.817 Y-25.828 I1.251 J-2.291
N680 G1 X-9.89 Y-26.096
N685 X-9.935 Y-26.369
N690 X-9.95 Y-26.646
N695 X-9.867 Y-26.867
N700 X-9.814 Y-27.006 F30000.
N705 X-9.54 Y-27.195
N710 X5.76 Y-27.205
N715 G3 X7.38 Y-26.746 I0.167 J2.494
N720 G1 X9.817 Y-24.904
N725 X9.9 Y-24.841 F900.
N730 X9.95 Y-24.72
N735 Y-24.668 F450.
N740 G3 X9.192 Y-24.247 I-1.419 J-1.661 F1000.
N745 X7.807 Y-23.913 I-2.075 J-5.566
N750 X5.564 Y-23.728 I-2.569 J-17.443
N755 X1.841 Y-23.67 I-3.045 J-76.936
N760 X-5.383 Y-23.673 I-3.432 J-481.225
N765 X-7.213 Y-23.823 I0.364 J-15.658
N770 X-8.362 Y-24.159 I0.953 J-5.396
N775 X-9.819 Y-25.783 I1.115 J-2.467
N780 G1 X-9.891 Y-26.054
N785 X-9.935 Y-26.331
N790 X-9.95 Y-26.611
N795 X-9.858 Y-26.828
N800 X-9.783 Y-27.006 F30000.
N805 X-9.36 Y-27.19
N810 X5.58 Y-27.058
N815 G3 X7.119 Y-26.646 I0.157 J2.495
N820 G1 X9.813 Y-24.847
N825 X9.9 Y-24.789 F900.
N830 X9.95 Y-24.668
N835 Y-24.614 F450.
N840 G3 X9.194 Y-24.16 I-1.468 J-1.586 F1000.
N845 X7.806 Y-23.791 I-2.145 J-5.286
N850 X5.619 Y-23.582 I-2.622 J-15.847
N855 X2.125 Y-23.51 I-3.045 J-63.232
N860 X-5.039 Y-23.509 I-3.619 J-453.607
N865 X-7.09 Y-23.673 I0.305 J-16.734
N870 X-8.42 Y-24.08 I0.917 J-5.378
N875 X-9.729 Y-25.463 I1.251 J-2.494
N880 X-9.95 Y-26.544 I2.544 J-1.083
N885 G1 X-9.884 Y-26.77
N890 X-9.868 Y-26.826 F30000.
N895 X-9.54 Y-27.092
N900 X5.76 Y-26.927
N905 G3 X7.02 Y-26.57 I-0.029 J2.5
N910 G1 X9.789 Y-24.767
N915 X9.94 Y-24.668 F900.
N920 X9.95 Y-24.614
N925 Y-24.558 F450.
N930 G3 X9.197 Y-24.072 I-1.515 J-1.523 F1000.
N935 X7.862 Y-23.681 I-2.172 J-4.945
N940 X5.619 Y-23.435 I-2.746 J-14.702
N945 X2.192 Y-23.35 I-3.119 J-56.223
N950 X-4.829 Y-23.348 I-3.594 J-373.573
N955 X-6.933 Y-23.516 I0.374 J-17.907
N960 X-8.366 Y-23.945 I0.943 J-5.76
N965 X-9.322 Y-24.697 I1.377 J-2.736
N970 X-9.95 Y-26.457 I2.167 J-1.766
N975 X-9.896 Y-26.685 I0.6 J0.021
N980 X-9.29 Y-27.033 I0.546 J0.249 F30000.
N985 G1 X9.411 Y-25.134
N990 G3 X9.896 Y-24.785 I-0.061 J0.597
N995 X9.95 Y-24.558 I-0.546 J0.249 F900.
N1000 G1 Y-24.499 F450.
N1005 G3 X9.199 Y-23.983 I-1.562 J-1.47 F1000.
N1010 X7.873 Y-23.564 I-2.23 J-4.752
N1015 X5.668 Y-23.293 I-2.815 J-13.764
N1020 X2.291 Y-23.19 I-3.213 J-50.248
N1025 X-4.614 Y-23.187 I-3.625 J-317.339
N1030 X-6.771 Y-23.357 I0.438 J-19.278
N1035 X-8.267 Y-23.787 I1.016 J-6.348
N1040 X-9.507 Y-24.85 I1.315 J-2.788
N1045 X-9.951 Y-26.373 I2.437 J-1.536
N1050 G1 X-9.943 Y-26.451
N1055 X-9.924 Y-26.527
N1060 X-9.896 Y-26.6
N1065 G3 X-9.291 Y-26.949 I0.546 J0.249 F30000.
N1070 G1 X9.41 Y-25.075
N1075 G3 X9.896 Y-24.727 I-0.06 J0.597
N1080 X9.95 Y-24.499 I-0.546 J0.249 F900.
N1085 G1 Y-24.441 F450.
N1090 G3 X9.229 Y-23.908 I-1.569 J-1.369 F1000.
N1095 X7.871 Y-23.446 I-2.313 J-4.568
N1100 X5.69 Y-23.15 I-2.871 J-13.002
N1105 X2.425 Y-23.032 I-3.236 J-44.374
N1110 X-4.428 Y-23.026 I-3.688 J-262.933
N1115 X-6.685 Y-23.209 I0.472 J-19.799
N1120 X-8.21 Y-23.648 I1.1 J-6.69
N1125 X-9.355 Y-24.537 I1.374 J-2.952
N1130 X-9.951 Y-26.287 I2.307 J-1.761
N1135 G1 X-9.943 Y-26.365
N1140 X-9.924 Y-26.441
N1145 X-9.896 Y-26.514
N1150 G3 X-9.291 Y-26.863 I0.546 J0.249 F30000.
N1155 G1 X9.409 Y-25.017
N1160 G3 X9.896 Y-24.669 I-0.059 J0.597
N1165 X9.95 Y-24.441 I-0.546 J0.249 F900.
N1170 G1 Y-24.378 F450.
N1175 G3 X9.231 Y-23.819 I-1.616 J-1.336 F1000.
N1180 X7.852 Y-23.324 I-2.384 J-4.472
N1185 X5.82 Y-23.018 I-2.846 J-12.025
N1190 X2.701 Y-22.878 I-3.258 J-37.807
N1195 X-4.285 Y-22.866 I-3.89 J-219.438
N1200 X-6.557 Y-23.053 I0.553 J-20.534
N1205 X-8.182 Y-23.52 I1.123 J-6.983
N1210 X-9.217 Y-24.266 I1.488 J-3.154
N1215 X-9.951 Y-26.189 I2.181 J-1.933
N1220 G1 X-9.943 Y-26.267
N1225 X-9.924 Y-26.344
N1230 X-9.896 Y-26.417
N1235 G3 X-9.293 Y-26.765 I0.546 J0.249 F30000.
N1240 G1 X9.408 Y-24.954
N1245 G3 X9.896 Y-24.606 I-0.058 J0.597
N1250 X9.95 Y-24.378 I-0.546 J0.249 F900.
N1255 G1 Y-24.316 F450.
N1260 G3 X9.26 Y-23.744 I-1.619 J-1.251 F1000.
N1265 X7.923 Y-23.224 I-2.405 J-4.203
N1270 X5.89 Y-22.884 I-2.92 J-11.229
N1275 X2.841 Y-22.724 I-3.302 J-33.76
N1280 X-4.162 Y-22.707 I-3.954 J-182.018
N1285 X-6.512 Y-22.91 I0.586 J-20.409
N1290 X-8.123 Y-23.376 I1.24 J-7.316
N1295 X-9.236 Y-24.178 I1.485 J-3.233
N1300 X-9.951 Y-26.09 I2.234 J-1.924
N1305 G1 X-9.943 Y-26.168
N1310 X-9.924 Y-26.244
N1315 X-9.896 Y-26.318
N1320 G3 X-9.294 Y-26.666 I0.546 J0.249 F30000.
N1325 G1 X9.407 Y-24.892
N1330 G3 X9.896 Y-24.544 I-0.057 J0.597
N1335 X9.95 Y-24.316 I-0.546 J0.249 F900.
N1340 G1 Y-24.254 F450.
N1345 G3 X9.264 Y-23.655 I-1.637 J-1.183 F1000.
N1350 X7.98 Y-23.123 I-2.413 J-4.005
N1355 X5.999 Y-22.756 I-2.959 J-10.463
N1360 X2.9 Y-22.569 I-3.416 J-30.841
N1365 X-2.627 Y-22.527 I-3.948 J-155.265
N1370 X-5.767 Y-22.666 I-0.175 J-31.593
N1375 X-7.654 Y-23.068 I1.108 J-9.833
N1380 X-8.788 Y-23.651 I1.548 J-4.403
N1385 X-9.951 Y-25.976 I1.756 J-2.332
N1390 G1 X-9.943 Y-26.054
N1395 X-9.924 Y-26.131
N1400 X-9.896 Y-26.204
N1405 G3 X-9.295 Y-26.553 I0.546 J0.249 F30000.
N1410 G1 X9.405 Y-24.83
N1415 G3 X9.896 Y-24.481 I-0.055 J0.597
N1420 X9.95 Y-24.254 I-0.546 J0.249 F900.
N1425 G1 Y-24.188 F1000.
N1430 G3 X9.292 Y-23.58 I-1.647 J-1.123
N1435 X8.006 Y-23.014 I-2.463 J-3.857
N1440 X6.006 Y-22.619 I-3.03 J-10.066
N1445 X3.081 Y-22.418 I-3.407 J-28.243
N1450 X-3.971 Y-22.39 I-4.063 J-133.606
N1455 X-6.394 Y-22.618 I0.708 J-20.501
N1460 X-8.073 Y-23.115 I1.37 J-7.715
N1465 X-9.007 Y-23.714 I1.783 J-3.802
N1470 X-9.901 Y-25.328 I2.019 J-2.174
N1475 G1 X-9.938 Y-25.594
N1480 X-9.95 Y-25.861
N1485 G3 X-9.896 Y-26.089 I0.6 J0.021
N1490 X-9.297 Y-26.438 I0.546 J0.249 F30000.
N1495 G1 X9.404 Y-24.764
N1500 G3 X9.896 Y-24.416 I-0.053 J0.598
N1505 X9.95 Y-24.188 I-0.546 J0.249 F900.
N1510 G1 Y-24.123 F1000.
N1515 G3 X9.355 Y-23.53 I-1.569 J-0.979
N1520 X8.131 Y-22.939 I-2.445 J-3.502
N1525 X6.199 Y-22.507 I-3.045 J-9.082
N1530 X3.415 Y-22.277 I-3.421 J-24.383
N1535 X-2.348 Y-22.205 I-4.259 J-110.805
N1540 X-5.647 Y-22.367 I-0.162 J-30.504
N1545 X-7.605 Y-22.802 I1.238 J-10.191
N1550 X-8.823 Y-23.445 I1.656 J-4.612
N1555 X-9.951 Y-25.744 I1.8 J-2.309
N1560 G1 X-9.943 Y-25.823
N1565 X-9.924 Y-25.899
N1570 X-9.896 Y-25.972
N1575 G3 X-9.299 Y-26.321 I0.546 J0.249 F30000.
N1580 G1 X9.402 Y-24.7
N1585 G3 X9.896 Y-24.351 I-0.052 J0.598
N1590 X9.95 Y-24.123 I-0.546 J0.249 F900.
N1595 G1 Y-24.056 F1000.
N1600 G3 X9.382 Y-23.457 I-1.563 J-0.914
N1605 X8.186 Y-22.845 I-2.467 J-3.343
N1610 X6.3 Y-22.387 I-3.078 J-8.573
N1615 X3.532 Y-22.13 I-3.478 J-22.436
N1620 X-1.07 Y-22.041 I-3.899 J-82.494
N1625 X-4.879 Y-22.141 I-0.675 J-46.824
N1630 X-6.993 Y-22.484 I1.183 J-13.976
N1635 X-8.552 Y-23.135 I1.564 J-5.942
N1640 X-9.662 Y-24.358 I1.713 J-2.67
N1645 X-9.95 Y-25.626 I2.714 J-1.284
N1650 X-9.896 Y-25.854 I0.6 J0.021
N1655 X-9.3 Y-26.203 I0.546 J0.249 F30000.
N1660 G1 X9.401 Y-24.633
N1665 G3 X9.896 Y-24.284 I-0.05 J0.598
N1670 X9.95 Y-24.056 I-0.546 J0.249 F900.
N1675 G1 Y-23.986 F1000.
N1680 G3 X9.384 Y-23.366 I-1.585 J-0.878
N1685 X8.169 Y-22.725 I-2.523 J-3.308
N1690 X6.241 Y-22.243 I-3.155 J-8.535
N1695 X3.547 Y-21.979 I-3.489 J-21.712
N1700 X-1.282 Y-21.88 I-4.041 J-79.558
N1705 X-4.96 Y-22.002 I-0.499 J-40.685
N1710 X-7.166 Y-22.403 I1.215 J-12.964
N1715 X-8.625 Y-23.062 I1.72 J-5.743
N1720 X-9.849 Y-24.736 I1.692 J-2.524
N1725 G1 X-9.904 Y-24.99
N1730 X-9.938 Y-25.247
N1735 X-9.95 Y-25.507
N1740 G3 X-9.896 Y-25.735 I0.6 J0.021
N1745 X-9.302 Y-26.084 I0.546 J0.249 F30000.
N1750 G1 X9.399 Y-24.563
N1755 G3 X9.896 Y-24.214 I-0.049 J0.598
N1760 X9.95 Y-23.986 I-0.546 J0.249 F900.
N1765 G1 Y-23.915 F1000.
N1770 G3 X9.409 Y-23.291 I-1.582 J-0.826
N1775 X8.222 Y-22.631 I-2.543 J-3.171
N1780 X6.286 Y-22.116 I-3.221 J-8.222
N1785 X3.712 Y-21.837 I-3.484 J-20.143
N1790 X-1.07 Y-21.72 I-4.133 J-71.127
N1795 X-4.815 Y-21.841 I-0.545 J-41.279
N1800 X-7.119 Y-22.258 I1.223 J-13.341
N1805 X-8.592 Y-22.92 I1.792 J-5.959
N1810 X-9.773 Y-24.377 I1.707 J-2.59
N1815 X-9.95 Y-25.386 I2.891 J-1.029
N1820 X-9.896 Y-25.614 I0.6 J0.021
N1825 X-9.303 Y-25.963 I0.546 J0.249 F30000.
N1830 G1 X9.397 Y-24.492
N1835 G3 X9.896 Y-24.143 I-0.047 J0.598
N1840 X9.95 Y-23.915 I-0.546 J0.249 F900.
N1845 G1 Y-23.843 F1000.
N1850 G3 X9.435 Y-23.218 I-1.569 J-0.767
N1855 X8.276 Y-22.538 I-2.557 J-3.034
N1860 X6.367 Y-21.997 I-3.263 J-7.869
N1865 X3.689 Y-21.686 I-3.613 J-19.449
N1870 X-0.513 Y-21.562 I-3.919 J-61.319
N1875 X-4.476 Y-21.663 I-0.786 J-47.065
N1880 X-6.847 Y-22.048 I1.22 J-14.983
N1885 X-8.517 Y-22.747 I1.747 J-6.513
N1890 X-9.557 Y-23.798 I1.81 J-2.832
N1895 X-9.951 Y-25.264 I2.592 J-1.482
N1900 G1 X-9.943 Y-25.342
N1905 X-9.924 Y-25.419
N1910 X-9.896 Y-25.492
N1915 G3 X-9.305 Y-25.842 I0.546 J0.249 F30000.
N1920 G1 X9.396 Y-24.421
N1925 G3 X9.896 Y-24.071 I-0.045 J0.598
N1930 X9.95 Y-23.843 I-0.546 J0.249 F900.
N1935 G1 Y-23.775 F1000.
N1940 G3 X9.451 Y-23.137 I-1.55 J-0.698
N1945 X8.36 Y-22.461 I-2.531 J-2.867
N1950 X6.445 Y-21.879 I-3.327 J-7.511
N1955 X3.864 Y-21.549 I-3.618 J-18.023
N1960 X-0.292 Y-21.404 I-4.025 J-55.693
N1965 X-4.306 Y-21.5 I-0.873 J-47.516
N1970 X-6.754 Y-21.889 I1.224 J-15.583
N1975 X-8.393 Y-22.547 I1.88 J-7.05
N1980 X-9.426 Y-23.471 I1.844 J-3.104
N1985 X-9.951 Y-25.142 I2.447 J-1.687
N1990 G1 X-9.943 Y-25.22
N1995 X-9.924 Y-25.296
N2000 X-9.896 Y-25.369
N2005 G3 X-9.307 Y-25.719 I0.546 J0.249 F30000.
N2010 G1 X9.394 Y-24.352
N2015 G3 X9.896 Y-24.003 I-0.044 J0.598
N2020 X9.95 Y-23.775 I-0.546 J0.249 F900.
N2025 G1 Y-23.701 F1000.
N2030 G3 X9.465 Y-23.053 I-1.553 J-0.657
N2035 X8.357 Y-22.346 I-2.577 J-2.819
N2040 X6.457 Y-21.749 I-3.364 J-7.384
N2045 X3.863 Y-21.4 I-3.685 J-17.577
N2050 X-0.163 Y-21.246 I-4.004 J-51.877
N2055 X-4.28 Y-21.348 I-0.913 J-46.187
N2060 X-6.671 Y-21.733 I1.339 J-15.936
N2065 X-8.342 Y-22.393 I1.917 J-7.302
N2070 X-9.314 Y-23.199 I1.93 J-3.317
N2075 X-9.951 Y-25.018 I2.319 J-1.832
N2080 G1 X-9.943 Y-25.096
N2085 X-9.924 Y-25.172
N2090 X-9.896 Y-25.246
N2095 G3 X-9.308 Y-25.596 I0.546 J0.249 F30000.
N2100 G1 X9.393 Y-24.279
N2105 G3 X9.896 Y-23.929 I-0.042 J0.599
N2110 X9.95 Y-23.701 I-0.546 J0.249 F900.
N2115 G1 Y-23.626 F1000.
N2120 G3 X9.489 Y-22.979 I-1.538 J-0.607
N2125 X8.382 Y-22.244 I-2.607 J-2.727
N2130 X6.625 Y-21.655 I-3.314 J-6.962
N2135 X4.026 Y-21.266 I-3.775 J-16.374
N2140 X0.14 Y-21.091 I-4.042 J-46.583
N2145 X-4.109 Y-21.185 I-1.093 J-46.954
N2150 X-6.61 Y-21.582 I1.317 J-16.378
N2155 X-8.337 Y-22.263 I1.956 J-7.483
N2160 X-9.159 Y-22.896 I2.223 J-3.737
N2165 X-9.938 Y-24.619 I2.166 J-2.017
N2170 G1 X-9.95 Y-24.894
N2175 G3 X-9.896 Y-25.122 I0.6 J0.021
N2180 X-9.31 Y-25.471 I0.546 J0.249 F30000.
N2185 G1 X9.391 Y-24.204
N2190 G3 X9.896 Y-23.854 I-0.041 J0.599
N2195 X9.95 Y-23.626 I-0.546 J0.249 F900.
N2200 X9.875 Y-23.379 I-0.386 J0.017 F1000.
N2205 X9.269 Y-22.684 I-1.843 J-0.995
N2210 X7.984 Y-21.952 I-2.868 J-3.54
N2215 X6.001 Y-21.39 I-3.523 J-8.646
N2220 X3.156 Y-21.05 I-3.911 J-20.651
N2225 X-1.598 Y-20.93 I-3.812 J-56.997
N2230 X-5.179 Y-21.158 I0.037 J-28.783
N2235 X-7.414 Y-21.703 I1.683 J-11.771
N2240 X-8.845 Y-22.483 I2.044 J-5.448
N2245 X-9.751 Y-23.707 I1.95 J-2.391
N2250 X-9.95 Y-24.768 I2.777 J-1.071
N2255 X-9.896 Y-24.996 I0.6 J0.021
N2260 X-9.311 Y-25.346 I0.546 J0.249 F30000.
N2265 G1 X9.389 Y-24.129
N2270 G3 X9.896 Y-23.779 I-0.039 J0.599
N2275 X9.95 Y-23.551 I-0.546 J0.249 F900.
N2280 X9.872 Y-23.288 I-0.432 J0.015 F1000.
N2285 X9.274 Y-22.585 I-1.858 J-0.975
N2290 X7.998 Y-21.839 I-2.9 J-3.494
N2295 X5.979 Y-21.25 I-3.597 J-8.578
N2300 X3.156 Y-20.899 I-3.943 J-20.201
N2305 X-1.945 Y-20.78 I-3.821 J-54.378
N2310 X-5.463 Y-21.06 I0.246 J-25.341
N2315 X-7.533 Y-21.618 I1.879 J-11.082
N2320 X-8.941 Y-22.437 I2.035 J-5.12
N2325 X-9.512 Y-23.109 I2.265 J-2.505
N2330 X-9.95 Y-24.642 I2.48 J-1.537
N2335 X-9.896 Y-24.87 I0.6 J0.021
N2340 X-9.313 Y-25.22 I0.546 J0.249 F30000.
N2345 G1 X9.388 Y-24.052
N2350 G3 X9.896 Y-23.702 I-0.037 J0.599
N2355 X9.95 Y-23.475 I-0.546 J0.249 F900.
N2360 X9.869 Y-23.193 I-0.477 J0.015 F1000.
N2365 X9.279 Y-22.485 I-1.876 J-0.963
N2370 X8.011 Y-21.725 I-2.934 J-3.457
N2375 X6.015 Y-21.121 I-3.635 J-8.423
N2380 X3.192 Y-20.752 I-4.006 J-19.625
N2385 X-1.716 Y-20.62 I-3.818 J-50.924
N2390 X-5.304 Y-20.891 I0.174 J-26.209
N2395 X-7.506 Y-21.475 I1.85 J-11.412
N2400 X-8.906 Y-22.28 I2.125 J-5.316
N2405 X-9.756 Y-23.468 I2.004 J-2.332
N2410 X-9.95 Y-24.516 I2.77 J-1.055
N2415 X-9.896 Y-24.743 I0.6 J0.021
N2420 X-9.314 Y-25.094 I0.546 J0.249 F30000.
N2425 G1 X9.386 Y-23.973
N2430 G3 X9.896 Y-23.623 I-0.036 J0.599
N2435 X9.95 Y-23.395 I-0.546 J0.249 F900.
N2440 X9.865 Y-23.093 I-0.523 J0.016 F1000.
N2445 X9.269 Y-22.37 I-1.916 J-0.973
N2450 X7.992 Y-21.596 I-2.985 J-3.485
N2455 X5.982 Y-20.979 I-3.695 J-8.449
N2460 X3.154 Y-20.599 I-4.056 J-19.468
N2465 X-3.525 Y-20.54 I-3.77 J-48.371
N2470 X-6.148 Y-20.918 I1.403 J-19.001
N2475 X-8.088 Y-21.613 I2.066 J-8.827
N2480 X-9.014 Y-22.251 I2.341 J-4.388
N2485 X-9.951 Y-24.388 I1.985 J-2.143
N2490 G1 X-9.942 Y-24.466
N2495 X-9.924 Y-24.543
N2500 X-9.896 Y-24.616
N2505 G3 X-9.316 Y-24.966 I0.546 J0.249 F30000.
N2510 G1 X9.385 Y-23.893
N2515 G3 X9.896 Y-23.543 I-0.034 J0.599
N2520 X9.95 Y-23.315 I-0.546 J0.249 F900.
N2525 X9.858 Y-22.987 I-0.594 J0.011 F1000.
N2530 X9.254 Y-22.251 I-1.953 J-0.987
N2535 X7.981 Y-21.471 I-3.024 J-3.506
N2540 X5.92 Y-20.83 I-3.778 J-8.52
N2545 X3.094 Y-20.444 I-4.09 J-19.415
N2550 X-3.429 Y-20.383 I-3.698 J-46.2
N2555 X-6.204 Y-20.793 I1.338 J-18.663
N2560 X-8.12 Y-21.499 I2.153 J-8.788
N2565 X-9.019 Y-22.128 I2.397 J-4.388
N2570 X-9.951 Y-24.26 I1.99 J-2.139
N2575 G1 X-9.942 Y-24.338
N2580 X-9.924 Y-24.414
N2585 X-9.896 Y-24.488
N2590 G3 X-9.317 Y-24.838 I0.546 J0.249 F30000.
N2595 G1 X9.383 Y-23.811
N2600 G3 X9.896 Y-23.461 I-0.033 J0.599
N2605 X9.95 Y-23.233 I-0.546 J0.249 F900.
N2610 X9.845 Y-22.865 I-0.685 J0.003 F1000.
N2615 X9.216 Y-22.11 I-2.021 J-1.045
N2620 X7.872 Y-21.302 I-3.134 J-3.688
N2625 X5.813 Y-20.671 I-3.824 J-8.815
N2630 X2.879 Y-20.278 I-4.191 J-20.111
N2635 X-3.489 Y-20.237 I-3.462 J-43.727
N2640 X-6.22 Y-20.658 I1.442 J-18.433
N2645 X-8.172 Y-21.396 I2.177 J-8.703
N2650 X-9.027 Y-22.006 I2.479 J-4.382
N2655 X-9.95 Y-24.131 I1.997 J-2.131
N2660 X-9.896 Y-24.359 I0.6 J0.021
N2665 X-9.319 Y-24.709 I0.546 J0.249 F30000.
N2670 G1 X9.382 Y-23.73
N2675 G3 X9.896 Y-23.379 I-0.031 J0.599
N2680 X9.95 Y-23.151 I-0.546 J0.249 F900.
N2685 X9.841 Y-22.758 I-0.729 J0.009 F1000.
N2690 X9.204 Y-21.99 I-2.064 J-1.063
N2695 X7.851 Y-21.17 I-3.187 J-3.73
N2700 X5.732 Y-20.518 I-3.912 J-8.942
N2705 X2.872 Y-20.127 I-4.176 J-19.918
N2710 X-3.408 Y-20.082 I-3.445 J-42.07
N2715 X-6.22 Y-20.519 I1.416 J-18.359
N2720 X-8.144 Y-21.25 I2.254 J-8.831
N2725 X-9.036 Y-21.885 I2.472 J-4.418
N2730 X-9.951 Y-24.002 I2.008 J-2.124
N2735 G1 X-9.942 Y-24.08
N2740 X-9.924 Y-24.156
N2745 X-9.896 Y-24.23
N2750 G3 X-9.32 Y-24.58 I0.546 J0.249 F30000.
N2755 G1 X9.38 Y-23.645
N2760 G3 X9.896 Y-23.295 I-0.03 J0.599
N2765 X9.95 Y-23.067 I-0.546 J0.249 F900.
N2770 X9.825 Y-22.628 I-0.805 J0.008 F1000.
N2775 X9.15 Y-21.833 I-2.156 J-1.148
N2780 X7.833 Y-21.038 I-3.222 J-3.846
N2785 X5.655 Y-20.364 I-4.017 J-9.127
N2790 X2.779 Y-19.97 I-4.213 J-20.05
N2795 X-3.431 Y-19.934 I-3.339 J-40.38
N2800 X-6.221 Y-20.381 I1.494 J-18.272
N2805 X-8.183 Y-21.14 I2.275 J-8.792
N2810 X-9.037 Y-21.756 I2.557 J-4.443
N2815 X-9.951 Y-23.872 I2.01 J-2.122
N2820 G1 X-9.942 Y-23.95
N2825 X-9.924 Y-24.026
N2830 X-9.896 Y-24.1
N2835 G3 X-9.322 Y-24.45 I0.546 J0.249 F30000.
N2840 G1 X9.379 Y-23.556
N2845 G3 X9.896 Y-23.206 I-0.029 J0.599
N2850 X9.95 Y-22.978 I-0.546 J0.249 F900.
N2855 X9.803 Y-22.485 I-0.894 J0.002 F1000.
N2860 X9.086 Y-21.668 I-2.259 J-1.259
N2865 X7.762 Y-20.882 I-3.294 J-4.045
N2870 X5.557 Y-20.206 I-4.095 J-9.413
N2875 X2.45 Y-19.795 I-4.359 J-21.012
N2880 X-3.49 Y-19.79 I-3.002 J-38.54
N2885 X-6.302 Y-20.263 I1.557 J-17.845
N2890 X-8.158 Y-20.994 I2.402 J-8.82
N2895 X-9.046 Y-21.635 I2.493 J-4.393
N2900 X-9.95 Y-23.741 I2.016 J-2.113
N2905 X-9.896 Y-23.969 I0.6 J0.021
N2910 X-9.323 Y-24.32 I0.546 J0.249 F30000.
N2915 G1 X9.378 Y-23.468
N2920 G3 X9.896 Y-23.118 I-0.027 J0.599
N2925 X9.95 Y-22.89 I-0.546 J0.249 F900.
N2930 X9.773 Y-22.328 I-0.987 J-0.002 F1000.
N2935 X9.033 Y-21.51 I-2.347 J-1.381
N2940 X7.469 Y-20.635 I-3.545 J-4.495
N2945 X5.226 Y-20. I-4.146 J-10.372
N2950 X1.909 Y-19.607 I-4.429 J-23.212
N2955 X-3.587 Y-19.65 I-2.461 J-36.516
N2960 X-6.356 Y-20.139 I1.653 J-17.443
N2965 X-8.243 Y-20.91 I2.409 J-8.596
N2970 X-9.052 Y-21.509 I2.62 J-4.384
N2975 X-9.95 Y-23.61 I2.022 J-2.108
N2980 X-9.896 Y-23.838 I0.6 J0.021
N2985 X-9.324 Y-24.189 I0.546 J0.249 F30000.
N2990 G1 X9.376 Y-23.379
N2995 G3 X9.896 Y-23.028 I-0.026 J0.599
N3000 X9.95 Y-22.8 I-0.546 J0.249 F900.
N3005 X9.764 Y-22.207 I-1.029 J0.004 F1000.
N3010 X9.037 Y-21.398 I-2.369 J-1.398
N3015 X7.465 Y-20.506 I-3.596 J-4.504
N3020 X5.212 Y-19.857 I-4.198 J-10.351
N3025 X1.82 Y-19.451 I-4.486 J-23.076
N3030 X-3.629 Y-19.506 I-2.366 J-35.123
N3035 X-6.43 Y-20.021 I1.693 J-17.077
N3040 X-8.254 Y-20.784 I2.498 J-8.544
N3045 X-9.059 Y-21.384 I2.619 J-4.35
N3050 X-9.95 Y-23.479 I2.029 J-2.101
N3055 X-9.896 Y-23.707 I0.6 J0.021
N3060 X-9.326 Y-24.057 I0.546 J0.249 F30000.
N3065 G1 X9.375 Y-23.286
N3070 G3 X9.896 Y-22.936 I-0.025 J0.599
N3075 X9.95 Y-22.708 I-0.546 J0.249 F900.
N3080 X9.79 Y-22.151 I-0.986 J0.019 F1000.
N3085 X9.09 Y-21.331 I-2.325 J-1.279
N3090 X7.582 Y-20.433 I-3.551 J-4.244
N3095 X5.317 Y-19.744 I-4.267 J-9.965
N3100 X1.959 Y-19.317 I-4.552 J-22.353
N3105 X-3.707 Y-19.375 I-2.476 J-34.749
N3110 X-6.269 Y-19.844 I1.8 J-17.045
N3115 X-8.333 Y-20.704 I2.266 J-8.349
N3120 X-9.26 Y-21.469 I2.304 J-3.737
N3125 X-9.951 Y-23.353 I2.263 J-1.898
N3130 G1 X-9.943 Y-23.432
N3135 X-9.924 Y-23.508
N3140 X-9.896 Y-23.581
N3145 G3 X-9.327 Y-23.932 I0.546 J0.249 F30000.
N3150 G1 X9.374 Y-23.189
N3155 G3 X9.896 Y-22.838 I-0.024 J0.6
N3160 X9.95 Y-22.611 I-0.546 J0.249 F900.
N3165 X9.774 Y-22.018 I-1.043 J0.012 F1000.
N3170 X9.082 Y-21.213 I-2.354 J-1.323
N3175 X7.56 Y-20.302 I-3.606 J-4.295
N3180 X5.286 Y-19.604 I-4.311 J-10.003
N3185 X1.934 Y-19.174 I-4.533 J-22.009
N3190 X-3.731 Y-19.238 I-2.445 J-34.08
N3195 X-6.444 Y-19.762 I1.751 J-16.355
N3200 X-8.479 Y-20.67 I2.302 J-7.892
N3205 X-9.291 Y-21.381 I2.371 J-3.526
N3210 X-9.951 Y-23.227 I2.284 J-1.857
N3215 G1 X-9.943 Y-23.305
N3220 X-9.924 Y-23.382
N3225 X-9.896 Y-23.455
N3230 G3 X-9.328 Y-23.806 I0.546 J0.249 F30000.
N3235 G1 X9.373 Y-23.102
N3240 G3 X9.896 Y-22.752 I-0.023 J0.6
N3245 X9.95 Y-22.524 I-0.546 J0.249 F900.
N3250 X9.777 Y-21.919 I-1.058 J0.024 F1000.
N3255 X9.038 Y-21.065 I-2.43 J-1.355
N3260 X7.578 Y-20.187 I-3.6 J-4.333
N3265 X5.097 Y-19.432 I-4.48 J-10.269
N3270 X2.117 Y-19.047 I-4.188 J-20.683
N3275 G1 X-2.52 Y-19.05
N3280 G3 X-4.038 Y-19.147 I0.533 J-20.304
N3285 X-7.088 Y-19.847 I1.463 J-13.367
N3290 X-8.746 Y-20.734 I2.452 J-6.574
N3295 X-9.742 Y-22.014 I1.945 J-2.543
N3300 X-9.95 Y-23.1 I2.816 J-1.102
N3305 X-9.896 Y-23.328 I0.6 J0.021
N3310 X-9.08 Y-23.615 I0.546 J0.249 F30000.
N3315 G1 X-2.271 Y-20.186
N3320 G3 X-2.292 Y-19.104 I-0.27 J0.536
N3325 X-2.52 Y-19.05 I-0.249 J-0.546 F900.
N3330 G1 X-3.744 F1000.
N3335 G3 X-7.806 Y-20.023 I0.321 J-10.309
N3340 X-9.09 Y-20.899 I2.447 J-4.966
N3345 X-9.566 Y-21.523 I2.361 J-2.292
N3350 X-9.95 Y-22.967 I2.524 J-1.445
N3355 X-9.896 Y-23.194 I0.6 J0.021
N3360 X-9.045 Y-23.462 I0.546 J0.249 F30000.
N3365 G1 X-3.46 Y-20.166
N3370 G3 X-3.516 Y-19.104 I-0.305 J0.517
N3375 X-3.744 Y-19.05 I-0.249 J-0.546 F900.
N3380 G1 X-4.554 F1000.
N3385 G3 X-7.382 Y-19.71 I0.396 J-8.081
N3390 X-9.122 Y-20.804 I1.965 J-5.059
N3395 X-9.94 Y-22.59 I2.132 J-2.057
N3400 G1 X-9.95 Y-22.84
N3405 G3 X-9.896 Y-23.068 I0.6 J0.021
N3410 X-9.019 Y-23.319 I0.546 J0.249 F30000.
N3415 G1 X-4.244 Y-20.15
N3420 G3 X-4.327 Y-19.104 I-0.332 J0.5
N3425 X-4.554 Y-19.05 I-0.249 J-0.546 F900.
N3430 G1 X-5.139 F1000.
N3435 G3 X-7.085 Y-19.471 I0.302 J-6.106
N3440 X-8.956 Y-20.52 I1.919 J-5.616
N3445 X-9.941 Y-22.463 I1.974 J-2.222
N3450 G1 X-9.95 Y-22.713
N3455 G3 X-9.896 Y-22.941 I0.6 J0.021
N3460 X-8.998 Y-23.177 I0.546 J0.249 F30000.
N3465 G1 X-4.807 Y-20.135
N3470 G3 X-4.911 Y-19.104 I-0.352 J0.486
N3475 X-5.139 Y-19.05 I-0.249 J-0.546 F900.
N3480 X-5.837 Y-19.063 I-0.237 J-5.892 F1000.
N3485 X-8.853 Y-20.307 I0.74 J-6.074
N3490 X-9.953 Y-22.586 I1.868 J-2.306
N3495 G1 X-9.944 Y-22.665
N3500 X-9.925 Y-22.741
N3505 X-9.896 Y-22.814
N3510 G3 X-8.98 Y-23.038 I0.546 J0.249 F30000.
N3515 G1 X-5.261 Y-20.122
N3520 G3 X-5.382 Y-19.104 I-0.37 J0.472
N3525 X-5.61 Y-19.05 I-0.249 J-0.546 F900.
N3530 X-6.391 Y-19.084 I-0.205 J-4.258 F1000.
N3535 X-8.963 Y-20.275 I0.937 J-5.398
N3540 X-9.952 Y-22.461 I1.961 J-2.203
N3545 G1 X-9.943 Y-22.539
N3550 X-9.925 Y-22.616
N3555 X-9.896 Y-22.689
N3560 G3 X-8.965 Y-22.9 I0.546 J0.249 F30000.
N3565 G1 X-5.63 Y-20.11
N3570 G3 X-5.767 Y-19.104 I-0.385 J0.46
N3575 X-5.994 Y-19.05 I-0.249 J-0.546 F900.
N3580 X-6.681 Y-19.078 I-0.191 J-3.688 F1000.
N3585 X-9.122 Y-20.301 I0.838 J-4.722
N3590 X-9.951 Y-22.337 I2.118 J-2.05
N3595 G1 X-9.943 Y-22.415
N3600 X-9.924 Y-22.492
N3605 X-9.896 Y-22.565
N3610 G3 X-8.95 Y-22.763 I0.546 J0.249 F30000.
N3615 G1 X-5.975 Y-20.096
N3620 G3 X-6.127 Y-19.104 I-0.4 J0.447
N3625 X-6.354 Y-19.05 I-0.249 J-0.546 F900.
N3630 X-7.117 Y-19.106 I-0.17 J-2.896 F1000.
N3635 X-9.089 Y-20.15 I0.984 J-4.243
N3640 X-9.951 Y-22.217 I2.065 J-2.074
N3645 G1 X-9.943 Y-22.295
N3650 X-9.924 Y-22.371
N3655 X-9.896 Y-22.445
N3660 G3 X-8.936 Y-22.63 I0.546 J0.249 F30000.
N3665 G1 X-6.267 Y-20.084
N3670 G3 X-6.432 Y-19.104 I-0.414 J0.434
N3675 X-6.66 Y-19.05 I-0.249 J-0.546 F900.
N3680 X-7.991 Y-19.322 I-0.14 J-2.707 F1000.
N3685 X-9.314 Y-20.286 I1.31 J-3.188
N3690 X-9.951 Y-22.103 I2.304 J-1.827
N3695 G1 X-9.943 Y-22.181
N3700 X-9.924 Y-22.258
N3705 X-9.896 Y-22.331
N3710 G3 X-8.922 Y-22.503 I0.546 J0.249 F30000.
N3715 G1 X-6.532 Y-20.07
N3720 G3 X-6.711 Y-19.104 I-0.428 J0.421
N3725 X-6.939 Y-19.05 I-0.249 J-0.546 F900.
N3730 X-8.16 Y-19.311 I-0.122 J-2.416 F1000.
N3735 X-9.953 Y-21.996 I1.142 J-2.703
N3740 G1 X-9.944 Y-22.074
N3745 X-9.925 Y-22.15
N3750 X-9.896 Y-22.224
N3755 G3 X-8.909 Y-22.382 I0.546 J0.249 F30000.
N3760 G1 X-6.764 Y-20.057
N3765 G3 X-6.956 Y-19.104 I-0.441 J0.407
N3770 X-7.184 Y-19.05 I-0.249 J-0.546 F900.
N3775 X-8.354 Y-19.32 I-0.11 J-2.193 F1000.
N3780 X-9.047 Y-19.798 I1.011 J-2.206
N3785 X-9.95 Y-21.894 I1.974 J-2.093
N3790 X-9.896 Y-22.122 I0.599 J0.021
N3795 X-8.896 Y-22.265 I0.546 J0.249 F30000.
N3800 G1 X-6.977 Y-20.042
N3805 G3 X-7.182 Y-19.104 I-0.454 J0.392
N3810 X-7.41 Y-19.05 I-0.249 J-0.546 F900.
N3815 X-8.604 Y-19.375 I-0.093 J-2.012 F1000.
N3820 X-9.949 Y-21.76 I1.422 J-2.374
N3825 G1 X-9.941 Y-21.838
N3830 X-9.924 Y-21.914
N3835 X-9.896 Y-21.988
N3840 G3 X-8.887 Y-22.12 I0.546 J0.249 F30000.
N3845 G1 X-7.172 Y-20.03
N3850 G3 X-7.387 Y-19.104 I-0.464 J0.381
N3855 X-7.614 Y-19.05 I-0.249 J-0.546 F900.
N3860 X-8.676 Y-19.342 I-0.09 J-1.749 F1000.
N3865 G1 X-8.715 Y-19.36
N3870 G3 X-9.95 Y-21.616 I1.437 J-2.252
N3875 X-9.896 Y-21.843 I0.599 J0.021
N3880 X-8.879 Y-21.966 I0.546 J0.249 F30000.
N3885 G1 X-7.344 Y-20.021
N3890 G3 X-7.567 Y-19.104 I-0.471 J0.372
N3895 X-7.794 Y-19.05 I-0.249 J-0.546 F900.
N3900 X-8.77 Y-19.326 I-0.083 J-1.569 F1000.
N3905 X-9.204 Y-19.664 I0.939 J-1.649
N3910 X-9.95 Y-21.465 I1.795 J-1.799
N3915 X-9.896 Y-21.692 I0.6 J0.021
N3920 X-8.873 Y-21.807 I0.546 J0.249 F30000.
N3925 G1 X-7.507 Y-20.013
N3930 G3 X-7.736 Y-19.104 I-0.477 J0.363
N3935 X-7.964 Y-19.05 I-0.249 J-0.546 F900.
N3940 X-8.853 Y-19.307 I-0.071 J-1.421 F1000.
N3945 G1 X-8.892 Y-19.326
N3950 G3 X-9.949 Y-21.312 I1.323 J-1.979
N3955 G1 X-9.942 Y-21.39
N3960 X-9.924 Y-21.466
N3965 X-9.896 Y-21.539
N3970 G3 X-8.868 Y-21.647 I0.546 J0.249 F30000.
N3975 G1 X-7.655 Y-20.006
N3980 G3 X-7.889 Y-19.104 I-0.482 J0.357
N3985 X-8.116 Y-19.05 I-0.249 J-0.546 F900.
N3990 X-8.947 Y-19.3 I-0.06 J-1.304 F1000.
N3995 G1 X-8.977 Y-19.314
N4000 G3 X-9.95 Y-21.164 I1.266 J-1.846
N4005 X-9.896 Y-21.392 I0.599 J0.021
N4010 X-8.864 Y-21.495 I0.546 J0.249 F30000.
N4015 G1 X-7.783 Y-20.002
N4020 G3 X-8.02 Y-19.104 I-0.486 J0.352
N4025 X-8.248 Y-19.05 I-0.249 J-0.546 F900.
N4030 X-9.024 Y-19.287 I-0.058 J-1.201 F1000.
N4035 X-9.454 Y-19.662 I0.842 J-1.397
N4040 X-9.95 Y-21.017 I1.594 J-1.352
N4045 X-9.896 Y-21.245 I0.599 J0.021
N4050 X-8.86 Y-21.342 I0.546 J0.249 F30000.
N4055 G1 X-7.91 Y-19.996
N4060 G3 X-8.151 Y-19.104 I-0.49 J0.346
N4065 X-8.379 Y-19.05 I-0.249 J-0.546 F900.
N4070 X-9.118 Y-19.286 I-0.044 J-1.138 F1000.
N4075 G1 X-9.144 Y-19.298
N4080 X-9.172 Y-19.318
N4085 X-9.201 Y-19.34
N4090 X-9.226 Y-19.359
N4095 X-9.248 Y-19.376
N4100 G3 X-9.95 Y-20.873 I1.239 J-1.494
N4105 X-9.896 Y-21.101 I0.599 J0.021
N4110 X-8.858 Y-21.195 I0.546 J0.249 F30000.
N4115 G1 X-8.019 Y-19.993
N4120 G3 X-8.262 Y-19.104 I-0.492 J0.344
N4125 X-8.49 Y-19.05 I-0.249 J-0.546 F900.
N4130 X-9.192 Y-19.276 I-0.045 J-1.063 F1000.
N4135 G1 X-9.223 Y-19.293
N4140 G3 X-9.534 Y-19.585 I0.911 J-1.282
N4145 X-9.95 Y-20.739 I1.394 J-1.154
N4150 X-9.896 Y-20.967 I0.6 J0.021
N4155 X-8.854 Y-21.056 I0.546 J0.249 F30000.
N4160 G1 X-8.127 Y-19.987
N4165 G3 X-8.374 Y-19.104 I-0.496 J0.338
N4170 X-8.602 Y-19.05 I-0.249 J-0.546 F900.
N4175 X-9.291 Y-19.289 I-0.037 J-1.006 F1000.
N4180 G1 X-9.317 Y-19.303
N4185 X-9.337 Y-19.318
N4190 X-9.355 Y-19.332
N4195 X-9.371 Y-19.346
N4200 X-9.386 Y-19.358
N4205 X-9.4 Y-19.371
N4210 X-9.418 Y-19.387
N4215 X-9.603 Y-19.59
N4220 X-9.752 Y-19.82
N4225 X-9.861 Y-20.071
N4230 X-9.928 Y-20.336
N4235 X-9.95 Y-20.609
N4240 G3 X-9.92 Y-20.843 I1.264 J0.044
N4245 X-8.09 Y-21.68 I1.233 J0.277 F30000.
N4250 X-8.467 Y-19.078 I-0.659 J1.233
N4255 X-8.701 Y-19.05 I-0.282 J-1.369 F900.
N4260 X-9.355 Y-19.28 I-0.037 J-0.94 F1000.
N4265 G1 X-9.382 Y-19.295
N4270 X-9.403 Y-19.312
N4275 X-9.422 Y-19.327
N4280 X-9.438 Y-19.341
N4285 X-9.453 Y-19.354
N4290 G3 X-9.95 Y-20.487 I1.038 J-1.13
N4295 X-9.918 Y-20.72 I1.166 J0.041
N4300 X-8.236 Y-21.477 I1.134 J0.274 F30000.
N4305 X-8.563 Y-19.08 I-0.606 J1.138
N4310 X-8.796 Y-19.05 I-0.278 J-1.259 F900.
N4315 X-9.399 Y-19.257 I-0.035 J-0.879 F1000.
N4320 G1 X-9.59 Y-19.43
N4325 X-9.743 Y-19.636
N4330 X-9.857 Y-19.867
N4335 X-9.927 Y-20.115
N4340 X-9.95 Y-20.372
N4345 G3 X-9.916 Y-20.604 I1.075 J0.038
N4350 X-8.373 Y-21.285 I1.041 J0.27 F30000.
N4355 X-8.653 Y-19.081 I-0.554 J1.049
N4360 X-8.886 Y-19.05 I-0.275 J-1.154 F900.
N4365 X-9.493 Y-19.282 I-0.031 J-0.829 F1000.
N4370 G1 X-9.653 Y-19.44
N4375 G3 X-9.95 Y-20.271 I1.014 J-0.831
N4380 X-9.914 Y-20.504 I0.99 J0.035
N4385 X-8.494 Y-21.111 I0.954 J0.267 F30000.
N4390 X-8.738 Y-19.083 I-0.516 J0.966
N4395 X-8.971 Y-19.05 I-0.271 J-1.061 F900.
N4400 X-9.553 Y-19.283 I-0.027 J-0.777 F1000.
N4405 G1 X-9.723 Y-19.466
N4410 X-9.847 Y-19.683
N4415 X-9.924 Y-19.921
N4420 X-9.95 Y-20.169
N4425 G3 X-9.912 Y-20.401 I0.909 J0.032
N4430 X-8.615 Y-20.941 I0.871 J0.264 F30000.
N4435 X-8.818 Y-19.086 I-0.471 J0.887
N4440 X-9.05 Y-19.05 I-0.267 J-0.968 F900.
N4445 X-9.477 Y-19.177 I-0.036 J-0.658 F1000.
N4450 G1 X-9.675 Y-19.352
N4455 X-9.825 Y-19.571
N4460 X-9.918 Y-19.819
N4465 X-9.95 Y-20.082
N4470 G3 X-9.909 Y-20.313 I0.836 J0.029
N4475 X-8.719 Y-20.791 I0.795 J0.26 F30000.
N4480 X-8.891 Y-19.088 I-0.436 J0.816
N4485 X-9.123 Y-19.05 I-0.264 J-0.887 F900.
N4490 X-9.605 Y-19.239 I-0.027 J-0.639 F1000.
N4495 G1 X-9.752 Y-19.397
N4500 X-9.861 Y-19.585
N4505 X-9.927 Y-19.791
N4510 X-9.95 Y-20.006
N4515 G3 X-9.906 Y-20.237 I0.77 J0.027
N4520 X-8.806 Y-20.654 I0.727 J0.257 F30000.
N4525 X-8.962 Y-19.09 I-0.415 J0.748
N4530 X-9.194 Y-19.05 I-0.259 J-0.816 F900.
N4535 X-9.688 Y-19.274 I-0.015 J-0.624 F1000.
N4540 G1 X-9.832 Y-19.463
N4545 X-9.92 Y-19.684
N4550 X-9.95 Y-19.92
N4555 G3 X-9.903 Y-20.15 I0.704 J0.025
N4560 X-8.909 Y-20.514 I0.657 J0.254 F30000.
N4565 X-9.027 Y-19.093 I-0.373 J0.684
N4570 X-9.258 Y-19.05 I-0.255 J-0.737 F900.
N4575 X-9.635 Y-19.183 I-0.025 J-0.532 F1000.
N4580 G1 X-9.806 Y-19.371
N4585 X-9.913 Y-19.601
N4590 X-9.95 Y-19.853
N4595 G3 X-9.899 Y-20.082 I0.641 J0.022
N4600 X-8.991 Y-20.388 I0.59 J0.251 F30000.
N4605 X-9.093 Y-19.096 I-0.355 J0.622
N4610 X-9.323 Y-19.05 I-0.253 J-0.67 F900.
N4615 X-9.764 Y-19.274 I0.001 J-0.549 F1000.
N4620 G1 X-9.866 Y-19.426
N4625 X-9.928 Y-19.598
N4630 X-9.95 Y-19.779
N4635 G3 X-9.899 Y-20.008 I0.618 J0.018
N4640 X-8.942 Y-20.242 I0.567 J0.246 F30000.
N4645 X-9.186 Y-19.079 I-0.42 J0.519
N4650 X-9.42 Y-19.058 I-0.176 J-0.644 F900.
N4655 G1 X-9.45 Y-19.061 F1000.
N4660 X-9.54 Y-19.087
N4665 X-9.556 Y-19.093
N4670 X-9.616 Y-19.123
N4675 X-9.642 Y-19.137
N4680 X-9.647 Y-19.14
N4685 G3 X-9.69 Y-19.345 I0.097 J-0.127
N4690 G1 X-9.686 Y-19.351
N4695 G3 X-9.413 Y-19.19 I0.135 J0.084 F30000.
N4700 X-9.616 Y-19.123 I-0.139 J-0.078 F900.
N4705 G1 X-9.638 Y-19.133 F1000.
N4710 X-9.695 Y-19.173
N4715 X-9.71 Y-19.186
N4720 X-9.722 Y-19.195
N4725 X-9.733 Y-19.205
N4730 X-9.738 Y-19.21
N4735 G3 X-9.792 Y-19.429 I0.172 J-0.158
N4740 X-9.745 Y-19.518 I0.226 J0.061 F30000.
N4745 X-9.387 Y-19.219 I0.179 J0.15
N4750 X-9.469 Y-19.156 I-0.179 J-0.15
N4755 X-9.695 Y-19.173 I-0.097 J-0.213 F900.
N4760 X-9.893 Y-19.417 I0.439 J-0.56 F1000.
N4765 X-9.901 Y-19.645 I0.256 J-0.124
N4770 X-9.401 Y-19.699 I0.264 J0.105 F30000.
N4775 G1 X-9.341 Y-19.61
N4780 G3 X-9.557 Y-19.168 I-0.236 J0.159
N4785 X-9.773 Y-19.245 I-0.02 J-0.284 F900.
N4790 X-9.949 Y-19.632 I0.417 J-0.423 F1000.
N4795 G1 X-9.95 Y-19.812
N4800 Y-21.251
N4805 G3 X-9.896 Y-21.479 I0.6 J0.021
N4810 X-9.388 Y-21.829 I0.546 J0.249 F30000.
N4815 G1 X9.313 Y-23.005
N4820 G3 X9.896 Y-22.655 I0.038 J0.599
N4825 X9.95 Y-22.427 I-0.546 J0.249 F900.
N4830 X9.781 Y-21.82 I-1.072 J0.028 F1000.
N4835 X9.047 Y-20.96 I-2.449 J-1.346
N4840 X7.475 Y-20.02 I-3.715 J-4.43
N4845 X5.157 Y-19.31 I-4.404 J-10.239
N4850 X3.558 Y-19.05 I-3.018 J-13.521
N4855 G1 X3.422
N4860 X2.117
N4865 G3 X1.889 Y-19.104 I0.021 J-0.6
N4870 X1.93 Y-20.213 I0.249 J-0.546 F30000.
N4875 G1 X9.143 Y-22.872
N4880 G3 X9.896 Y-22.558 I0.208 J0.563
N4885 X9.95 Y-22.33 I-0.546 J0.249 F900.
N4890 X9.764 Y-21.684 I-1.118 J0.028 F1000.
N4895 X9.092 Y-20.885 I-2.413 J-1.347
N4900 X7.579 Y-19.943 I-3.712 J-4.28
N4905 X5.129 Y-19.171 I-4.519 J-10.072
N4910 X4.259 Y-19.049 I-0.943 J-3.547
N4915 G1 X3.422 Y-19.05
N4920 G3 X3.194 Y-19.104 I0.021 J-0.6
N4925 X3.204 Y-20.2 I0.249 J-0.546 F30000.
N4930 G1 X9.112 Y-22.764
N4935 G3 X9.896 Y-22.462 I0.239 J0.55
N4940 X9.95 Y-22.234 I-0.546 J0.249 F900.
N4945 X9.763 Y-21.573 I-1.138 J0.035 F1000.
N4950 X9.033 Y-20.72 I-2.506 J-1.404
N4955 X7.435 Y-19.756 I-3.813 J-4.516
N4960 X5.324 Y-19.084 I-4.184 J-9.488
N4965 G1 X5.099 Y-19.059
N4970 X4.873 Y-19.05
N4975 G3 X4.645 Y-19.104 I0.021 J-0.6
N4980 X4.604 Y-20.175 I0.249 J-0.546 F30000.
N4985 G1 X9.06 Y-22.638
N4990 G3 X9.896 Y-22.362 I0.29 J0.525
N4995 X9.95 Y-22.134 I-0.546 J0.249 F900.
N5000 X9.762 Y-21.462 I-1.156 J0.039 F1000.
N5005 X9.026 Y-20.598 I-2.538 J-1.418
N5010 X7.414 Y-19.623 I-3.858 J-4.555
N5015 X5.896 Y-19.099 I-3.486 J-7.637
N5020 G1 X5.626 Y-19.063
N5025 X5.354 Y-19.05
N5030 G3 X5.126 Y-19.104 I0.021 J-0.6
N5035 X5.069 Y-20.166 I0.249 J-0.546 F30000.
N5040 G1 X9.044 Y-22.525
N5045 G3 X9.896 Y-22.258 I0.306 J0.516
N5050 X9.95 Y-22.03 I-0.546 J0.249 F900.
N5055 X9.761 Y-21.35 I-1.167 J0.042 F1000.
N5060 X9.019 Y-20.477 I-2.566 J-1.428
N5065 X7.395 Y-19.49 I-3.9 J-4.589
N5070 X6.201 Y-19.083 I-2.218 J-4.545
N5075 G1 X5.974 Y-19.059
N5080 X5.746 Y-19.05
N5085 G3 X5.518 Y-19.104 I0.021 J-0.6
N5090 X5.448 Y-20.158 I0.249 J-0.546 F30000.
N5095 G1 X9.031 Y-22.407
N5100 G3 X9.896 Y-22.148 I0.319 J0.508
N5105 X9.95 Y-21.92 I-0.546 J0.249 F900.
N5110 X9.76 Y-21.236 I-1.182 J0.04 F1000.
N5115 X9.01 Y-20.353 I-2.597 J-1.444
N5120 X7.386 Y-19.361 I-3.935 J-4.619
N5125 X6.074 Y-19.05 I-1.325 J-2.659
N5130 X5.846 Y-19.104 I0.021 J-0.6
N5135 X5.764 Y-20.151 I0.249 J-0.546 F30000.
N5140 G1 X9.02 Y-22.296
N5145 G3 X9.896 Y-22.044 I0.33 J0.501
N5150 X9.95 Y-21.816 I-0.546 J0.249 F900.
N5155 X9.759 Y-21.123 I-1.195 J0.044 F1000.
N5160 X9.004 Y-20.23 I-2.626 J-1.456
N5165 X7.285 Y-19.203 I-3.804 J-4.414
N5170 X6.35 Y-19.05 I-0.944 J-2.837
N5175 X6.123 Y-19.104 I0.021 J-0.6
N5180 X6.033 Y-20.145 I0.249 J-0.546 F30000.
N5185 G1 X9.012 Y-22.18
N5190 G3 X9.896 Y-21.934 I0.338 J0.495
N5195 X9.95 Y-21.706 I-0.546 J0.249 F900.
N5200 X9.758 Y-21.008 I-1.205 J0.044 F1000.
N5205 X8.997 Y-20.106 I-2.652 J-1.467
N5210 X7.659 Y-19.254 I-3.384 J-3.834
N5215 X6.587 Y-19.05 I-1.079 J-2.759
N5220 X6.36 Y-19.104 I0.021 J-0.6
N5225 X6.264 Y-20.141 I0.249 J-0.546 F30000.
N5230 G1 X9.006 Y-22.064
N5235 G3 X9.896 Y-21.822 I0.345 J0.491
N5240 X9.95 Y-21.594 I-0.546 J0.249 F900.
N5245 X9.758 Y-20.892 I-1.213 J0.045 F1000.
N5250 X9.045 Y-20.03 I-2.613 J-1.432
N5255 X7.778 Y-19.219 I-2.819 J-3.011
N5260 X6.791 Y-19.05 I-1.007 J-2.9
N5265 X6.563 Y-19.104 I0.021 J-0.6
N5270 X6.463 Y-20.138 I0.249 J-0.546 F30000.
N5275 G1 X9.002 Y-21.948
N5280 G3 X9.896 Y-21.709 I0.348 J0.489
N5285 X9.95 Y-21.481 I-0.546 J0.249 F900.
N5290 X9.774 Y-20.806 I-1.196 J0.048 F1000.
N5295 X8.989 Y-19.862 I-2.704 J-1.449
N5300 X6.966 Y-19.048 I-2.052 J-2.177
N5305 G1 X6.887 Y-19.056
N5310 X6.811 Y-19.075
N5315 X6.738 Y-19.104
N5320 G3 X6.637 Y-20.137 I0.249 J-0.546 F30000.
N5325 G1 X9.001 Y-21.832
N5330 G3 X9.896 Y-21.593 I0.35 J0.488
N5335 X9.95 Y-21.365 I-0.546 J0.249 F900.
N5340 X9.773 Y-20.689 I-1.202 J0.046 F1000.
N5345 X8.927 Y-19.692 I-2.76 J-1.483
N5350 X7.112 Y-19.051 I-1.805 J-2.218
N5355 G1 X7.034 Y-19.058
N5360 X6.958 Y-19.076
N5365 X6.884 Y-19.104
N5370 G3 X6.785 Y-20.138 I0.249 J-0.546 F30000.
N5375 G1 X9.002 Y-21.719
N5380 G3 X9.896 Y-21.479 I0.348 J0.489
N5385 X9.95 Y-21.251 I-0.546 J0.249 F900.
N5390 X9.772 Y-20.571 I-1.211 J0.046 F1000.
N5395 X9.031 Y-19.682 I-2.373 J-1.222
N5400 X7.227 Y-19.05 I-1.799 J-2.247
N5405 X7. Y-19.104 I0.021 J-0.599
N5410 X6.905 Y-20.142 I0.249 J-0.546 F30000.
N5415 G1 X9.007 Y-21.608
N5420 G3 X9.896 Y-21.365 I0.343 J0.492
N5425 X9.95 Y-21.137 I-0.546 J0.249 F900.
N5430 X9.754 Y-20.423 I-1.247 J0.042 F1000.
N5435 X9.326 Y-19.85 I-1.885 J-0.964
N5440 X7.388 Y-19.05 I-1.934 J-1.939
N5445 X7.16 Y-19.104 I0.021 J-0.599
N5450 X7.065 Y-20.141 I0.249 J-0.546 F30000.
N5455 G1 X9.007 Y-21.498
N5460 G3 X9.896 Y-21.255 I0.344 J0.492
N5465 X9.95 Y-21.027 I-0.546 J0.249 F900.
N5470 X9.737 Y-20.277 I-1.269 J0.045 F1000.
N5475 X9.222 Y-19.662 I-1.858 J-1.032
N5480 X7.557 Y-19.05 I-1.661 J-1.949
N5485 X7.329 Y-19.104 I0.021 J-0.599
N5490 X7.234 Y-20.141 I0.249 J-0.546 F30000.
N5495 G1 X9.007 Y-21.381
N5500 G3 X9.896 Y-21.138 I0.344 J0.492
N5505 X9.95 Y-20.91 I-0.546 J0.249 F900.
N5510 X9.743 Y-20.179 I-1.22 J0.049 F1000.
N5515 X9.319 Y-19.66 I-1.621 J-0.892
N5520 X7.724 Y-19.05 I-1.592 J-1.772
N5525 X7.496 Y-19.104 I0.021 J-0.599
N5530 X7.401 Y-20.142 I0.249 J-0.546 F30000.
N5535 G1 X9.007 Y-21.263
N5540 G3 X9.896 Y-21.02 I0.344 J0.492
N5545 X9.95 Y-20.792 I-0.546 J0.249 F900.
N5550 X9.713 Y-20.028 I-1.208 J0.044 F1000.
N5555 X9.566 Y-19.823 I-0.956 J-0.532
N5560 X7.882 Y-19.05 I-1.682 J-1.442
N5565 X7.654 Y-19.104 I0.021 J-0.599
N5570 X7.561 Y-20.143 I0.249 J-0.546 F30000.
N5575 G1 X9.008 Y-21.146
N5580 G3 X9.896 Y-20.902 I0.342 J0.493
N5585 X9.95 Y-20.674 I-0.546 J0.249 F900.
N5590 X9.726 Y-19.952 I-1.132 J0.044 F1000.
N5595 G1 X9.708 Y-19.918
N5600 G3 X8.03 Y-19.051 I-1.668 J-1.17
N5605 G1 X7.952 Y-19.059
N5610 X7.875 Y-19.076
N5615 X7.802 Y-19.104
N5620 G3 X7.711 Y-20.144 I0.249 J-0.546 F30000.
N5625 G1 X9.011 Y-21.036
N5630 G3 X9.896 Y-20.79 I0.339 J0.495
N5635 X9.95 Y-20.562 I-0.546 J0.249 F900.
N5640 X9.731 Y-19.87 I-1.066 J0.043 F1000.
N5645 G1 X9.715 Y-19.839
N5650 X9.698 Y-19.814
N5655 X9.682 Y-19.792
N5660 X9.667 Y-19.773
N5665 X9.654 Y-19.756
N5670 X9.64 Y-19.739
N5675 G3 X8.172 Y-19.05 I-1.468 J-1.219
N5680 X7.944 Y-19.104 I0.021 J-0.6
N5685 X7.856 Y-20.146 I0.249 J-0.546 F30000.
N5690 G1 X9.013 Y-20.932
N5695 G3 X9.896 Y-20.684 I0.337 J0.496
N5700 X9.95 Y-20.456 I-0.546 J0.249 F900.
N5705 X9.736 Y-19.793 I-1. J0.043 F1000.
N5710 G1 X9.721 Y-19.764
N5715 X9.705 Y-19.742
N5720 G3 X8.304 Y-19.051 I-1.394 J-1.061
N5725 G1 X8.225 Y-19.058
N5730 X8.149 Y-19.076
N5735 X8.076 Y-19.104
N5740 G3 X7.993 Y-20.149 I0.249 J-0.546 F30000.
N5745 G1 X9.018 Y-20.831
N5750 G3 X9.896 Y-20.58 I0.332 J0.5
N5755 X9.95 Y-20.352 I-0.546 J0.249 F900.
N5760 X9.723 Y-19.696 I-0.956 J0.036 F1000.
N5765 G1 X9.711 Y-19.672
N5770 X9.696 Y-19.653
N5775 X9.683 Y-19.636
N5780 X9.671 Y-19.621
N5785 X9.659 Y-19.607
N5790 X9.646 Y-19.592
N5795 X9.447 Y-19.404
N5800 X9.22 Y-19.253
N5805 X8.97 Y-19.141
N5810 X8.705 Y-19.073
N5815 X8.432 Y-19.05
N5820 G3 X8.199 Y-19.081 I0.043 J-1.224
N5825 X7.4 Y-20.859 I0.276 J-1.193 F30000.
N5830 X9.921 Y-20.491 I1.193 J0.649
N5835 X9.95 Y-20.257 I-1.329 J0.281 F900.
N5840 X9.725 Y-19.626 I-0.899 J0.035 F1000.
N5845 G1 X9.713 Y-19.602
N5850 X9.699 Y-19.584
N5855 X9.686 Y-19.568
N5860 X9.674 Y-19.554
N5865 G3 X8.55 Y-19.05 I-1.121 J-0.995
N5870 X8.317 Y-19.083 I0.039 J-1.128
N5875 X7.598 Y-20.718 I0.272 J-1.096 F30000.
N5880 X9.92 Y-20.396 I1.1 J0.599
N5885 X9.95 Y-20.163 I-1.222 J0.277 F900.
N5890 X9.716 Y-19.545 I-0.859 J0.028 F1000.
N5895 G1 X9.704 Y-19.523
N5900 X9.69 Y-19.507
N5905 X9.678 Y-19.492
N5910 X9.666 Y-19.479
N5915 X9.655 Y-19.467
N5920 X9.644 Y-19.456
N5925 X9.631 Y-19.443
N5930 X9.424 Y-19.276
N5935 X9.189 Y-19.152
N5940 X8.934 Y-19.076
N5945 X8.669 Y-19.05
N5950 G3 X8.436 Y-19.085 I0.036 J-1.041
N5955 X7.785 Y-20.578 I0.269 J-1.006 F30000.
N5960 X9.918 Y-20.313 I1.016 J0.539
N5965 X9.95 Y-20.08 I-1.117 J0.273 F900.
N5970 X9.766 Y-19.54 I-0.788 J0.033 F1000.
N5975 G1 X9.611 Y-19.37
N5980 X9.425 Y-19.234
N5985 X9.218 Y-19.133
N5990 X8.996 Y-19.071
N5995 X8.767 Y-19.05
N6000 G3 X8.535 Y-19.087 I0.034 J-0.96
N6005 X7.953 Y-20.461 I0.266 J-0.923 F30000.
N6010 X9.916 Y-20.232 I0.937 J0.498
N6015 X9.95 Y-20. I-1.026 J0.27 F900.
N6020 X9.747 Y-19.46 I-0.734 J0.032 F1000.
N6025 G1 X9.567 Y-19.286
N6030 X9.351 Y-19.157
N6035 X9.113 Y-19.077
N6040 X8.863 Y-19.05
N6045 G3 X8.631 Y-19.089 I0.031 J-0.881
N6050 X8.117 Y-20.346 I0.262 J-0.841 F30000.
N6055 X9.914 Y-20.153 I0.859 J0.46
N6060 X9.95 Y-19.92 I-0.937 J0.266 F900.
N6065 X9.702 Y-19.36 I-0.712 J0.021 F1000.
N6070 G1 X9.543 Y-19.226
N6075 X9.359 Y-19.13
N6080 X9.159 Y-19.07
N6085 X8.952 Y-19.05
N6090 G3 X8.721 Y-19.092 I0.028 J-0.808
N6095 X8.268 Y-20.24 I0.259 J-0.765 F30000.
N6100 X9.911 Y-20.08 I0.788 J0.423
N6105 X9.95 Y-19.848 I-0.855 J0.263 F900.
N6110 X9.813 Y-19.433 I-0.607 J0.03 F1000.
N6115 G1 X9.659 Y-19.272
N6120 X9.471 Y-19.151
N6125 X9.261 Y-19.076
N6130 X9.039 Y-19.05
N6135 G3 X8.809 Y-19.095 I0.026 J-0.741
N6140 X8.413 Y-20.145 I0.256 J-0.696 F30000.
N6145 X9.909 Y-20.009 I0.719 J0.391
N6150 X9.95 Y-19.778 I-0.778 J0.255 F900.
N6155 X9.768 Y-19.335 I-0.582 J0.02 F1000.
N6160 G1 X9.58 Y-19.18
N6165 X9.355 Y-19.083
N6170 X9.113 Y-19.05
N6175 G3 X8.883 Y-19.099 I0.024 J-0.678
N6180 X8.542 Y-20.055 I0.253 J-0.63 F30000.
N6185 X9.906 Y-19.945 I0.657 J0.362
N6190 X9.949 Y-19.715 I-0.707 J0.252 F900.
N6195 X9.848 Y-19.387 I-0.491 J0.028 F1000.
N6200 G1 X9.715 Y-19.245
N6205 X9.551 Y-19.139
N6210 X9.368 Y-19.072
N6215 X9.174 Y-19.05
N6220 G3 X8.946 Y-19.102 I0.022 J-0.617
N6225 X8.663 Y-19.979 I0.25 J-0.564 F30000.
N6230 X9.903 Y-19.879 I0.596 J0.349
N6235 X9.949 Y-19.649 I-0.644 J0.25 F900.
N6240 X9.805 Y-19.298 I-0.551 J-0.021 F1000.
N6245 G1 X9.645 Y-19.164
N6250 X9.455 Y-19.08
N6255 X9.248 Y-19.05
N6260 G3 X9.02 Y-19.104 I0.019 J-0.589
N6265 X8.822 Y-20.026 I0.246 J-0.535 F30000.
N6270 X9.917 Y-19.776 I0.48 J0.418
N6275 X9.936 Y-19.542 I-0.614 J0.168 F900.
N6280 X9.796 Y-19.269 I-0.577 J-0.124 F1000.
N6285 G1 X9.773 Y-19.254
N6290 X9.747 Y-19.249
N6295 X9.72 Y-19.252
N6300 X9.697 Y-19.265
N6305 G3 X9.682 Y-19.365 I0.048 J-0.058
N6310 X9.786 Y-19.385 I0.062 J0.042 F900.
N6315 X9.806 Y-19.28 I-0.042 J0.062
N6320 G1 X9.8 Y-19.273 F1000.
N6325 X9.741 Y-19.212
N6330 X9.73 Y-19.202
N6335 X9.718 Y-19.192
N6340 X9.706 Y-19.182
N6345 X9.693 Y-19.172
N6350 X9.68 Y-19.163
N6355 G3 X9.455 Y-19.108 I-0.189 J-0.288
N6360 X9.526 Y-19.793 I0.035 J-0.343 F30000.
N6365 X9.834 Y-19.424 I-0.035 J0.343
N6370 X9.803 Y-19.307 I-0.343 J-0.026 F900.
N6375 X9.741 Y-19.212 I-0.331 J-0.152
N6380 G1 X9.72 Y-19.191 F1000.
N6385 X9.656 Y-19.146
N6390 X9.629 Y-19.129
N6395 G3 X9.449 Y-19.183 I-0.059 J-0.131
N6400 X9.435 Y-19.21 I0.12 J-0.076
N6405 X9.675 Y-19.355 I0.134 J-0.049 F30000.
N6410 X9.656 Y-19.146 I-0.106 J0.096 F900.
N6415 X9.36 Y-19.051 I-0.318 J-0.48 F1000.
N6420 G1 X9.18 Y-19.05
N6425 X9.171 Y-19.051
N6430 G3 X8.949 Y-19.096 I0.15 J-1.319
N6435 X8.009 Y-20.172 I0.372 J-1.274 F30000.
N6440 G1 X7.3 Y-25.028
N6445 G3 X8.623 Y-26.254 Z-18. I1.324 J0.101
N6450 X9.921 Y-25.207 I0. J1.327
N6455 X9.95 Y-24.973 I-1.298 J0.28 F900.
N6460 G1 Y-24.966 F450.
N6465 G3 X9.172 Y-24.868 I-0.815 J-3.328 F1000.
N6470 X6.886 Y-24.816 I-1.85 J-30.83
N6475 X2.632 Y-24.807 I-2.881 J-342.582
N6480 G1 X-7.93 Y-24.806
N6485 G3 X-9.95 Y-26.826 I0. J-2.02
N6490 G1 X-9.867 Y-27.046
N6495 X-9.814 Y-27.186 F30000.
N6500 X-9.54 Y-27.374
N6505 X6.12 Y-28.113
N6510 G3 X8.1 Y-27.198 I0.046 J2.5
N6515 G1 X9.8 Y-25.148
N6520 X9.95 Y-24.966 F900.
N6525 Y-24.945 F450.
N6530 G3 X9.264 Y-24.785 I-0.859 J-2.145 F1000.
N6535 X7.58 Y-24.675 I-1.665 J-12.527
N6540 X3.879 Y-24.648 I-2.577 J-100.091
N6545 G1 X3.028 Y-24.643
N6550 X1.043
N6555 X-7.075
N6560 G3 X-8.302 Y-24.735 I-0.13 J-6.483
N6565 X-9.566 Y-25.6 I0.523 J-2.121
N6570 X-9.95 Y-26.826 I1.77 J-1.227
N6575 G1 X-9.867 Y-27.046
N6580 X-9.814 Y-27.186 F30000.
N6585 X-9.54 Y-27.374
N6590 X6.12 Y-27.958
N6595 G3 X7.961 Y-27.186 I0.034 J2.5
N6600 G1 X9.794 Y-25.121
N6605 X9.95 Y-24.945 F900.
N6610 Y-24.908 F450.
N6615 G3 X9.248 Y-24.696 I-0.99 J-2.014 F1000.
N6620 X7.759 Y-24.543 I-1.668 J-8.933
N6625 X4.852 Y-24.488 I-2.393 J-49.434
N6630 X0.882 Y-24.48 I-2.746 J-354.167
N6635 G1 X-6.209 Y-24.479
N6640 G3 X-7.885 Y-24.55 I-0.289 J-13.178
N6645 X-8.349 Y-24.654 I2.295 J-11.245
N6650 X-9.95 Y-26.826 I0.673 J-2.172
N6655 G1 X-9.867 Y-27.046
N6660 X-9.814 Y-27.186 F30000.
N6665 X-9.54 Y-27.374
N6670 X5.76 Y-27.797
N6675 G3 X7.608 Y-27.186 I0.201 J2.492
N6680 G1 X9.824 Y-25.1
N6685 X9.901 Y-25.028 F900.
N6690 X9.95 Y-24.908
N6695 Y-24.865 F450.
N6700 G3 X9.246 Y-24.609 I-1.096 J-1.924 F1000.
N6705 X7.735 Y-24.409 I-1.803 J-7.807
N6710 X5.205 Y-24.331 I-2.323 J-34.355
N6715 X0.279 Y-24.316 I-3.536 J-345.962
N6720 G1 X-5.394
N6725 G3 X-7.432 Y-24.368 I-0.403 J-24.144
N6730 X-8.383 Y-24.567 I0.527 J-4.889
N6735 X-9.593 Y-25.564 I0.877 J-2.297
N6740 X-9.95 Y-26.826 I2.06 J-1.265
N6745 G1 X-9.867 Y-27.046
N6750 X-9.814 Y-27.186 F30000.
N6755 X-9.54 Y-27.374
N6760 X5.76 Y-27.651
N6765 G3 X7.633 Y-27.006 I0.189 J2.493
N6770 G1 X9.822 Y-25.055
N6775 X9.9 Y-24.986 F900.
N6780 X9.95 Y-24.865
N6785 Y-24.821 F450.
N6790 G3 X9.218 Y-24.516 I-1.195 J-1.838 F1000.
N6795 X7.725 Y-24.278 I-1.895 J-7.078
N6800 X5.318 Y-24.176 I-2.375 J-27.6
N6805 X0.665 Y-24.156 I-3.243 J-209.509
N6810 X-5.998 Y-24.157 I-3.267 J-655.956
N6815 X-7.706 Y-24.282 I0.014 J-11.883
N6820 X-8.653 Y-24.605 I0.677 J-3.536
N6825 X-9.936 Y-26.551 I1.255 J-2.224
N6830 G1 X-9.95 Y-26.82
N6835 X-9.865 Y-27.04
N6840 X-9.809 Y-27.186 F30000.
N6845 X-9.54 Y-27.368
N6850 X5.76 Y-27.509
N6855 G3 X7.56 Y-26.918 I0.178 J2.494
N6860 G1 X9.789 Y-24.985
N6865 X9.947 Y-24.848 F900.
N6870 X9.95 Y-24.821
N6875 Y-24.772 F450.
N6880 G3 X9.161 Y-24.413 I-1.32 J-1.853 F1000.
N6885 X7.759 Y-24.154 I-1.928 J-6.503
N6890 X5.121 Y-24.019 I-2.63 J-25.54
N6895 X0.483 Y-23.994 I-3.261 J-173.909
N6900 X-5.799 Y-23.996 I-2.965 J-493.112
N6905 X-7.561 Y-24.135 I0.121 J-12.788
N6910 X-8.697 Y-24.539 I0.69 J-3.737
N6915 X-9.734 Y-25.737 I1.426 J-2.283
N6920 X-9.95 Y-26.779 I2.427 J-1.046
N6925 G1 X-9.855 Y-26.995
N6930 X-9.771 Y-27.186 F30000.
N6935 X-9.36 Y-27.358
N6940 X5.94
N6945 G3 X7.56 Y-26.804 I0.05 J2.499
N6950 G1 X9.81 Y-24.948
N6955 X9.931 Y-24.848 F900.
N6960 X9.95 Y-24.772
N6965 Y-24.72 F450.
N6970 G3 X9.147 Y-24.32 I-1.403 J-1.81 F1000.
N6975 X7.8 Y-24.034 I-1.972 J-5.978
N6980 X5.166 Y-23.866 I-2.734 J-22.124
N6985 X1.023 Y-23.831 I-3.061 J-118.757
N6990 X-5.682 Y-23.836 I-3.045 J-447.646
N6995 X-7.454 Y-23.992 I0.292 J-13.458
N7000 X-8.596 Y-24.376 I0.905 J-4.58
N7005 X-9.817 Y-25.828 I1.251 J-2.291
N7010 G1 X-9.89 Y-26.096
N7015 X-9.935 Y-26.369
N7020 X-9.95 Y-26.646
N7025 X-9.867 Y-26.867
N7030 X-9.814 Y-27.006 F30000.
N7035 X-9.54 Y-27.195
N7040 X5.76 Y-27.205
N7045 G3 X7.38 Y-26.746 I0.167 J2.494
N7050 G1 X9.817 Y-24.904
N7055 X9.9 Y-24.841 F900.
N7060 X9.95 Y-24.72
N7065 Y-24.668 F450.
N7070 G3 X9.192 Y-24.247 I-1.419 J-1.661 F1000.
N7075 X7.807 Y-23.913 I-2.075 J-5.566
N7080 X5.564 Y-23.728 I-2.569 J-17.443
N7085 X1.841 Y-23.67 I-3.045 J-76.936
N7090 X-5.383 Y-23.673 I-3.432 J-481.225
N7095 X-7.213 Y-23.823 I0.364 J-15.658
N7100 X-8.362 Y-24.159 I0.953 J-5.396
N7105 X-9.819 Y-25.783 I1.115 J-2.467
N7110 G1 X-9.891 Y-26.054
N7115 X-9.935 Y-26.331
N7120 X-9.95 Y-26.611
N7125 X-9.858 Y-26.828
N7130 X-9.783 Y-27.006 F30000.
N7135 X-9.36 Y-27.19
N7140 X5.58 Y-27.058
N7145 G3 X7.119 Y-26.646 I0.157 J2.495
N7150 G1 X9.813 Y-24.847
N7155 X9.9 Y-24.789 F900.
N7160 X9.95 Y-24.668
N7165 Y-24.614 F450.
N7170 G3 X9.194 Y-24.16 I-1.468 J-1.586 F1000.
N7175 X7.806 Y-23.791 I-2.145 J-5.286
N7180 X5.619 Y-23.582 I-2.622 J-15.847
N7185 X2.125 Y-23.51 I-3.045 J-63.232
N7190 X-5.039 Y-23.509 I-3.619 J-453.607
N7195 X-7.09 Y-23.673 I0.305 J-16.734
N7200 X-8.42 Y-24.08 I0.917 J-5.378
N7205 X-9.729 Y-25.463 I1.251 J-2.494
N7210 X-9.95 Y-26.544 I2.544 J-1.083
N7215 G1 X-9.884 Y-26.77
N7220 X-9.868 Y-26.826 F30000.
N7225 X-9.54 Y-27.092
N7230 X5.76 Y-26.927
N7235 G3 X7.02 Y-26.57 I-0.029 J2.5
N7240 G1 X9.789 Y-24.767
N7245 X9.94 Y-24.668 F900.
N7250 X9.95 Y-24.614
N7255 Y-24.558 F450.
N7260 G3 X9.197 Y-24.072 I-1.515 J-1.523 F1000.
N7265 X7.862 Y-23.681 I-2.172 J-4.945
N7270 X5.619 Y-23.435 I-2.746 J-14.702
N7275 X2.192 Y-23.35 I-3.119 J-56.223
N7280 X-4.829 Y-23.348 I-3.594 J-373.573
N7285 X-6.933 Y-23.516 I0.374 J-17.907
N7290 X-8.366 Y-23.945 I0.943 J-5.76
N7295 X-9.322 Y-24.697 I1.377 J-2.736
N7300 X-9.95 Y-26.457 I2.167 J-1.766
N7305 X-9.896 Y-26.685 I0.6 J0.021
N7310 X-9.29 Y-27.033 I0.546 J0.249 F30000.
N7315 G1 X9.411 Y-25.134
N7320 G3 X9.896 Y-24.785 I-0.061 J0.597
N7325 X9.95 Y-24.558 I-0.546 J0.249 F900.
N7330 G1 Y-24.499 F450.
N7335 G3 X9.199 Y-23.983 I-1.562 J-1.47 F1000.
N7340 X7.873 Y-23.564 I-2.23 J-4.752
N7345 X5.668 Y-23.293 I-2.815 J-13.764
N7350 X2.291 Y-23.19 I-3.213 J-50.248
N7355 X-4.614 Y-23.187 I-3.625 J-317.339
N7360 X-6.771 Y-23.357 I0.438 J-19.278
N7365 X-8.267 Y-23.787 I1.016 J-6.348
N7370 X-9.507 Y-24.85 I1.315 J-2.788
N7375 X-9.951 Y-26.373 I2.437 J-1.536
N7380 G1 X-9.943 Y-26.451
N7385 X-9.924 Y-26.527
N7390 X-9.896 Y-26.6
N7395 G3 X-9.291 Y-26.949 I0.546 J0.249 F30000.
N7400 G1 X9.41 Y-25.075
N7405 G3 X9.896 Y-24.727 I-0.06 J0.597
N7410 X9.95 Y-24.499 I-0.546 J0.249 F900.
N7415 G1 Y-24.441 F450.
N7420 G3 X9.229 Y-23.908 I-1.569 J-1.369 F1000.
N7425 X7.871 Y-23.446 I-2.313 J-4.568
N7430 X5.69 Y-23.15 I-2.871 J-13.002
N7435 X2.425 Y-23.032 I-3.236 J-44.374
N7440 X-4.428 Y-23.026 I-3.688 J-262.933
N7445 X-6.685 Y-23.209 I0.472 J-19.799
N7450 X-8.21 Y-23.648 I1.1 J-6.69
N7455 X-9.355 Y-24.537 I1.374 J-2.952
N7460 X-9.951 Y-26.287 I2.307 J-1.761
N7465 G1 X-9.943 Y-26.365
N7470 X-9.924 Y-26.441
N7475 X-9.896 Y-26.514
N7480 G3 X-9.291 Y-26.863 I0.546 J0.249 F30000.
N7485 G1 X9.409 Y-25.017
N7490 G3 X9.896 Y-24.669 I-0.059 J0.597
N7495 X9.95 Y-24.441 I-0.546 J0.249 F900.
N7500 G1 Y-24.378 F450.
N7505 G3 X9.231 Y-23.819 I-1.616 J-1.336 F1000.
N7510 X7.852 Y-23.324 I-2.384 J-4.472
N7515 X5.82 Y-23.018 I-2.846 J-12.025
N7520 X2.701 Y-22.878 I-3.258 J-37.807
N7525 X-4.285 Y-22.866 I-3.89 J-219.438
N7530 X-6.557 Y-23.053 I0.553 J-20.534
N7535 X-8.182 Y-23.52 I1.123 J-6.983
N7540 X-9.217 Y-24.266 I1.488 J-3.154
N7545 X-9.951 Y-26.189 I2.181 J-1.933
N7550 G1 X-9.943 Y-26.267
N7555 X-9.924 Y-26.344
N7560 X-9.896 Y-26.417
N7565 G3 X-9.293 Y-26.765 I0.546 J0.249 F30000.
N7570 G1 X9.408 Y-24.954
N7575 G3 X9.896 Y-24.606 I-0.058 J0.597
N7580 X9.95 Y-24.378 I-0.546 J0.249 F900.
N7585 G1 Y-24.316 F450.
N7590 G3 X9.26 Y-23.744 I-1.619 J-1.251 F1000.
N7595 X7.923 Y-23.224 I-2.405 J-4.203
N7600 X5.89 Y-22.884 I-2.92 J-11.229
N7605 X2.841 Y-22.724 I-3.302 J-33.76
N7610 X-4.162 Y-22.707 I-3.954 J-182.018
N7615 X-6.512 Y-22.91 I0.586 J-20.409
N7620 X-8.123 Y-23.376 I1.24 J-7.316
N7625 X-9.236 Y-24.178 I1.485 J-3.233
N7630 X-9.951 Y-26.09 I2.234 J-1.924
N7635 G1 X-9.943 Y-26.168
N7640 X-9.924 Y-26.244
N7645 X-9.896 Y-26.318
N7650 G3 X-9.294 Y-26.666 I0.546 J0.249 F30000.
N7655 G1 X9.407 Y-24.892
N7660 G3 X9.896 Y-24.544 I-0.057 J0.597
N7665 X9.95 Y-24.316 I-0.546 J0.249 F900.
N7670 G1 Y-24.254 F450.
N7675 G3 X9.264 Y-23.655 I-1.637 J-1.183 F1000.
N7680 X7.98 Y-23.123 I-2.413 J-4.005
N7685 X5.999 Y-22.756 I-2.959 J-10.463
N7690 X2.9 Y-22.569 I-3.416 J-30.841
N7695 X-2.627 Y-22.527 I-3.948 J-155.265
N7700 X-5.767 Y-22.666 I-0.175 J-31.593
N7705 X-7.654 Y-23.068 I1.108 J-9.833
N7710 X-8.788 Y-23.651 I1.548 J-4.403
N7715 X-9.951 Y-25.976 I1.756 J-2.332
N7720 G1 X-9.943 Y-26.054
N7725 X-9.924 Y-26.131
N7730 X-9.896 Y-26.204
N7735 G3 X-9.295 Y-26.553 I0.546 J0.249 F30000.
N7740 G1 X9.405 Y-24.83
N7745 G3 X9.896 Y-24.481 I-0.055 J0.597
N7750 X9.95 Y-24.254 I-0.546 J0.249 F900.
N7755 G1 Y-24.188 F1000.
N7760 G3 X9.292 Y-23.58 I-1.647 J-1.123
N7765 X8.006 Y-23.014 I-2.463 J-3.857
N7770 X6.006 Y-22.619 I-3.03 J-10.066
N7775 X3.081 Y-22.418 I-3.407 J-28.243
N7780 X-3.971 Y-22.39 I-4.063 J-133.606
N7785 X-6.394 Y-22.618 I0.708 J-20.501
N7790 X-8.073 Y-23.115 I1.37 J-7.715
N7795 X-9.007 Y-23.714 I1.783 J-3.802
N7800 X-9.901 Y-25.328 I2.019 J-2.174
N7805 G1 X-9.938 Y-25.594
N7810 X-9.95 Y-25.861
N7815 G3 X-9.896 Y-26.089 I0.6 J0.021
N7820 X-9.297 Y-26.438 I0.546 J0.249 F30000.
N7825 G1 X9.404 Y-24.764
N7830 G3 X9.896 Y-24.416 I-0.053 J0.598
N7835 X9.95 Y-24.188 I-0.546 J0.249 F900.
N7840 G1 Y-24.123 F1000.
N7845 G3 X9.355 Y-23.53 I-1.569 J-0.979
N7850 X8.131 Y-22.939 I-2.445 J-3.502
N7855 X6.199 Y-22.507 I-3.045 J-9.082
N7860 X3.415 Y-22.277 I-3.421 J-24.383
N7865 X-2.348 Y-22.205 I-4.259 J-110.805
N7870 X-5.647 Y-22.367 I-0.162 J-30.504
N7875 X-7.605 Y-22.802 I1.238 J-10.191
N7880 X-8.823 Y-23.445 I1.656 J-4.612
N7885 X-9.951 Y-25.744 I1.8 J-2.309
N7890 G1 X-9.943 Y-25.823
N7895 X-9.924 Y-25.899
N7900 X-9.896 Y-25.972
N7905 G3 X-9.299 Y-26.321 I0.546 J0.249 F30000.
N7910 G1 X9.402 Y-24.7
N7915 G3 X9.896 Y-24.351 I-0.052 J0.598
N7920 X9.95 Y-24.123 I-0.546 J0.249 F900.
N7925 G1 Y-24.056 F1000.
N7930 G3 X9.382 Y-23.457 I-1.563 J-0.914
N7935 X8.186 Y-22.845 I-2.467 J-3.343
N7940 X6.3 Y-22.387 I-3.078 J-8.573
N7945 X3.532 Y-22.13 I-3.478 J-22.436
N7950 X-1.07 Y-22.041 I-3.899 J-82.494
N7955 X-4.879 Y-22.141 I-0.675 J-46.824
N7960 X-6.993 Y-22.484 I1.183 J-13.976
N7965 X-8.552 Y-23.135 I1.564 J-5.942
N7970 X-9.662 Y-24.358 I1.713 J-2.67
N7975 X-9.95 Y-25.626 I2.714 J-1.284
N7980 X-9.896 Y-25.854 I0.6 J0.021
N7985 X-9.3 Y-26.203 I0.546 J0.249 F30000.
N7990 G1 X9.401 Y-24.633
N7995 G3 X9.896 Y-24.284 I-0.05 J0.598
N8000 X9.95 Y-24.056 I-0.546 J0.249 F900.
N8005 G1 Y-23.986 F1000.
N8010 G3 X9.384 Y-23.366 I-1.585 J-0.878
N8015 X8.169 Y-22.725 I-2.523 J-3.308
N8020 X6.241 Y-22.243 I-3.155 J-8.535
N8025 X3.547 Y-21.979 I-3.489 J-21.712
N8030 X-1.282 Y-21.88 I-4.041 J-79.558
N8035 X-4.96 Y-22.002 I-0.499 J-40.685
N8040 X-7.166 Y-22.403 I1.215 J-12.964
N8045 X-8.625 Y-23.062 I1.72 J-5.743
N8050 X-9.849 Y-24.736 I1.692 J-2.524
N8055 G1 X-9.904 Y-24.99
N8060 X-9.938 Y-25.247
N8065 X-9.95 Y-25.507
N8070 G3 X-9.896 Y-25.735 I0.6 J0.021
N8075 X-9.302 Y-26.084 I0.546 J0.249 F30000.
N8080 G1 X9.399 Y-24.563
N8085 G3 X9.896 Y-24.214 I-0.049 J0.598
N8090 X9.95 Y-23.986 I-0.546 J0.249 F900.
N8095 G1 Y-23.915 F1000.
N8100 G3 X9.409 Y-23.291 I-1.582 J-0.826
N8105 X8.222 Y-22.631 I-2.543 J-3.171
N8110 X6.286 Y-22.116 I-3.221 J-8.222
N8115 X3.712 Y-21.837 I-3.484 J-20.143
N8120 X-1.07 Y-21.72 I-4.133 J-71.127
N8125 X-4.815 Y-21.841 I-0.545 J-41.279
N8130 X-7.119 Y-22.258 I1.223 J-13.341
N8135 X-8.592 Y-22.92 I1.792 J-5.959
N8140 X-9.773 Y-24.377 I1.707 J-2.59
N8145 X-9.95 Y-25.386 I2.891 J-1.029
N8150 X-9.896 Y-25.614 I0.6 J0.021
N8155 X-9.303 Y-25.963 I0.546 J0.249 F30000.
N8160 G1 X9.397 Y-24.492
N8165 G3 X9.896 Y-24.143 I-0.047 J0.598
N8170 X9.95 Y-23.915 I-0.546 J0.249 F900.
N8175 G1 Y-23.843 F1000.
N8180 G3 X9.435 Y-23.218 I-1.569 J-0.767
N8185 X8.276 Y-22.538 I-2.557 J-3.034
N8190 X6.367 Y-21.997 I-3.263 J-7.869
N8195 X3.689 Y-21.686 I-3.613 J-19.449
N8200 X-0.513 Y-21.562 I-3.919 J-61.319
N8205 X-4.476 Y-21.663 I-0.786 J-47.065
N8210 X-6.847 Y-22.048 I1.22 J-14.983
N8215 X-8.517 Y-22.747 I1.747 J-6.513
N8220 X-9.557 Y-23.798 I1.81 J-2.832
N8225 X-9.951 Y-25.264 I2.592 J-1.482
N8230 G1 X-9.943 Y-25.342
N8235 X-9.924 Y-25.419
N8240 X-9.896 Y-25.492
N8245 G3 X-9.305 Y-25.842 I0.546 J0.249 F30000.
N8250 G1 X9.396 Y-24.421
N8255 G3 X9.896 Y-24.071 I-0.045 J0.598
N8260 X9.95 Y-23.843 I-0.546 J0.249 F900.
N8265 G1 Y-23.775 F1000.
N8270 G3 X9.451 Y-23.137 I-1.55 J-0.698
N8275 X8.36 Y-22.461 I-2.531 J-2.867
N8280 X6.445 Y-21.879 I-3.327 J-7.511
N8285 X3.864 Y-21.549 I-3.618 J-18.023
N8290 X-0.292 Y-21.404 I-4.025 J-55.693
N8295 X-4.306 Y-21.5 I-0.873 J-47.516
N8300 X-6.754 Y-21.889 I1.224 J-15.583
N8305 X-8.393 Y-22.547 I1.88 J-7.05
N8310 X-9.426 Y-23.471 I1.844 J-3.104
N8315 X-9.951 Y-25.142 I2.447 J-1.687
N8320 G1 X-9.943 Y-25.22
N8325 X-9.924 Y-25.296
N8330 X-9.896 Y-25.369
N8335 G3 X-9.307 Y-25.719 I0.546 J0.249 F30000.
N8340 G1 X9.394 Y-24.352
N8345 G3 X9.896 Y-24.003 I-0.044 J0.598
N8350 X9.95 Y-23.775 I-0.546 J0.249 F900.
N8355 G1 Y-23.701 F1000.
N8360 G3 X9.465 Y-23.053 I-1.553 J-0.657
N8365 X8.357 Y-22.346 I-2.577 J-2.819
N8370 X6.457 Y-21.749 I-3.364 J-7.384
N8375 X3.863 Y-21.4 I-3.685 J-17.577
N8380 X-0.163 Y-21.246 I-4.004 J-51.877
N8385 X-4.28 Y-21.348 I-0.913 J-46.187
N8390 X-6.671 Y-21.733 I1.339 J-15.936
N8395 X-8.342 Y-22.393 I1.917 J-7.302
N8400 X-9.314 Y-23.199 I1.93 J-3.317
N8405 X-9.951 Y-25.018 I2.319 J-1.832
N8410 G1 X-9.943 Y-25.096
N8415 X-9.924 Y-25.172
N8420 X-9.896 Y-25.246
N8425 G3 X-9.308 Y-25.596 I0.546 J0.249 F30000.
N8430 G1 X9.393 Y-24.279
N8435 G3 X9.896 Y-23.929 I-0.042 J0.599
N8440 X9.95 Y-23.701 I-0.546 J0.249 F900.
N8445 G1 Y-23.626 F1000.
N8450 G3 X9.489 Y-22.979 I-1.538 J-0.607
N8455 X8.382 Y-22.244 I-2.607 J-2.727
N8460 X6.625 Y-21.655 I-3.314 J-6.962
N8465 X4.026 Y-21.266 I-3.775 J-16.374
N8470 X0.14 Y-21.091 I-4.042 J-46.583
N8475 X-4.109 Y-21.185 I-1.093 J-46.954
N8480 X-6.61 Y-21.582 I1.317 J-16.378
N8485 X-8.337 Y-22.263 I1.956 J-7.483
N8490 X-9.159 Y-22.896 I2.223 J-3.737
N8495 X-9.938 Y-24.619 I2.166 J-2.017
N8500 G1 X-9.95 Y-24.894
N8505 G3 X-9.896 Y-25.122 I0.6 J0.021
N8510 X-9.31 Y-25.471 I0.546 J0.249 F30000.
N8515 G1 X9.391 Y-24.204
N8520 G3 X9.896 Y-23.854 I-0.041 J0.599
N8525 X9.95 Y-23.626 I-0.546 J0.249 F900.
N8530 X9.875 Y-23.379 I-0.386 J0.017 F1000.
N8535 X9.269 Y-22.684 I-1.843 J-0.995
N8540 X7.984 Y-21.952 I-2.868 J-3.54
N8545 X6.001 Y-21.39 I-3.523 J-8.646
N8550 X3.156 Y-21.05 I-3.911 J-20.651
N8555 X-1.598 Y-20.93 I-3.812 J-56.997
N8560 X-5.179 Y-21.158 I0.037 J-28.783
N8565 X-7.414 Y-21.703 I1.683 J-11.771
N8570 X-8.845 Y-22.483 I2.044 J-5.448
N8575 X-9.751 Y-23.707 I1.95 J-2.391
N8580 X-9.95 Y-24.768 I2.777 J-1.071
N8585 X-9.896 Y-24.996 I0.6 J0.021
N8590 X-9.311 Y-25.346 I0.546 J0.249 F30000.
N8595 G1 X9.389 Y-24.129
N8600 G3 X9.896 Y-23.779 I-0.039 J0.599
N8605 X9.95 Y-23.551 I-0.546 J0.249 F900.
N8610 X9.872 Y-23.288 I-0.432 J0.015 F1000.
N8615 X9.274 Y-22.585 I-1.858 J-0.975
N8620 X7.998 Y-21.839 I-2.9 J-3.494
N8625 X5.979 Y-21.25 I-3.597 J-8.578
N8630 X3.156 Y-20.899 I-3.943 J-20.201
N8635 X-1.945 Y-20.78 I-3.821 J-54.378
N8640 X-5.463 Y-21.06 I0.246 J-25.341
N8645 X-7.533 Y-21.618 I1.879 J-11.082
N8650 X-8.941 Y-22.437 I2.035 J-5.12
N8655 X-9.512 Y-23.109 I2.265 J-2.505
N8660 X-9.95 Y-24.642 I2.48 J-1.537
N8665 X-9.896 Y-24.87 I0.6 J0.021
N8670 X-9.313 Y-25.22 I0.546 J0.249 F30000.
N8675 G1 X9.388 Y-24.052
N8680 G3 X9.896 Y-23.702 I-0.037 J0.599
N8685 X9.95 Y-23.475 I-0.546 J0.249 F900.
N8690 X9.869 Y-23.193 I-0.477 J0.015 F1000.
N8695 X9.279 Y-22.485 I-1.876 J-0.963
N8700 X8.011 Y-21.725 I-2.934 J-3.457
N8705 X6.015 Y-21.121 I-3.635 J-8.423
N8710 X3.192 Y-20.752 I-4.006 J-19.625
N8715 X-1.716 Y-20.62 I-3.818 J-50.924
N8720 X-5.304 Y-20.891 I0.174 J-26.209
N8725 X-7.506 Y-21.475 I1.85 J-11.412
N8730 X-8.906 Y-22.28 I2.125 J-5.316
N8735 X-9.756 Y-23.468 I2.004 J-2.332
N8740 X-9.95 Y-24.516 I2.77 J-1.055
N8745 X-9.896 Y-24.743 I0.6 J0.021
N8750 X-9.314 Y-25.094 I0.546 J0.249 F30000.
N8755 G1 X9.386 Y-23.973
N8760 G3 X9.896 Y-23.623 I-0.036 J0.599
N8765 X9.95 Y-23.395 I-0.546 J0.249 F900.
N8770 X9.865 Y-23.093 I-0.523 J0.016 F1000.
N8775 X9.269 Y-22.37 I-1.916 J-0.973
N8780 X7.992 Y-21.596 I-2.985 J-3.485
N8785 X5.982 Y-20.979 I-3.695 J-8.449
N8790 X3.154 Y-20.599 I-4.056 J-19.468
N8795 X-3.525 Y-20.54 I-3.77 J-48.371
N8800 X-6.148 Y-20.918 I1.403 J-19.001
N8805 X-8.088 Y-21.613 I2.066 J-8.827
N8810 X-9.014 Y-22.251 I2.341 J-4.388
N8815 X-9.951 Y-24.388 I1.985 J-2.143
N8820 G1 X-9.942 Y-24.466
N8825 X-9.924 Y-24.543
N8830 X-9.896 Y-24.616
N8835 G3 X-9.316 Y-24.966 I0.546 J0.249 F30000.
N8840 G1 X9.385 Y-23.893
N8845 G3 X9.896 Y-23.543 I-0.034 J0.599
N8850 X9.95 Y-23.315 I-0.546 J0.249 F900.
N8855 X9.858 Y-22.987 I-0.594 J0.011 F1000.
N8860 X9.254 Y-22.251 I-1.953 J-0.987
N8865 X7.981 Y-21.471 I-3.024 J-3.506
N8870 X5.92 Y-20.83 I-3.778 J-8.52
N8875 X3.094 Y-20.444 I-4.09 J-19.415
N8880 X-3.429 Y-20.383 I-3.698 J-46.2
N8885 X-6.204 Y-20.793 I1.338 J-18.663
N8890 X-8.12 Y-21.499 I2.153 J-8.788
N8895 X-9.019 Y-22.128 I2.397 J-4.388
N8900 X-9.951 Y-24.26 I1.99 J-2.139
N8905 G1 X-9.942 Y-24.338
N8910 X-9.924 Y-24.414
N8915 X-9.896 Y-24.488
N8920 G3 X-9.317 Y-24.838 I0.546 J0.249 F30000.
N8925 G1 X9.383 Y-23.811
N8930 G3 X9.896 Y-23.461 I-0.033 J0.599
N8935 X9.95 Y-23.233 I-0.546 J0.249 F900.
N8940 X9.845 Y-22.865 I-0.685 J0.003 F1000.
N8945 X9.216 Y-22.11 I-2.021 J-1.045
N8950 X7.872 Y-21.302 I-3.134 J-3.688
N8955 X5.813 Y-20.671 I-3.824 J-8.815
N8960 X2.879 Y-20.278 I-4.191 J-20.111
N8965 X-3.489 Y-20.237 I-3.462 J-43.727
N8970 X-6.22 Y-20.658 I1.442 J-18.433
N8975 X-8.172 Y-21.396 I2.177 J-8.703
N8980 X-9.027 Y-22.006 I2.479 J-4.382
N8985 X-9.95 Y-24.131 I1.997 J-2.131
N8990 X-9.896 Y-24.359 I0.6 J0.021
N8995 X-9.319 Y-24.709 I0.546 J0.249 F30000.
N9000 G1 X9.382 Y-23.73
N9005 G3 X9.896 Y-23.379 I-0.031 J0.599
N9010 X9.95 Y-23.151 I-0.546 J0.249 F900.
N9015 X9.841 Y-22.758 I-0.729 J0.009 F1000.
N9020 X9.204 Y-21.99 I-2.064 J-1.063
N9025 X7.851 Y-21.17 I-3.187 J-3.73
N9030 X5.732 Y-20.518 I-3.912 J-8.942
N9035 X2.872 Y-20.127 I-4.176 J-19.918
N9040 X-3.408 Y-20.082 I-3.445 J-42.07
N9045 X-6.22 Y-20.519 I1.416 J-18.359
N9050 X-8.144 Y-21.25 I2.254 J-8.831
N9055 X-9.036 Y-21.885 I2.472 J-4.418
N9060 X-9.951 Y-24.002 I2.008 J-2.124
N9065 G1 X-9.942 Y-24.08
N9070 X-9.924 Y-24.156
N9075 X-9.896 Y-24.23
N9080 G3 X-9.32 Y-24.58 I0.546 J0.249 F30000.
N9085 G1 X9.38 Y-23.645
N9090 G3 X9.896 Y-23.295 I-0.03 J0.599
N9095 X9.95 Y-23.067 I-0.546 J0.249 F900.
N9100 X9.825 Y-22.628 I-0.805 J0.008 F1000.
N9105 X9.15 Y-21.833 I-2.156 J-1.148
N9110 X7.833 Y-21.038 I-3.222 J-3.846
N9115 X5.655 Y-20.364 I-4.017 J-9.127
N9120 X2.779 Y-19.97 I-4.213 J-20.05
N9125 X-3.431 Y-19.934 I-3.339 J-40.38
N9130 X-6.221 Y-20.381 I1.494 J-18.272
N9135 X-8.183 Y-21.14 I2.275 J-8.792
N9140 X-9.037 Y-21.756 I2.557 J-4.443
N9145 X-9.951 Y-23.872 I2.01 J-2.122
N9150 G1 X-9.942 Y-23.95
N9155 X-9.924 Y-24.026
N9160 X-9.896 Y-24.1
N9165 G3 X-9.322 Y-24.45 I0.546 J0.249 F30000.
N9170 G1 X9.379 Y-23.556
N9175 G3 X9.896 Y-23.206 I-0.029 J0.599
N9180 X9.95 Y-22.978 I-0.546 J0.249 F900.
N9185 X9.803 Y-22.485 I-0.894 J0.002 F1000.
N9190 X9.086 Y-21.668 I-2.259 J-1.259
N9195 X7.762 Y-20.882 I-3.294 J-4.045
N9200 X5.557 Y-20.206 I-4.095 J-9.413
N9205 X2.45 Y-19.795 I-4.359 J-21.012
N9210 X-3.49 Y-19.79 I-3.002 J-38.54
N9215 X-6.302 Y-20.263 I1.557 J-17.845
N9220 X-8.158 Y-20.994 I2.402 J-8.82
N9225 X-9.046 Y-21.635 I2.493 J-4.393
N9230 X-9.95 Y-23.741 I2.016 J-2.113
N9235 X-9.896 Y-23.969 I0.6 J0.021
N9240 X-9.323 Y-24.32 I0.546 J0.249 F30000.
N9245 G1 X9.378 Y-23.468
N9250 G3 X9.896 Y-23.118 I-0.027 J0.599
N9255 X9.95 Y-22.89 I-0.546 J0.249 F900.
N9260 X9.773 Y-22.328 I-0.987 J-0.002 F1000.
N9265 X9.033 Y-21.51 I-2.347 J-1.381
N9270 X7.469 Y-20.635 I-3.545 J-4.495
N9275 X5.226 Y-20. I-4.146 J-10.372
N9280 X1.909 Y-19.607 I-4.429 J-23.212
N9285 X-3.587 Y-19.65 I-2.461 J-36.516
N9290 X-6.356 Y-20.139 I1.653 J-17.443
N9295 X-8.243 Y-20.91 I2.409 J-8.596
N9300 X-9.052 Y-21.509 I2.62 J-4.384
N9305 X-9.95 Y-23.61 I2.022 J-2.108
N9310 X-9.896 Y-23.838 I0.6 J0.021
N9315 X-9.324 Y-24.189 I0.546 J0.249 F30000.
N9320 G1 X9.376 Y-23.379
N9325 G3 X9.896 Y-23.028 I-0.026 J0.599
N9330 X9.95 Y-22.8 I-0.546 J0.249 F900.
N9335 X9.764 Y-22.207 I-1.029 J0.004 F1000.
N9340 X9.037 Y-21.398 I-2.369 J-1.398
N9345 X7.465 Y-20.506 I-3.596 J-4.504
N9350 X5.212 Y-19.857 I-4.198 J-10.351
N9355 X1.82 Y-19.451 I-4.486 J-23.076
N9360 X-3.629 Y-19.506 I-2.366 J-35.123
N9365 X-6.43 Y-20.021 I1.693 J-17.077
N9370 X-8.254 Y-20.784 I2.498 J-8.544
N9375 X-9.059 Y-21.384 I2.619 J-4.35
N9380 X-9.95 Y-23.479 I2.029 J-2.101
N9385 X-9.896 Y-23.707 I0.6 J0.021
N9390 X-9.326 Y-24.057 I0.546 J0.249 F30000.
N9395 G1 X9.375 Y-23.286
N9400 G3 X9.896 Y-22.936 I-0.025 J0.599
N9405 X9.95 Y-22.708 I-0.546 J0.249 F900.
N9410 X9.79 Y-22.151 I-0.986 J0.019 F1000.
N9415 X9.09 Y-21.331 I-2.325 J-1.279
N9420 X7.582 Y-20.433 I-3.551 J-4.244
N9425 X5.317 Y-19.744 I-4.267 J-9.965
N9430 X1.959 Y-19.317 I-4.552 J-22.353
N9435 X-3.707 Y-19.375 I-2.476 J-34.749
N9440 X-6.269 Y-19.844 I1.8 J-17.045
N9445 X-8.333 Y-20.704 I2.266 J-8.349
N9450 X-9.26 Y-21.469 I2.304 J-3.737
N9455 X-9.951 Y-23.353 I2.263 J-1.898
N9460 G1 X-9.943 Y-23.432
N9465 X-9.924 Y-23.508
N9470 X-9.896 Y-23.581
N9475 G3 X-9.327 Y-23.932 I0.546 J0.249 F30000.
N9480 G1 X9.374 Y-23.189
N9485 G3 X9.896 Y-22.838 I-0.024 J0.6
N9490 X9.95 Y-22.611 I-0.546 J0.249 F900.
N9495 X9.774 Y-22.018 I-1.043 J0.012 F1000.
N9500 X9.082 Y-21.213 I-2.354 J-1.323
N9505 X7.56 Y-20.302 I-3.606 J-4.295
N9510 X5.286 Y-19.604 I-4.311 J-10.003
N9515 X1.934 Y-19.174 I-4.533 J-22.009
N9520 X-3.731 Y-19.238 I-2.445 J-34.08
N9525 X-6.444 Y-19.762 I1.751 J-16.355
N9530 X-8.479 Y-20.67 I2.302 J-7.892
N9535 X-9.291 Y-21.381 I2.371 J-3.526
N9540 X-9.951 Y-23.227 I2.284 J-1.857
N9545 G1 X-9.943 Y-23.305
N9550 X-9.924 Y-23.382
N9555 X-9.896 Y-23.455
N9560 G3 X-9.328 Y-23.806 I0.546 J0.249 F30000.
N9565 G1 X9.373 Y-23.102
N9570 G3 X9.896 Y-22.752 I-0.023 J0.6
N9575 X9.95 Y-22.524 I-0.546 J0.249 F900.
N9580 X9.777 Y-21.919 I-1.058 J0.024 F1000.
N9585 X9.038 Y-21.065 I-2.43 J-1.355
N9590 X7.578 Y-20.187 I-3.6 J-4.333
N9595 X5.097 Y-19.432 I-4.48 J-10.269
N9600 X2.117 Y-19.047 I-4.188 J-20.683
N9605 G1 X-2.52 Y-19.05
N9610 G3 X-4.038 Y-19.147 I0.533 J-20.304
N9615 X-7.088 Y-19.847 I1.463 J-13.367
N9620 X-8.746 Y-20.734 I2.452 J-6.574
N9625 X-9.742 Y-22.014 I1.945 J-2.543
N9630 X-9.95 Y-23.1 I2.816 J-1.102
N9635 X-9.896 Y-23.328 I0.6 J0.021
N9640 X-9.08 Y-23.615 I0.546 J0.249 F30000.
N9645 G1 X-2.271 Y-20.186
N9650 G3 X-2.292 Y-19.104 I-0.27 J0.536
N9655 X-2.52 Y-19.05 I-0.249 J-0.546 F900.
N9660 G1 X-3.744 F1000.
N9665 G3 X-7.806 Y-20.023 I0.321 J-10.309
N9670 X-9.09 Y-20.899 I2.447 J-4.966
N9675 X-9.566 Y-21.523 I2.361 J-2.292
N9680 X-9.95 Y-22.967 I2.524 J-1.445
N9685 X-9.896 Y-23.194 I0.6 J0.021
N9690 X-9.045 Y-23.462 I0.546 J0.249 F30000.
N9695 G1 X-3.46 Y-20.166
N9700 G3 X-3.516 Y-19.104 I-0.305 J0.517
N9705 X-3.744 Y-19.05 I-0.249 J-0.546 F900.
N9710 G1 X-4.554 F1000.
N9715 G3 X-7.382 Y-19.71 I0.396 J-8.081
N9720 X-9.122 Y-20.804 I1.965 J-5.059
N9725 X-9.94 Y-22.59 I2.132 J-2.057
N9730 G1 X-9.95 Y-22.84
N9735 G3 X-9.896 Y-23.068 I0.6 J0.021
N9740 X-9.019 Y-23.319 I0.546 J0.249 F30000.
N9745 G1 X-4.244 Y-20.15
N9750 G3 X-4.327 Y-19.104 I-0.332 J0.5
N9755 X-4.554 Y-19.05 I-0.249 J-0.546 F900.
N9760 G1 X-5.139 F1000.
N9765 G3 X-7.085 Y-19.471 I0.302 J-6.106
N9770 X-8.956 Y-20.52 I1.919 J-5.616
N9775 X-9.941 Y-22.463 I1.974 J-2.222
N9780 G1 X-9.95 Y-22.713
N9785 G3 X-9.896 Y-22.941 I0.6 J0.021
N9790 X-8.998 Y-23.177 I0.546 J0.249 F30000.
N9795 G1 X-4.807 Y-20.135
N9800 G3 X-4.911 Y-19.104 I-0.352 J0.486
N9805 X-5.139 Y-19.05 I-0.249 J-0.546 F900.
N9810 X-5.837 Y-19.063 I-0.237 J-5.892 F1000.
N9815 X-8.853 Y-20.307 I0.74 J-6.074
N9820 X-9.953 Y-22.586 I1.868 J-2.306
N9825 G1 X-9.944 Y-22.665
N9830 X-9.925 Y-22.741
N9835 X-9.896 Y-22.814
N9840 G3 X-8.98 Y-23.038 I0.546 J0.249 F30000.
N9845 G1 X-5.261 Y-20.122
N9850 G3 X-5.382 Y-19.104 I-0.37 J0.472
N9855 X-5.61 Y-19.05 I-0.249 J-0.546 F900.
N9860 X-6.391 Y-19.084 I-0.205 J-4.258 F1000.
N9865 X-8.963 Y-20.275 I0.937 J-5.398
N9870 X-9.952 Y-22.461 I1.961 J-2.203
N9875 G1 X-9.943 Y-22.539
N9880 X-9.925 Y-22.616
N9885 X-9.896 Y-22.689
N9890 G3 X-8.965 Y-22.9 I0.546 J0.249 F30000.
N9895 G1 X-5.63 Y-20.11
N9900 G3 X-5.767 Y-19.104 I-0.385 J0.46
N9905 X-5.994 Y-19.05 I-0.249 J-0.546 F900.
N9910 X-6.681 Y-19.078 I-0.191 J-3.688 F1000.
N9915 X-9.122 Y-20.301 I0.838 J-4.722
N9920 X-9.951 Y-22.337 I2.118 J-2.05
N9925 G1 X-9.943 Y-22.415
N9930 X-9.924 Y-22.492
N9935 X-9.896 Y-22.565
N9940 G3 X-8.95 Y-22.763 I0.546 J0.249 F30000.
N9945 G1 X-5.975 Y-20.096
N9950 G3 X-6.127 Y-19.104 I-0.4 J0.447
N9955 X-6.354 Y-19.05 I-0.249 J-0.546 F900.
N9960 X-7.117 Y-19.106 I-0.17 J-2.896 F1000.
N9965 X-9.089 Y-20.15 I0.984 J-4.243
N9970 X-9.951 Y-22.217 I2.065 J-2.074
N9975 G1 X-9.943 Y-22.295
N9980 X-9.924 Y-22.371
N9985 X-9.896 Y-22.445
N9990 G3 X-8.936 Y-22.63 I0.546 J0.249 F30000.
N9995 G1 X-6.267 Y-20.084
N10000 G3 X-6.432 Y-19.104 I-0.414 J0.434
N10005 X-6.66 Y-19.05 I-0.249 J-0.546 F900.
N10010 X-7.991 Y-19.322 I-0.14 J-2.707 F1000.
N10015 X-9.314 Y-20.286 I1.31 J-3.188
N10020 X-9.951 Y-22.103 I2.304 J-1.827
N10025 G1 X-9.943 Y-22.181
N10030 X-9.924 Y-22.258
N10035 X-9.896 Y-22.331
N10040 G3 X-8.922 Y-22.503 I0.546 J0.249 F30000.
N10045 G1 X-6.532 Y-20.07
N10050 G3 X-6.711 Y-19.104 I-0.428 J0.421
N10055 X-6.939 Y-19.05 I-0.249 J-0.546 F900.
N10060 X-8.16 Y-19.311 I-0.122 J-2.416 F1000.
N10065 X-9.953 Y-21.996 I1.142 J-2.703
N10070 G1 X-9.944 Y-22.074
N10075 X-9.925 Y-22.15
N10080 X-9.896 Y-22.224
N10085 G3 X-8.909 Y-22.382 I0.546 J0.249 F30000.
N10090 G1 X-6.764 Y-20.057
N10095 G3 X-6.956 Y-19.104 I-0.441 J0.407
N10100 X-7.184 Y-19.05 I-0.249 J-0.546 F900.
N10105 X-8.354 Y-19.32 I-0.11 J-2.193 F1000.
N10110 X-9.047 Y-19.798 I1.011 J-2.206
N10115 X-9.95 Y-21.894 I1.974 J-2.093
N10120 X-9.896 Y-22.122 I0.599 J0.021
N10125 X-8.896 Y-22.265 I0.546 J0.249 F30000.
N10130 G1 X-6.977 Y-20.042
N10135 G3 X-7.182 Y-19.104 I-0.454 J0.392
N10140 X-7.41 Y-19.05 I-0.249 J-0.546 F900.
N10145 X-8.604 Y-19.375 I-0.093 J-2.012 F1000.
N10150 X-9.949 Y-21.76 I1.422 J-2.374
N10155 G1 X-9.941 Y-21.838
N10160 X-9.924 Y-21.914
N10165 X-9.896 Y-21.988
N10170 G3 X-8.887 Y-22.12 I0.546 J0.249 F30000.
N10175 G1 X-7.172 Y-20.03
N10180 G3 X-7.387 Y-19.104 I-0.464 J0.381
N10185 X-7.614 Y-19.05 I-0.249 J-0.546 F900.
N10190 X-8.676 Y-19.342 I-0.09 J-1.749 F1000.
N10195 G1 X-8.715 Y-19.36
N10200 G3 X-9.95 Y-21.616 I1.437 J-2.252
N10205 X-9.896 Y-21.843 I0.599 J0.021
N10210 X-8.879 Y-21.966 I0.546 J0.249 F30000.
N10215 G1 X-7.344 Y-20.021
N10220 G3 X-7.567 Y-19.104 I-0.471 J0.372
N10225 X-7.794 Y-19.05 I-0.249 J-0.546 F900.
N10230 X-8.77 Y-19.326 I-0.083 J-1.569 F1000.
N10235 X-9.204 Y-19.664 I0.939 J-1.649
N10240 X-9.95 Y-21.465 I1.795 J-1.799
N10245 X-9.896 Y-21.692 I0.6 J0.021
N10250 X-8.873 Y-21.807 I0.546 J0.249 F30000.
N10255 G1 X-7.507 Y-20.013
N10260 G3 X-7.736 Y-19.104 I-0.477 J0.363
N10265 X-7.964 Y-19.05 I-0.249 J-0.546 F900.
N10270 X-8.853 Y-19.307 I-0.071 J-1.421 F1000.
N10275 G1 X-8.892 Y-19.326
N10280 G3 X-9.949 Y-21.312 I1.323 J-1.979
N10285 G1 X-9.942 Y-21.39
N10290 X-9.924 Y-21.466
N10295 X-9.896 Y-21.539
N10300 G3 X-8.868 Y-21.647 I0.546 J0.249 F30000.
N10305 G1 X-7.655 Y-20.006
N10310 G3 X-7.889 Y-19.104 I-0.482 J0.357
N10315 X-8.116 Y-19.05 I-0.249 J-0.546 F900.
N10320 X-8.947 Y-19.3 I-0.06 J-1.304 F1000.
N10325 G1 X-8.977 Y-19.314
N10330 G3 X-9.95 Y-21.164 I1.266 J-1.846
N10335 X-9.896 Y-21.392 I0.599 J0.021
N10340 X-8.864 Y-21.495 I0.546 J0.249 F30000.
N10345 G1 X-7.783 Y-20.002
N10350 G3 X-8.02 Y-19.104 I-0.486 J0.352
N10355 X-8.248 Y-19.05 I-0.249 J-0.546 F900.
N10360 X-9.024 Y-19.287 I-0.058 J-1.201 F1000.
N10365 X-9.454 Y-19.662 I0.842 J-1.397
N10370 X-9.95 Y-21.017 I1.594 J-1.352
N10375 X-9.896 Y-21.245 I0.599 J0.021
N10380 X-8.86 Y-21.342 I0.546 J0.249 F30000.
N10385 G1 X-7.91 Y-19.996
N10390 G3 X-8.151 Y-19.104 I-0.49 J0.346
N10395 X-8.379 Y-19.05 I-0.249 J-0.546 F900.
N10400 X-9.118 Y-19.286 I-0.044 J-1.138 F1000.
N10405 G1 X-9.144 Y-19.298
N10410 X-9.172 Y-19.318
N10415 X-9.201 Y-19.34
N10420 X-9.226 Y-19.359
N10425 X-9.248 Y-19.376
N10430 G3 X-9.95 Y-20.873 I1.239 J-1.494
N10435 X-9.896 Y-21.101 I0.599 J0.021
N10440 X-8.858 Y-21.195 I0.546 J0.249 F30000.
N10445 G1 X-8.019 Y-19.993
N10450 G3 X-8.262 Y-19.104 I-0.492 J0.344
N10455 X-8.49 Y-19.05 I-0.249 J-0.546 F900.
N10460 X-9.192 Y-19.276 I-0.045 J-1.063 F1000.
N10465 G1 X-9.223 Y-19.293
N10470 G3 X-9.534 Y-19.585 I0.911 J-1.282
N10475 X-9.95 Y-20.739 I1.394 J-1.154
N10480 X-9.896 Y-20.967 I0.6 J0.021
N10485 X-8.854 Y-21.056 I0.546 J0.249 F30000.
N10490 G1 X-8.127 Y-19.987
N10495 G3 X-8.374 Y-19.104 I-0.496 J0.338
N10500 X-8.602 Y-19.05 I-0.249 J-0.546 F900.
N10505 X-9.291 Y-19.289 I-0.037 J-1.006 F1000.
N10510 G1 X-9.317 Y-19.303
N10515 X-9.337 Y-19.318
N10520 X-9.355 Y-19.332
N10525 X-9.371 Y-19.346
N10530 X-9.386 Y-19.358
N10535 X-9.4 Y-19.371
N10540 X-9.418 Y-19.387
N10545 X-9.603 Y-19.59
N10550 X-9.752 Y-19.82
N10555 X-9.861 Y-20.071
N10560 X-9.928 Y-20.336
N10565 X-9.95 Y-20.609
N10570 G3 X-9.92 Y-20.843 I1.264 J0.044
N10575 X-8.09 Y-21.68 I1.233 J0.277 F30000.
N10580 X-8.467 Y-19.078 I-0.659 J1.233
N10585 X-8.701 Y-19.05 I-0.282 J-1.369 F900.
N10590 X-9.355 Y-19.28 I-0.037 J-0.94 F1000.
N10595 G1 X-9.382 Y-19.295
N10600 X-9.403 Y-19.312
N10605 X-9.422 Y-19.327
N10610 X-9.438 Y-19.341
N10615 X-9.453 Y-19.354
N10620 G3 X-9.95 Y-20.487 I1.038 J-1.13
N10625 X-9.918 Y-20.72 I1.166 J0.041
N10630 X-8.236 Y-21.477 I1.134 J0.274 F30000.
N10635 X-8.563 Y-19.08 I-0.606 J1.138
N10640 X-8.796 Y-19.05 I-0.278 J-1.259 F900.
N10645 X-9.399 Y-19.257 I-0.035 J-0.879 F1000.
N10650 G1 X-9.59 Y-19.43
N10655 X-9.743 Y-19.636
N10660 X-9.857 Y-19.867
N10665 X-9.927 Y-20.115
N10670 X-9.95 Y-20.372
N10675 G3 X-9.916 Y-20.604 I1.075 J0.038
N10680 X-8.373 Y-21.285 I1.041 J0.27 F30000.
N10685 X-8.653 Y-19.081 I-0.554 J1.049
N10690 X-8.886 Y-19.05 I-0.275 J-1.154 F900.
N10695 X-9.493 Y-19.282 I-0.031 J-0.829 F1000.
N10700 G1 X-9.653 Y-19.44
N10705 G3 X-9.95 Y-20.271 I1.014 J-0.831
N10710 X-9.914 Y-20.504 I0.99 J0.035
N10715 X-8.494 Y-21.111 I0.954 J0.267 F30000.
N10720 X-8.738 Y-19.083 I-0.516 J0.966
N10725 X-8.971 Y-19.05 I-0.271 J-1.061 F900.
N10730 X-9.553 Y-19.283 I-0.027 J-0.777 F1000.
N10735 G1 X-9.723 Y-19.466
N10740 X-9.847 Y-19.683
N10745 X-9.924 Y-19.921
N10750 X-9.95 Y-20.169
N10755 G3 X-9.912 Y-20.401 I0.909 J0.032
N10760 X-8.615 Y-20.941 I0.871 J0.264 F30000.
N10765 X-8.818 Y-19.086 I-0.471 J0.887
N10770 X-9.05 Y-19.05 I-0.267 J-0.968 F900.
N10775 X-9.477 Y-19.177 I-0.036 J-0.658 F1000.
N10780 G1 X-9.675 Y-19.352
N10785 X-9.825 Y-19.571
N10790 X-9.918 Y-19.819
N10795 X-9.95 Y-20.082
N10800 G3 X-9.909 Y-20.313 I0.836 J0.029
N10805 X-8.719 Y-20.791 I0.795 J0.26 F30000.
N10810 X-8.891 Y-19.088 I-0.436 J0.816
N10815 X-9.123 Y-19.05 I-0.264 J-0.887 F900.
N10820 X-9.605 Y-19.239 I-0.027 J-0.639 F1000.
N10825 G1 X-9.752 Y-19.397
N10830 X-9.861 Y-19.585
N10835 X-9.927 Y-19.791
N10840 X-9.95 Y-20.006
N10845 G3 X-9.906 Y-20.237 I0.77 J0.027
N10850 X-8.806 Y-20.654 I0.727 J0.257 F30000.
N10855 X-8.962 Y-19.09 I-0.415 J0.748
N10860 X-9.194 Y-19.05 I-0.259 J-0.816 F900.
N10865 X-9.688 Y-19.274 I-0.015 J-0.624 F1000.
N10870 G1 X-9.832 Y-19.463
N10875 X-9.92 Y-19.684
N10880 X-9.95 Y-19.92
N10885 G3 X-9.903 Y-20.15 I0.704 J0.025
N10890 X-8.909 Y-20.514 I0.657 J0.254 F30000.
N10895 X-9.027 Y-19.093 I-0.373 J0.684
N10900 X-9.258 Y-19.05 I-0.255 J-0.737 F900.
N10905 X-9.635 Y-19.183 I-0.025 J-0.532 F1000.
N10910 G1 X-9.806 Y-19.371
N10915 X-9.913 Y-19.601
N10920 X-9.95 Y-19.853
N10925 G3 X-9.899 Y-20.082 I0.641 J0.022
N10930 X-8.991 Y-20.388 I0.59 J0.251 F30000.
N10935 X-9.093 Y-19.096 I-0.355 J0.622
N10940 X-9.323 Y-19.05 I-0.253 J-0.67 F900.
N10945 X-9.764 Y-19.274 I0.001 J-0.549 F1000.
N10950 G1 X-9.866 Y-19.426
N10955 X-9.928 Y-19.598
N10960 X-9.95 Y-19.779
N10965 G3 X-9.899 Y-20.008 I0.618 J0.018
N10970 X-8.942 Y-20.242 I0.567 J0.246 F30000.
N10975 X-9.186 Y-19.079 I-0.42 J0.519
N10980 X-9.42 Y-19.058 I-0.176 J-0.644 F900.
N10985 G1 X-9.45 Y-19.061 F1000.
N10990 X-9.54 Y-19.087
N10995 X-9.556 Y-19.093
N11000 X-9.616 Y-19.123
N11005 X-9.642 Y-19.137
N11010 X-9.647 Y-19.14
N11015 G3 X-9.69 Y-19.345 I0.097 J-0.127
N11020 G1 X-9.686 Y-19.351
N11025 G3 X-9.413 Y-19.19 I0.135 J0.084 F30000.
N11030 X-9.616 Y-19.123 I-0.139 J-0.078 F900.
N11035 G1 X-9.638 Y-19.133 F1000.
N11040 X-9.695 Y-19.173
N11045 X-9.71 Y-19.186
N11050 X-9.722 Y-19.195
N11055 X-9.733 Y-19.205
N11060 X-9.738 Y-19.21
N11065 G3 X-9.792 Y-19.429 I0.172 J-0.158
N11070 X-9.745 Y-19.518 I0.226 J0.061 F30000.
N11075 X-9.387 Y-19.219 I0.179 J0.15
N11080 X-9.469 Y-19.156 I-0.179 J-0.15
N11085 X-9.695 Y-19.173 I-0.097 J-0.213 F900.
N11090 X-9.893 Y-19.417 I0.439 J-0.56 F1000.
N11095 X-9.901 Y-19.645 I0.256 J-0.124
N11100 X-9.401 Y-19.699 I0.264 J0.105 F30000.
N11105 G1 X-9.341 Y-19.61
N11110 G3 X-9.557 Y-19.168 I-0.236 J0.159
N11115 X-9.773 Y-19.245 I-0.02 J-0.284 F900.
N11120 X-9.949 Y-19.632 I0.417 J-0.423 F1000.
N11125 G1 X-9.95 Y-19.812
N11130 Y-21.251
N11135 G3 X-9.896 Y-21.479 I0.6 J0.021
N11140 X-9.388 Y-21.829 I0.546 J0.249 F30000.
N11145 G1 X9.313 Y-23.005
N11150 G3 X9.896 Y-22.655 I0.038 J0.599
N11155 X9.95 Y-22.427 I-0.546 J0.249 F900.
N11160 X9.781 Y-21.82 I-1.072 J0.028 F1000.
N11165 X9.047 Y-20.96 I-2.449 J-1.346
N11170 X7.475 Y-20.02 I-3.715 J-4.43
N11175 X5.157 Y-19.31 I-4.404 J-10.239
N11180 X3.558 Y-19.05 I-3.018 J-13.521
N11185 G1 X3.422
N11190 X2.117
N11195 G3 X1.895 Y-19.101 Z-17.946 I0.021 J-0.6
N11200 X1.538 Y-19.65 Z-17.784 I0.243 J-0.549 F30000.
N11205 X1.98 Y-20.229 Z-17.289 I0.6 J0.
N11210 G1 X7.14 Y-21.431 Z-10.778
N11215 G3 X7.432 Y-21.466 Z-10.538 I0.291 J1.176
N11220 X8.554 Y-20.711 Z-9.995 I0. J1.212
N11225 G1 X8.64 Y-20.172
N11230 G3 X7.79 Y-19.098 I-1.209 J-0.083
N11235 X7.569 Y-19.051 I-0.359 J-1.157 F900.
N11240 G1 X7.56 Y-19.05
N11245 X4.259 F1000.
N11250 X4.033 Y-19.119
N11255 X3.96 Y-19.142 F30000.
N11260 G3 X3.68 Y-19.65 Z-18. I0.32 J-0.508
N11265 X3.984 Y-20.172 I0.6 J0.
N11270 G1 X9. Y-22.796
N11275 G3 X9.896 Y-22.559 I0.35 J0.487
N11280 X9.916 Y-22.51 I-0.546 J0.249 F900.
N11285 G1 X9.95 Y-22.33
N11290 G3 X9.764 Y-21.684 I-1.118 J0.028 F1000.
N11295 X9.092 Y-20.885 I-2.413 J-1.347
N11300 X7.579 Y-19.943 I-3.712 J-4.28
N11305 X5.129 Y-19.171 I-4.519 J-10.072
N11310 X4.259 Y-19.049 I-0.943 J-3.547
N11315 G1 X3.422 Y-19.05
N11320 G3 X3.194 Y-19.104 I0.021 J-0.6
N11325 X3.204 Y-20.2 I0.249 J-0.546 F30000.
N11330 G1 X9.112 Y-22.764
N11335 G3 X9.896 Y-22.462 I0.239 J0.55
N11340 X9.95 Y-22.234 I-0.546 J0.249 F900.
N11345 X9.763 Y-21.573 I-1.138 J0.035 F1000.
N11350 X9.033 Y-20.72 I-2.506 J-1.404
N11355 X7.435 Y-19.756 I-3.813 J-4.516
N11360 X5.324 Y-19.084 I-4.184 J-9.488
N11365 G1 X5.099 Y-19.059
N11370 X4.873 Y-19.05
N11375 G3 X4.645 Y-19.104 I0.021 J-0.6
N11380 X4.604 Y-20.175 I0.249 J-0.546 F30000.
N11385 G1 X9.06 Y-22.638
N11390 G3 X9.896 Y-22.362 I0.29 J0.525
N11395 X9.95 Y-22.134 I-0.546 J0.249 F900.
N11400 X9.762 Y-21.462 I-1.156 J0.039 F1000.
N11405 X9.026 Y-20.598 I-2.538 J-1.418
N11410 X7.414 Y-19.623 I-3.858 J-4.555
N11415 X5.896 Y-19.099 I-3.486 J-7.637
N11420 G1 X5.626 Y-19.063
N11425 X5.354 Y-19.05
N11430 G3 X5.126 Y-19.104 I0.021 J-0.6
N11435 X5.069 Y-20.166 I0.249 J-0.546 F30000.
N11440 G1 X9.044 Y-22.525
N11445 G3 X9.896 Y-22.258 I0.306 J0.516
N11450 X9.95 Y-22.03 I-0.546 J0.249 F900.
N11455 X9.761 Y-21.35 I-1.167 J0.042 F1000.
N11460 X9.019 Y-20.477 I-2.566 J-1.428
N11465 X7.395 Y-19.49 I-3.9 J-4.589
N11470 X6.201 Y-19.083 I-2.218 J-4.545
N11475 G1 X5.974 Y-19.059
N11480 X5.746 Y-19.05
N11485 G3 X5.518 Y-19.104 I0.021 J-0.6
N11490 X5.448 Y-20.158 I0.249 J-0.546 F30000.
N11495 G1 X9.031 Y-22.407
N11500 G3 X9.896 Y-22.148 I0.319 J0.508
N11505 X9.95 Y-21.92 I-0.546 J0.249 F900.
N11510 X9.76 Y-21.236 I-1.182 J0.04 F1000.
N11515 X9.01 Y-20.353 I-2.597 J-1.444
N11520 X7.386 Y-19.361 I-3.935 J-4.619
N11525 X6.074 Y-19.05 I-1.325 J-2.659
N11530 X5.846 Y-19.104 I0.021 J-0.6
N11535 X5.764 Y-20.151 I0.249 J-0.546 F30000.
N11540 G1 X9.02 Y-22.296
N11545 G3 X9.896 Y-22.044 I0.33 J0.501
N11550 X9.95 Y-21.816 I-0.546 J0.249 F900.
N11555 X9.759 Y-21.123 I-1.195 J0.044 F1000.
N11560 X9.004 Y-20.23 I-2.626 J-1.456
N11565 X7.285 Y-19.203 I-3.804 J-4.414
N11570 X6.35 Y-19.05 I-0.944 J-2.837
N11575 X6.123 Y-19.104 I0.021 J-0.6
N11580 X6.033 Y-20.145 I0.249 J-0.546 F30000.
N11585 G1 X9.012 Y-22.18
N11590 G3 X9.896 Y-21.934 I0.338 J0.495
N11595 X9.95 Y-21.706 I-0.546 J0.249 F900.
N11600 X9.758 Y-21.008 I-1.205 J0.044 F1000.
N11605 X8.997 Y-20.106 I-2.652 J-1.467
N11610 X7.659 Y-19.254 I-3.384 J-3.834
N11615 X6.587 Y-19.05 I-1.079 J-2.759
N11620 X6.36 Y-19.104 I0.021 J-0.6
N11625 X6.264 Y-20.141 I0.249 J-0.546 F30000.
N11630 G1 X9.006 Y-22.064
N11635 G3 X9.896 Y-21.822 I0.345 J0.491
N11640 X9.95 Y-21.594 I-0.546 J0.249 F900.
N11645 X9.758 Y-20.892 I-1.213 J0.045 F1000.
N11650 X9.045 Y-20.03 I-2.613 J-1.432
N11655 X7.778 Y-19.219 I-2.819 J-3.011
N11660 X6.791 Y-19.05 I-1.007 J-2.9
N11665 X6.563 Y-19.104 I0.021 J-0.6
N11670 X6.463 Y-20.138 I0.249 J-0.546 F30000.
N11675 G1 X9.002 Y-21.948
N11680 G3 X9.896 Y-21.709 I0.348 J0.489
N11685 X9.95 Y-21.481 I-0.546 J0.249 F900.
N11690 X9.774 Y-20.806 I-1.196 J0.048 F1000.
N11695 X8.989 Y-19.862 I-2.704 J-1.449
N11700 X6.966 Y-19.048 I-2.052 J-2.177
N11705 G1 X6.887 Y-19.056
N11710 X6.811 Y-19.075
N11715 X6.738 Y-19.104
N11720 G3 X6.637 Y-20.137 I0.249 J-0.546 F30000.
N11725 G1 X9.001 Y-21.832
N11730 G3 X9.896 Y-21.593 I0.35 J0.488
N11735 X9.95 Y-21.365 I-0.546 J0.249 F900.
N11740 X9.773 Y-20.689 I-1.202 J0.046 F1000.
N11745 X8.927 Y-19.692 I-2.76 J-1.483
N11750 X7.112 Y-19.051 I-1.805 J-2.218
N11755 G1 X7.034 Y-19.058
N11760 X6.958 Y-19.076
N11765 X6.884 Y-19.104
N11770 G3 X6.785 Y-20.138 I0.249 J-0.546 F30000.
N11775 G1 X9.002 Y-21.719
N11780 G3 X9.896 Y-21.479 I0.348 J0.489
N11785 X9.95 Y-21.251 I-0.546 J0.249 F900.
N11790 X9.772 Y-20.571 I-1.211 J0.046 F1000.
N11795 X9.031 Y-19.682 I-2.373 J-1.222
N11800 X7.227 Y-19.05 I-1.799 J-2.247
N11805 X7. Y-19.104 I0.021 J-0.599
N11810 X6.905 Y-20.142 I0.249 J-0.546 F30000.
N11815 G1 X9.007 Y-21.608
N11820 G3 X9.896 Y-21.365 I0.343 J0.492
N11825 X9.95 Y-21.137 I-0.546 J0.249 F900.
N11830 X9.754 Y-20.423 I-1.247 J0.042 F1000.
N11835 X9.326 Y-19.85 I-1.885 J-0.964
N11840 X7.388 Y-19.05 I-1.934 J-1.939
N11845 X7.16 Y-19.104 I0.021 J-0.599
N11850 X7.065 Y-20.141 I0.249 J-0.546 F30000.
N11855 G1 X9.007 Y-21.498
N11860 G3 X9.896 Y-21.255 I0.344 J0.492
N11865 X9.95 Y-21.027 I-0.546 J0.249 F900.
N11870 X9.737 Y-20.277 I-1.269 J0.045 F1000.
N11875 X9.222 Y-19.662 I-1.858 J-1.032
N11880 X7.557 Y-19.05 I-1.661 J-1.949
N11885 X7.329 Y-19.104 I0.021 J-0.599
N11890 X7.234 Y-20.141 I0.249 J-0.546 F30000.
N11895 G1 X9.007 Y-21.381
N11900 G3 X9.896 Y-21.138 I0.344 J0.492
N11905 X9.95 Y-20.91 I-0.546 J0.249 F900.
N11910 X9.743 Y-20.179 I-1.22 J0.049 F1000.
N11915 X9.319 Y-19.66 I-1.621 J-0.892
N11920 X7.724 Y-19.05 I-1.592 J-1.772
N11925 X7.496 Y-19.104 I0.021 J-0.599
N11930 X7.401 Y-20.142 I0.249 J-0.546 F30000.
N11935 G1 X9.007 Y-21.263
N11940 G3 X9.896 Y-21.02 I0.344 J0.492
N11945 X9.95 Y-20.792 I-0.546 J0.249 F900.
N11950 X9.713 Y-20.028 I-1.208 J0.044 F1000.
N11955 X9.566 Y-19.823 I-0.956 J-0.532
N11960 X7.882 Y-19.05 I-1.682 J-1.442
N11965 X7.654 Y-19.104 I0.021 J-0.599
N11970 X7.561 Y-20.143 I0.249 J-0.546 F30000.
N11975 G1 X9.008 Y-21.146
N11980 G3 X9.896 Y-20.902 I0.342 J0.493
N11985 X9.95 Y-20.674 I-0.546 J0.249 F900.
N11990 X9.726 Y-19.952 I-1.132 J0.044 F1000.
N11995 G1 X9.708 Y-19.918
N12000 G3 X8.03 Y-19.051 I-1.668 J-1.17
N12005 G1 X7.952 Y-19.059
N12010 X7.875 Y-19.076
N12015 X7.802 Y-19.104
N12020 G3 X7.711 Y-20.144 I0.249 J-0.546 F30000.
N12025 G1 X9.011 Y-21.036
N12030 G3 X9.896 Y-20.79 I0.339 J0.495
N12035 X9.95 Y-20.562 I-0.546 J0.249 F900.
N12040 X9.731 Y-19.87 I-1.066 J0.043 F1000.
N12045 G1 X9.715 Y-19.839
N12050 X9.698 Y-19.814
N12055 X9.682 Y-19.792
N12060 X9.667 Y-19.773
N12065 X9.654 Y-19.756
N12070 X9.64 Y-19.739
N12075 G3 X8.172 Y-19.05 I-1.468 J-1.219
N12080 X7.944 Y-19.104 I0.021 J-0.6
N12085 X7.856 Y-20.146 I0.249 J-0.546 F30000.
N12090 G1 X9.013 Y-20.932
N12095 G3 X9.896 Y-20.684 I0.337 J0.496
N12100 X9.95 Y-20.456 I-0.546 J0.249 F900.
N12105 X9.736 Y-19.793 I-1. J0.043 F1000.
N12110 G1 X9.721 Y-19.764
N12115 X9.705 Y-19.742
N12120 G3 X8.304 Y-19.051 I-1.394 J-1.061
N12125 G1 X8.225 Y-19.058
N12130 X8.149 Y-19.076
N12135 X8.076 Y-19.104
N12140 G3 X7.993 Y-20.149 I0.249 J-0.546 F30000.
N12145 G1 X9.018 Y-20.831
N12150 G3 X9.896 Y-20.58 I0.332 J0.5
N12155 X9.95 Y-20.352 I-0.546 J0.249 F900.
N12160 X9.723 Y-19.696 I-0.956 J0.036 F1000.
N12165 G1 X9.711 Y-19.672
N12170 X9.696 Y-19.653
N12175 X9.683 Y-19.636
N12180 X9.671 Y-19.621
N12185 X9.659 Y-19.607
N12190 X9.646 Y-19.592
N12195 X9.447 Y-19.404
N12200 X9.22 Y-19.253
N12205 X8.97 Y-19.141
N12210 X8.705 Y-19.073
N12215 X8.432 Y-19.05
N12220 G3 X8.199 Y-19.081 I0.043 J-1.224
N12225 X7.4 Y-20.859 I0.276 J-1.193 F30000.
N12230 X9.921 Y-20.491 I1.193 J0.649
N12235 X9.95 Y-20.257 I-1.329 J0.281 F900.
N12240 X9.725 Y-19.626 I-0.899 J0.035 F1000.
N12245 G1 X9.713 Y-19.602
N12250 X9.699 Y-19.584
N12255 X9.686 Y-19.568
N12260 X9.674 Y-19.554
N12265 G3 X8.55 Y-19.05 I-1.121 J-0.995
N12270 X8.317 Y-19.083 I0.039 J-1.128
N12275 X7.598 Y-20.718 I0.272 J-1.096 F30000.
N12280 X9.92 Y-20.396 I1.1 J0.599
N12285 X9.95 Y-20.163 I-1.222 J0.277 F900.
N12290 X9.716 Y-19.545 I-0.859 J0.028 F1000.
N12295 G1 X9.704 Y-19.523
N12300 X9.69 Y-19.507
N12305 X9.678 Y-19.492
N12310 X9.666 Y-19.479
N12315 X9.655 Y-19.467
N12320 X9.644 Y-19.456
N12325 X9.631 Y-19.443
N12330 X9.424 Y-19.276
N12335 X9.189 Y-19.152
N12340 X8.934 Y-19.076
N12345 X8.669 Y-19.05
N12350 G3 X8.436 Y-19.085 I0.036 J-1.041
N12355 X7.785 Y-20.578 I0.269 J-1.006 F30000.
N12360 X9.918 Y-20.313 I1.016 J0.539
N12365 X9.95 Y-20.08 I-1.117 J0.273 F900.
N12370 X9.766 Y-19.54 I-0.788 J0.033 F1000.
N12375 G1 X9.611 Y-19.37
N12380 X9.425 Y-19.234
N12385 X9.218 Y-19.133
N12390 X8.996 Y-19.071
N12395 X8.767 Y-19.05
N12400 G3 X8.535 Y-19.087 I0.034 J-0.96
N12405 X7.953 Y-20.461 I0.266 J-0.923 F30000.
N12410 X9.916 Y-20.232 I0.937 J0.498
N12415 X9.95 Y-20. I-1.026 J0.27 F900.
N12420 X9.747 Y-19.46 I-0.734 J0.032 F1000.
N12425 G1 X9.567 Y-19.286
N12430 X9.351 Y-19.157
N12435 X9.113 Y-19.077
N12440 X8.863 Y-19.05
N12445 G3 X8.631 Y-19.089 I0.031 J-0.881
N12450 X8.117 Y-20.346 I0.262 J-0.841 F30000.
N12455 X9.914 Y-20.153 I0.859 J0.46
N12460 X9.95 Y-19.92 I-0.937 J0.266 F900.
N12465 X9.702 Y-19.36 I-0.712 J0.021 F1000.
N12470 G1 X9.543 Y-19.226
N12475 X9.359 Y-19.13
N12480 X9.159 Y-19.07
N12485 X8.952 Y-19.05
N12490 G3 X8.721 Y-19.092 I0.028 J-0.808
N12495 X8.268 Y-20.24 I0.259 J-0.765 F30000.
N12500 X9.911 Y-20.08 I0.788 J0.423
N12505 X9.95 Y-19.848 I-0.855 J0.263 F900.
N12510 X9.813 Y-19.433 I-0.607 J0.03 F1000.
N12515 G1 X9.659 Y-19.272
N12520 X9.471 Y-19.151
N12525 X9.261 Y-19.076
N12530 X9.039 Y-19.05
N12535 G3 X8.809 Y-19.095 I0.026 J-0.741
N12540 X8.413 Y-20.145 I0.256 J-0.696 F30000.
N12545 X9.909 Y-20.009 I0.719 J0.391
N12550 X9.95 Y-19.778 I-0.778 J0.255 F900.
N12555 X9.768 Y-19.335 I-0.582 J0.02 F1000.
N12560 G1 X9.58 Y-19.18
N12565 X9.355 Y-19.083
N12570 X9.113 Y-19.05
N12575 G3 X8.883 Y-19.099 I0.024 J-0.678
N12580 X8.542 Y-20.055 I0.253 J-0.63 F30000.
N12585 X9.906 Y-19.945 I0.657 J0.362
N12590 X9.949 Y-19.715 I-0.707 J0.252 F900.
N12595 X9.848 Y-19.387 I-0.491 J0.028 F1000.
N12600 G1 X9.715 Y-19.245
N12605 X9.551 Y-19.139
N12610 X9.368 Y-19.072
N12615 X9.174 Y-19.05
N12620 G3 X8.946 Y-19.102 I0.022 J-0.617
N12625 X8.663 Y-19.979 I0.25 J-0.564 F30000.
N12630 X9.903 Y-19.879 I0.596 J0.349
N12635 X9.949 Y-19.649 I-0.644 J0.25 F900.
N12640 X9.805 Y-19.298 I-0.551 J-0.021 F1000.
N12645 G1 X9.645 Y-19.164
N12650 X9.455 Y-19.08
N12655 X9.248 Y-19.05
N12660 G3 X9.02 Y-19.104 I0.019 J-0.589
N12665 X8.822 Y-20.026 I0.246 J-0.535 F30000.
N12670 X9.917 Y-19.776 I0.48 J0.418
N12675 X9.936 Y-19.542 I-0.614 J0.168 F900.
N12680 X9.796 Y-19.269 I-0.577 J-0.124 F1000.
N12685 G1 X9.773 Y-19.254
N12690 X9.747 Y-19.249
N12695 X9.72 Y-19.252
N12700 X9.697 Y-19.265
N12705 G3 X9.682 Y-19.365 I0.048 J-0.058
N12710 X9.786 Y-19.385 I0.062 J0.042 F900.
N12715 X9.806 Y-19.28 I-0.042 J0.062
N12720 G1 X9.8 Y-19.273 F1000.
N12725 X9.741 Y-19.212
N12730 X9.73 Y-19.202
N12735 X9.718 Y-19.192
N12740 X9.706 Y-19.182
N12745 X9.693 Y-19.172
N12750 X9.68 Y-19.163
N12755 G3 X9.455 Y-19.108 I-0.189 J-0.288
N12760 X9.526 Y-19.793 I0.035 J-0.343 F30000.
N12765 X9.834 Y-19.424 I-0.035 J0.343
N12770 X9.803 Y-19.307 I-0.343 J-0.026 F900.
N12775 X9.741 Y-19.212 I-0.331 J-0.152
N12780 G1 X9.72 Y-19.191 F1000.
N12785 X9.656 Y-19.146
N12790 X9.629 Y-19.129
N12795 G3 X9.449 Y-19.183 I-0.059 J-0.131
N12800 X9.435 Y-19.21 I0.12 J-0.076
N12805 X9.675 Y-19.355 I0.134 J-0.049 F30000.
N12810 X9.656 Y-19.146 I-0.106 J0.096 F900.
N12815 X9.36 Y-19.051 I-0.318 J-0.48 F1000.
N12820 G1 X9.18 Y-19.05
N12825 X9.171 Y-19.051
N12830 G2 X8.947 Y-19.088 I-0.801 J4.122
N12835 X8.809 Y-19.105 I-0.578 J4.159 F30000.
N12840 X8.746 Y-19.108 I-0.063 J0.597
N12845 G1 X7.994
N12850 G2 X7.931 Y-19.105 I0. J0.6
N12855 X7.792 Y-19.088 I0.439 J4.176
N12860 X7.569 Y-19.051 I0.578 J4.159 F900.
N12865 G1 X7.56 Y-19.05
N12870 X4.259 F1000.
N12875 X4.205 Y-19.062 Z-17.993
N12880 X4.154 Y-19.073 Z-17.974
N12885 X4.109 Y-19.083 Z-17.943
N12890 X4.073 Y-19.091 Z-17.902
N12895 X4.047 Y-19.097 Z-17.853
N12900 X4.035 Y-19.102 Z-17.81
N12905 X4.031 Y-19.104 Z-17.764
N12910 G0 Z2.505
N12915 X-9.331 Y6.821
N12920 Z-8.795
N12925 G1 Z-9.395 F900.
N12930 X-9.333 Y6.814 Z-9.489
N12935 X-9.339 Y6.792 Z-9.58
N12940 X-9.348 Y6.758 Z-9.667
N12945 X-9.36 Y6.71 Z-9.748
N12950 X-9.375 Y6.651 Z-9.819
N12955 X-9.393 Y6.581 Z-9.88
N12960 X-9.413 Y6.503 Z-9.93
N12965 X-9.434 Y6.419 Z-9.966
N12970 X-9.457 Y6.331 Z-9.988
N12975 X-9.48 Y6.24 Z-9.995
N12980 G3 X-9.95 Y2.973 I14.839 J-3.801
N12985 G1 Y2.966 F450.
N12990 G3 X-9.172 Y2.868 I0.815 J3.328 F1000.
N12995 X-6.886 Y2.816 I1.85 J30.83
N13000 X-2.632 Y2.807 I2.881 J342.535
N13005 G1 X7.93 Y2.806
N13010 G3 X9.95 Y4.826 I0. J2.02
N13015 G1 X9.867 Y5.046
N13020 X9.814 Y5.186 F30000.
N13025 X9.54 Y5.374
N13030 X-6.12 Y6.113
N13035 G3 X-8.1 Y5.194 I-0.043 J-2.5
N13040 G1 X-9.799 Y3.148
N13045 X-9.95 Y2.966 F900.
N13050 Y2.945 F450.
N13055 G3 X-9.264 Y2.785 I0.859 J2.145 F1000.
N13060 X-7.58 Y2.675 I1.665 J12.527
N13065 X-3.879 Y2.648 I2.577 J100.095
N13070 G1 X-3.028 Y2.643
N13075 X-1.043
N13080 X7.075
N13085 G3 X8.302 Y2.735 I0.13 J6.484
N13090 X9.566 Y3.6 I-0.523 J2.121
N13095 X9.95 Y4.826 I-1.77 J1.227
N13100 G1 X9.867 Y5.046
N13105 X9.814 Y5.186 F30000.
N13110 X9.54 Y5.374
N13115 X-5.94 Y5.982
N13120 G3 X-7.844 Y5.186 I-0.074 J-2.499
N13125 G1 X-9.789 Y3.116
N13130 X-9.95 Y2.945 F900.
N13135 Y2.908 F450.
N13140 G3 X-9.248 Y2.696 I0.99 J2.014 F1000.
N13145 X-7.759 Y2.543 I1.668 J8.932
N13150 X-4.852 Y2.488 I2.393 J49.434
N13155 X-0.882 Y2.48 I2.746 J354.148
N13160 G1 X6.209
N13165 G3 X7.885 Y2.55 I0.289 J13.178
N13170 X8.349 Y2.654 I-2.295 J11.243
N13175 X9.95 Y4.826 I-0.673 J2.172
N13180 G1 X9.867 Y5.046
N13185 X9.814 Y5.186 F30000.
N13190 X9.54 Y5.374
N13195 X-5.76 Y5.797
N13200 G3 X-7.608 Y5.186 I-0.201 J-2.492
N13205 G1 X-9.824 Y3.1
N13210 X-9.901 Y3.028 F900.
N13215 X-9.95 Y2.908
N13220 Y2.865 F450.
N13225 G3 X-9.246 Y2.609 I1.096 J1.924 F1000.
N13230 X-7.735 Y2.409 I1.803 J7.807
N13235 X-5.205 Y2.331 I2.323 J34.355
N13240 X-0.279 Y2.316 I3.536 J345.993
N13245 G1 X5.394
N13250 G3 X7.432 Y2.368 I0.403 J24.144
N13255 X8.383 Y2.567 I-0.527 J4.889
N13260 X9.593 Y3.564 I-0.877 J2.297
N13265 X9.95 Y4.826 I-2.06 J1.265
N13270 G1 X9.867 Y5.046
N13275 X9.814 Y5.186 F30000.
N13280 X9.54 Y5.374
N13285 X-5.76 Y5.651
N13290 G3 X-7.633 Y5.006 I-0.189 J-2.493
N13295 G1 X-9.822 Y3.055
N13300 X-9.9 Y2.986 F900.
N13305 X-9.95 Y2.865
N13310 Y2.821 F450.
N13315 G3 X-9.218 Y2.516 I1.195 J1.838 F1000.
N13320 X-7.725 Y2.278 I1.895 J7.078
N13325 X-5.318 Y2.176 I2.375 J27.6
N13330 X-0.665 Y2.156 I3.243 J209.512
N13335 X5.998 Y2.157 I3.267 J655.762
N13340 X7.706 Y2.282 I-0.014 J11.883
N13345 X8.653 Y2.605 I-0.677 J3.536
N13350 X9.936 Y4.551 I-1.255 J2.224
N13355 G1 X9.95 Y4.82
N13360 X9.865 Y5.04
N13365 X9.809 Y5.186 F30000.
N13370 X9.54 Y5.368
N13375 X-5.76 Y5.509
N13380 G3 X-7.56 Y4.918 I-0.178 J-2.494
N13385 G1 X-9.789 Y2.985
N13390 X-9.947 Y2.848 F900.
N13395 X-9.95 Y2.821
N13400 Y2.772 F450.
N13405 G3 X-9.161 Y2.413 I1.32 J1.853 F1000.
N13410 X-7.759 Y2.154 I1.928 J6.503
N13415 X-5.121 Y2.019 I2.63 J25.54
N13420 X-0.483 Y1.994 I3.261 J173.902
N13425 X5.799 Y1.996 I2.965 J493.401
N13430 X7.561 Y2.135 I-0.121 J12.789
N13435 X8.697 Y2.539 I-0.69 J3.737
N13440 X9.734 Y3.737 I-1.426 J2.283
N13445 X9.95 Y4.779 I-2.427 J1.046
N13450 G1 X9.855 Y4.995
N13455 X9.771 Y5.186 F30000.
N13460 X9.36 Y5.358
N13465 X-5.94
N13470 G3 X-7.56 Y4.804 I-0.05 J-2.499
N13475 G1 X-9.81 Y2.948
N13480 X-9.931 Y2.848 F900.
N13485 X-9.95 Y2.772
N13490 Y2.72 F450.
N13495 G3 X-9.147 Y2.32 I1.403 J1.81 F1000.
N13500 X-7.8 Y2.034 I1.972 J5.978
N13505 X-5.166 Y1.866 I2.734 J22.124
N13510 X-1.023 Y1.831 I3.061 J118.756
N13515 X5.682 Y1.836 I3.045 J447.651
N13520 X7.454 Y1.992 I-0.292 J13.458
N13525 X8.596 Y2.376 I-0.905 J4.58
N13530 X9.817 Y3.828 I-1.251 J2.291
N13535 G1 X9.89 Y4.096
N13540 X9.935 Y4.369
N13545 X9.95 Y4.646
N13550 X9.867 Y4.867
N13555 X9.814 Y5.006 F30000.
N13560 X9.54 Y5.195
N13565 X-6.12 Y5.197
N13570 G3 X-7.621 Y4.646 I0.065 J-2.499
N13575 G1 X-9.818 Y2.906
N13580 X-9.9 Y2.841 F900.
N13585 X-9.95 Y2.72
N13590 Y2.668 F450.
N13595 G3 X-9.192 Y2.247 I1.419 J1.661 F1000.
N13600 X-7.807 Y1.913 I2.075 J5.566
N13605 X-5.564 Y1.728 I2.569 J17.443
N13610 X-1.841 Y1.67 I3.045 J76.936
N13615 X5.383 Y1.673 I3.432 J481.234
N13620 X7.213 Y1.823 I-0.364 J15.658
N13625 X8.362 Y2.159 I-0.953 J5.396
N13630 X9.819 Y3.783 I-1.115 J2.467
N13635 G1 X9.891 Y4.054
N13640 X9.935 Y4.331
N13645 X9.95 Y4.611
N13650 X9.858 Y4.828
N13655 X9.783 Y5.006 F30000.
N13660 X9.36 Y5.19
N13665 X-5.58 Y5.058
N13670 G3 X-7.119 Y4.646 I-0.157 J-2.495
N13675 G1 X-9.813 Y2.847
N13680 X-9.9 Y2.789 F900.
N13685 X-9.95 Y2.668
N13690 Y2.614 F450.
N13695 G3 X-9.194 Y2.16 I1.468 J1.586 F1000.
N13700 X-7.806 Y1.791 I2.145 J5.286
N13705 X-5.619 Y1.582 I2.622 J15.847
N13710 X-2.125 Y1.51 I3.045 J63.231
N13715 X5.039 Y1.509 I3.619 J453.628
N13720 X7.09 Y1.673 I-0.305 J16.734
N13725 X8.42 Y2.08 I-0.917 J5.378
N13730 X9.729 Y3.463 I-1.251 J2.494
N13735 X9.95 Y4.544 I-2.544 J1.083
N13740 G1 X9.884 Y4.77
N13745 X9.868 Y4.826 F30000.
N13750 X9.54 Y5.092
N13755 X-5.76 Y4.927
N13760 G3 X-7.02 Y4.57 I0.029 J-2.5
N13765 G1 X-9.789 Y2.767
N13770 X-9.94 Y2.668 F900.
N13775 X-9.95 Y2.614
N13780 Y2.558 F450.
N13785 G3 X-9.197 Y2.072 I1.515 J1.523 F1000.
N13790 X-7.862 Y1.681 I2.172 J4.945
N13795 X-5.619 Y1.435 I2.746 J14.702
N13800 X-2.192 Y1.35 I3.119 J56.223
N13805 X4.829 Y1.348 I3.594 J373.585
N13810 X6.933 Y1.516 I-0.374 J17.907
N13815 X8.366 Y1.945 I-0.943 J5.76
N13820 X9.322 Y2.697 I-1.377 J2.736
N13825 X9.95 Y4.457 I-2.167 J1.766
N13830 X9.896 Y4.685 I-0.6 J-0.021
N13835 X9.29 Y5.033 I-0.546 J-0.249 F30000.
N13840 G1 X-9.411 Y3.134
N13845 G3 X-9.896 Y2.785 I0.061 J-0.597
N13850 X-9.95 Y2.558 I0.546 J-0.249 F900.
N13855 G1 Y2.499 F450.
N13860 G3 X-9.199 Y1.983 I1.562 J1.47 F1000.
N13865 X-7.873 Y1.564 I2.23 J4.752
N13870 X-5.668 Y1.293 I2.815 J13.764
N13875 X-2.291 Y1.19 I3.213 J50.248
N13880 X4.614 Y1.187 I3.625 J317.338
N13885 X6.771 Y1.357 I-0.438 J19.278
N13890 X8.267 Y1.787 I-1.016 J6.348
N13895 X9.507 Y2.85 I-1.315 J2.788
N13900 X9.951 Y4.373 I-2.437 J1.536
N13905 G1 X9.943 Y4.451
N13910 X9.924 Y4.527
N13915 X9.896 Y4.6
N13920 G3 X9.291 Y4.949 I-0.546 J-0.249 F30000.
N13925 G1 X-9.41 Y3.075
N13930 G3 X-9.896 Y2.727 I0.06 J-0.597
N13935 X-9.95 Y2.499 I0.546 J-0.249 F900.
N13940 G1 Y2.441 F450.
N13945 G3 X-9.229 Y1.908 I1.569 J1.369 F1000.
N13950 X-7.871 Y1.446 I2.313 J4.568
N13955 X-5.69 Y1.15 I2.871 J13.002
N13960 X-2.425 Y1.032 I3.236 J44.375
N13965 X4.428 Y1.026 I3.688 J262.931
N13970 X6.685 Y1.209 I-0.472 J19.8
N13975 X8.21 Y1.648 I-1.1 J6.69
N13980 X9.355 Y2.537 I-1.374 J2.952
N13985 X9.951 Y4.287 I-2.307 J1.761
N13990 G1 X9.943 Y4.365
N13995 X9.924 Y4.441
N14000 X9.896 Y4.514
N14005 G3 X9.291 Y4.863 I-0.546 J-0.249 F30000.
N14010 G1 X-9.409 Y3.017
N14015 G3 X-9.896 Y2.669 I0.059 J-0.597
N14020 X-9.95 Y2.441 I0.546 J-0.249 F900.
N14025 G1 Y2.378 F450.
N14030 G3 X-9.231 Y1.819 I1.616 J1.336 F1000.
N14035 X-7.852 Y1.324 I2.384 J4.472
N14040 X-5.82 Y1.018 I2.846 J12.025
N14045 X-2.701 Y0.878 I3.258 J37.807
N14050 X4.285 Y0.866 I3.89 J219.436
N14055 X6.557 Y1.053 I-0.553 J20.534
N14060 X8.182 Y1.52 I-1.123 J6.983
N14065 X9.217 Y2.266 I-1.488 J3.154
N14070 X9.951 Y4.189 I-2.181 J1.933
N14075 G1 X9.943 Y4.267
N14080 X9.924 Y4.344
N14085 X9.896 Y4.417
N14090 G3 X9.293 Y4.765 I-0.546 J-0.249 F30000.
N14095 G1 X-9.408 Y2.954
N14100 G3 X-9.896 Y2.606 I0.058 J-0.597
N14105 X-9.95 Y2.378 I0.546 J-0.249 F900.
N14110 G1 Y2.316 F450.
