%
(Y BEARING BLOCK 22MM TOP T10)
(T10  D=10. CR=0. - ZMIN=-14. - FLAT END MILL)
N10 G90 G94 G17 G91.1
N15 G21
N20 G53 G0 Z0.
(FACE1)
N25 M9
N30 T10 M6
N35 S3000 M3
N40 G54
N45 M8
N55 G0 X36.5 Y-40.093
N60 G43 Z10. H10
N65 #100=900. (CUTTING)
N70 #102=900. (FINISH)
N75 #103=800. (ENTRY)
N80 #104=900. (EXIT)
N85 G0 Z5.
N90 G1 Z1. F#103
N95 G18 G3 X35.5 Z0. I-1. K0.
N100 G1 X30.
N105 X-30. F#102
N110 G17 G2 Y-31.281 I0. J4.406 F#100
N115 G1 X30. F#102
N120 G3 Y-22.469 I0. J4.406 F#100
N125 G1 X-30. F#102
N130 G2 Y-13.657 I0. J4.406 F#100
N135 G1 X30. F#102
N140 G3 Y-4.845 I0. J4.406 F#100
N145 G1 X-30. F#102
N150 G18 G3 X-31. Z1. I0. K1. F#104
N155 G0 Z10.
N160 G17
(2D ADAPTIVE1)
N165 M8
N170 G0 X-30.981 Y-55.37
N175 #100=900. (CUTTING)
N180 #103=800. (ENTRY)
N185 #104=900. (EXIT)
N190 #106=450. (REDUCED)
N195 Z4.
N200 Z-11.9
N205 G1 Z-12.9 F#103
N210 X-30.979 Y-55.362 Z-13.021
N215 X-30.974 Y-55.341 Z-13.139
N220 X-30.965 Y-55.307 Z-13.255
N225 X-30.953 Y-55.259 Z-13.365
N230 X-30.937 Y-55.198 Z-13.468
N235 X-30.919 Y-55.126 Z-13.563
N240 X-30.897 Y-55.043 Z-13.649
N245 X-30.874 Y-54.951 Z-13.723
N250 X-30.848 Y-54.851 Z-13.785
N255 X-30.821 Y-54.744 Z-13.835
N260 X-30.792 Y-54.633 Z-13.871
N265 X-30.763 Y-54.518 Z-13.893
N270 X-30.733 Y-54.401 Z-13.9
N275 G3 X-29.95 Y-48.957 I-24.731 J6.335
N280 G1 Y-48.945 F#106
N285 G2 X-31.857 Y-46.741 I4.407 J5.739 F#100
N290 X-33.045 Y-43.674 I9.704 J5.523
N295 X-33.564 Y-40.417 I20.426 J4.926
N300 X-33.795 Y-35.656 I59.512 J5.272
N305 X-33.851 Y-28.32 I319.439 J6.091
N310 G1 X-33.861 Y-22.818
N315 X-33.86 Y-17.316
N320 Y-5.212
N325 Y-3.011
N330 G2 X-33.486 Y-1.228 I4.495 J-0.011
N335 X-32.509 Y0.314 I5.24 J-2.24
N340 X-30.233 Y2.137 I5.691 J-4.774
N345 X-27.134 Y3.241 I5.394 J-10.238
N350 X-23.868 Y3.704 I4.771 J-21.891
N355 X-20.205 Y3.879 I4.551 J-56.905
N360 G1 X-19.874 Y3.915
N365 X-19.551 Y3.999
N370 X-19.246 Y4.131
N375 X-18.964 Y4.309
N380 X-18.714 Y4.529
N385 X-18.5 Y4.784
N390 X-18.328 Y5.07
N395 X-18.202 Y5.378
N400 X-18.126 Y5.702
N405 X-18.1 Y6.035
N410 G3 X-18.189 Y6.414 I-0.999 J-0.035 F#104
N415 G1 X-18.239 Y6.524 Z-13.893
N420 X-18.289 Y6.632 Z-13.871
N425 X-18.336 Y6.737 Z-13.835
N430 X-18.382 Y6.837 Z-13.785
N435 X-18.425 Y6.931 Z-13.723
N440 X-18.464 Y7.018 Z-13.649
N445 X-18.5 Y7.095 Z-13.563
N450 X-18.531 Y7.163 Z-13.468
N455 X-18.557 Y7.22 Z-13.365
N460 X-18.577 Y7.265 Z-13.255
N465 X-18.592 Y7.298 Z-13.139
N470 X-18.601 Y7.318 Z-13.021
N475 X-18.604 Y7.324 Z-12.9
N480 G0 Z2.71
N485 X-19.131 Y-55.364
N490 Z-11.9
N495 G1 Z-12.9 F#103
N500 X-19.129 Y-55.357 Z-13.021
N505 X-19.124 Y-55.336 Z-13.139
N510 X-19.115 Y-55.301 Z-13.255
N515 X-19.103 Y-55.253 Z-13.365
N520 X-19.087 Y-55.192 Z-13.468
N525 X-19.069 Y-55.12 Z-13.563
N530 X-19.047 Y-55.038 Z-13.649
N535 X-19.024 Y-54.946 Z-13.723
N540 X-18.998 Y-54.845 Z-13.785
N545 X-18.971 Y-54.739 Z-13.835
N550 X-18.942 Y-54.627 Z-13.871
N555 X-18.913 Y-54.512 Z-13.893
N560 X-18.883 Y-54.395 Z-13.9
N565 G3 X-18.1 Y-48.951 I-24.731 J6.335
N570 G1 Y-48.922 F#106
N575 G3 X-18.993 Y-48.567 I-1.624 J-2.779 F#100
N580 X-20.856 Y-48.215 I-2.967 J-10.591
N585 X-23.9 Y-47.987 I-3.89 J-31.619
N590 X-24.963 Y-47.945 I-1.67 J-28.797
N595 G2 X-27.737 Y-47.083 I0.325 J5.937
N600 X-30.105 Y-44.819 I3.947 J6.497
N605 X-31.535 Y-41.858 I9.01 J6.177
N610 X-32.305 Y-38.278 I17.965 J5.737
N615 X-32.625 Y-34.257 I41.67 J5.34
N620 X-32.745 Y-28.023 I154.514 J6.1
N625 G1 X-32.765 Y-23.499
N630 X-32.773 Y-18.976
N635 X-32.77 Y-14.452
N640 Y-8.95
N645 G3 X-32.8 Y-6.749 I-48.611 J0.432
N650 G2 X-32.792 Y-5.283 I16.73 J0.645
N655 X-30.893 Y-1.007 I7.04 J-0.568
N660 X-28.262 Y0.957 I6.62 J-6.126
N665 X-24.805 Y2.15 I6.159 J-12.239
N670 X-22.273 Y2.57 I5.518 J-25.397
N675 G3 X-20.645 Y2.874 I-2.132 J15.957
N680 G1 X-20.293 Y2.976
N685 X-19.94 Y3.077
N690 X-19.6 Y3.191
N695 X-19.28 Y3.354
N700 X-18.988 Y3.562
N705 X-18.729 Y3.81
N710 X-18.509 Y4.094
N715 X-18.333 Y4.407
N720 X-18.205 Y4.741
N725 X-18.126 Y5.092
N730 X-18.1 Y5.449
N735 G3 X-18.189 Y5.829 I-0.999 J-0.035 F#104
N740 G1 X-18.239 Y5.939 Z-13.893
N745 X-18.289 Y6.047 Z-13.871
N750 X-18.336 Y6.152 Z-13.835
N755 X-18.382 Y6.252 Z-13.785
N760 X-18.425 Y6.346 Z-13.723
N765 X-18.464 Y6.433 Z-13.649
N770 X-18.5 Y6.51 Z-13.563
N775 X-18.531 Y6.578 Z-13.468
N780 X-18.557 Y6.635 Z-13.365
N785 X-18.577 Y6.68 Z-13.255
N790 X-18.592 Y6.713 Z-13.139
N795 X-18.601 Y6.732 Z-13.021
N800 X-18.604 Y6.739 Z-12.9
N805 G0 Z2.71
N810 X-18.722 Y-50.159
N815 Z-11.9
N820 G1 Z-12.9 F#103
N825 X-18.718 Y-50.152 Z-13.021
N830 X-18.707 Y-50.134 Z-13.139
N835 X-18.689 Y-50.103 Z-13.255
N840 X-18.663 Y-50.06 Z-13.365
N845 X-18.631 Y-50.006 Z-13.468
N850 X-18.593 Y-49.942 Z-13.563
N855 X-18.55 Y-49.869 Z-13.649
N860 X-18.501 Y-49.787 Z-13.723
N865 X-18.448 Y-49.698 Z-13.785
N870 X-18.392 Y-49.604 Z-13.835
N875 X-18.333 Y-49.505 Z-13.871
N880 X-18.272 Y-49.403 Z-13.893
N885 X-18.211 Y-49.299 Z-13.9
N890 G3 X-18.1 Y-48.922 I-0.68 J0.404
N895 G1 Y-48.72 F#106
N900 G3 X-19.165 Y-48.062 I-2.345 J-2.605 F#100
N905 X-20.914 Y-47.511 I-3.391 J-7.718
N910 X-22.578 Y-47.22 I-3.553 J-15.41
N915 G2 X-24.706 Y-46.675 I1.405 J9.897
N920 X-28.432 Y-43.797 I3.216 J8.016
N925 X-30.022 Y-40.917 I9.05 J6.875
N930 X-31.039 Y-37.021 I17.064 J6.535
N935 X-31.434 Y-33.376 I34.536 J5.588
N940 X-31.633 Y-27.145 I107.099 J6.537
N945 X-31.673 Y-17.975 I597.183 J7.207
N950 G1 X-31.678 Y-13.023
N955 X-31.692 Y-8.071
N960 G2 X-30.6 Y-3.852 I9.05 J-0.09
N965 X-27.556 Y-0.734 I7.735 J-4.507
N970 X-24.916 Y0.531 I6.652 J-10.5
N975 X-22.465 Y1.295 I11.893 J-33.831
N980 G3 X-20.477 Y1.939 I-6.737 J24.18
N985 X-19.401 Y2.474 I-4.203 J9.806
N990 G1 X-19.116 Y2.68
N995 X-18.86 Y2.919
N1000 X-18.635 Y3.19
N1005 X-18.447 Y3.486
N1010 X-18.297 Y3.803
N1015 X-18.188 Y4.137
N1020 X-18.122 Y4.482
N1025 X-18.1 Y4.833
N1030 G3 X-18.189 Y5.213 I-0.999 J-0.035 F#104
N1035 G1 X-18.239 Y5.322 Z-13.893
N1040 X-18.289 Y5.43 Z-13.871
N1045 X-18.336 Y5.535 Z-13.835
N1050 X-18.382 Y5.636 Z-13.785
N1055 X-18.425 Y5.73 Z-13.723
N1060 X-18.464 Y5.816 Z-13.649
N1065 X-18.5 Y5.894 Z-13.563
N1070 X-18.531 Y5.962 Z-13.468
N1075 X-18.557 Y6.018 Z-13.365
N1080 X-18.577 Y6.064 Z-13.255
N1085 X-18.592 Y6.096 Z-13.139
N1090 X-18.601 Y6.116 Z-13.021
N1095 X-18.604 Y6.123 Z-12.9
N1100 G0 Z2.71
N1105 X-18.722 Y-49.956
N1110 Z-11.9
N1115 G1 Z-12.9 F#103
N1120 X-18.718 Y-49.95 Z-13.021
N1125 X-18.707 Y-49.931 Z-13.139
N1130 X-18.689 Y-49.9 Z-13.255
N1135 X-18.663 Y-49.858 Z-13.365
N1140 X-18.631 Y-49.804 Z-13.468
N1145 X-18.593 Y-49.74 Z-13.563
N1150 X-18.55 Y-49.667 Z-13.649
N1155 X-18.501 Y-49.585 Z-13.723
N1160 X-18.448 Y-49.496 Z-13.785
N1165 X-18.392 Y-49.401 Z-13.835
N1170 X-18.333 Y-49.302 Z-13.871
N1175 X-18.272 Y-49.2 Z-13.893
N1180 X-18.211 Y-49.097 Z-13.9
N1185 G3 X-18.1 Y-48.72 I-0.68 J0.404
N1190 G1 Y-48.436 F#106
N1195 G3 X-19.024 Y-47.649 I-2.557 J-2.067 F#100
N1200 X-20.573 Y-46.933 I-3.638 J-5.836
N1205 X-21.229 Y-46.704 I-3.985 J-10.371
N1210 G2 X-23.602 Y-45.732 I4.667 J14.774
N1215 X-27.77 Y-41.705 I5.03 J9.375
N1220 X-29.226 Y-38.35 I12.226 J7.301
N1225 X-30.042 Y-34.404 I22.421 J6.693
N1230 X-30.421 Y-29.652 I49.724 J6.359
N1235 X-30.56 Y-22.685 I172.331 J6.925
N1240 G1 X-30.582 Y-18.528
N1245 X-30.591 Y-14.371
N1250 X-30.589 Y-10.214
N1255 G2 X-30.297 Y-7.667 I12.445 J-0.134
N1260 X-28.507 Y-4.09 I8.567 J-2.05
N1265 X-25.77 Y-1.678 I8.088 J-6.42
N1270 X-23.167 Y-0.329 I9.787 J-15.701
N1275 G3 X-20.825 Y0.723 I-47.662 J109.229
N1280 X-19.465 Y1.528 I-4.086 J8.461
N1285 X-18.386 Y2.858 I-1.969 J2.699
N1290 X-18.1 Y4.203 I-3.022 J1.346
N1295 X-18.189 Y4.583 I-0.999 J-0.035 F#104
N1300 G1 X-18.239 Y4.693 Z-13.893
N1305 X-18.289 Y4.801 Z-13.871
N1310 X-18.336 Y4.906 Z-13.835
N1315 X-18.382 Y5.006 Z-13.785
N1320 X-18.425 Y5.1 Z-13.723
N1325 X-18.464 Y5.186 Z-13.649
N1330 X-18.5 Y5.264 Z-13.563
N1335 X-18.531 Y5.332 Z-13.468
N1340 X-18.557 Y5.389 Z-13.365
N1345 X-18.577 Y5.434 Z-13.255
N1350 X-18.592 Y5.466 Z-13.139
N1355 X-18.601 Y5.486 Z-13.021
N1360 X-18.604 Y5.493 Z-12.9
N1365 G0 Z2.71
N1370 X-18.722 Y-49.673
N1375 Z-11.9
N1380 G1 Z-12.9 F#103
N1385 X-18.718 Y-49.666 Z-13.021
N1390 X-18.707 Y-49.648 Z-13.139
N1395 X-18.689 Y-49.617 Z-13.255
N1400 X-18.663 Y-49.574 Z-13.365
N1405 X-18.631 Y-49.52 Z-13.468
N1410 X-18.593 Y-49.456 Z-13.563
N1415 X-18.55 Y-49.383 Z-13.649
N1420 X-18.501 Y-49.301 Z-13.723
N1425 X-18.448 Y-49.212 Z-13.785
N1430 X-18.392 Y-49.118 Z-13.835
N1435 X-18.333 Y-49.019 Z-13.871
N1440 X-18.272 Y-48.917 Z-13.893
N1445 X-18.211 Y-48.813 Z-13.9
N1450 G3 X-18.1 Y-48.436 I-0.68 J0.404
N1455 G1 Y-48.1 F#100
N1460 G3 X-18.33 Y-47.773 I-1.491 J-0.804
N1465 X-19.415 Y-46.856 I-3.358 J-2.872
N1470 X-20.917 Y-45.985 I-9.633 J-14.876
N1475 G2 X-22.788 Y-44.827 I11.464 J20.612
N1480 X-27.007 Y-39.84 I7.475 J10.602
N1485 X-28.435 Y-35.689 I16.158 J7.881
N1490 X-29.061 Y-31.706 I29.691 J6.707
N1495 X-29.38 Y-26.215 I70.53 J6.855
N1500 X-29.48 Y-18.513 I266.677 J7.316
N1505 X-29.494 Y-12.277 I571.671 J4.374
N1510 X-29.269 Y-9.722 I15.791 J-0.106
N1515 X-26.34 Y-4.33 I9.873 J-1.87
N1520 X-24.953 Y-3.131 I10.438 J-10.676
N1525 X-22.522 Y-1.492 I12.71 J-16.226
N1530 G3 X-20.333 Y-0.151 I-36.509 J62.092
N1535 X-19.105 Y0.834 I-5.156 J7.68
N1540 X-18.1 Y3.208 I-2.31 J2.379
N1545 X-18.189 Y3.588 I-1. J-0.035 F#104
N1550 G1 X-18.239 Y3.697 Z-13.893
N1555 X-18.289 Y3.805 Z-13.871
N1560 X-18.336 Y3.91 Z-13.835
N1565 X-18.382 Y4.011 Z-13.785
N1570 X-18.425 Y4.105 Z-13.723
N1575 X-18.464 Y4.191 Z-13.649
N1580 X-18.5 Y4.269 Z-13.563
N1585 X-18.531 Y4.337 Z-13.468
N1590 X-18.557 Y4.393 Z-13.365
N1595 X-18.577 Y4.439 Z-13.255
N1600 X-18.592 Y4.471 Z-13.139
N1605 X-18.601 Y4.491 Z-13.021
N1610 X-18.604 Y4.498 Z-12.9
N1615 G0 Z2.71
N1620 X-18.722 Y-49.336
N1625 Z-11.9
N1630 G1 Z-12.9 F#103
N1635 X-18.718 Y-49.33 Z-13.021
N1640 X-18.707 Y-49.311 Z-13.139
N1645 X-18.689 Y-49.28 Z-13.255
N1650 X-18.663 Y-49.238 Z-13.365
N1655 X-18.631 Y-49.184 Z-13.468
N1660 X-18.593 Y-49.12 Z-13.563
N1665 X-18.55 Y-49.047 Z-13.649
N1670 X-18.501 Y-48.965 Z-13.723
N1675 X-18.448 Y-48.876 Z-13.785
N1680 X-18.392 Y-48.781 Z-13.835
N1685 X-18.333 Y-48.682 Z-13.871
N1690 X-18.272 Y-48.58 Z-13.893
N1695 X-18.211 Y-48.477 Z-13.9
N1700 G3 X-18.1 Y-48.1 I-0.68 J0.404
N1705 G1 Y-47.708 F#100
N1710 G3 X-18.765 Y-46.792 I-2.897 J-1.403
N1715 X-19.842 Y-45.824 I-6.773 J-6.455
N1720 G1 X-19.918 Y-45.756
N1725 G2 X-21.941 Y-44.093 I38.004 J48.28
N1730 X-24.813 Y-40.775 I10.874 J12.316
N1735 X-26.899 Y-36.102 I14.963 J9.48
N1740 X-27.827 Y-31.431 I26.832 J7.76
N1745 X-28.207 Y-26.679 I55.312 J6.816
N1750 X-28.372 Y-19.345 I174.682 J7.589
N1755 X-28.391 Y-13.843 I274.906 J3.695
N1760 X-28.158 Y-11.288 I17.792 J-0.333
N1765 X-25.896 Y-6.335 I10.832 J-1.953
N1770 X-23.581 Y-3.991 I11.732 J-9.268
N1775 X-22.14 Y-2.858 I17.735 J-21.081
N1780 G3 X-20.125 Y-1.266 I-115.665 J148.46
N1785 X-18.903 Y-0.095 I-7.094 J8.628
N1790 X-18.117 Y1.73 I-2.528 J2.171
N1795 G1 X-18.1 Y2.066
N1800 G3 X-18.189 Y2.446 I-0.999 J-0.035 F#104
N1805 G1 X-18.239 Y2.555 Z-13.893
N1810 X-18.289 Y2.663 Z-13.871
N1815 X-18.336 Y2.768 Z-13.835
N1820 X-18.382 Y2.868 Z-13.785
N1825 X-18.425 Y2.962 Z-13.723
N1830 X-18.464 Y3.049 Z-13.649
N1835 X-18.5 Y3.127 Z-13.563
N1840 X-18.531 Y3.194 Z-13.468
N1845 X-18.557 Y3.251 Z-13.365
N1850 X-18.577 Y3.296 Z-13.255
N1855 X-18.592 Y3.329 Z-13.139
N1860 X-18.601 Y3.349 Z-13.021
N1865 X-18.604 Y3.356 Z-12.9
N1870 G0 Z2.71
N1875 X-18.722 Y-48.944
N1880 Z-11.9
N1885 G1 Z-12.9 F#103
N1890 X-18.718 Y-48.938 Z-13.021
N1895 X-18.707 Y-48.919 Z-13.139
N1900 X-18.689 Y-48.888 Z-13.255
N1905 X-18.663 Y-48.846 Z-13.365
N1910 X-18.631 Y-48.792 Z-13.468
N1915 X-18.593 Y-48.728 Z-13.563
N1920 X-18.55 Y-48.655 Z-13.649
N1925 X-18.501 Y-48.573 Z-13.723
N1930 X-18.448 Y-48.484 Z-13.785
N1935 X-18.392 Y-48.39 Z-13.835
N1940 X-18.333 Y-48.29 Z-13.871
N1945 X-18.272 Y-48.188 Z-13.893
N1950 X-18.211 Y-48.085 Z-13.9
N1955 G3 X-18.1 Y-47.708 I-0.68 J0.404
N1960 G1 Y-47.267 F#100
N1965 G3 X-18.658 Y-46.261 I-3.434 J-1.248
N1970 X-19.645 Y-45.075 I-8.796 J-6.314
N1975 X-21.169 Y-43.418 I-167.33 J-152.425
N1980 G2 X-23.972 Y-39.573 I15.503 J14.242
N1985 X-26.041 Y-34.1 I18.727 J10.206
N1990 X-26.774 Y-29.764 I32.197 J7.679
N1995 X-27.163 Y-23.909 I70.581 J7.62
N2000 X-27.283 Y-15.474 I211.294 J7.225
N2005 X-27.072 Y-12.917 I20.588 J-0.411
N2010 X-24.606 Y-7.261 I12.219 J-1.96
N2015 X-22.382 Y-4.827 I15.82 J-12.223
N2020 X-20.423 Y-3.021 I57.577 J-60.529
N2025 G3 X-18.743 Y-1.223 I-9.927 J10.952
N2030 G1 X-18.553 Y-0.928
N2035 G3 X-18.1 Y0.741 I-2.847 J1.669
N2040 X-18.189 Y1.121 I-0.999 J-0.035 F#104
N2045 G1 X-18.239 Y1.231 Z-13.893
N2050 X-18.289 Y1.339 Z-13.871
N2055 X-18.336 Y1.444 Z-13.835
N2060 X-18.382 Y1.544 Z-13.785
N2065 X-18.425 Y1.638 Z-13.723
N2070 X-18.464 Y1.724 Z-13.649
N2075 X-18.5 Y1.802 Z-13.563
N2080 X-18.531 Y1.87 Z-13.468
N2085 X-18.557 Y1.927 Z-13.365
N2090 X-18.577 Y1.972 Z-13.255
N2095 X-18.592 Y2.004 Z-13.139
N2100 X-18.601 Y2.024 Z-13.021
N2105 X-18.604 Y2.031 Z-12.9
N2110 G0 Z2.71
N2115 X-18.722 Y-48.503
N2120 Z-11.9
N2125 G1 Z-12.9 F#103
N2130 X-18.718 Y-48.497 Z-13.021
N2135 X-18.707 Y-48.478 Z-13.139
N2140 X-18.689 Y-48.447 Z-13.255
N2145 X-18.663 Y-48.405 Z-13.365
N2150 X-18.631 Y-48.351 Z-13.468
N2155 X-18.593 Y-48.287 Z-13.563
N2160 X-18.55 Y-48.214 Z-13.649
N2165 X-18.501 Y-48.132 Z-13.723
N2170 X-18.448 Y-48.043 Z-13.785
N2175 X-18.392 Y-47.948 Z-13.835
N2180 X-18.333 Y-47.849 Z-13.871
N2185 X-18.272 Y-47.747 Z-13.893
N2190 X-18.211 Y-47.644 Z-13.9
N2195 G3 X-18.1 Y-47.267 I-0.68 J0.404
N2200 G1 Y-46.738 F#100
N2205 G3 X-18.574 Y-45.577 I-4.101 J-0.998
N2210 X-19.468 Y-44.174 I-10.58 J-5.75
N2215 X-20.903 Y-42.161 I-184.845 J-130.291
N2220 G2 X-23.602 Y-37.378 I20.649 J14.802
N2225 X-25.288 Y-31.389 I25.346 J10.371
N2230 X-25.854 Y-26.656 I44.895 J7.763
N2235 X-26.141 Y-19.694 I112.163 J8.115
N2240 X-26.126 Y-16.027 I51.731 J1.622
N2245 X-25.633 Y-12.768 I16.393 J-0.815
N2250 X-23.404 Y-8.173 I13.59 J-3.752
N2255 X-21.298 Y-5.635 I19.161 J-13.758
N2260 G3 X-19.62 Y-3.814 I-111.41 J104.376
N2265 X-18.706 Y-2.678 I-11.803 J10.434
N2270 X-18.1 Y-0.77 I-2.721 J1.915
N2275 G1 Y-0.117
N2280 G3 X-18.189 Y0.263 I-0.999 J-0.035 F#104
N2285 G1 X-18.239 Y0.373 Z-13.893
N2290 X-18.289 Y0.481 Z-13.871
N2295 X-18.336 Y0.586 Z-13.835
N2300 X-18.382 Y0.686 Z-13.785
N2305 X-18.425 Y0.78 Z-13.723
N2310 X-18.464 Y0.866 Z-13.649
N2315 X-18.5 Y0.944 Z-13.563
N2320 X-18.531 Y1.012 Z-13.468
N2325 X-18.557 Y1.069 Z-13.365
N2330 X-18.577 Y1.114 Z-13.255
N2335 X-18.592 Y1.147 Z-13.139
N2340 X-18.601 Y1.166 Z-13.021
N2345 X-18.604 Y1.173 Z-12.9
N2350 G0 Z2.71
N2355 X-18.722 Y-47.974
N2360 Z-11.9
N2365 G1 Z-12.9 F#103
N2370 X-18.718 Y-47.968 Z-13.021
N2375 X-18.707 Y-47.949 Z-13.139
N2380 X-18.689 Y-47.918 Z-13.255
N2385 X-18.663 Y-47.876 Z-13.365
N2390 X-18.631 Y-47.822 Z-13.468
N2395 X-18.593 Y-47.758 Z-13.563
N2400 X-18.55 Y-47.685 Z-13.649
N2405 X-18.501 Y-47.603 Z-13.723
N2410 X-18.448 Y-47.514 Z-13.785
N2415 X-18.392 Y-47.419 Z-13.835
N2420 X-18.333 Y-47.32 Z-13.871
N2425 X-18.272 Y-47.218 Z-13.893
N2430 X-18.211 Y-47.115 Z-13.9
N2435 G3 X-18.1 Y-46.738 I-0.68 J0.404
N2440 G1 Y-46.021 F#100
N2445 G3 X-18.515 Y-44.672 I-5.128 J-0.84
N2450 X-19.526 Y-42.738 I-15.099 J-6.664
N2455 G2 X-21.167 Y-39.874 I95.266 J56.479
N2460 X-24.084 Y-31.604 I25.354 J13.592
N2465 X-24.806 Y-26.153 I44.642 J8.689
N2470 X-25.117 Y-18.458 I96.455 J7.749
N2475 X-24.863 Y-15.17 I22.652 J-0.097
N2480 X-22.62 Y-9.398 I15.061 J-2.531
N2485 X-20.678 Y-6.731 I21.73 J-13.782
N2490 G3 X-19.075 Y-4.725 I-142.799 J115.778
N2495 X-18.47 Y-3.82 I-6.116 J4.742
N2500 X-18.1 Y-2.299 I-2.966 J1.527
N2505 G1 Y-0.77
N2510 G3 X-18.189 Y-0.39 I-0.999 J-0.035 F#104
N2515 G1 X-18.239 Y-0.28 Z-13.893
N2520 X-18.289 Y-0.172 Z-13.871
N2525 X-18.336 Y-0.067 Z-13.835
N2530 X-18.382 Y0.033 Z-13.785
N2535 X-18.425 Y0.127 Z-13.723
N2540 X-18.464 Y0.213 Z-13.649
N2545 X-18.5 Y0.291 Z-13.563
N2550 X-18.531 Y0.359 Z-13.468
N2555 X-18.557 Y0.416 Z-13.365
N2560 X-18.577 Y0.461 Z-13.255
N2565 X-18.592 Y0.494 Z-13.139
N2570 X-18.601 Y0.513 Z-13.021
N2575 X-18.604 Y0.52 Z-12.9
N2580 G0 Z2.71
N2585 X-18.722 Y-47.257
N2590 Z-11.9
N2595 G1 Z-12.9 F#103
N2600 X-18.718 Y-47.251 Z-13.021
N2605 X-18.707 Y-47.232 Z-13.139
N2610 X-18.689 Y-47.201 Z-13.255
N2615 X-18.663 Y-47.159 Z-13.365
N2620 X-18.631 Y-47.105 Z-13.468
N2625 X-18.593 Y-47.041 Z-13.563
N2630 X-18.55 Y-46.968 Z-13.649
N2635 X-18.501 Y-46.886 Z-13.723
N2640 X-18.448 Y-46.797 Z-13.785
N2645 X-18.392 Y-46.702 Z-13.835
N2650 X-18.333 Y-46.603 Z-13.871
N2655 X-18.272 Y-46.501 Z-13.893
N2660 X-18.211 Y-46.398 Z-13.9
N2665 G3 X-18.1 Y-46.021 I-0.68 J0.404
N2670 G1 Y-45.104 F#100
N2675 G3 X-18.406 Y-43.681 I-5.524 J-0.444
N2680 X-19.246 Y-41.65 I-15.981 J-5.424
N2685 G2 X-20.796 Y-38.326 I145.916 J70.033
N2690 X-23.306 Y-29.533 I31.973 J13.883
N2695 X-23.907 Y-23.698 I56.962 J8.812
N2700 X-24.042 Y-18.933 I57.53 J4.01
N2705 X-23.704 Y-15.652 I21.164 J-0.517
N2710 X-21.597 Y-10.206 I16.606 J-3.295
N2715 X-19.992 Y-7.751 I25.287 J-14.779
N2720 G3 X-18.601 Y-5.734 I-47.218 J34.045
N2725 X-18.099 Y-3.977 I-2.875 J1.771
N2730 G1 X-18.1 Y-2.422
N2735 G3 X-18.189 Y-2.043 I-0.999 J-0.035 F#104
N2740 G1 X-18.239 Y-1.933 Z-13.893
N2745 X-18.289 Y-1.825 Z-13.871
N2750 X-18.336 Y-1.72 Z-13.835
N2755 X-18.382 Y-1.62 Z-13.785
N2760 X-18.425 Y-1.526 Z-13.723
N2765 X-18.464 Y-1.439 Z-13.649
N2770 X-18.5 Y-1.361 Z-13.563
N2775 X-18.531 Y-1.294 Z-13.468
N2780 X-18.557 Y-1.237 Z-13.365
N2785 X-18.577 Y-1.192 Z-13.255
N2790 X-18.592 Y-1.159 Z-13.139
N2795 X-18.601 Y-1.139 Z-13.021
N2800 X-18.604 Y-1.133 Z-12.9
N2805 G0 Z2.71
N2810 X-18.722 Y-46.34
N2815 Z-11.9
N2820 G1 Z-12.9 F#103
N2825 X-18.718 Y-46.334 Z-13.021
N2830 X-18.707 Y-46.315 Z-13.139
N2835 X-18.689 Y-46.284 Z-13.255
N2840 X-18.663 Y-46.242 Z-13.365
N2845 X-18.631 Y-46.188 Z-13.468
N2850 X-18.593 Y-46.124 Z-13.563
N2855 X-18.55 Y-46.051 Z-13.649
N2860 X-18.501 Y-45.969 Z-13.723
N2865 X-18.448 Y-45.88 Z-13.785
N2870 X-18.392 Y-45.785 Z-13.835
N2875 X-18.333 Y-45.686 Z-13.871
N2880 X-18.272 Y-45.584 Z-13.893
N2885 X-18.211 Y-45.481 Z-13.9
N2890 G3 X-18.1 Y-45.104 I-0.68 J0.404
N2895 G1 Y-43.856 F#100
N2900 G3 X-18.368 Y-42.202 I-6.823 J-0.257
N2905 X-19.2 Y-39.775 I-22.568 J-6.38
N2910 G2 X-20.48 Y-36.337 I112.735 J43.953
N2915 X-22.448 Y-27.773 I40.016 J13.702
N2920 X-22.963 Y-20.827 I60.966 J8.015
N2925 X-22.731 Y-17.169 I24.486 J0.28
N2930 X-20.756 Y-11.286 I18.135 J-2.814
N2935 X-19.479 Y-9.06 I27.067 J-14.044
N2940 G3 X-18.501 Y-7.431 I-50.029 J31.161
N2945 X-18.1 Y-5.851 I-2.935 J1.587
N2950 G1 Y-4.089
N2955 G3 X-18.189 Y-3.709 I-0.999 J-0.035 F#104
N2960 G1 X-18.239 Y-3.599 Z-13.893
N2965 X-18.289 Y-3.491 Z-13.871
N2970 X-18.336 Y-3.386 Z-13.835
N2975 X-18.382 Y-3.286 Z-13.785
N2980 X-18.425 Y-3.192 Z-13.723
N2985 X-18.464 Y-3.105 Z-13.649
N2990 X-18.5 Y-3.028 Z-13.563
N2995 X-18.531 Y-2.96 Z-13.468
N3000 X-18.557 Y-2.903 Z-13.365
N3005 X-18.577 Y-2.858 Z-13.255
N3010 X-18.592 Y-2.825 Z-13.139
N3015 X-18.601 Y-2.805 Z-13.021
N3020 X-18.604 Y-2.799 Z-12.9
N3025 G0 Z2.71
N3030 X-18.722 Y-45.092
N3035 Z-11.9
N3040 G1 Z-12.9 F#103
N3045 X-18.718 Y-45.086 Z-13.021
N3050 X-18.707 Y-45.067 Z-13.139
N3055 X-18.689 Y-45.036 Z-13.255
N3060 X-18.663 Y-44.993 Z-13.365
N3065 X-18.631 Y-44.94 Z-13.468
N3070 X-18.593 Y-44.876 Z-13.563
N3075 X-18.55 Y-44.802 Z-13.649
N3080 X-18.501 Y-44.721 Z-13.723
N3085 X-18.448 Y-44.632 Z-13.785
N3090 X-18.392 Y-44.537 Z-13.835
N3095 X-18.333 Y-44.438 Z-13.871
N3100 X-18.272 Y-44.336 Z-13.893
N3105 X-18.211 Y-44.232 Z-13.9
N3110 G3 X-18.1 Y-43.856 I-0.68 J0.404
N3115 G1 Y-42.133 F#100
N3120 G3 X-18.408 Y-39.975 I-9.806 J-0.3
N3125 X-19.323 Y-36.804 I-50.033 J-12.721
N3130 G2 X-20.568 Y-32.202 I68.4 J20.965
N3135 X-21.85 Y-22.026 I54.45 J12.032
N3140 X-21.639 Y-18.001 I25.193 J0.693
N3145 X-19.933 Y-12.408 I19.715 J-2.954
N3150 X-18.611 Y-9.789 I41.512 J-19.329
N3155 G3 X-18.219 Y-8.869 I-4.485 J2.449
N3160 G1 X-18.154 Y-8.578
N3165 X-18.113 Y-8.282
N3170 X-18.1 Y-7.984
N3175 Y-6.032
N3180 G3 X-18.189 Y-5.653 I-0.999 J-0.035 F#104
N3185 G1 X-18.239 Y-5.543 Z-13.893
N3190 X-18.289 Y-5.435 Z-13.871
N3195 X-18.336 Y-5.33 Z-13.835
N3200 X-18.382 Y-5.23 Z-13.785
N3205 X-18.425 Y-5.136 Z-13.723
N3210 X-18.464 Y-5.049 Z-13.649
N3215 X-18.5 Y-4.972 Z-13.563
N3220 X-18.531 Y-4.904 Z-13.468
N3225 X-18.557 Y-4.847 Z-13.365
N3230 X-18.577 Y-4.802 Z-13.255
N3235 X-18.592 Y-4.769 Z-13.139
N3240 X-18.601 Y-4.749 Z-13.021
N3245 X-18.604 Y-4.743 Z-12.9
N3250 G0 Z2.71
N3255 X-18.722 Y-43.369
N3260 Z-11.9
N3265 G1 Z-12.9 F#103
N3270 X-18.718 Y-43.363 Z-13.021
N3275 X-18.707 Y-43.344 Z-13.139
N3280 X-18.689 Y-43.314 Z-13.255
N3285 X-18.663 Y-43.271 Z-13.365
N3290 X-18.631 Y-43.217 Z-13.468
N3295 X-18.593 Y-43.153 Z-13.563
N3300 X-18.55 Y-43.08 Z-13.649
N3305 X-18.501 Y-42.998 Z-13.723
N3310 X-18.448 Y-42.909 Z-13.785
N3315 X-18.392 Y-42.815 Z-13.835
N3320 X-18.333 Y-42.716 Z-13.871
N3325 X-18.272 Y-42.614 Z-13.893
N3330 X-18.211 Y-42.51 Z-13.9
N3335 G3 X-18.1 Y-42.133 I-0.68 J0.404
N3340 G1 Y-39.634 F#100
N3345 G3 X-18.468 Y-36.929 I-14.821 J-0.637
N3350 X-19.192 Y-33.708 I-127.53 J-26.993
N3355 G2 X-20.489 Y-26.119 I66.639 J15.299
N3360 X-20.741 Y-21.727 I42.002 J4.613
N3365 X-20.291 Y-17.355 I22.632 J-0.125
N3370 X-18.809 Y-12.831 I23.076 J-5.053
N3375 X-18.357 Y-11.772 I56.183 J-23.334
N3380 G3 X-18.1 Y-10.494 I-3.058 J1.281
N3385 G1 Y-7.984
N3390 G3 X-18.189 Y-7.604 I-0.999 J-0.035 F#104
N3395 G1 X-18.239 Y-7.495 Z-13.893
N3400 X-18.289 Y-7.386 Z-13.871
N3405 X-18.336 Y-7.282 Z-13.835
N3410 X-18.382 Y-7.181 Z-13.785
N3415 X-18.425 Y-7.087 Z-13.723
N3420 X-18.464 Y-7.001 Z-13.649
N3425 X-18.5 Y-6.923 Z-13.563
N3430 X-18.531 Y-6.855 Z-13.468
N3435 X-18.557 Y-6.798 Z-13.365
N3440 X-18.577 Y-6.753 Z-13.255
N3445 X-18.592 Y-6.721 Z-13.139
N3450 X-18.601 Y-6.701 Z-13.021
N3455 X-18.604 Y-6.694 Z-12.9
N3460 G0 Z2.71
N3465 X-18.722 Y-40.87
N3470 Z-11.9
N3475 G1 Z-12.9 F#103
N3480 X-18.718 Y-40.864 Z-13.021
N3485 X-18.707 Y-40.845 Z-13.139
N3490 X-18.689 Y-40.814 Z-13.255
N3495 X-18.663 Y-40.772 Z-13.365
N3500 X-18.631 Y-40.718 Z-13.468
N3505 X-18.593 Y-40.654 Z-13.563
N3510 X-18.55 Y-40.581 Z-13.649
N3515 X-18.501 Y-40.499 Z-13.723
N3520 X-18.448 Y-40.41 Z-13.785
N3525 X-18.392 Y-40.315 Z-13.835
N3530 X-18.333 Y-40.216 Z-13.871
N3535 X-18.272 Y-40.114 Z-13.893
N3540 X-18.211 Y-40.011 Z-13.9
N3545 G3 X-18.1 Y-39.634 I-0.68 J0.404
N3550 G1 Y-36.301 F#100
N3555 G3 X-18.455 Y-33.022 I-25.36 J-1.085
N3560 G1 X-18.765 Y-31.028
N3565 X-19.071 Y-29.034
N3570 G2 X-19.589 Y-23.927 I58.664 J8.536
N3575 X-19.479 Y-19.897 I27.62 J1.259
N3580 X-18.264 Y-14.684 I23.589 J-2.748
N3585 G1 X-18.175 Y-14.342
N3590 X-18.119 Y-13.993
N3595 X-18.1 Y-13.641
N3600 Y-10.494
N3605 G3 X-18.189 Y-10.114 I-0.999 J-0.035 F#104
N3610 G1 X-18.239 Y-10.004 Z-13.893
N3615 X-18.289 Y-9.896 Z-13.871
N3620 X-18.336 Y-9.791 Z-13.835
N3625 X-18.382 Y-9.691 Z-13.785
N3630 X-18.425 Y-9.597 Z-13.723
N3635 X-18.464 Y-9.51 Z-13.649
N3640 X-18.5 Y-9.433 Z-13.563
N3645 X-18.531 Y-9.365 Z-13.468
N3650 X-18.557 Y-9.308 Z-13.365
N3655 X-18.577 Y-9.263 Z-13.255
N3660 X-18.592 Y-9.23 Z-13.139
N3665 X-18.601 Y-9.211 Z-13.021
N3670 X-18.604 Y-9.204 Z-12.9
N3675 G0 Z2.71
N3680 X-18.722 Y-37.538
N3685 Z-11.9
N3690 G1 Z-12.9 F#103
N3695 X-18.718 Y-37.532 Z-13.021
N3700 X-18.707 Y-37.513 Z-13.139
N3705 X-18.689 Y-37.482 Z-13.255
N3710 X-18.663 Y-37.439 Z-13.365
N3715 X-18.631 Y-37.386 Z-13.468
N3720 X-18.593 Y-37.322 Z-13.563
N3725 X-18.55 Y-37.248 Z-13.649
N3730 X-18.501 Y-37.167 Z-13.723
N3735 X-18.448 Y-37.078 Z-13.785
N3740 X-18.392 Y-36.983 Z-13.835
N3745 X-18.333 Y-36.884 Z-13.871
N3750 X-18.272 Y-36.782 Z-13.893
N3755 X-18.211 Y-36.678 Z-13.9
N3760 G3 X-18.1 Y-36.301 I-0.68 J0.404
N3765 G1 Y-31.303 F#100
N3770 G3 X-18.157 Y-29.837 I-230.2 J-8.242
N3775 X-18.423 Y-26.179 I-333.277 J-22.352
N3780 G2 X-18.498 Y-22.146 I40.027 J2.763
N3785 X-18.118 Y-18.757 I26.455 J-1.247
N3790 G1 X-18.105 Y-18.571
N3795 X-18.1 Y-18.384
N3800 Y-13.808
N3805 G3 X-18.189 Y-13.428 I-0.999 J-0.035 F#104
N3810 G1 X-18.239 Y-13.318 Z-13.893
N3815 X-18.289 Y-13.21 Z-13.871
N3820 X-18.336 Y-13.105 Z-13.835
N3825 X-18.382 Y-13.005 Z-13.785
N3830 X-18.425 Y-12.911 Z-13.723
N3835 X-18.464 Y-12.825 Z-13.649
N3840 X-18.5 Y-12.747 Z-13.563
N3845 X-18.531 Y-12.679 Z-13.468
N3850 X-18.557 Y-12.622 Z-13.365
N3855 X-18.577 Y-12.577 Z-13.255
N3860 X-18.592 Y-12.545 Z-13.139
N3865 X-18.601 Y-12.525 Z-13.021
N3870 X-18.604 Y-12.518 Z-12.9
N3875 G0 Z2.71
N3880 X-18.722 Y-32.539
N3885 Z-11.9
N3890 G1 Z-12.9 F#103
N3895 X-18.718 Y-32.533 Z-13.021
N3900 X-18.707 Y-32.514 Z-13.139
N3905 X-18.689 Y-32.483 Z-13.255
N3910 X-18.663 Y-32.441 Z-13.365
N3915 X-18.631 Y-32.387 Z-13.468
N3920 X-18.593 Y-32.323 Z-13.563
N3925 X-18.55 Y-32.25 Z-13.649
N3930 X-18.501 Y-32.168 Z-13.723
N3935 X-18.448 Y-32.079 Z-13.785
N3940 X-18.392 Y-31.985 Z-13.835
N3945 X-18.333 Y-31.885 Z-13.871
N3950 X-18.272 Y-31.783 Z-13.893
N3955 X-18.211 Y-31.68 Z-13.9
N3960 G3 X-18.1 Y-31.303 I-0.68 J0.404
N3965 G1 Y-18.529 F#100
N3970 X-18.114 Y-18.452 Z-13.892 F#104
N3975 X-18.127 Y-18.378 Z-13.869
N3980 X-18.139 Y-18.311 Z-13.831
N3985 X-18.149 Y-18.252 Z-13.78
N3990 X-18.166 Y-18.208 Z-13.721
N3995 X-18.179 Y-18.176 Z-13.655
N4000 X-18.187 Y-18.156 Z-13.582
N4005 X-18.189 Y-18.149 Z-13.507
N4010 G0 Z2.71
N4015 X30.981 Y11.37
N4020 Z-11.9
N4025 G1 Z-12.9 F#103
N4030 X30.979 Y11.362 Z-13.021
N4035 X30.974 Y11.341 Z-13.139
N4040 X30.965 Y11.307 Z-13.255
N4045 X30.953 Y11.259 Z-13.365
N4050 X30.937 Y11.198 Z-13.468
N4055 X30.919 Y11.126 Z-13.563
N4060 X30.897 Y11.043 Z-13.649
N4065 X30.874 Y10.951 Z-13.723
N4070 X30.848 Y10.851 Z-13.785
N4075 X30.821 Y10.744 Z-13.835
N4080 X30.792 Y10.633 Z-13.871
N4085 X30.763 Y10.518 Z-13.893
N4090 X30.733 Y10.401 Z-13.9
N4095 G3 X29.95 Y4.957 I24.731 J-6.335
N4100 G1 Y4.945 F#106
N4105 G2 X31.857 Y2.741 I-4.407 J-5.739 F#100
N4110 X33.045 Y-0.326 I-9.704 J-5.523
N4115 X33.564 Y-3.583 I-20.426 J-4.926
N4120 X33.795 Y-8.344 I-59.512 J-5.272
N4125 X33.851 Y-15.68 I-319.437 J-6.091
N4130 G1 X33.861 Y-21.182
N4135 X33.86 Y-26.684
N4140 Y-38.788
N4145 Y-40.989
N4150 G2 X33.486 Y-42.772 I-4.495 J0.011
N4155 X32.509 Y-44.314 I-5.24 J2.24
N4160 X30.233 Y-46.137 I-5.691 J4.774
N4165 X27.134 Y-47.241 I-5.394 J10.238
N4170 X23.868 Y-47.704 I-4.771 J21.891
N4175 X20.205 Y-47.879 I-4.551 J56.907
N4180 G1 X19.874 Y-47.915
N4185 X19.551 Y-47.999
N4190 X19.246 Y-48.131
N4195 X18.964 Y-48.309
N4200 X18.714 Y-48.529
N4205 X18.5 Y-48.784
N4210 X18.328 Y-49.07
N4215 X18.202 Y-49.378
N4220 X18.126 Y-49.702
N4225 X18.1 Y-50.035
N4230 G3 X18.189 Y-50.414 I0.999 J0.035 F#104
N4235 G1 X18.239 Y-50.524 Z-13.893
N4240 X18.289 Y-50.632 Z-13.871
N4245 X18.336 Y-50.737 Z-13.835
N4250 X18.382 Y-50.837 Z-13.785
N4255 X18.425 Y-50.931 Z-13.723
N4260 X18.464 Y-51.018 Z-13.649
N4265 X18.5 Y-51.095 Z-13.563
N4270 X18.531 Y-51.163 Z-13.468
N4275 X18.557 Y-51.22 Z-13.365
N4280 X18.577 Y-51.265 Z-13.255
N4285 X18.592 Y-51.298 Z-13.139
N4290 X18.601 Y-51.318 Z-13.021
N4295 X18.604 Y-51.324 Z-12.9
N4300 G0 Z2.71
N4305 X19.131 Y11.364
N4310 Z-11.9
N4315 G1 Z-12.9 F#103
N4320 X19.129 Y11.357 Z-13.021
N4325 X19.124 Y11.336 Z-13.139
N4330 X19.115 Y11.301 Z-13.255
N4335 X19.103 Y11.253 Z-13.365
N4340 X19.087 Y11.192 Z-13.468
N4345 X19.069 Y11.12 Z-13.563
N4350 X19.047 Y11.038 Z-13.649
N4355 X19.024 Y10.945 Z-13.723
N4360 X18.998 Y10.845 Z-13.785
N4365 X18.971 Y10.739 Z-13.835
N4370 X18.942 Y10.627 Z-13.871
N4375 X18.913 Y10.512 Z-13.893
N4380 X18.883 Y10.395 Z-13.9
N4385 G3 X18.1 Y4.951 I24.731 J-6.335
N4390 G1 Y4.922 F#106
N4395 G3 X18.993 Y4.567 I1.624 J2.78 F#100
N4400 X20.856 Y4.214 I2.967 J10.595
N4405 X23.902 Y3.987 I3.891 J31.639
N4410 X24.966 Y3.945 I1.67 J28.809
N4415 G2 X27.74 Y3.081 I-0.328 J-5.938
N4420 X30.107 Y0.817 I-3.951 J-6.497
N4425 X31.536 Y-2.145 I-9.016 J-6.176
N4430 X32.305 Y-5.725 I-17.976 J-5.736
N4435 X32.625 Y-9.746 I-41.702 J-5.34
N4440 X32.745 Y-15.98 I-154.659 J-6.1
N4445 G1 X32.765 Y-20.504
N4450 X32.773 Y-25.028
N4455 X32.77 Y-29.551
N4460 Y-35.053
N4465 G3 X32.8 Y-37.254 I48.611 J-0.432
N4470 G2 X32.792 Y-38.72 I-16.608 J-0.642
N4475 X30.891 Y-42.996 I-7.04 J0.571
N4480 X28.259 Y-44.958 I-6.619 J6.13
N4485 X24.802 Y-46.151 I-6.158 J12.245
N4490 X22.27 Y-46.571 I-5.523 J25.444
N4495 G3 X20.643 Y-46.874 I2.128 J-15.918
N4500 G1 X19.938 Y-47.077
N4505 X19.599 Y-47.191
N4510 X19.279 Y-47.354
N4515 X18.987 Y-47.562
N4520 X18.728 Y-47.81
N4525 X18.509 Y-48.093
N4530 X18.333 Y-48.406
N4535 X18.204 Y-48.74
N4540 X18.126 Y-49.09
N4545 X18.1 Y-49.448
N4550 G3 X18.189 Y-49.827 I0.999 J0.035 F#104
N4555 G1 X18.239 Y-49.937 Z-13.893
N4560 X18.289 Y-50.045 Z-13.871
N4565 X18.336 Y-50.15 Z-13.835
N4570 X18.382 Y-50.25 Z-13.785
N4575 X18.425 Y-50.344 Z-13.723
N4580 X18.464 Y-50.431 Z-13.649
N4585 X18.5 Y-50.509 Z-13.563
N4590 X18.531 Y-50.576 Z-13.468
N4595 X18.557 Y-50.633 Z-13.365
N4600 X18.577 Y-50.678 Z-13.255
N4605 X18.592 Y-50.711 Z-13.139
N4610 X18.601 Y-50.731 Z-13.021
N4615 X18.604 Y-50.737 Z-12.9
N4620 G0 Z2.71
N4625 X18.722 Y6.158
N4630 Z-11.9
N4635 G1 Z-12.9 F#103
N4640 X18.718 Y6.152 Z-13.021
N4645 X18.707 Y6.133 Z-13.139
N4650 X18.689 Y6.103 Z-13.255
N4655 X18.663 Y6.06 Z-13.365
N4660 X18.631 Y6.006 Z-13.468
N4665 X18.593 Y5.942 Z-13.563
N4670 X18.55 Y5.869 Z-13.649
N4675 X18.501 Y5.787 Z-13.723
N4680 X18.448 Y5.698 Z-13.785
N4685 X18.392 Y5.604 Z-13.835
N4690 X18.333 Y5.505 Z-13.871
N4695 X18.272 Y5.402 Z-13.893
N4700 X18.211 Y5.299 Z-13.9
N4705 G3 X18.1 Y4.922 I0.68 J-0.404
N4710 G1 Y4.72 F#106
N4715 G3 X19.165 Y4.062 I2.345 J2.605 F#100
N4720 X20.955 Y3.503 I3.422 J7.805
N4725 X22.578 Y3.22 I3.501 J15.325
N4730 G2 X24.706 Y2.675 I-1.401 J-9.883
N4735 X28.432 Y-0.203 I-3.215 J-8.016
N4740 X30.022 Y-3.083 I-9.05 J-6.874
N4745 X31.039 Y-6.979 I-17.064 J-6.535
N4750 X31.434 Y-10.624 I-34.535 J-5.588
N4755 X31.633 Y-16.855 I-107.098 J-6.537
N4760 X31.673 Y-26.025 I-597.21 J-7.207
N4765 G1 X31.678 Y-30.977
N4770 X31.692 Y-35.929
N4775 G2 X30.6 Y-40.148 I-9.05 J0.09
N4780 X27.556 Y-43.266 I-7.735 J4.507
N4785 X24.916 Y-44.531 I-6.652 J10.5
N4790 X22.465 Y-45.295 I-11.895 J33.836
N4795 G3 X20.476 Y-45.939 I6.75 J-24.225
N4800 X19.401 Y-46.474 I4.196 J-9.793
N4805 G1 X19.116 Y-46.679
N4810 X18.86 Y-46.919
N4815 X18.635 Y-47.189
N4820 X18.447 Y-47.485
N4825 X18.297 Y-47.803
N4830 X18.188 Y-48.137
N4835 X18.122 Y-48.482
N4840 X18.1 Y-48.832
N4845 G3 X18.189 Y-49.212 I0.999 J0.035 F#104
N4850 G1 X18.239 Y-49.322 Z-13.893
N4855 X18.289 Y-49.43 Z-13.871
N4860 X18.336 Y-49.535 Z-13.835
N4865 X18.382 Y-49.635 Z-13.785
N4870 X18.425 Y-49.729 Z-13.723
N4875 X18.464 Y-49.815 Z-13.649
N4880 X18.5 Y-49.893 Z-13.563
N4885 X18.531 Y-49.961 Z-13.468
N4890 X18.557 Y-50.018 Z-13.365
N4895 X18.577 Y-50.063 Z-13.255
N4900 X18.592 Y-50.095 Z-13.139
N4905 X18.601 Y-50.115 Z-13.021
N4910 X18.604 Y-50.122 Z-12.9
N4915 G0 Z2.71
N4920 X18.722 Y5.956
N4925 Z-11.9
N4930 G1 Z-12.9 F#103
N4935 X18.718 Y5.95 Z-13.021
N4940 X18.707 Y5.931 Z-13.139
N4945 X18.689 Y5.9 Z-13.255
N4950 X18.663 Y5.858 Z-13.365
N4955 X18.631 Y5.804 Z-13.468
N4960 X18.593 Y5.74 Z-13.563
N4965 X18.55 Y5.667 Z-13.649
N4970 X18.501 Y5.585 Z-13.723
N4975 X18.448 Y5.496 Z-13.785
N4980 X18.392 Y5.401 Z-13.835
N4985 X18.333 Y5.302 Z-13.871
N4990 X18.272 Y5.2 Z-13.893
N4995 X18.211 Y5.097 Z-13.9
N5000 G3 X18.1 Y4.72 I0.68 J-0.404
N5005 G1 Y4.436 F#106
N5010 G3 X19.024 Y3.649 I2.557 J2.067 F#100
N5015 X20.573 Y2.933 I3.638 J5.836
N5020 X21.924 Y2.467 I15.75 J43.417
N5025 G2 X24.238 Y1.365 I-4.223 J-11.849
N5030 X27.771 Y-2.295 I-5.723 J-9.06
N5035 X29.328 Y-6.003 I-12.585 J-7.468
N5040 X30.043 Y-9.597 I-22.886 J-6.417
N5045 X30.436 Y-14.715 I-52.074 J-6.571
N5050 X30.558 Y-20.949 I-168.893 J-6.446
N5055 G1 X30.581 Y-25.228
N5060 X30.591 Y-29.507
N5065 X30.589 Y-33.787
N5070 G2 X30.297 Y-36.333 I-12.436 J0.134
N5075 X28.507 Y-39.91 I-8.567 J2.051
N5080 X25.769 Y-42.322 I-8.088 J6.421
N5085 X23.167 Y-43.671 I-9.786 J15.7
N5090 G3 X20.825 Y-44.723 I47.691 J-109.309
N5095 X19.465 Y-45.527 I4.085 J-8.459
N5100 X18.386 Y-46.858 I1.969 J-2.699
N5105 X18.1 Y-48.203 I3.022 J-1.346
N5110 X18.189 Y-48.583 I0.999 J0.035 F#104
N5115 G1 X18.239 Y-48.692 Z-13.893
N5120 X18.289 Y-48.8 Z-13.871
N5125 X18.336 Y-48.905 Z-13.835
N5130 X18.382 Y-49.005 Z-13.785
N5135 X18.425 Y-49.099 Z-13.723
N5140 X18.464 Y-49.186 Z-13.649
N5145 X18.5 Y-49.264 Z-13.563
N5150 X18.531 Y-49.331 Z-13.468
N5155 X18.557 Y-49.388 Z-13.365
N5160 X18.577 Y-49.433 Z-13.255
N5165 X18.592 Y-49.466 Z-13.139
N5170 X18.601 Y-49.486 Z-13.021
N5175 X18.604 Y-49.493 Z-12.9
N5180 G0 Z2.71
N5185 X18.722 Y5.672
N5190 Z-11.9
N5195 G1 Z-12.9 F#103
N5200 X18.718 Y5.666 Z-13.021
N5205 X18.707 Y5.647 Z-13.139
N5210 X18.689 Y5.617 Z-13.255
N5215 X18.663 Y5.574 Z-13.365
N5220 X18.631 Y5.52 Z-13.468
N5225 X18.593 Y5.456 Z-13.563
N5230 X18.55 Y5.383 Z-13.649
N5235 X18.501 Y5.301 Z-13.723
N5240 X18.448 Y5.212 Z-13.785
N5245 X18.392 Y5.118 Z-13.835
N5250 X18.333 Y5.019 Z-13.871
N5255 X18.272 Y4.916 Z-13.893
N5260 X18.211 Y4.813 Z-13.9
N5265 G3 X18.1 Y4.436 I0.68 J-0.404
N5270 G1 Y4.1 F#100
N5275 G3 X18.33 Y3.773 I1.491 J0.804
N5280 X19.415 Y2.856 I3.358 J2.872
N5285 X20.918 Y1.984 I9.638 J14.885
N5290 G2 X22.788 Y0.826 I-11.459 J-20.603
N5295 X27.007 Y-4.16 I-7.475 J-10.602
N5300 X28.435 Y-8.312 I-16.159 J-7.881
N5305 X29.061 Y-12.295 I-29.695 J-6.707
N5310 X29.38 Y-17.786 I-70.54 J-6.854
N5315 X29.48 Y-25.488 I-266.723 J-7.316
N5320 X29.494 Y-31.724 I-558.104 J-4.331
N5325 X29.268 Y-34.279 I-15.761 J0.104
N5330 X26.339 Y-39.671 I-9.873 J1.871
N5335 X24.953 Y-40.869 I-10.435 J10.674
N5340 X22.522 Y-42.508 I-12.71 J16.228
N5345 G3 X20.332 Y-43.849 I36.438 J-61.977
N5350 X19.105 Y-44.834 I5.155 J-7.677
N5355 X18.1 Y-47.208 I2.31 J-2.378
N5360 X18.189 Y-47.587 I1. J0.035 F#104
N5365 G1 X18.239 Y-47.697 Z-13.893
N5370 X18.289 Y-47.805 Z-13.871
N5375 X18.336 Y-47.91 Z-13.835
N5380 X18.382 Y-48.01 Z-13.785
N5385 X18.425 Y-48.104 Z-13.723
N5390 X18.464 Y-48.191 Z-13.649
N5395 X18.5 Y-48.269 Z-13.563
N5400 X18.531 Y-48.336 Z-13.468
N5405 X18.557 Y-48.393 Z-13.365
N5410 X18.577 Y-48.438 Z-13.255
N5415 X18.592 Y-48.471 Z-13.139
N5420 X18.601 Y-48.491 Z-13.021
N5425 X18.604 Y-48.497 Z-12.9
N5430 G0 Z2.71
N5435 X18.722 Y5.336
N5440 Z-11.9
N5445 G1 Z-12.9 F#103
N5450 X18.718 Y5.33 Z-13.021
N5455 X18.707 Y5.311 Z-13.139
N5460 X18.689 Y5.28 Z-13.255
N5465 X18.663 Y5.238 Z-13.365
N5470 X18.631 Y5.184 Z-13.468
N5475 X18.593 Y5.12 Z-13.563
N5480 X18.55 Y5.047 Z-13.649
N5485 X18.501 Y4.965 Z-13.723
N5490 X18.448 Y4.876 Z-13.785
N5495 X18.392 Y4.781 Z-13.835
N5500 X18.333 Y4.682 Z-13.871
N5505 X18.272 Y4.58 Z-13.893
N5510 X18.211 Y4.477 Z-13.9
N5515 G3 X18.1 Y4.1 I0.68 J-0.404
N5520 G1 Y3.708 F#100
N5525 G3 X18.765 Y2.792 I2.897 J1.403
N5530 X19.842 Y1.824 I6.774 J6.457
N5535 G1 X19.918 Y1.756
N5540 G2 X21.942 Y0.091 I-37.919 J-48.176
N5545 X24.814 Y-3.227 I-10.874 J-12.313
N5550 X26.899 Y-7.9 I-14.967 J-9.479
N5555 X27.827 Y-12.572 I-26.839 J-7.76
N5560 X28.207 Y-17.323 I-55.331 J-6.816
N5565 X28.372 Y-24.657 I-174.758 J-7.588
N5570 X28.39 Y-30.159 I-274.459 J-3.69
N5575 X28.157 Y-32.714 I-17.784 J0.335
N5580 X25.895 Y-37.667 I-10.832 J1.955
N5585 X23.58 Y-40.011 I-11.733 J9.272
N5590 X22.138 Y-41.144 I-17.747 J21.1
N5595 G3 X20.123 Y-42.735 I114.45 J-146.917
N5600 X18.903 Y-43.905 I7.088 J-8.619
N5605 X18.117 Y-45.73 I2.528 J-2.171
N5610 G1 X18.1 Y-46.066
N5615 G3 X18.189 Y-46.445 I0.999 J0.035 F#104
N5620 G1 X18.239 Y-46.555 Z-13.893
N5625 X18.289 Y-46.663 Z-13.871
N5630 X18.336 Y-46.768 Z-13.835
N5635 X18.382 Y-46.868 Z-13.785
N5640 X18.425 Y-46.962 Z-13.723
N5645 X18.464 Y-47.049 Z-13.649
N5650 X18.5 Y-47.126 Z-13.563
N5655 X18.531 Y-47.194 Z-13.468
N5660 X18.557 Y-47.251 Z-13.365
N5665 X18.577 Y-47.296 Z-13.255
N5670 X18.592 Y-47.329 Z-13.139
N5675 X18.601 Y-47.349 Z-13.021
N5680 X18.604 Y-47.355 Z-12.9
N5685 G0 Z2.71
N5690 X18.722 Y4.944
N5695 Z-11.9
N5700 G1 Z-12.9 F#103
N5705 X18.718 Y4.938 Z-13.021
N5710 X18.707 Y4.919 Z-13.139
N5715 X18.689 Y4.888 Z-13.255
N5720 X18.663 Y4.846 Z-13.365
N5725 X18.631 Y4.792 Z-13.468
N5730 X18.593 Y4.728 Z-13.563
N5735 X18.55 Y4.655 Z-13.649
N5740 X18.501 Y4.573 Z-13.723
N5745 X18.448 Y4.484 Z-13.785
N5750 X18.392 Y4.389 Z-13.835
N5755 X18.333 Y4.29 Z-13.871
N5760 X18.272 Y4.188 Z-13.893
N5765 X18.211 Y4.085 Z-13.9
N5770 G3 X18.1 Y3.708 I0.68 J-0.404
N5775 G1 Y3.267 F#100
N5780 G3 X18.659 Y2.261 I3.434 J1.249
N5785 X19.646 Y1.074 I8.798 J6.315
N5790 X21.17 Y-0.583 I168.505 J153.504
N5795 G2 X23.972 Y-4.428 I-15.501 J-14.239
N5800 X26.041 Y-9.901 I-18.728 J-10.206
N5805 X26.775 Y-14.238 I-32.202 J-7.678
N5810 X27.163 Y-20.092 I-70.595 J-7.62
N5815 X27.283 Y-28.527 I-211.267 J-7.224
N5820 X27.071 Y-31.084 I-20.584 J0.412
N5825 X24.606 Y-36.74 I-12.219 J1.962
N5830 X22.381 Y-39.174 I-15.821 J12.226
N5835 X20.422 Y-40.979 I-57.629 J60.589
N5840 G3 X18.743 Y-42.777 I9.927 J-10.952
N5845 G1 X18.553 Y-43.072
N5850 G3 X18.1 Y-44.741 I2.847 J-1.669
N5855 X18.189 Y-45.121 I0.999 J0.035 F#104
N5860 G1 X18.239 Y-45.23 Z-13.893
N5865 X18.289 Y-45.338 Z-13.871
N5870 X18.336 Y-45.443 Z-13.835
N5875 X18.382 Y-45.544 Z-13.785
N5880 X18.425 Y-45.638 Z-13.723
N5885 X18.464 Y-45.724 Z-13.649
N5890 X18.5 Y-45.802 Z-13.563
N5895 X18.531 Y-45.87 Z-13.468
N5900 X18.557 Y-45.926 Z-13.365
N5905 X18.577 Y-45.971 Z-13.255
N5910 X18.592 Y-46.004 Z-13.139
N5915 X18.601 Y-46.024 Z-13.021
N5920 X18.604 Y-46.031 Z-12.9
N5925 G0 Z2.71
N5930 X18.722 Y4.503
N5935 Z-11.9
N5940 G1 Z-12.9 F#103
N5945 X18.718 Y4.497 Z-13.021
N5950 X18.707 Y4.478 Z-13.139
N5955 X18.689 Y4.447 Z-13.255
N5960 X18.663 Y4.405 Z-13.365
N5965 X18.631 Y4.351 Z-13.468
N5970 X18.593 Y4.287 Z-13.563
N5975 X18.55 Y4.213 Z-13.649
N5980 X18.501 Y4.132 Z-13.723
N5985 X18.448 Y4.043 Z-13.785
N5990 X18.392 Y3.948 Z-13.835
N5995 X18.333 Y3.849 Z-13.871
N6000 X18.272 Y3.747 Z-13.893
N6005 X18.211 Y3.643 Z-13.9
N6010 G3 X18.1 Y3.267 I0.68 J-0.404
N6015 G1 Y2.738 F#100
N6020 G3 X18.574 Y1.577 I4.101 J0.998
N6025 X19.468 Y0.173 I10.582 J5.751
N6030 X20.904 Y-1.841 I185.947 J131.076
N6035 G2 X23.602 Y-6.623 I-20.646 J-14.799
N6040 X25.289 Y-12.613 I-25.349 J-10.37
N6045 X25.854 Y-17.345 I-44.902 J-7.763
N6050 X26.141 Y-24.307 I-112.19 J-8.114
N6055 X26.126 Y-27.975 I-51.693 J-1.621
N6060 X25.632 Y-31.233 I-16.389 J0.816
N6065 X23.403 Y-35.828 I-13.59 J3.754
N6070 X21.297 Y-38.366 I-19.166 J13.765
N6075 G3 X19.619 Y-40.186 I111.127 J-104.114
N6080 X18.706 Y-41.321 I11.801 J-10.431
N6085 X18.1 Y-43.23 I2.721 J-1.915
N6090 G1 Y-43.883
N6095 G3 X18.189 Y-44.263 I0.999 J0.035 F#104
N6100 G1 X18.239 Y-44.373 Z-13.893
N6105 X18.289 Y-44.481 Z-13.871
N6110 X18.336 Y-44.586 Z-13.835
N6115 X18.382 Y-44.686 Z-13.785
N6120 X18.425 Y-44.78 Z-13.723
N6125 X18.464 Y-44.867 Z-13.649
N6130 X18.5 Y-44.944 Z-13.563
N6135 X18.531 Y-45.012 Z-13.468
N6140 X18.557 Y-45.069 Z-13.365
N6145 X18.577 Y-45.114 Z-13.255
N6150 X18.592 Y-45.147 Z-13.139
N6155 X18.601 Y-45.166 Z-13.021
N6160 X18.604 Y-45.173 Z-12.9
N6165 G0 Z2.71
N6170 X18.722 Y3.974
N6175 Z-11.9
N6180 G1 Z-12.9 F#103
N6185 X18.718 Y3.968 Z-13.021
N6190 X18.707 Y3.949 Z-13.139
N6195 X18.689 Y3.918 Z-13.255
N6200 X18.663 Y3.876 Z-13.365
N6205 X18.631 Y3.822 Z-13.468
N6210 X18.593 Y3.758 Z-13.563
N6215 X18.55 Y3.684 Z-13.649
N6220 X18.501 Y3.603 Z-13.723
N6225 X18.448 Y3.514 Z-13.785
N6230 X18.392 Y3.419 Z-13.835
N6235 X18.333 Y3.32 Z-13.871
N6240 X18.272 Y3.218 Z-13.893
N6245 X18.211 Y3.114 Z-13.9
N6250 G3 X18.1 Y2.738 I0.68 J-0.404
N6255 G1 Y2.021 F#100
N6260 G3 X18.515 Y0.672 I5.128 J0.84
N6265 X19.527 Y-1.262 I15.101 J6.665
N6270 G2 X21.167 Y-4.127 I-95.224 J-56.455
N6275 X24.084 Y-12.396 I-25.354 J-13.591
N6280 X24.806 Y-17.847 I-44.642 J-8.688
N6285 X25.117 Y-25.542 I-96.452 J-7.748
N6290 X24.863 Y-28.83 I-22.65 J0.097
N6295 X22.62 Y-34.602 I-15.06 J2.531
N6300 X20.678 Y-37.269 I-21.732 J13.784
N6305 G3 X19.075 Y-39.275 I142.504 J-115.542
N6310 X18.47 Y-40.18 I6.113 J-4.74
N6315 X18.1 Y-41.701 I2.966 J-1.527
N6320 G1 Y-43.23
N6325 G3 X18.189 Y-43.61 I0.999 J0.035 F#104
N6330 G1 X18.239 Y-43.72 Z-13.893
N6335 X18.289 Y-43.828 Z-13.871
N6340 X18.336 Y-43.933 Z-13.835
N6345 X18.382 Y-44.033 Z-13.785
N6350 X18.425 Y-44.127 Z-13.723
N6355 X18.464 Y-44.213 Z-13.649
N6360 X18.5 Y-44.291 Z-13.563
N6365 X18.531 Y-44.359 Z-13.468
N6370 X18.557 Y-44.416 Z-13.365
N6375 X18.577 Y-44.461 Z-13.255
N6380 X18.592 Y-44.493 Z-13.139
N6385 X18.601 Y-44.513 Z-13.021
N6390 X18.604 Y-44.52 Z-12.9
N6395 G0 Z2.71
N6400 X18.722 Y3.257
N6405 Z-11.9
N6410 G1 Z-12.9 F#103
N6415 X18.718 Y3.251 Z-13.021
N6420 X18.707 Y3.232 Z-13.139
N6425 X18.689 Y3.201 Z-13.255
N6430 X18.663 Y3.159 Z-13.365
N6435 X18.631 Y3.105 Z-13.468
N6440 X18.593 Y3.041 Z-13.563
N6445 X18.55 Y2.968 Z-13.649
N6450 X18.501 Y2.886 Z-13.723
N6455 X18.448 Y2.797 Z-13.785
N6460 X18.392 Y2.702 Z-13.835
N6465 X18.333 Y2.603 Z-13.871
N6470 X18.272 Y2.501 Z-13.893
N6475 X18.211 Y2.398 Z-13.9
N6480 G3 X18.1 Y2.021 I0.68 J-0.404
N6485 G1 Y1.104 F#100
N6490 G3 X18.406 Y-0.319 I5.524 J0.444
N6495 X19.247 Y-2.35 I15.982 J5.425
N6500 G2 X20.796 Y-5.675 I-145.823 J-69.989
N6505 X23.306 Y-14.467 I-31.972 J-13.883
N6510 X23.907 Y-20.302 I-56.963 J-8.812
N6515 X24.042 Y-25.068 I-57.526 J-4.009
N6520 X23.704 Y-28.348 I-21.163 J0.518
N6525 X21.597 Y-33.794 I-16.605 J3.295
N6530 X19.992 Y-36.249 I-25.289 J14.781
N6535 G3 X18.601 Y-38.266 I47.188 J-34.024
N6540 X18.099 Y-40.022 I2.875 J-1.771
N6545 G1 X18.1 Y-41.578
N6550 G3 X18.189 Y-41.958 I0.999 J0.035 F#104
N6555 G1 X18.239 Y-42.067 Z-13.893
N6560 X18.289 Y-42.175 Z-13.871
N6565 X18.336 Y-42.28 Z-13.835
N6570 X18.382 Y-42.38 Z-13.785
N6575 X18.425 Y-42.474 Z-13.723
N6580 X18.464 Y-42.561 Z-13.649
N6585 X18.5 Y-42.639 Z-13.563
N6590 X18.531 Y-42.706 Z-13.468
N6595 X18.557 Y-42.763 Z-13.365
N6600 X18.577 Y-42.808 Z-13.255
N6605 X18.592 Y-42.841 Z-13.139
N6610 X18.601 Y-42.861 Z-13.021
N6615 X18.604 Y-42.868 Z-12.9
N6620 G0 Z2.71
N6625 X18.722 Y2.34
N6630 Z-11.9
N6635 G1 Z-12.9 F#103
N6640 X18.718 Y2.334 Z-13.021
N6645 X18.707 Y2.315 Z-13.139
N6650 X18.689 Y2.284 Z-13.255
N6655 X18.663 Y2.242 Z-13.365
N6660 X18.631 Y2.188 Z-13.468
N6665 X18.593 Y2.124 Z-13.563
N6670 X18.55 Y2.05 Z-13.649
N6675 X18.501 Y1.969 Z-13.723
N6680 X18.448 Y1.88 Z-13.785
N6685 X18.392 Y1.785 Z-13.835
N6690 X18.333 Y1.686 Z-13.871
N6695 X18.272 Y1.584 Z-13.893
N6700 X18.211 Y1.48 Z-13.9
N6705 G3 X18.1 Y1.104 I0.68 J-0.404
N6710 G1 Y-0.145 F#100
N6715 G3 X18.368 Y-1.798 I6.823 J0.257
N6720 X19.2 Y-4.225 I22.568 J6.38
N6725 G2 X20.48 Y-7.663 I-112.73 J-43.951
N6730 X22.448 Y-16.227 I-40.015 J-13.701
N6735 X22.963 Y-23.173 I-60.965 J-8.015
N6740 X22.731 Y-26.831 I-24.485 J-0.28
N6745 X20.756 Y-32.714 I-18.135 J2.814
N6750 X19.286 Y-35.252 I-29.788 J15.556
N6755 G3 X18.502 Y-36.569 I39.665 J-24.528
N6760 X18.1 Y-38.149 I2.923 J-1.584
N6765 G1 Y-39.912
N6770 G3 X18.189 Y-40.291 I0.999 J0.035 F#104
N6775 G1 X18.239 Y-40.401 Z-13.893
N6780 X18.289 Y-40.509 Z-13.871
N6785 X18.336 Y-40.614 Z-13.835
N6790 X18.382 Y-40.714 Z-13.785
N6795 X18.425 Y-40.808 Z-13.723
N6800 X18.464 Y-40.895 Z-13.649
N6805 X18.5 Y-40.972 Z-13.563
N6810 X18.531 Y-41.04 Z-13.468
N6815 X18.557 Y-41.097 Z-13.365
N6820 X18.577 Y-41.142 Z-13.255
N6825 X18.592 Y-41.175 Z-13.139
N6830 X18.601 Y-41.195 Z-13.021
N6835 X18.604 Y-41.201 Z-12.9
N6840 G0 Z2.71
N6845 X18.722 Y1.092
N6850 Z-11.9
N6855 G1 Z-12.9 F#103
N6860 X18.718 Y1.086 Z-13.021
N6865 X18.707 Y1.067 Z-13.139
N6870 X18.689 Y1.036 Z-13.255
N6875 X18.663 Y0.993 Z-13.365
N6880 X18.631 Y0.94 Z-13.468
N6885 X18.593 Y0.876 Z-13.563
N6890 X18.55 Y0.802 Z-13.649
N6895 X18.501 Y0.721 Z-13.723
N6900 X18.448 Y0.632 Z-13.785
N6905 X18.392 Y0.537 Z-13.835
N6910 X18.333 Y0.438 Z-13.871
N6915 X18.272 Y0.336 Z-13.893
N6920 X18.211 Y0.232 Z-13.9
N6925 G3 X18.1 Y-0.145 I0.68 J-0.404
N6930 G1 Y-1.867 F#100
N6935 G3 X18.408 Y-4.025 I9.806 J0.3
N6940 X19.323 Y-7.196 I50.041 J12.723
N6945 G2 X20.568 Y-11.798 I-68.397 J-20.964
N6950 X21.85 Y-21.974 I-54.45 J-12.032
N6955 X21.639 Y-25.999 I-25.192 J-0.693
N6960 X19.933 Y-31.592 I-19.715 J2.954
N6965 X18.61 Y-34.211 I-41.525 J19.336
N6970 G3 X18.219 Y-35.131 I4.483 J-2.448
N6975 G1 X18.154 Y-35.422
N6980 X18.113 Y-35.718
N6985 X18.1 Y-36.016
N6990 Y-37.968
N6995 G3 X18.189 Y-38.347 I0.999 J0.035 F#104
N7000 G1 X18.239 Y-38.457 Z-13.893
N7005 X18.289 Y-38.565 Z-13.871
N7010 X18.336 Y-38.67 Z-13.835
N7015 X18.382 Y-38.77 Z-13.785
N7020 X18.425 Y-38.864 Z-13.723
N7025 X18.464 Y-38.951 Z-13.649
N7030 X18.5 Y-39.029 Z-13.563
N7035 X18.531 Y-39.096 Z-13.468
N7040 X18.557 Y-39.153 Z-13.365
N7045 X18.577 Y-39.198 Z-13.255
N7050 X18.592 Y-39.231 Z-13.139
N7055 X18.601 Y-39.251 Z-13.021
N7060 X18.604 Y-39.257 Z-12.9
N7065 G0 Z2.71
N7070 X18.722 Y-0.631
N7075 Z-11.9
N7080 G1 Z-12.9 F#103
N7085 X18.718 Y-0.637 Z-13.021
N7090 X18.707 Y-0.656 Z-13.139
N7095 X18.689 Y-0.686 Z-13.255
N7100 X18.663 Y-0.729 Z-13.365
N7105 X18.631 Y-0.783 Z-13.468
N7110 X18.593 Y-0.847 Z-13.563
N7115 X18.55 Y-0.92 Z-13.649
N7120 X18.501 Y-1.002 Z-13.723
N7125 X18.448 Y-1.091 Z-13.785
N7130 X18.392 Y-1.185 Z-13.835
N7135 X18.333 Y-1.284 Z-13.871
N7140 X18.272 Y-1.387 Z-13.893
N7145 X18.211 Y-1.49 Z-13.9
N7150 G3 X18.1 Y-1.867 I0.68 J-0.404
N7155 G1 Y-4.366 F#100
N7160 G3 X18.468 Y-7.071 I14.821 J0.637
N7165 X19.192 Y-10.292 I127.565 J27.001
N7170 G2 X20.489 Y-17.881 I-66.638 J-15.299
N7175 X20.741 Y-22.273 I-42. J-4.612
N7180 X20.291 Y-26.645 I-22.631 J0.125
N7185 X18.809 Y-31.169 I-23.076 J5.053
N7190 X18.357 Y-32.227 I-58.279 J24.225
N7195 G3 X18.1 Y-33.506 I3.056 J-1.28
N7200 G1 Y-36.016
N7205 G3 X18.189 Y-36.396 I0.999 J0.035 F#104
N7210 G1 X18.239 Y-36.505 Z-13.893
N7215 X18.289 Y-36.613 Z-13.871
N7220 X18.336 Y-36.718 Z-13.835
N7225 X18.382 Y-36.818 Z-13.785
N7230 X18.425 Y-36.913 Z-13.723
N7235 X18.464 Y-36.999 Z-13.649
N7240 X18.5 Y-37.077 Z-13.563
N7245 X18.531 Y-37.145 Z-13.468
N7250 X18.557 Y-37.201 Z-13.365
N7255 X18.577 Y-37.246 Z-13.255
N7260 X18.592 Y-37.279 Z-13.139
N7265 X18.601 Y-37.299 Z-13.021
N7270 X18.604 Y-37.306 Z-12.9
N7275 G0 Z2.71
N7280 X18.722 Y-3.13
N7285 Z-11.9
N7290 G1 Z-12.9 F#103
N7295 X18.718 Y-3.136 Z-13.021
N7300 X18.707 Y-3.155 Z-13.139
N7305 X18.689 Y-3.186 Z-13.255
N7310 X18.663 Y-3.228 Z-13.365
N7315 X18.631 Y-3.282 Z-13.468
N7320 X18.593 Y-3.346 Z-13.563
N7325 X18.55 Y-3.419 Z-13.649
N7330 X18.501 Y-3.501 Z-13.723
N7335 X18.448 Y-3.59 Z-13.785
N7340 X18.392 Y-3.685 Z-13.835
N7345 X18.333 Y-3.784 Z-13.871
N7350 X18.272 Y-3.886 Z-13.893
N7355 X18.211 Y-3.989 Z-13.9
N7360 G3 X18.1 Y-4.366 I0.68 J-0.404
N7365 G1 Y-7.699 F#100
N7370 G3 X18.455 Y-10.978 I25.36 J1.085
N7375 G1 X19.071 Y-14.966
N7380 G2 X19.589 Y-20.073 I-58.681 J-8.537
N7385 X19.479 Y-24.103 I-27.62 J-1.259
N7390 X18.264 Y-29.316 I-23.589 J2.749
N7395 G1 X18.175 Y-29.658
N7400 X18.119 Y-30.007
N7405 X18.1 Y-30.359
N7410 Y-33.506
N7415 G3 X18.189 Y-33.886 I0.999 J0.035 F#104
N7420 G1 X18.239 Y-33.996 Z-13.893
N7425 X18.289 Y-34.104 Z-13.871
N7430 X18.336 Y-34.209 Z-13.835
N7435 X18.382 Y-34.309 Z-13.785
N7440 X18.425 Y-34.403 Z-13.723
N7445 X18.464 Y-34.489 Z-13.649
N7450 X18.5 Y-34.567 Z-13.563
N7455 X18.531 Y-34.635 Z-13.468
N7460 X18.557 Y-34.692 Z-13.365
N7465 X18.577 Y-34.737 Z-13.255
N7470 X18.592 Y-34.769 Z-13.139
N7475 X18.601 Y-34.789 Z-13.021
N7480 X18.604 Y-34.796 Z-12.9
N7485 G0 Z2.71
N7490 X18.722 Y-6.462
N7495 Z-11.9
N7500 G1 Z-12.9 F#103
N7505 X18.718 Y-6.469 Z-13.021
N7510 X18.707 Y-6.487 Z-13.139
N7515 X18.689 Y-6.518 Z-13.255
N7520 X18.663 Y-6.561 Z-13.365
N7525 X18.631 Y-6.614 Z-13.468
N7530 X18.593 Y-6.678 Z-13.563
N7535 X18.55 Y-6.752 Z-13.649
N7540 X18.501 Y-6.834 Z-13.723
N7545 X18.448 Y-6.922 Z-13.785
N7550 X18.392 Y-7.017 Z-13.835
N7555 X18.333 Y-7.116 Z-13.871
N7560 X18.272 Y-7.218 Z-13.893
N7565 X18.211 Y-7.322 Z-13.9
N7570 G3 X18.1 Y-7.699 I0.68 J-0.404
N7575 G1 Y-12.697 F#100
N7580 G3 X18.157 Y-14.163 I230.368 J8.249
N7585 X18.423 Y-17.821 I333.503 J22.369
N7590 G2 X18.498 Y-21.854 I-40.025 J-2.762
N7595 X18.118 Y-25.243 I-26.454 J1.247
N7600 G1 X18.105 Y-25.429
N7605 X18.1 Y-25.615
N7610 Y-30.192
N7615 G3 X18.189 Y-30.572 I0.999 J0.035 F#104
N7620 G1 X18.239 Y-30.682 Z-13.893
N7625 X18.289 Y-30.79 Z-13.871
N7630 X18.336 Y-30.895 Z-13.835
N7635 X18.382 Y-30.995 Z-13.785
N7640 X18.425 Y-31.089 Z-13.723
N7645 X18.464 Y-31.175 Z-13.649
N7650 X18.5 Y-31.253 Z-13.563
N7655 X18.531 Y-31.321 Z-13.468
N7660 X18.557 Y-31.378 Z-13.365
N7665 X18.577 Y-31.423 Z-13.255
N7670 X18.592 Y-31.455 Z-13.139
N7675 X18.601 Y-31.475 Z-13.021
N7680 X18.604 Y-31.482 Z-12.9
N7685 G0 Z2.71
N7690 X18.722 Y-11.461
N7695 Z-11.9
N7700 G1 Z-12.9 F#103
N7705 X18.718 Y-11.467 Z-13.021
N7710 X18.707 Y-11.486 Z-13.139
N7715 X18.689 Y-11.517 Z-13.255
N7720 X18.663 Y-11.559 Z-13.365
N7725 X18.631 Y-11.613 Z-13.468
N7730 X18.593 Y-11.677 Z-13.563
N7735 X18.55 Y-11.75 Z-13.649
N7740 X18.501 Y-11.832 Z-13.723
N7745 X18.448 Y-11.921 Z-13.785
N7750 X18.392 Y-12.016 Z-13.835
N7755 X18.333 Y-12.115 Z-13.871
N7760 X18.272 Y-12.217 Z-13.893
N7765 X18.211 Y-12.32 Z-13.9
N7770 G3 X18.1 Y-12.697 I0.68 J-0.404
N7775 G1 Y-25.471 F#100
N7780 G3 X18.189 Y-25.851 I0.999 J0.035 F#104
N7785 G1 X18.239 Y-25.961 Z-13.893
N7790 X18.289 Y-26.069 Z-13.871
N7795 X18.336 Y-26.174 Z-13.835
N7800 X18.382 Y-26.274 Z-13.785
N7805 X18.425 Y-26.368 Z-13.723
N7810 X18.464 Y-26.454 Z-13.649
N7815 X18.5 Y-26.532 Z-13.563
N7820 X18.531 Y-26.6 Z-13.468
N7825 X18.557 Y-26.657 Z-13.365
N7830 X18.577 Y-26.702 Z-13.255
N7835 X18.592 Y-26.735 Z-13.139
N7840 X18.601 Y-26.754 Z-13.021
N7845 X18.604 Y-26.761 Z-12.9
N7850 G0 Z4.
(2D CONTOUR2)
N7860 M8
N7865 G0 Z6.
N7870 X-34. Y-50.
N7875 #100=900. (CUTTING)
N7880 #103=800. (ENTRY)
N7885 #104=900. (EXIT)
N7890 #108=300. (PLUNGE)
N7895 G1 Z1. F#103
N7900 Z-8. F#108
N7905 G18 G2 X-28. Z-14. I6. K0.
N7910 G1 X-27. F#103
N7915 G17 G3 X-21. Y-44. I0. J6.
N7920 G1 Y0. F#100
N7925 G3 X-27. Y6. I-6. J0. F#104
N7930 G1 X-28.
N7935 G18 G3 X-34. Z-8. I0. K6.
N7940 G0 Z6.
N7945 X-31. Y-50.
N7950 G1 Z1. F#103
N7955 Z-8. F#108
N7960 G2 X-25. Z-14. I6. K0.
N7965 G1 X-24. F#103
N7970 G17 G3 X-18. Y-44. I0. J6.
N7975 G1 Y0. F#100
N7980 G3 X-24. Y6. I-6. J0. F#104
N7985 G1 X-25.
N7990 G18 G3 X-31. Z-8. I0. K6.
N7995 G0 Z6.
N8000 X34.
N8005 G1 Z1. F#103
N8010 Z-8. F#108
N8015 G3 X28. Z-14. I-6. K0.
N8020 G1 X27. F#103
N8025 G17 G3 X21. Y0. I0. J-6.
N8030 G1 Y-44. F#100
N8035 G3 X27. Y-50. I6. J0. F#104
N8040 G1 X28.
N8045 G18 G2 X34. Z-8. I0. K6.
N8050 G0 Z6.
N8055 X31. Y6.
N8060 G1 Z1. F#103
N8065 Z-8. F#108
N8070 G3 X25. Z-14. I-6. K0.
N8075 G1 X24. F#103
N8080 G17 G3 X18. Y0. I0. J-6.
N8085 G1 Y-44. F#100
N8090 G3 X24. Y-50. I6. J0. F#104
N8095 G1 X25.
N8100 G18 G2 X31. Z-8. I0. K6.
N8105 G0 Z6.
N8110 G17
(PARALLEL1)
N8115 M8
N8120 G0 X17.71 Y-47.995
N8125 #100=900. (CUTTING)
N8130 #103=800. (ENTRY)
N8135 #104=900. (EXIT)
N8140 Z4.
N8145 Z-4.256
N8150 G1 Z-5.29 F#103
N8155 G18 G3 X16.003 Z-5.997 I-1. K0.
N8160 G1 X10.008 Z-0.001 F#100
N8165 X9.975 Y-47.994 Z0.033
N8170 X9.943 Y-47.989 Z0.069
N8175 X9.914 Y-47.981 Z0.107
N8180 X9.886 Y-47.971 Z0.145
N8185 X9.861 Y-47.957 Z0.183
N8190 X9.839 Y-47.941 Z0.222
N8195 X9.818 Y-47.922 Z0.261
N8200 X9.801 Y-47.9 Z0.301
N8205 X9.787 Y-47.875 Z0.339
N8210 X9.775 Y-47.849 Z0.378
N8215 X9.766 Y-47.82 Z0.415
N8220 X9.761 Y-47.789 Z0.451
N8225 X9.758 Y-47.756 Z0.487
N8230 Y-47.722 Z0.52
N8235 X9.762 Y-47.687 Z0.552
N8240 X9.769 Y-47.65 Z0.582
N8245 X9.778 Y-47.612 Z0.61
N8250 X9.791 Y-47.573 Z0.636
N8255 X9.806 Y-47.535 Z0.66
N8260 X9.824 Y-47.495 Z0.68
N8265 X9.845 Y-47.456 Z0.699
N8270 X9.869 Y-47.417 Z0.714
N8275 X9.895 Y-47.379 Z0.727
N8280 X9.923 Y-47.341 Z0.736
N8285 X9.953 Y-47.304 Z0.743
N8290 X9.985 Y-47.268 Z0.747
N8295 X10.018 Y-47.234
N8300 X10.054 Y-47.201 Z0.744
N8305 X10.09 Y-47.171 Z0.739
N8310 X10.127 Y-47.142 Z0.73
N8315 X10.166 Y-47.115 Z0.718
N8320 X10.204 Y-47.091 Z0.704
N8325 X10.244 Y-47.069 Z0.686
N8330 X10.283 Y-47.05 Z0.666
N8335 X10.322 Y-47.033 Z0.644
N8340 X10.36 Y-47.02 Z0.619
N8345 X10.398 Y-47.009 Z0.591
N8350 X10.436 Y-47.002 Z0.562
N8355 X10.472 Y-46.997 Z0.53
N8360 X10.506 Y-46.995 Z0.497
N8365 X11.003 Z0.
N8370 X17.001 Z-5.998
N8375 G2 X17.355 Z-6.144 I0.354 K0.354
N8380 G1 X17.935
N8385 G17 G3 Y-45.996 I0. J0.5
N8390 G18 G3 X17.582 Z-5.997 I0. K0.5
N8395 G1 X11.585 Z-0.001
N8400 X11.554 Y-45.994 Z0.031
N8405 X11.524 Y-45.988 Z0.063
N8410 X11.494 Y-45.979 Z0.096
N8415 X11.466 Y-45.965 Z0.128
N8420 X11.44 Y-45.949 Z0.16
N8425 X11.415 Y-45.929 Z0.191
N8430 X11.392 Y-45.905 Z0.221
N8435 X11.371 Y-45.879 Z0.25
N8440 X11.352 Y-45.849 Z0.278
N8445 X11.336 Y-45.817 Z0.305
N8450 X11.322 Y-45.782 Z0.329
N8455 X11.311 Y-45.746 Z0.352
N8460 X11.303 Y-45.707 Z0.373
N8465 X11.297 Y-45.667 Z0.391
N8470 X11.294 Y-45.625 Z0.407
N8475 Y-45.582 Z0.421
N8480 X11.297 Y-45.539 Z0.432
N8485 X11.302 Y-45.496 Z0.44
N8490 X11.31 Y-45.452 Z0.446
N8495 X11.321 Y-45.409 Z0.448
N8500 X11.335 Y-45.366
N8505 X11.351 Y-45.325 Z0.445
N8510 X11.369 Y-45.284 Z0.439
N8515 X11.39 Y-45.246 Z0.431
N8520 X11.413 Y-45.209 Z0.42
N8525 X11.437 Y-45.174 Z0.406
N8530 X11.464 Y-45.142 Z0.39
N8535 X11.492 Y-45.113 Z0.371
N8540 X11.521 Y-45.086 Z0.35
N8545 X11.551 Y-45.063 Z0.327
N8550 X11.583 Y-45.043 Z0.302
N8555 X11.614 Y-45.026 Z0.276
N8560 X11.647 Y-45.013 Z0.248
N8565 X11.679 Y-45.003 Z0.218
N8570 X11.711 Y-44.998 Z0.188
N8575 X11.743 Y-44.996 Z0.157
N8580 X11.901 Z-0.001
N8585 X17.898 Z-5.998
N8590 G2 X18.252 Z-6.145 I0.354 K0.354
N8595 G1 X18.354
N8600 X18.397 Y-44.994
N8605 X18.44 Y-44.988
N8610 X18.483 Y-44.979
N8615 X18.525 Y-44.966
N8620 X18.565 Y-44.949
N8625 X18.604 Y-44.929
N8630 X18.64 Y-44.905
N8635 X18.675 Y-44.879
N8640 X18.707 Y-44.849
N8645 X18.737 Y-44.817
N8650 X18.763 Y-44.783
N8655 X18.786 Y-44.746
N8660 X18.807 Y-44.707
N8665 X18.823 Y-44.667
N8670 X18.836 Y-44.625
N8675 X18.846 Y-44.583 Z-6.146
N8680 X18.852 Y-44.539
N8685 X18.853 Y-44.496
N8690 X18.852 Y-44.452
N8695 X18.846 Y-44.409
N8700 X18.836 Y-44.366
N8705 X18.823 Y-44.325
N8710 X18.807 Y-44.285
N8715 X18.786 Y-44.246
N8720 X18.763 Y-44.209
N8725 X18.737 Y-44.174
N8730 X18.707 Y-44.142
N8735 X18.675 Y-44.113
N8740 X18.64 Y-44.086
N8745 X18.604 Y-44.063
N8750 X18.565 Y-44.043
N8755 X18.525 Y-44.026
N8760 X18.483 Y-44.013
N8765 X18.44 Y-44.004
N8770 X18.397 Y-43.998
N8775 X18.354 Y-43.996
N8780 G3 X18. Z-6. I0. K0.5
N8785 G1 X12. Z0.
N8790 X11.97 Y-43.994 Z0.03
N8795 X11.939 Y-43.988 Z0.061
N8800 X11.909 Y-43.979 Z0.091
N8805 X11.879 Y-43.966 Z0.121
N8810 X11.851 Y-43.949 Z0.149
N8815 X11.824 Y-43.929 Z0.176
N8820 X11.798 Y-43.906 Z0.202
N8825 X11.773 Y-43.879 Z0.227
N8830 X11.75 Y-43.85 Z0.25
N8835 X11.73 Y-43.817 Z0.27
N8840 X11.711 Y-43.783 Z0.289
N8845 X11.694 Y-43.746 Z0.306
N8850 X11.68 Y-43.707 Z0.32
N8855 X11.668 Y-43.667 Z0.332
N8860 X11.659 Y-43.625 Z0.341
N8865 X11.652 Y-43.583 Z0.348
N8870 X11.648 Y-43.54 Z0.352
N8875 X11.647 Y-43.496 Z0.353
N8880 X11.648 Y-43.452 Z0.352
N8885 X11.652 Y-43.409 Z0.348
N8890 X11.659 Y-43.367 Z0.341
N8895 X11.668 Y-43.325 Z0.332
N8900 X11.68 Y-43.285 Z0.32
N8905 X11.694 Y-43.246 Z0.306
N8910 X11.711 Y-43.209 Z0.289
N8915 X11.73 Y-43.175 Z0.27
N8920 X11.75 Y-43.143 Z0.25
N8925 X11.773 Y-43.113 Z0.227
N8930 X11.798 Y-43.087 Z0.202
N8935 X11.824 Y-43.063 Z0.176
N8940 X11.851 Y-43.043 Z0.149
N8945 X11.879 Y-43.026 Z0.121
N8950 X11.909 Y-43.013 Z0.091
N8955 X11.939 Y-43.004 Z0.061
N8960 X11.97 Y-42.998 Z0.03
N8965 X12. Y-42.996 Z0.
N8970 X18. Z-6.
N8975 G2 X18.354 Z-6.146 I0.354 K0.354
N8980 G17 G3 Y-41.996 I0. J0.5
N8985 G18 G3 X18. Z-6. I0. K0.5
N8990 G1 X12. Z0.
N8995 X11.97 Y-41.994 Z0.03
N9000 X11.939 Y-41.989 Z0.061
N9005 X11.909 Y-41.979 Z0.091
N9010 X11.879 Y-41.966 Z0.121
N9015 X11.851 Y-41.949 Z0.149
N9020 X11.824 Y-41.929 Z0.176
N9025 X11.798 Y-41.906 Z0.202
N9030 X11.773 Y-41.879 Z0.227
N9035 X11.75 Y-41.85 Z0.25
N9040 X11.73 Y-41.818 Z0.27
N9045 X11.711 Y-41.783 Z0.289
N9050 X11.694 Y-41.746 Z0.306
N9055 X11.68 Y-41.708 Z0.32
N9060 X11.668 Y-41.667 Z0.332
N9065 X11.659 Y-41.626 Z0.341
N9070 X11.652 Y-41.583 Z0.348
N9075 X11.648 Y-41.54 Z0.352
N9080 X11.647 Y-41.496 Z0.353
N9085 X11.648 Y-41.453 Z0.352
N9090 X11.652 Y-41.41 Z0.348
N9095 X11.659 Y-41.367 Z0.341
N9100 X11.668 Y-41.325 Z0.332
N9105 X11.68 Y-41.285 Z0.32
N9110 X11.694 Y-41.246 Z0.306
N9115 X11.711 Y-41.21 Z0.289
N9120 X11.73 Y-41.175 Z0.27
N9125 X11.75 Y-41.143 Z0.25
N9130 X11.773 Y-41.113 Z0.227
N9135 X11.798 Y-41.087 Z0.202
N9140 X11.824 Y-41.063 Z0.176
N9145 X11.851 Y-41.043 Z0.149
N9150 X11.879 Y-41.027 Z0.121
N9155 X11.909 Y-41.014 Z0.091
N9160 X11.939 Y-41.004 Z0.061
N9165 X11.97 Y-40.998 Z0.03
N9170 X12. Y-40.996 Z0.
N9175 X18. Z-6.
N9180 G2 X18.354 Z-6.146 I0.354 K0.354
N9185 G17 G3 Y-39.997 I0. J0.5
N9190 G18 G3 X18. Z-6. I0. K0.5
N9195 G1 X12. Z0.
N9200 X11.97 Y-39.995 Z0.03
N9205 X11.939 Y-39.989 Z0.061
N9210 X11.909 Y-39.98 Z0.091
N9215 X11.879 Y-39.967 Z0.121
N9220 X11.851 Y-39.95 Z0.149
N9225 X11.824 Y-39.93 Z0.176
N9230 X11.798 Y-39.906 Z0.202
N9235 X11.773 Y-39.88 Z0.227
N9240 X11.75 Y-39.85 Z0.25
N9245 X11.73 Y-39.818 Z0.27
N9250 X11.711 Y-39.783 Z0.289
N9255 X11.694 Y-39.747 Z0.306
N9260 X11.68 Y-39.708 Z0.32
N9265 X11.668 Y-39.668 Z0.332
N9270 X11.659 Y-39.626 Z0.341
N9275 X11.652 Y-39.584 Z0.348
N9280 X11.648 Y-39.54 Z0.352
N9285 X11.647 Y-39.497 Z0.353
N9290 X11.648 Y-39.453 Z0.352
N9295 X11.652 Y-39.41 Z0.348
N9300 X11.659 Y-39.367 Z0.341
N9305 X11.668 Y-39.326 Z0.332
N9310 X11.68 Y-39.285 Z0.32
N9315 X11.694 Y-39.247 Z0.306
N9320 X11.711 Y-39.21 Z0.289
N9325 X11.73 Y-39.175 Z0.27
N9330 X11.75 Y-39.143 Z0.25
N9335 X11.773 Y-39.114 Z0.227
N9340 X11.798 Y-39.087 Z0.202
N9345 X11.824 Y-39.064 Z0.176
N9350 X11.851 Y-39.044 Z0.149
N9355 X11.879 Y-39.027 Z0.121
N9360 X11.909 Y-39.014 Z0.091
N9365 X11.939 Y-39.004 Z0.061
N9370 X11.97 Y-38.999 Z0.03
N9375 X12. Y-38.997 Z0.
N9380 X18. Z-6.
N9385 G2 X18.354 Z-6.146 I0.354 K0.354
N9390 G17 G3 Y-37.997 I0. J0.5
N9395 G18 G3 X18. Z-6. I0. K0.5
N9400 G1 X12. Z0.
N9405 X11.97 Y-37.995 Z0.03
N9410 X11.939 Y-37.989 Z0.061
N9415 X11.909 Y-37.98 Z0.091
N9420 X11.879 Y-37.967 Z0.121
N9425 X11.851 Y-37.95 Z0.149
N9430 X11.824 Y-37.93 Z0.176
N9435 X11.798 Y-37.907 Z0.202
N9440 X11.773 Y-37.88 Z0.227
N9445 X11.75 Y-37.851 Z0.25
N9450 X11.73 Y-37.818 Z0.27
N9455 X11.711 Y-37.784 Z0.289
N9460 X11.694 Y-37.747 Z0.306
N9465 X11.68 Y-37.708 Z0.32
N9470 X11.668 Y-37.668 Z0.332
N9475 X11.659 Y-37.627 Z0.341
N9480 X11.652 Y-37.584 Z0.348
N9485 X11.648 Y-37.541 Z0.352
N9490 X11.647 Y-37.497 Z0.353
N9495 X11.648 Y-37.454 Z0.352
N9500 X11.652 Y-37.41 Z0.348
N9505 X11.659 Y-37.368 Z0.341
N9510 X11.668 Y-37.326 Z0.332
N9515 X11.68 Y-37.286 Z0.32
N9520 X11.694 Y-37.247 Z0.306
N9525 X11.711 Y-37.21 Z0.289
N9530 X11.73 Y-37.176 Z0.27
N9535 X11.75 Y-37.144 Z0.25
N9540 X11.773 Y-37.114 Z0.227
N9545 X11.798 Y-37.088 Z0.202
N9550 X11.824 Y-37.064 Z0.176
N9555 X11.851 Y-37.044 Z0.149
N9560 X11.879 Y-37.027 Z0.121
N9565 X11.909 Y-37.014 Z0.091
N9570 X11.939 Y-37.005 Z0.061
N9575 X11.97 Y-36.999 Z0.03
N9580 X12. Y-36.997 Z0.
N9585 X18. Z-6.
N9590 G2 X18.354 Z-6.146 I0.354 K0.354
N9595 G17 G3 Y-35.997 I0. J0.5
N9600 G18 G3 X18. Z-6. I0. K0.5
N9605 G1 X12. Z0.
N9610 X11.97 Y-35.996 Z0.03
N9615 X11.939 Y-35.99 Z0.061
N9620 X11.909 Y-35.98 Z0.091
N9625 X11.879 Y-35.967 Z0.121
N9630 X11.851 Y-35.951 Z0.149
N9635 X11.824 Y-35.93 Z0.176
N9640 X11.798 Y-35.907 Z0.202
N9645 X11.773 Y-35.88 Z0.227
N9650 X11.75 Y-35.851 Z0.25
N9655 X11.73 Y-35.819 Z0.27
N9660 X11.711 Y-35.784 Z0.289
N9665 X11.694 Y-35.747 Z0.306
N9670 X11.68 Y-35.709 Z0.32
N9675 X11.668 Y-35.668 Z0.332
N9680 X11.659 Y-35.627 Z0.341
N9685 X11.652 Y-35.584 Z0.348
N9690 X11.648 Y-35.541 Z0.352
N9695 X11.647 Y-35.498 Z0.353
N9700 X11.648 Y-35.454 Z0.352
N9705 X11.652 Y-35.411 Z0.348
N9710 X11.659 Y-35.368 Z0.341
N9715 X11.668 Y-35.327 Z0.332
N9720 X11.68 Y-35.286 Z0.32
N9725 X11.694 Y-35.248 Z0.306
N9730 X11.711 Y-35.211 Z0.289
N9735 X11.73 Y-35.176 Z0.27
N9740 X11.75 Y-35.144 Z0.25
N9745 X11.773 Y-35.115 Z0.227
N9750 X11.798 Y-35.088 Z0.202
N9755 X11.824 Y-35.065 Z0.176
N9760 X11.851 Y-35.044 Z0.149
N9765 X11.879 Y-35.028 Z0.121
N9770 X11.909 Y-35.015 Z0.091
N9775 X11.939 Y-35.005 Z0.061
N9780 X11.97 Y-34.999 Z0.03
N9785 X12. Y-34.998 Z0.
N9790 X18. Z-6.
N9795 G2 X18.354 Z-6.146 I0.354 K0.354
N9800 G17 G3 Y-33.998 I0. J0.5
N9805 G18 G3 X18. Z-6. I0. K0.5
N9810 G1 X12. Z0.
N9815 X11.97 Y-33.996 Z0.03
N9820 X11.939 Y-33.99 Z0.061
N9825 X11.909 Y-33.981 Z0.091
N9830 X11.879 Y-33.968 Z0.121
N9835 X11.851 Y-33.951 Z0.149
N9840 X11.824 Y-33.931 Z0.176
N9845 X11.798 Y-33.907 Z0.202
N9850 X11.773 Y-33.881 Z0.227
N9855 X11.75 Y-33.851 Z0.25
N9860 X11.73 Y-33.819 Z0.27
N9865 X11.711 Y-33.785 Z0.289
N9870 X11.694 Y-33.748 Z0.306
N9875 X11.68 Y-33.709 Z0.32
N9880 X11.668 Y-33.669 Z0.332
N9885 X11.659 Y-33.627 Z0.341
N9890 X11.652 Y-33.585 Z0.348
N9895 X11.648 Y-33.541 Z0.352
N9900 X11.647 Y-33.498 Z0.353
N9905 X11.648 Y-33.454 Z0.352
N9910 X11.652 Y-33.411 Z0.348
N9915 X11.659 Y-33.368 Z0.341
N9920 X11.668 Y-33.327 Z0.332
N9925 X11.68 Y-33.287 Z0.32
N9930 X11.694 Y-33.248 Z0.306
N9935 X11.711 Y-33.211 Z0.289
N9940 X11.73 Y-33.177 Z0.27
N9945 X11.75 Y-33.144 Z0.25
N9950 X11.773 Y-33.115 Z0.227
N9955 X11.798 Y-33.088 Z0.202
N9960 X11.824 Y-33.065 Z0.176
N9965 X11.851 Y-33.045 Z0.149
N9970 X11.879 Y-33.028 Z0.121
N9975 X11.909 Y-33.015 Z0.091
N9980 X11.939 Y-33.006 Z0.061
N9985 X11.97 Y-33. Z0.03
N9990 X12. Y-32.998 Z0.
N9995 X18. Z-6.
N10000 G2 X18.354 Z-6.146 I0.354 K0.354
N10005 G17 G3 Y-31.998 I0. J0.5
N10010 G18 G3 X18. Z-6. I0. K0.5
N10015 G1 X12. Z0.
N10020 X11.97 Y-31.996 Z0.03
N10025 X11.939 Y-31.991 Z0.061
N10030 X11.909 Y-31.981 Z0.091
N10035 X11.879 Y-31.968 Z0.121
N10040 X11.851 Y-31.951 Z0.149
N10045 X11.824 Y-31.931 Z0.176
N10050 X11.798 Y-31.908 Z0.202
N10055 X11.773 Y-31.881 Z0.227
N10060 X11.75 Y-31.852 Z0.25
N10065 X11.73 Y-31.82 Z0.27
N10070 X11.711 Y-31.785 Z0.289
N10075 X11.694 Y-31.748 Z0.306
N10080 X11.68 Y-31.71 Z0.32
N10085 X11.668 Y-31.669 Z0.332
N10090 X11.659 Y-31.628 Z0.341
N10095 X11.652 Y-31.585 Z0.348
N10100 X11.648 Y-31.542 Z0.352
N10105 X11.647 Y-31.498 Z0.353
N10110 X11.648 Y-31.455 Z0.352
N10115 X11.652 Y-31.411 Z0.348
N10120 X11.659 Y-31.369 Z0.341
N10125 X11.668 Y-31.327 Z0.332
N10130 X11.68 Y-31.287 Z0.32
N10135 X11.694 Y-31.248 Z0.306
N10140 X11.711 Y-31.212 Z0.289
N10145 X11.73 Y-31.177 Z0.27
N10150 X11.75 Y-31.145 Z0.25
N10155 X11.773 Y-31.115 Z0.227
N10160 X11.798 Y-31.089 Z0.202
N10165 X11.824 Y-31.065 Z0.176
N10170 X11.851 Y-31.045 Z0.149
N10175 X11.879 Y-31.028 Z0.121
N10180 X11.909 Y-31.015 Z0.091
N10185 X11.939 Y-31.006 Z0.061
N10190 X11.97 Y-31. Z0.03
N10195 X12. Y-30.998 Z0.
N10200 X18. Z-6.
N10205 G2 X18.354 Z-6.146 I0.354 K0.354
N10210 G17 G3 Y-29.999 I0. J0.5
N10215 G18 G3 X18. Z-6. I0. K0.5
N10220 G1 X12. Z0.
N10225 X11.97 Y-29.997 Z0.03
N10230 X11.939 Y-29.991 Z0.061
N10235 X11.909 Y-29.981 Z0.091
N10240 X11.879 Y-29.968 Z0.121
N10245 X11.851 Y-29.952 Z0.149
N10250 X11.824 Y-29.932 Z0.176
N10255 X11.798 Y-29.908 Z0.202
N10260 X11.773 Y-29.882 Z0.227
N10265 X11.75 Y-29.852 Z0.25
N10270 X11.73 Y-29.82 Z0.27
N10275 X11.711 Y-29.785 Z0.289
N10280 X11.694 Y-29.749 Z0.306
N10285 X11.68 Y-29.71 Z0.32
N10290 X11.668 Y-29.67 Z0.332
N10295 X11.659 Y-29.628 Z0.341
N10300 X11.652 Y-29.585 Z0.348
N10305 X11.648 Y-29.542 Z0.352
N10310 X11.647 Y-29.499 Z0.353
N10315 X11.648 Y-29.455 Z0.352
N10320 X11.652 Y-29.412 Z0.348
N10325 X11.659 Y-29.369 Z0.341
N10330 X11.668 Y-29.328 Z0.332
N10335 X11.68 Y-29.287 Z0.32
N10340 X11.694 Y-29.249 Z0.306
N10345 X11.711 Y-29.212 Z0.289
N10350 X11.73 Y-29.177 Z0.27
N10355 X11.75 Y-29.145 Z0.25
N10360 X11.773 Y-29.116 Z0.227
N10365 X11.798 Y-29.089 Z0.202
N10370 X11.824 Y-29.066 Z0.176
N10375 X11.851 Y-29.046 Z0.149
N10380 X11.879 Y-29.029 Z0.121
N10385 X11.909 Y-29.016 Z0.091
N10390 X11.939 Y-29.006 Z0.061
N10395 X11.97 Y-29.001 Z0.03
N10400 X12. Y-28.999 Z0.
N10405 X18. Z-6.
N10410 G2 X18.354 Z-6.146 I0.354 K0.354
N10415 G17 G3 Y-27.999 I0. J0.5
N10420 G18 G3 X18. Z-6. I0. K0.5
N10425 G1 X12. Z0.
N10430 X11.97 Y-27.997 Z0.03
N10435 X11.939 Y-27.991 Z0.061
N10440 X11.909 Y-27.982 Z0.091
N10445 X11.879 Y-27.969 Z0.121
N10450 X11.851 Y-27.952 Z0.149
N10455 X11.824 Y-27.932 Z0.176
N10460 X11.798 Y-27.908 Z0.202
N10465 X11.773 Y-27.882 Z0.227
N10470 X11.75 Y-27.852 Z0.25
N10475 X11.73 Y-27.82 Z0.27
N10480 X11.711 Y-27.786 Z0.289
N10485 X11.694 Y-27.749 Z0.306
N10490 X11.68 Y-27.71 Z0.32
N10495 X11.668 Y-27.67 Z0.332
N10500 X11.659 Y-27.628 Z0.341
N10505 X11.652 Y-27.586 Z0.348
N10510 X11.648 Y-27.543 Z0.352
N10515 X11.647 Y-27.499 Z0.353
N10520 X11.648 Y-27.455 Z0.352
N10525 X11.652 Y-27.412 Z0.348
N10530 X11.659 Y-27.37 Z0.341
N10535 X11.668 Y-27.328 Z0.332
N10540 X11.68 Y-27.288 Z0.32
N10545 X11.694 Y-27.249 Z0.306
N10550 X11.711 Y-27.212 Z0.289
N10555 X11.73 Y-27.178 Z0.27
N10560 X11.75 Y-27.145 Z0.25
N10565 X11.773 Y-27.116 Z0.227
N10570 X11.798 Y-27.089 Z0.202
N10575 X11.824 Y-27.066 Z0.176
N10580 X11.851 Y-27.046 Z0.149
N10585 X11.879 Y-27.029 Z0.121
N10590 X11.909 Y-27.016 Z0.091
N10595 X11.939 Y-27.007 Z0.061
N10600 X11.97 Y-27.001 Z0.03
N10605 X12. Y-26.999 Z0.
N10610 X18. Z-6.
N10615 G2 X18.354 Z-6.146 I0.354 K0.354
N10620 G17 G3 Y-25.999 I0. J0.5
N10625 G18 G3 X18. Z-6. I0. K0.5
N10630 G1 X12. Z0.
N10635 X11.97 Y-25.997 Z0.03
N10640 X11.939 Y-25.992 Z0.061
N10645 X11.909 Y-25.982 Z0.091
N10650 X11.879 Y-25.969 Z0.121
N10655 X11.851 Y-25.952 Z0.149
N10660 X11.824 Y-25.932 Z0.176
N10665 X11.798 Y-25.909 Z0.202
N10670 X11.773 Y-25.882 Z0.227
N10675 X11.75 Y-25.853 Z0.25
N10680 X11.73 Y-25.821 Z0.27
N10685 X11.711 Y-25.786 Z0.289
N10690 X11.694 Y-25.749 Z0.306
N10695 X11.68 Y-25.711 Z0.32
N10700 X11.668 Y-25.67 Z0.332
N10705 X11.659 Y-25.629 Z0.341
N10710 X11.652 Y-25.586 Z0.348
N10715 X11.648 Y-25.543 Z0.352
N10720 X11.647 Y-25.499 Z0.353
N10725 X11.648 Y-25.456 Z0.352
N10730 X11.652 Y-25.413 Z0.348
N10735 X11.659 Y-25.37 Z0.341
N10740 X11.668 Y-25.328 Z0.332
N10745 X11.68 Y-25.288 Z0.32
N10750 X11.694 Y-25.249 Z0.306
N10755 X11.711 Y-25.213 Z0.289
N10760 X11.73 Y-25.178 Z0.27
N10765 X11.75 Y-25.146 Z0.25
N10770 X11.773 Y-25.116 Z0.227
N10775 X11.798 Y-25.09 Z0.202
N10780 X11.824 Y-25.066 Z0.176
N10785 X11.851 Y-25.046 Z0.149
N10790 X11.879 Y-25.03 Z0.121
N10795 X11.909 Y-25.016 Z0.091
N10800 X11.939 Y-25.007 Z0.061
N10805 X11.97 Y-25.001 Z0.03
N10810 X12. Y-24.999 Z0.
N10815 X18. Z-6.
N10820 G2 X18.354 Z-6.146 I0.354 K0.354
N10825 G17 G3 Y-24. I0. J0.5
N10830 G18 G3 X18. Z-6. I0. K0.5
N10835 G1 X12. Z0.
N10840 X11.97 Y-23.998 Z0.03
N10845 X11.939 Y-23.992 Z0.061
N10850 X11.909 Y-23.983 Z0.091
N10855 X11.879 Y-23.969 Z0.121
N10860 X11.851 Y-23.953 Z0.149
N10865 X11.824 Y-23.933 Z0.176
N10870 X11.798 Y-23.909 Z0.202
N10875 X11.773 Y-23.883 Z0.227
N10880 X11.75 Y-23.853 Z0.25
N10885 X11.73 Y-23.821 Z0.27
N10890 X11.711 Y-23.786 Z0.289
N10895 X11.694 Y-23.75 Z0.306
N10900 X11.68 Y-23.711 Z0.32
N10905 X11.668 Y-23.671 Z0.332
N10910 X11.659 Y-23.629 Z0.341
N10915 X11.652 Y-23.587 Z0.348
N10920 X11.648 Y-23.543 Z0.352
N10925 X11.647 Y-23.5 Z0.353
N10930 X11.648 Y-23.456 Z0.352
N10935 X11.652 Y-23.413 Z0.348
N10940 X11.659 Y-23.37 Z0.341
N10945 X11.668 Y-23.329 Z0.332
N10950 X11.68 Y-23.288 Z0.32
N10955 X11.694 Y-23.25 Z0.306
N10960 X11.711 Y-23.213 Z0.289
N10965 X11.73 Y-23.178 Z0.27
N10970 X11.75 Y-23.146 Z0.25
N10975 X11.773 Y-23.117 Z0.227
N10980 X11.798 Y-23.09 Z0.202
N10985 X11.824 Y-23.067 Z0.176
N10990 X11.851 Y-23.047 Z0.149
N10995 X11.879 Y-23.03 Z0.121
N11000 X11.909 Y-23.017 Z0.091
N11005 X11.939 Y-23.007 Z0.061
N11010 X11.97 Y-23.002 Z0.03
N11015 X12. Y-23. Z0.
N11020 X18. Z-6.
N11025 G2 X18.354 Z-6.146 I0.354 K0.354
N11030 G17 G3 Y-22. I0. J0.5
N11035 G18 G3 X18. Z-6. I0. K0.5
N11040 G1 X12. Z0.
N11045 X11.97 Y-21.998 Z0.03
N11050 X11.939 Y-21.992 Z0.061
N11055 X11.909 Y-21.983 Z0.091
N11060 X11.879 Y-21.97 Z0.121
N11065 X11.851 Y-21.953 Z0.149
N11070 X11.824 Y-21.933 Z0.176
N11075 X11.798 Y-21.91 Z0.202
N11080 X11.773 Y-21.883 Z0.227
N11085 X11.75 Y-21.854 Z0.25
N11090 X11.73 Y-21.821 Z0.27
N11095 X11.711 Y-21.787 Z0.289
N11100 X11.694 Y-21.75 Z0.306
N11105 X11.68 Y-21.711 Z0.32
N11110 X11.668 Y-21.671 Z0.332
N11115 X11.659 Y-21.629 Z0.341
N11120 X11.652 Y-21.587 Z0.348
N11125 X11.648 Y-21.544 Z0.352
N11130 X11.647 Y-21.5 Z0.353
N11135 X11.648 Y-21.457 Z0.352
N11140 X11.652 Y-21.413 Z0.348
N11145 X11.659 Y-21.371 Z0.341
N11150 X11.668 Y-21.329 Z0.332
N11155 X11.68 Y-21.289 Z0.32
N11160 X11.694 Y-21.25 Z0.306
N11165 X11.711 Y-21.213 Z0.289
N11170 X11.73 Y-21.179 Z0.27
N11175 X11.75 Y-21.147 Z0.25
N11180 X11.773 Y-21.117 Z0.227
N11185 X11.798 Y-21.091 Z0.202
N11190 X11.824 Y-21.067 Z0.176
N11195 X11.851 Y-21.047 Z0.149
N11200 X11.879 Y-21.03 Z0.121
N11205 X11.909 Y-21.017 Z0.091
N11210 X11.939 Y-21.008 Z0.061
N11215 X11.97 Y-21.002 Z0.03
N11220 X12. Y-21. Z0.
N11225 X18. Z-6.
N11230 G2 X18.354 Z-6.146 I0.354 K0.354
N11235 G17 G3 Y-20. I0. J0.5
N11240 G18 G3 X18. Z-6. I0. K0.5
N11245 G1 X12. Z0.
N11250 X11.97 Y-19.998 Z0.03
N11255 X11.939 Y-19.993 Z0.061
N11260 X11.909 Y-19.983 Z0.091
N11265 X11.879 Y-19.97 Z0.121
N11270 X11.851 Y-19.954 Z0.149
N11275 X11.824 Y-19.933 Z0.176
N11280 X11.798 Y-19.91 Z0.202
N11285 X11.773 Y-19.883 Z0.227
N11290 X11.75 Y-19.854 Z0.25
N11295 X11.73 Y-19.822 Z0.27
N11300 X11.711 Y-19.787 Z0.289
N11305 X11.694 Y-19.75 Z0.306
N11310 X11.68 Y-19.712 Z0.32
N11315 X11.668 Y-19.671 Z0.332
N11320 X11.659 Y-19.63 Z0.341
N11325 X11.652 Y-19.587 Z0.348
N11330 X11.648 Y-19.544 Z0.352
N11335 X11.647 Y-19.5 Z0.353
N11340 X11.648 Y-19.457 Z0.352
N11345 X11.652 Y-19.414 Z0.348
N11350 X11.659 Y-19.371 Z0.341
N11355 X11.668 Y-19.329 Z0.332
N11360 X11.68 Y-19.289 Z0.32
N11365 X11.694 Y-19.251 Z0.306
N11370 X11.711 Y-19.214 Z0.289
N11375 X11.73 Y-19.179 Z0.27
N11380 X11.75 Y-19.147 Z0.25
N11385 X11.773 Y-19.118 Z0.227
N11390 X11.798 Y-19.091 Z0.202
N11395 X11.824 Y-19.068 Z0.176
N11400 X11.851 Y-19.047 Z0.149
N11405 X11.879 Y-19.031 Z0.121
N11410 X11.909 Y-19.018 Z0.091
N11415 X11.939 Y-19.008 Z0.061
N11420 X11.97 Y-19.002 Z0.03
N11425 X12. Y-19.001 Z0.
N11430 X18. Z-6.
N11435 G2 X18.354 Z-6.146 I0.354 K0.354
N11440 G17 G3 Y-18.001 I0. J0.5
N11445 G18 G3 X18. Z-6. I0. K0.5
N11450 G1 X12. Z0.
N11455 X11.97 Y-17.999 Z0.03
N11460 X11.939 Y-17.993 Z0.061
N11465 X11.909 Y-17.984 Z0.091
N11470 X11.879 Y-17.971 Z0.121
N11475 X11.851 Y-17.954 Z0.149
N11480 X11.824 Y-17.934 Z0.176
N11485 X11.798 Y-17.91 Z0.202
N11490 X11.773 Y-17.884 Z0.227
N11495 X11.75 Y-17.854 Z0.25
N11500 X11.73 Y-17.822 Z0.27
N11505 X11.711 Y-17.788 Z0.289
N11510 X11.694 Y-17.751 Z0.306
N11515 X11.68 Y-17.712 Z0.32
N11520 X11.668 Y-17.672 Z0.332
N11525 X11.659 Y-17.63 Z0.341
N11530 X11.652 Y-17.588 Z0.348
N11535 X11.648 Y-17.544 Z0.352
N11540 X11.647 Y-17.501 Z0.353
N11545 X11.648 Y-17.457 Z0.352
N11550 X11.652 Y-17.414 Z0.348
N11555 X11.659 Y-17.371 Z0.341
N11560 X11.668 Y-17.33 Z0.332
N11565 X11.68 Y-17.29 Z0.32
N11570 X11.694 Y-17.251 Z0.306
N11575 X11.711 Y-17.214 Z0.289
N11580 X11.73 Y-17.179 Z0.27
N11585 X11.75 Y-17.147 Z0.25
N11590 X11.773 Y-17.118 Z0.227
N11595 X11.798 Y-17.091 Z0.202
N11600 X11.824 Y-17.068 Z0.176
N11605 X11.851 Y-17.048 Z0.149
N11610 X11.879 Y-17.031 Z0.121
N11615 X11.909 Y-17.018 Z0.091
N11620 X11.939 Y-17.009 Z0.061
N11625 X11.97 Y-17.003 Z0.03
N11630 X12. Y-17.001 Z0.
N11635 X18. Z-6.
N11640 G2 X18.354 Z-6.146 I0.354 K0.354
N11645 G17 G3 Y-16.001 I0. J0.5
N11650 G18 G3 X18. Z-6. I0. K0.5
N11655 G1 X12. Z0.
N11660 X11.97 Y-15.999 Z0.03
N11665 X11.939 Y-15.994 Z0.061
N11670 X11.909 Y-15.984 Z0.091
N11675 X11.879 Y-15.971 Z0.121
N11680 X11.851 Y-15.954 Z0.149
N11685 X11.824 Y-15.934 Z0.176
N11690 X11.798 Y-15.911 Z0.202
N11695 X11.773 Y-15.884 Z0.227
N11700 X11.75 Y-15.855 Z0.25
N11705 X11.73 Y-15.823 Z0.27
N11710 X11.711 Y-15.788 Z0.289
N11715 X11.694 Y-15.751 Z0.306
N11720 X11.68 Y-15.712 Z0.32
N11725 X11.668 Y-15.672 Z0.332
N11730 X11.659 Y-15.631 Z0.341
N11735 X11.652 Y-15.588 Z0.348
N11740 X11.648 Y-15.545 Z0.352
N11745 X11.647 Y-15.501 Z0.353
N11750 X11.648 Y-15.458 Z0.352
N11755 X11.652 Y-15.414 Z0.348
N11760 X11.659 Y-15.372 Z0.341
N11765 X11.668 Y-15.33 Z0.332
N11770 X11.68 Y-15.29 Z0.32
N11775 X11.694 Y-15.251 Z0.306
N11780 X11.711 Y-15.214 Z0.289
N11785 X11.73 Y-15.18 Z0.27
N11790 X11.75 Y-15.148 Z0.25
N11795 X11.773 Y-15.118 Z0.227
N11800 X11.798 Y-15.092 Z0.202
N11805 X11.824 Y-15.068 Z0.176
N11810 X11.851 Y-15.048 Z0.149
N11815 X11.879 Y-15.031 Z0.121
N11820 X11.909 Y-15.018 Z0.091
N11825 X11.939 Y-15.009 Z0.061
N11830 X11.97 Y-15.003 Z0.03
N11835 X12. Y-15.001 Z0.
N11840 X18. Z-6.
N11845 G2 X18.354 Z-6.146 I0.354 K0.354
N11850 G17 G3 Y-14.001 I0. J0.5
N11855 G18 G3 X18. Z-6. I0. K0.5
N11860 G1 X12. Z0.
N11865 X11.97 Y-14. Z0.03
N11870 X11.939 Y-13.994 Z0.061
N11875 X11.909 Y-13.984 Z0.091
N11880 X11.879 Y-13.971 Z0.121
N11885 X11.851 Y-13.955 Z0.149
N11890 X11.824 Y-13.935 Z0.176
N11895 X11.798 Y-13.911 Z0.202
N11900 X11.773 Y-13.885 Z0.227
N11905 X11.75 Y-13.855 Z0.25
N11910 X11.73 Y-13.823 Z0.27
N11915 X11.711 Y-13.788 Z0.289
N11920 X11.694 Y-13.752 Z0.306
N11925 X11.68 Y-13.713 Z0.32
N11930 X11.668 Y-13.673 Z0.332
N11935 X11.659 Y-13.631 Z0.341
N11940 X11.652 Y-13.588 Z0.348
N11945 X11.648 Y-13.545 Z0.352
N11950 X11.647 Y-13.502 Z0.353
N11955 X11.648 Y-13.458 Z0.352
N11960 X11.652 Y-13.415 Z0.348
N11965 X11.659 Y-13.372 Z0.341
N11970 X11.668 Y-13.331 Z0.332
N11975 X11.68 Y-13.29 Z0.32
N11980 X11.694 Y-13.252 Z0.306
N11985 X11.711 Y-13.215 Z0.289
N11990 X11.73 Y-13.18 Z0.27
N11995 X11.75 Y-13.148 Z0.25
N12000 X11.773 Y-13.119 Z0.227
N12005 X11.798 Y-13.092 Z0.202
N12010 X11.824 Y-13.069 Z0.176
N12015 X11.851 Y-13.049 Z0.149
N12020 X11.879 Y-13.032 Z0.121
N12025 X11.909 Y-13.019 Z0.091
N12030 X11.939 Y-13.009 Z0.061
N12035 X11.97 Y-13.004 Z0.03
N12040 X12. Y-13.002 Z0.
N12045 X18. Z-6.
N12050 G2 X18.354 Z-6.146 I0.354 K0.354
N12055 G17 G3 Y-12.002 I0. J0.5
N12060 G18 G3 X18. Z-6. I0. K0.5
N12065 G1 X12. Z0.
N12070 X11.97 Y-12. Z0.03
N12075 X11.939 Y-11.994 Z0.061
N12080 X11.909 Y-11.985 Z0.091
N12085 X11.879 Y-11.972 Z0.121
N12090 X11.851 Y-11.955 Z0.149
N12095 X11.824 Y-11.935 Z0.176
N12100 X11.798 Y-11.911 Z0.202
N12105 X11.773 Y-11.885 Z0.227
N12110 X11.75 Y-11.855 Z0.25
N12115 X11.73 Y-11.823 Z0.27
N12120 X11.711 Y-11.789 Z0.289
N12125 X11.694 Y-11.752 Z0.306
N12130 X11.68 Y-11.713 Z0.32
N12135 X11.668 Y-11.673 Z0.332
N12140 X11.659 Y-11.631 Z0.341
N12145 X11.652 Y-11.589 Z0.348
N12150 X11.648 Y-11.546 Z0.352
N12155 X11.647 Y-11.502 Z0.353
N12160 X11.648 Y-11.458 Z0.352
N12165 X11.652 Y-11.415 Z0.348
N12170 X11.659 Y-11.373 Z0.341
N12175 X11.668 Y-11.331 Z0.332
N12180 X11.68 Y-11.291 Z0.32
N12185 X11.694 Y-11.252 Z0.306
N12190 X11.711 Y-11.215 Z0.289
N12195 X11.73 Y-11.181 Z0.27
N12200 X11.75 Y-11.148 Z0.25
N12205 X11.773 Y-11.119 Z0.227
N12210 X11.798 Y-11.092 Z0.202
N12215 X11.824 Y-11.069 Z0.176
N12220 X11.851 Y-11.049 Z0.149
N12225 X11.879 Y-11.032 Z0.121
N12230 X11.909 Y-11.019 Z0.091
N12235 X11.939 Y-11.01 Z0.061
N12240 X11.97 Y-11.004 Z0.03
N12245 X12. Y-11.002 Z0.
N12250 X18. Z-6.
N12255 G2 X18.354 Z-6.146 I0.354 K0.354
N12260 G17 G3 Y-10.002 I0. J0.5
N12265 G18 G3 X18. Z-6. I0. K0.5
N12270 G1 X12. Z0.
N12275 X11.97 Y-10. Z0.03
N12280 X11.939 Y-9.995 Z0.061
N12285 X11.909 Y-9.985 Z0.091
N12290 X11.879 Y-9.972 Z0.121
N12295 X11.851 Y-9.955 Z0.149
N12300 X11.824 Y-9.935 Z0.176
N12305 X11.798 Y-9.912 Z0.202
N12310 X11.773 Y-9.885 Z0.227
N12315 X11.75 Y-9.856 Z0.25
N12320 X11.73 Y-9.824 Z0.27
N12325 X11.711 Y-9.789 Z0.289
N12330 X11.694 Y-9.752 Z0.306
N12335 X11.68 Y-9.714 Z0.32
N12340 X11.668 Y-9.673 Z0.332
N12345 X11.659 Y-9.632 Z0.341
N12350 X11.652 Y-9.589 Z0.348
N12355 X11.648 Y-9.546 Z0.352
N12360 X11.647 Y-9.502 Z0.353
N12365 X11.648 Y-9.459 Z0.352
N12370 X11.652 Y-9.416 Z0.348
N12375 X11.659 Y-9.373 Z0.341
N12380 X11.668 Y-9.331 Z0.332
N12385 X11.68 Y-9.291 Z0.32
N12390 X11.694 Y-9.252 Z0.306
N12395 X11.711 Y-9.216 Z0.289
N12400 X11.73 Y-9.181 Z0.27
N12405 X11.75 Y-9.149 Z0.25
N12410 X11.773 Y-9.119 Z0.227
N12415 X11.798 Y-9.093 Z0.202
N12420 X11.824 Y-9.069 Z0.176
N12425 X11.851 Y-9.049 Z0.149
N12430 X11.879 Y-9.033 Z0.121
N12435 X11.909 Y-9.019 Z0.091
N12440 X11.939 Y-9.01 Z0.061
N12445 X11.97 Y-9.004 Z0.03
N12450 X12. Y-9.002 Z0.
N12455 X18. Z-6.
N12460 G2 X18.354 Z-6.146 I0.354 K0.354
N12465 G17 G3 Y-8.003 I0. J0.5
N12470 G18 G3 X18. Z-6. I0. K0.5
N12475 G1 X12. Z0.
N12480 X11.97 Y-8.001 Z0.03
N12485 X11.939 Y-7.995 Z0.061
N12490 X11.909 Y-7.986 Z0.091
N12495 X11.879 Y-7.972 Z0.121
N12500 X11.851 Y-7.956 Z0.149
N12505 X11.824 Y-7.936 Z0.176
N12510 X11.798 Y-7.912 Z0.202
N12515 X11.773 Y-7.886 Z0.227
N12520 X11.75 Y-7.856 Z0.25
N12525 X11.73 Y-7.824 Z0.27
N12530 X11.711 Y-7.789 Z0.289
N12535 X11.694 Y-7.753 Z0.306
N12540 X11.68 Y-7.714 Z0.32
N12545 X11.668 Y-7.674 Z0.332
N12550 X11.659 Y-7.632 Z0.341
N12555 X11.652 Y-7.589 Z0.348
N12560 X11.648 Y-7.546 Z0.352
N12565 X11.647 Y-7.503 Z0.353
N12570 X11.648 Y-7.459 Z0.352
N12575 X11.652 Y-7.416 Z0.348
N12580 X11.659 Y-7.373 Z0.341
N12585 X11.668 Y-7.332 Z0.332
N12590 X11.68 Y-7.291 Z0.32
N12595 X11.694 Y-7.253 Z0.306
N12600 X11.711 Y-7.216 Z0.289
N12605 X11.73 Y-7.181 Z0.27
N12610 X11.75 Y-7.149 Z0.25
N12615 X11.773 Y-7.12 Z0.227
N12620 X11.798 Y-7.093 Z0.202
N12625 X11.824 Y-7.07 Z0.176
N12630 X11.851 Y-7.05 Z0.149
N12635 X11.879 Y-7.033 Z0.121
N12640 X11.909 Y-7.02 Z0.091
N12645 X11.939 Y-7.01 Z0.061
N12650 X11.97 Y-7.005 Z0.03
N12655 X12. Y-7.003 Z0.
N12660 X18. Z-6.
N12665 G2 X18.354 Z-6.146 I0.354 K0.354
N12670 G17 G3 Y-6.003 I0. J0.5
N12675 G18 G3 X18. Z-6. I0. K0.5
N12680 G1 X12. Z0.
N12685 X11.97 Y-6.001 Z0.03
N12690 X11.939 Y-5.995 Z0.061
N12695 X11.909 Y-5.986 Z0.091
N12700 X11.879 Y-5.973 Z0.121
N12705 X11.851 Y-5.956 Z0.149
N12710 X11.824 Y-5.936 Z0.176
N12715 X11.798 Y-5.913 Z0.202
N12720 X11.773 Y-5.886 Z0.227
N12725 X11.75 Y-5.857 Z0.25
N12730 X11.73 Y-5.824 Z0.27
N12735 X11.711 Y-5.79 Z0.289
N12740 X11.694 Y-5.753 Z0.306
N12745 X11.68 Y-5.714 Z0.32
N12750 X11.668 Y-5.674 Z0.332
N12755 X11.659 Y-5.632 Z0.341
N12760 X11.652 Y-5.59 Z0.348
N12765 X11.648 Y-5.547 Z0.352
N12770 X11.647 Y-5.503 Z0.353
N12775 X11.648 Y-5.459 Z0.352
N12780 X11.652 Y-5.416 Z0.348
N12785 X11.659 Y-5.374 Z0.341
N12790 X11.668 Y-5.332 Z0.332
N12795 X11.68 Y-5.292 Z0.32
N12800 X11.694 Y-5.253 Z0.306
N12805 X11.711 Y-5.216 Z0.289
N12810 X11.73 Y-5.182 Z0.27
N12815 X11.75 Y-5.15 Z0.25
N12820 X11.773 Y-5.12 Z0.227
N12825 X11.798 Y-5.094 Z0.202
N12830 X11.824 Y-5.07 Z0.176
N12835 X11.851 Y-5.05 Z0.149
N12840 X11.879 Y-5.033 Z0.121
N12845 X11.909 Y-5.02 Z0.091
N12850 X11.939 Y-5.011 Z0.061
N12855 X11.97 Y-5.005 Z0.03
N12860 X12. Y-5.003 Z0.
N12865 X18. Z-6.
N12870 G2 X18.354 Z-6.146 I0.354 K0.354
N12875 G17 G3 Y-4.003 I0. J0.5
N12880 G18 G3 X18. Z-6. I0. K0.5
N12885 G1 X12. Z0.
N12890 X11.97 Y-4.001 Z0.03
N12895 X11.939 Y-3.996 Z0.061
N12900 X11.909 Y-3.986 Z0.091
N12905 X11.879 Y-3.973 Z0.121
N12910 X11.851 Y-3.956 Z0.149
N12915 X11.824 Y-3.936 Z0.176
N12920 X11.798 Y-3.913 Z0.202
N12925 X11.773 Y-3.886 Z0.227
N12930 X11.75 Y-3.857 Z0.25
N12935 X11.73 Y-3.825 Z0.27
N12940 X11.711 Y-3.79 Z0.289
N12945 X11.694 Y-3.753 Z0.306
N12950 X11.68 Y-3.715 Z0.32
N12955 X11.668 Y-3.674 Z0.332
N12960 X11.659 Y-3.633 Z0.341
N12965 X11.652 Y-3.59 Z0.348
N12970 X11.648 Y-3.547 Z0.352
N12975 X11.647 Y-3.503 Z0.353
N12980 X11.648 Y-3.46 Z0.352
N12985 X11.652 Y-3.417 Z0.348
N12990 X11.659 Y-3.374 Z0.341
N12995 X11.668 Y-3.332 Z0.332
N13000 X11.68 Y-3.292 Z0.32
N13005 X11.694 Y-3.253 Z0.306
N13010 X11.711 Y-3.217 Z0.289
N13015 X11.73 Y-3.182 Z0.27
N13020 X11.75 Y-3.15 Z0.25
N13025 X11.773 Y-3.12 Z0.227
N13030 X11.798 Y-3.094 Z0.202
N13035 X11.824 Y-3.07 Z0.176
N13040 X11.851 Y-3.05 Z0.149
N13045 X11.879 Y-3.034 Z0.121
N13050 X11.909 Y-3.021 Z0.091
N13055 X11.939 Y-3.011 Z0.061
N13060 X11.97 Y-3.005 Z0.03
N13065 X12. Y-3.004 Z0.
N13070 X18. Z-6.
N13075 G2 X18.354 Z-6.146 I0.354 K0.354
N13080 G17 G3 Y-2.004 I0. J0.5
N13085 G18 G3 X18. Z-6. I0. K0.5
N13090 G1 X12. Z0.
N13095 X11.97 Y-2.002 Z0.03
N13100 X11.939 Y-1.996 Z0.061
N13105 X11.909 Y-1.987 Z0.091
N13110 X11.879 Y-1.974 Z0.121
N13115 X11.851 Y-1.957 Z0.149
N13120 X11.824 Y-1.937 Z0.176
N13125 X11.798 Y-1.913 Z0.202
N13130 X11.773 Y-1.887 Z0.227
N13135 X11.75 Y-1.857 Z0.25
N13140 X11.73 Y-1.825 Z0.27
N13145 X11.711 Y-1.791 Z0.289
N13150 X11.694 Y-1.754 Z0.306
N13155 X11.68 Y-1.715 Z0.32
N13160 X11.668 Y-1.675 Z0.332
N13165 X11.659 Y-1.633 Z0.341
N13170 X11.652 Y-1.591 Z0.348
N13175 X11.648 Y-1.547 Z0.352
N13180 X11.647 Y-1.504 Z0.353
N13185 X11.648 Y-1.46 Z0.352
N13190 X11.652 Y-1.417 Z0.348
N13195 X11.659 Y-1.374 Z0.341
N13200 X11.668 Y-1.333 Z0.332
N13205 X11.68 Y-1.293 Z0.32
N13210 X11.694 Y-1.254 Z0.306
N13215 X11.711 Y-1.217 Z0.289
N13220 X11.73 Y-1.182 Z0.27
N13225 X11.75 Y-1.15 Z0.25
N13230 X11.773 Y-1.121 Z0.227
N13235 X11.798 Y-1.094 Z0.202
N13240 X11.824 Y-1.071 Z0.176
N13245 X11.851 Y-1.051 Z0.149
N13250 X11.879 Y-1.034 Z0.121
N13255 X11.909 Y-1.021 Z0.091
N13260 X11.939 Y-1.011 Z0.061
N13265 X11.97 Y-1.006 Z0.03
N13270 X12. Y-1.004 Z0.
N13275 X18. Z-6.
N13280 G2 X18.354 Z-6.146 I0.354 K0.354
N13285 G17 G3 Y-0.004 I0. J0.5
N13290 G18 G3 X18. Z-6. I0. K0.5
N13295 G1 X12. Z0.
N13300 X11.951 Z0.049
N13305 X11.92 Y-0.002 Z0.079
N13310 X11.889 Y0.004 Z0.11
N13315 X11.859 Y0.013 Z0.139
N13320 X11.829 Y0.026 Z0.168
N13325 X11.799 Y0.043 Z0.196
N13330 X11.771 Y0.063 Z0.222
N13335 X11.744 Y0.086 Z0.247
N13340 X11.718 Y0.113 Z0.271
N13345 X11.693 Y0.142 Z0.292
N13350 X11.671 Y0.174 Z0.311
N13355 X11.65 Y0.209 Z0.328
N13360 X11.632 Y0.246 Z0.343
N13365 X11.616 Y0.285 Z0.355
N13370 X11.602 Y0.325 Z0.365
N13375 X11.591 Y0.366 Z0.372
N13380 X11.582 Y0.409 Z0.377
N13385 X11.575 Y0.452 Z0.379
N13390 X11.572 Y0.496 Z0.378
N13395 X11.571 Y0.539 Z0.374
N13400 X11.573 Y0.583 Z0.368
N13405 X11.578 Y0.625 Z0.359
N13410 X11.585 Y0.667 Z0.348
N13415 X11.595 Y0.707 Z0.334
N13420 X11.607 Y0.746 Z0.318
N13425 X11.622 Y0.783 Z0.3
N13430 X11.639 Y0.817 Z0.279
N13435 X11.658 Y0.849 Z0.256
N13440 X11.679 Y0.879 Z0.232
N13445 X11.703 Y0.905 Z0.206
N13450 X11.727 Y0.929 Z0.179
N13455 X11.754 Y0.949 Z0.151
N13460 X11.782 Y0.966 Z0.121
N13465 X11.81 Y0.979 Z0.091
N13470 X11.84 Y0.988 Z0.06
N13475 X11.871 Y0.994 Z0.03
N13480 X11.901 Y0.996 Z-0.001
N13485 X17.898 Z-5.998
N13490 G2 X18.252 Z-6.145 I0.354 K0.354
N13495 G17 G3 Y1.996 I0. J0.5
N13500 G1 X17.937
N13505 G18 G3 X17.583 Z-5.998 I0. K0.5
N13510 G1 X17.582 Z-5.997
N13515 X11.585 Z-0.001
N13520 X11.295 Z0.289
N13525 X11.263 Y1.997 Z0.32
N13530 X11.23 Y2.002 Z0.35
N13535 X11.197 Y2.011 Z0.379
N13540 X11.163 Y2.023 Z0.406
N13545 X11.129 Y2.038 Z0.431
N13550 X11.096 Y2.056 Z0.454
N13555 X11.062 Y2.077 Z0.475
N13560 X11.03 Y2.101 Z0.493
N13565 X10.998 Y2.128 Z0.51
N13570 X10.967 Y2.157 Z0.524
N13575 X10.938 Y2.188 Z0.535
N13580 X10.909 Y2.222 Z0.544
N13585 X10.883 Y2.258 Z0.549
N13590 X10.858 Y2.295 Z0.552
N13595 X10.836 Y2.333 Z0.553
N13600 X10.815 Y2.373 Z0.55
N13605 X10.797 Y2.413 Z0.545
N13610 X10.781 Y2.454 Z0.537
N13615 X10.768 Y2.495 Z0.526
N13620 X10.757 Y2.537 Z0.513
N13625 X10.749 Y2.578 Z0.497
N13630 X10.744 Y2.618 Z0.479
N13635 X10.741 Y2.658 Z0.458
N13640 X10.742 Y2.696 Z0.436
N13645 X10.745 Y2.733 Z0.411
N13650 X10.75 Y2.769 Z0.385
N13655 X10.759 Y2.803 Z0.356
N13660 X10.77 Y2.834 Z0.327
N13665 X10.784 Y2.863 Z0.296
N13670 X10.801 Y2.89 Z0.264
N13675 X10.819 Y2.914 Z0.232
N13680 X10.84 Y2.935 Z0.198
N13685 X10.863 Y2.953 Z0.165
N13690 X10.888 Y2.968 Z0.131
N13695 X10.915 Y2.98 Z0.097
N13700 X10.944 Y2.989 Z0.064
N13705 X10.974 Y2.994 Z0.031
N13710 X11.005 Y2.995 Z-0.001
N13715 X17.001 Z-5.998
N13720 G2 X17.355 Z-6.144 I0.354 K0.354
N13725 G17 G3 Y3.995 I0. J0.5
N13730 G1 X16.358
N13735 G18 G3 X16.004 Z-5.998 I0. K0.5
N13740 G1 X16.003 Z-5.997
N13745 X10.006 Z0.
N13750 G3 X9.714 Z0.707 I0.707 K0.707 F#104
N13755 G0 Z2.
N13760 X-9.714 Y-47.995
N13765 G1 Z0.707 F#103
N13770 G3 X-10.007 Z0. I-1. K0.
N13775 G1 X-16.003 Z-5.997 F#100
N13780 X-16.004 Z-5.998
N13785 G3 X-16.358 Z-6.144 I-0.354 K0.354
N13790 G1 X-17.355
N13795 G17 G2 Y-46.995 I0. J0.5
N13800 G18 G2 X-17.001 Z-5.998 I0. K0.5
N13805 G1 X-11.004 Z0.
N13810 X-10.973 Y-46.994 Z0.032
N13815 X-10.943 Y-46.989 Z0.064
N13820 X-10.915 Y-46.98 Z0.098
N13825 X-10.888 Y-46.968 Z0.131
N13830 X-10.863 Y-46.953 Z0.165
N13835 X-10.84 Y-46.935 Z0.199
N13840 X-10.819 Y-46.914 Z0.232
N13845 X-10.8 Y-46.89 Z0.265
N13850 X-10.783 Y-46.863 Z0.297
N13855 X-10.77 Y-46.834 Z0.328
N13860 X-10.758 Y-46.803 Z0.357
N13865 X-10.75 Y-46.769 Z0.385
N13870 X-10.744 Y-46.733 Z0.412
N13875 X-10.741 Y-46.696 Z0.436
N13880 Y-46.658 Z0.459
N13885 X-10.743 Y-46.618 Z0.48
N13890 X-10.748 Y-46.578 Z0.498
N13895 X-10.756 Y-46.537 Z0.514
N13900 X-10.767 Y-46.495 Z0.527
N13905 X-10.78 Y-46.454 Z0.538
N13910 X-10.796 Y-46.413 Z0.546
N13915 X-10.814 Y-46.373 Z0.551
N13920 X-10.835 Y-46.333 Z0.553
N13925 X-10.858 Y-46.295
N13930 X-10.882 Y-46.258 Z0.55
N13935 X-10.909 Y-46.222 Z0.544
N13940 X-10.937 Y-46.188 Z0.536
N13945 X-10.966 Y-46.157 Z0.524
N13950 X-10.997 Y-46.128 Z0.51
N13955 X-11.029 Y-46.101 Z0.494
N13960 X-11.062 Y-46.077 Z0.475
N13965 X-11.095 Y-46.056 Z0.454
N13970 X-11.129 Y-46.038 Z0.431
N13975 X-11.163 Y-46.023 Z0.406
N13980 X-11.196 Y-46.011 Z0.379
N13985 X-11.23 Y-46.002 Z0.351
N13990 X-11.262 Y-45.997 Z0.321
N13995 X-11.294 Y-45.996 Z0.29
N14000 X-11.585 Z0.
N14005 X-17.582 Z-5.997
N14010 X-17.583 Z-5.998
N14015 G3 X-17.937 Z-6.145 I-0.354 K0.354
N14020 G1 X-18.252
N14025 G17 G2 Y-44.996 I0. J0.5
N14030 G18 G2 X-17.898 Z-5.998 I0. K0.5
N14035 G1 X-11.9 Z0.
N14040 X-11.869 Y-44.994 Z0.031
N14045 X-11.839 Y-44.988 Z0.062
N14050 X-11.809 Y-44.979 Z0.093
N14055 X-11.78 Y-44.966 Z0.123
N14060 X-11.752 Y-44.949 Z0.152
N14065 X-11.726 Y-44.929 Z0.181
N14070 X-11.701 Y-44.905 Z0.208
N14075 X-11.678 Y-44.879 Z0.234
N14080 X-11.657 Y-44.849 Z0.258
N14085 X-11.637 Y-44.817 Z0.28
N14090 X-11.62 Y-44.783 Z0.301
N14095 X-11.605 Y-44.746 Z0.319
N14100 X-11.593 Y-44.707 Z0.336
N14105 X-11.583 Y-44.667 Z0.349
N14110 X-11.576 Y-44.625 Z0.361
N14115 X-11.572 Y-44.583 Z0.37
N14120 X-11.57 Y-44.539 Z0.376
N14125 X-11.571 Y-44.496 Z0.379
N14130 X-11.574 Y-44.452 Z0.38
N14135 X-11.58 Y-44.409 Z0.378
N14140 X-11.589 Y-44.366 Z0.374
N14145 X-11.6 Y-44.325 Z0.367
N14150 X-11.614 Y-44.285 Z0.357
N14155 X-11.631 Y-44.246 Z0.344
N14160 X-11.649 Y-44.209 Z0.33
N14165 X-11.67 Y-44.174 Z0.313
N14170 X-11.692 Y-44.142 Z0.293
N14175 X-11.716 Y-44.113 Z0.272
N14180 X-11.742 Y-44.086 Z0.249
N14185 X-11.769 Y-44.063 Z0.224
N14190 X-11.798 Y-44.043 Z0.197
N14195 X-11.827 Y-44.026 Z0.17
N14200 X-11.857 Y-44.013 Z0.141
N14205 X-11.888 Y-44.004 Z0.111
N14210 X-11.919 Y-43.998 Z0.081
N14215 X-11.95 Y-43.996 Z0.05
N14220 X-12.001 Z-0.001
N14225 X-18. Z-6.
N14230 G3 X-18.354 Z-6.146 I-0.354 K0.354
N14235 G17 G2 Y-42.996 I0. J0.5
N14240 G18 G2 X-18. Z-6. I0. K0.5
N14245 G1 X-12.001 Z-0.001
N14250 X-11.97 Y-42.994 Z0.03
N14255 X-11.94 Y-42.989 Z0.06
N14260 X-11.909 Y-42.979 Z0.091
N14265 X-11.88 Y-42.966 Z0.12
N14270 X-11.852 Y-42.949 Z0.148
N14275 X-11.824 Y-42.929 Z0.176
N14280 X-11.798 Y-42.906 Z0.202
N14285 X-11.774 Y-42.879 Z0.226
N14290 X-11.751 Y-42.85 Z0.249
N14295 X-11.73 Y-42.818 Z0.27
N14300 X-11.711 Y-42.783 Z0.289
N14305 X-11.695 Y-42.746 Z0.305
N14310 X-11.681 Y-42.707 Z0.319
N14315 X-11.669 Y-42.667 Z0.331
N14320 X-11.659 Y-42.626 Z0.341
N14325 X-11.653 Y-42.583 Z0.347
N14330 X-11.649 Y-42.54 Z0.351
N14335 X-11.647 Y-42.496 Z0.353
N14340 X-11.649 Y-42.453 Z0.351
N14345 X-11.653 Y-42.409 Z0.347
N14350 X-11.659 Y-42.367 Z0.341
N14355 X-11.669 Y-42.325 Z0.331
N14360 X-11.681 Y-42.285 Z0.319
N14365 X-11.695 Y-42.246 Z0.305
N14370 X-11.711 Y-42.209 Z0.289
N14375 X-11.73 Y-42.175 Z0.27
N14380 X-11.751 Y-42.143 Z0.249
N14385 X-11.774 Y-42.113 Z0.226
N14390 X-11.798 Y-42.087 Z0.202
N14395 X-11.824 Y-42.063 Z0.176
N14400 X-11.852 Y-42.043 Z0.148
N14405 X-11.88 Y-42.026 Z0.12
N14410 X-11.909 Y-42.013 Z0.091
N14415 X-11.94 Y-42.004 Z0.06
N14420 X-11.97 Y-41.998 Z0.03
N14425 X-12.001 Y-41.996 Z-0.001
N14430 X-18. Z-6.
N14435 G3 X-18.354 Z-6.146 I-0.354 K0.354
N14440 G17 G2 Y-40.996 I0. J0.5
N14445 G18 G2 X-18. Z-6. I0. K0.5
N14450 G1 X-12.001 Z-0.001
N14455 X-11.97 Y-40.995 Z0.03
N14460 X-11.94 Y-40.989 Z0.06
N14465 X-11.909 Y-40.979 Z0.091
N14470 X-11.88 Y-40.966 Z0.12
N14475 X-11.852 Y-40.95 Z0.148
N14480 X-11.824 Y-40.93 Z0.176
N14485 X-11.798 Y-40.906 Z0.202
N14490 X-11.774 Y-40.88 Z0.226
N14495 X-11.751 Y-40.85 Z0.249
N14500 X-11.73 Y-40.818 Z0.27
N14505 X-11.711 Y-40.783 Z0.289
N14510 X-11.695 Y-40.747 Z0.305
N14515 X-11.681 Y-40.708 Z0.319
N14520 X-11.669 Y-40.668 Z0.331
N14525 X-11.659 Y-40.626 Z0.341
N14530 X-11.653 Y-40.583 Z0.347
N14535 X-11.649 Y-40.54 Z0.351
N14540 X-11.647 Y-40.497 Z0.353
N14545 X-11.649 Y-40.453 Z0.351
N14550 X-11.653 Y-40.41 Z0.347
N14555 X-11.659 Y-40.367 Z0.341
N14560 X-11.669 Y-40.326 Z0.331
N14565 X-11.681 Y-40.285 Z0.319
N14570 X-11.695 Y-40.247 Z0.305
N14575 X-11.711 Y-40.21 Z0.289
N14580 X-11.73 Y-40.175 Z0.27
N14585 X-11.751 Y-40.143 Z0.249
N14590 X-11.774 Y-40.114 Z0.226
N14595 X-11.798 Y-40.087 Z0.202
N14600 X-11.824 Y-40.064 Z0.176
N14605 X-11.852 Y-40.044 Z0.148
N14610 X-11.88 Y-40.027 Z0.12
N14615 X-11.909 Y-40.014 Z0.091
N14620 X-11.94 Y-40.004 Z0.06
N14625 X-11.97 Y-39.999 Z0.03
N14630 X-12.001 Y-39.997 Z-0.001
N14635 X-18. Z-6.
N14640 G3 X-18.354 Z-6.146 I-0.354 K0.354
N14645 G17 G2 Y-38.997 I0. J0.5
N14650 G18 G2 X-18. Z-6. I0. K0.5
N14655 G1 X-12.001 Z-0.001
N14660 X-11.97 Y-38.995 Z0.03
N14665 X-11.94 Y-38.989 Z0.06
N14670 X-11.91 Y-38.98 Z0.09
N14675 X-11.88 Y-38.967 Z0.12
N14680 X-11.852 Y-38.95 Z0.148
N14685 X-11.824 Y-38.93 Z0.176
N14690 X-11.798 Y-38.906 Z0.202
N14695 X-11.774 Y-38.88 Z0.226
N14700 X-11.751 Y-38.85 Z0.249
N14705 X-11.73 Y-38.818 Z0.27
N14710 X-11.712 Y-38.784 Z0.288
N14715 X-11.695 Y-38.747 Z0.305
N14720 X-11.681 Y-38.708 Z0.319
N14725 X-11.669 Y-38.668 Z0.331
N14730 X-11.66 Y-38.626 Z0.34
N14735 X-11.653 Y-38.584 Z0.347
N14740 X-11.649 Y-38.541 Z0.351
N14745 X-11.648 Y-38.497 Z0.352
N14750 X-11.649 Y-38.453 Z0.351
N14755 X-11.653 Y-38.41 Z0.347
N14760 X-11.66 Y-38.368 Z0.34
N14765 X-11.669 Y-38.326 Z0.331
N14770 X-11.681 Y-38.286 Z0.319
N14775 X-11.695 Y-38.247 Z0.305
N14780 X-11.712 Y-38.21 Z0.288
N14785 X-11.73 Y-38.176 Z0.27
N14790 X-11.751 Y-38.143 Z0.249
N14795 X-11.774 Y-38.114 Z0.226
N14800 X-11.798 Y-38.087 Z0.202
N14805 X-11.824 Y-38.064 Z0.176
N14810 X-11.852 Y-38.044 Z0.148
N14815 X-11.88 Y-38.027 Z0.12
N14820 X-11.91 Y-38.014 Z0.09
N14825 X-11.94 Y-38.005 Z0.06
N14830 X-11.97 Y-37.999 Z0.03
N14835 X-12.001 Y-37.997 Z-0.001
N14840 X-18. Z-6.
N14845 G3 X-18.354 Z-6.146 I-0.354 K0.354
N14850 G17 G2 Y-36.997 I0. J0.5
N14855 G18 G2 X-18. Z-6. I0. K0.5
N14860 G1 X-12.001 Z-0.001
N14865 X-11.97 Y-36.995 Z0.03
N14870 X-11.94 Y-36.99 Z0.06
N14875 X-11.91 Y-36.98 Z0.09
N14880 X-11.88 Y-36.967 Z0.12
N14885 X-11.852 Y-36.95 Z0.148
N14890 X-11.824 Y-36.93 Z0.176
N14895 X-11.798 Y-36.907 Z0.202
N14900 X-11.774 Y-36.88 Z0.226
N14905 X-11.751 Y-36.851 Z0.249
N14910 X-11.73 Y-36.819 Z0.27
N14915 X-11.712 Y-36.784 Z0.288
N14920 X-11.695 Y-36.747 Z0.305
N14925 X-11.681 Y-36.709 Z0.319
N14930 X-11.669 Y-36.668 Z0.331
N14935 X-11.66 Y-36.627 Z0.34
N14940 X-11.653 Y-36.584 Z0.347
N14945 X-11.649 Y-36.541 Z0.351
N14950 X-11.648 Y-36.497 Z0.352
N14955 X-11.649 Y-36.454 Z0.351
N14960 X-11.653 Y-36.411 Z0.347
N14965 X-11.66 Y-36.368 Z0.34
N14970 X-11.669 Y-36.326 Z0.331
N14975 X-11.681 Y-36.286 Z0.319
N14980 X-11.695 Y-36.247 Z0.305
N14985 X-11.712 Y-36.211 Z0.288
N14990 X-11.73 Y-36.176 Z0.27
N14995 X-11.751 Y-36.144 Z0.249
N15000 X-11.774 Y-36.114 Z0.226
N15005 X-11.798 Y-36.088 Z0.202
N15010 X-11.824 Y-36.064 Z0.176
N15015 X-11.852 Y-36.044 Z0.148
N15020 X-11.88 Y-36.028 Z0.12
N15025 X-11.91 Y-36.014 Z0.09
N15030 X-11.94 Y-36.005 Z0.06
N15035 X-11.97 Y-35.999 Z0.03
N15040 X-12.001 Y-35.997 Z-0.001
N15045 X-18. Z-6.
N15050 G3 X-18.354 Z-6.146 I-0.354 K0.354
N15055 G17 G2 Y-34.998 I0. J0.5
N15060 G18 G2 X-18. Z-6. I0. K0.5
N15065 G1 X-12.001 Z-0.001
N15070 X-11.97 Y-34.996 Z0.03
N15075 X-11.94 Y-34.99 Z0.06
N15080 X-11.91 Y-34.981 Z0.09
N15085 X-11.88 Y-34.967 Z0.12
N15090 X-11.852 Y-34.951 Z0.148
N15095 X-11.824 Y-34.931 Z0.176
N15100 X-11.798 Y-34.907 Z0.202
N15105 X-11.774 Y-34.881 Z0.226
N15110 X-11.751 Y-34.851 Z0.249
N15115 X-11.73 Y-34.819 Z0.27
N15120 X-11.712 Y-34.784 Z0.288
N15125 X-11.695 Y-34.748 Z0.305
N15130 X-11.681 Y-34.709 Z0.319
N15135 X-11.669 Y-34.669 Z0.331
N15140 X-11.66 Y-34.627 Z0.34
N15145 X-11.653 Y-34.584 Z0.347
N15150 X-11.649 Y-34.541 Z0.351
N15155 X-11.648 Y-34.498 Z0.352
N15160 X-11.649 Y-34.454 Z0.351
N15165 X-11.653 Y-34.411 Z0.347
N15170 X-11.66 Y-34.368 Z0.34
N15175 X-11.669 Y-34.327 Z0.331
N15180 X-11.681 Y-34.286 Z0.319
N15185 X-11.695 Y-34.248 Z0.305
N15190 X-11.712 Y-34.211 Z0.288
N15195 X-11.73 Y-34.176 Z0.27
N15200 X-11.751 Y-34.144 Z0.249
N15205 X-11.774 Y-34.115 Z0.226
N15210 X-11.798 Y-34.088 Z0.202
N15215 X-11.824 Y-34.065 Z0.176
N15220 X-11.852 Y-34.045 Z0.148
N15225 X-11.88 Y-34.028 Z0.12
N15230 X-11.91 Y-34.015 Z0.09
N15235 X-11.94 Y-34.005 Z0.06
N15240 X-11.97 Y-34. Z0.03
N15245 X-12.001 Y-33.998 Z-0.001
N15250 X-18. Z-6.
N15255 G3 X-18.354 Z-6.146 I-0.354 K0.354
N15260 G17 G2 Y-32.998 I0. J0.5
N15265 G18 G2 X-18. Z-6. I0. K0.5
N15270 G1 X-12.001 Z-0.001
N15275 X-11.97 Y-32.996 Z0.03
N15280 X-11.94 Y-32.99 Z0.06
N15285 X-11.91 Y-32.981 Z0.09
N15290 X-11.88 Y-32.968 Z0.12
N15295 X-11.852 Y-32.951 Z0.148
N15300 X-11.824 Y-32.931 Z0.176
N15305 X-11.798 Y-32.908 Z0.202
N15310 X-11.774 Y-32.881 Z0.226
N15315 X-11.751 Y-32.852 Z0.249
N15320 X-11.73 Y-32.819 Z0.27
N15325 X-11.712 Y-32.785 Z0.288
N15330 X-11.695 Y-32.748 Z0.305
N15335 X-11.681 Y-32.709 Z0.319
N15340 X-11.669 Y-32.669 Z0.331
N15345 X-11.66 Y-32.627 Z0.34
N15350 X-11.653 Y-32.585 Z0.347
N15355 X-11.649 Y-32.542 Z0.351
N15360 X-11.648 Y-32.498 Z0.352
N15365 X-11.649 Y-32.454 Z0.351
N15370 X-11.653 Y-32.411 Z0.347
N15375 X-11.66 Y-32.369 Z0.34
N15380 X-11.669 Y-32.327 Z0.331
N15385 X-11.681 Y-32.287 Z0.319
N15390 X-11.695 Y-32.248 Z0.305
N15395 X-11.712 Y-32.211 Z0.288
N15400 X-11.73 Y-32.177 Z0.27
N15405 X-11.751 Y-32.145 Z0.249
N15410 X-11.774 Y-32.115 Z0.226
N15415 X-11.798 Y-32.089 Z0.202
N15420 X-11.824 Y-32.065 Z0.176
N15425 X-11.852 Y-32.045 Z0.148
N15430 X-11.88 Y-32.028 Z0.12
N15435 X-11.91 Y-32.015 Z0.09
N15440 X-11.94 Y-32.006 Z0.06
N15445 X-11.97 Y-32. Z0.03
N15450 X-12.001 Y-31.998 Z-0.001
N15455 X-18. Z-6.
N15460 G3 X-18.354 Z-6.146 I-0.354 K0.354
N15465 G17 G2 Y-30.998 I0. J0.5
N15470 G18 G2 X-18. Z-6. I0. K0.5
N15475 G1 X-12.001 Z-0.001
N15480 X-11.97 Y-30.996 Z0.03
N15485 X-11.94 Y-30.991 Z0.06
N15490 X-11.91 Y-30.981 Z0.09
N15495 X-11.88 Y-30.968 Z0.12
N15500 X-11.852 Y-30.951 Z0.148
N15505 X-11.824 Y-30.931 Z0.176
N15510 X-11.798 Y-30.908 Z0.202
N15515 X-11.774 Y-30.881 Z0.226
N15520 X-11.751 Y-30.852 Z0.249
N15525 X-11.73 Y-30.82 Z0.27
N15530 X-11.712 Y-30.785 Z0.288
N15535 X-11.695 Y-30.748 Z0.305
N15540 X-11.681 Y-30.71 Z0.319
N15545 X-11.669 Y-30.669 Z0.331
N15550 X-11.66 Y-30.628 Z0.34
N15555 X-11.653 Y-30.585 Z0.347
N15560 X-11.649 Y-30.542 Z0.351
N15565 X-11.648 Y-30.498 Z0.352
N15570 X-11.649 Y-30.455 Z0.351
N15575 X-11.653 Y-30.412 Z0.347
N15580 X-11.66 Y-30.369 Z0.34
N15585 X-11.669 Y-30.327 Z0.331
N15590 X-11.681 Y-30.287 Z0.319
N15595 X-11.695 Y-30.248 Z0.305
N15600 X-11.712 Y-30.212 Z0.288
N15605 X-11.73 Y-30.177 Z0.27
N15610 X-11.751 Y-30.145 Z0.249
N15615 X-11.774 Y-30.115 Z0.226
N15620 X-11.798 Y-30.089 Z0.202
N15625 X-11.824 Y-30.065 Z0.176
N15630 X-11.852 Y-30.045 Z0.148
N15635 X-11.88 Y-30.029 Z0.12
N15640 X-11.91 Y-30.016 Z0.09
N15645 X-11.94 Y-30.006 Z0.06
N15650 X-11.97 Y-30. Z0.03
N15655 X-12.001 Y-29.999 Z-0.001
N15660 X-18. Z-6.
N15665 G3 X-18.354 Z-6.146 I-0.354 K0.354
N15670 G17 G2 Y-28.999 I0. J0.5
N15675 G18 G2 X-18. Z-6. I0. K0.5
N15680 G1 X-12.001 Z-0.001
N15685 X-11.97 Y-28.997 Z0.03
N15690 X-11.94 Y-28.991 Z0.06
N15695 X-11.91 Y-28.982 Z0.09
N15700 X-11.88 Y-28.969 Z0.12
N15705 X-11.852 Y-28.952 Z0.148
N15710 X-11.824 Y-28.932 Z0.176
N15715 X-11.798 Y-28.908 Z0.202
N15720 X-11.774 Y-28.882 Z0.226
N15725 X-11.751 Y-28.852 Z0.249
N15730 X-11.73 Y-28.82 Z0.27
N15735 X-11.712 Y-28.786 Z0.288
N15740 X-11.695 Y-28.749 Z0.305
N15745 X-11.681 Y-28.71 Z0.319
N15750 X-11.669 Y-28.67 Z0.331
N15755 X-11.66 Y-28.628 Z0.34
N15760 X-11.653 Y-28.586 Z0.347
N15765 X-11.649 Y-28.542 Z0.351
N15770 X-11.648 Y-28.499 Z0.352
N15775 X-11.649 Y-28.455 Z0.351
N15780 X-11.653 Y-28.412 Z0.347
N15785 X-11.66 Y-28.369 Z0.34
N15790 X-11.669 Y-28.328 Z0.331
N15795 X-11.681 Y-28.288 Z0.319
N15800 X-11.695 Y-28.249 Z0.305
N15805 X-11.712 Y-28.212 Z0.288
N15810 X-11.73 Y-28.177 Z0.27
N15815 X-11.751 Y-28.145 Z0.249
N15820 X-11.774 Y-28.116 Z0.226
N15825 X-11.798 Y-28.089 Z0.202
N15830 X-11.824 Y-28.066 Z0.176
N15835 X-11.852 Y-28.046 Z0.148
N15840 X-11.88 Y-28.029 Z0.12
N15845 X-11.91 Y-28.016 Z0.09
N15850 X-11.94 Y-28.006 Z0.06
N15855 X-11.97 Y-28.001 Z0.03
N15860 X-12.001 Y-27.999 Z-0.001
N15865 X-18. Z-6.
N15870 G3 X-18.354 Z-6.146 I-0.354 K0.354
N15875 G17 G2 Y-26.999 I0. J0.5
N15880 G18 G2 X-18. Z-6. I0. K0.5
N15885 G1 X-12.001 Z-0.001
N15890 X-11.97 Y-26.997 Z0.03
N15895 X-11.94 Y-26.991 Z0.06
N15900 X-11.909 Y-26.982 Z0.091
N15905 X-11.88 Y-26.969 Z0.12
N15910 X-11.852 Y-26.952 Z0.148
N15915 X-11.824 Y-26.932 Z0.176
N15920 X-11.798 Y-26.909 Z0.202
N15925 X-11.774 Y-26.882 Z0.226
N15930 X-11.751 Y-26.853 Z0.249
N15935 X-11.73 Y-26.821 Z0.27
