%
(1)
(T10  D=10. CR=0. - ZMIN=-14. - FLAT END MILL)
N10 G90 G94 G17 G91.1
N15 G21
N20 G53 G0 Z0.
(2D CONTOUR2 2)
N25 M9
N30 T10 M6
N35 S3000 M3
N40 G54
N45 M8
N55 G0 X42.25 Y6.
N60 G43 Z4. H10
N65 #100=900. (CUTTING)
N70 #103=800. (ENTRY)
N75 #104=900. (EXIT)
N80 #108=3000. (PLUNGE)
N85 G0 Z2.
N90 G1 Z1. F#103
N95 Z-14. F#108
N100 X41.25 F#103
N105 G3 X35.25 Y0. I0. J-6.
N110 G1 Y-44. F#100
N115 G3 X41.25 Y-50. I6. J0. F#104
N120 G1 X42.25
N125 X41.35 Y6.
N130 X40.35 F#103
N135 G3 X34.35 Y0. I0. J-6.
N140 G1 Y-44. F#100
N145 G3 X40.35 Y-50. I6. J0. F#104
N150 G1 X41.35
N155 X40.45 Y6.
N160 X39.45 F#103
N165 G3 X33.45 Y0. I0. J-6.
N170 G1 Y-44. F#100
N175 G3 X39.45 Y-50. I6. J0. F#104
N180 G1 X40.45
N185 X39.55 Y6.
N190 X38.55 F#103
N195 G3 X32.55 Y0. I0. J-6.
N200 G1 Y-44. F#100
N205 G3 X38.55 Y-50. I6. J0. F#104
N210 G1 X39.55
N215 X38.65 Y6.
N220 X37.65 F#103
N225 G3 X31.65 Y0. I0. J-6.
N230 G1 Y-44. F#100
N235 G3 X37.65 Y-50. I6. J0. F#104
N240 G1 X38.65
N245 X37.75 Y6.
N250 X36.75 F#103
N255 G3 X30.75 Y0. I0. J-6.
N260 G1 Y-44. F#100
N265 G3 X36.75 Y-50. I6. J0. F#104
N270 G1 X37.75
N275 X36.85 Y6.
N280 X35.85 F#103
N285 G3 X29.85 Y0. I0. J-6.
N290 G1 Y-44. F#100
N295 G3 X35.85 Y-50. I6. J0. F#104
N300 G1 X36.85
N305 X35.95 Y6.
N310 X34.95 F#103
N315 G3 X28.95 Y0. I0. J-6.
N320 G1 Y-44. F#100
N325 G3 X34.95 Y-50. I6. J0. F#104
N330 G1 X35.95
N335 X35.05 Y6.
N340 X34.05 F#103
N345 G3 X28.05 Y0. I0. J-6.
N350 G1 Y-44. F#100
N355 G3 X34.05 Y-50. I6. J0. F#104
N360 G1 X35.05
N365 X34.15 Y6.
N370 X33.15 F#103
N375 G3 X27.15 Y0. I0. J-6.
N380 G1 Y-44. F#100
N385 G3 X33.15 Y-50. I6. J0. F#104
N390 G1 X34.15
N395 X33.25 Y6.
N400 X32.25 F#103
N405 G3 X26.25 Y0. I0. J-6.
N410 G1 Y-44. F#100
N415 G3 X32.25 Y-50. I6. J0. F#104
N420 G1 X33.25
N425 X32.35 Y6.
N430 X31.35 F#103
N435 G3 X25.35 Y0. I0. J-6.
N440 G1 Y-44. F#100
N445 G3 X31.35 Y-50. I6. J0. F#104
N450 G1 X32.35
N455 X31.45 Y6.
N460 X30.45 F#103
N465 G3 X24.45 Y0. I0. J-6.
N470 G1 Y-44. F#100
N475 G3 X30.45 Y-50. I6. J0. F#104
N480 G1 X31.45
N485 X30.55 Y6.
N490 X29.55 F#103
N495 G3 X23.55 Y0. I0. J-6.
N500 G1 Y-44. F#100
N505 G3 X29.55 Y-50. I6. J0. F#104
N510 G1 X30.55
N515 X29.65 Y6.
N520 X28.65 F#103
N525 G3 X22.65 Y0. I0. J-6.
N530 G1 Y-44. F#100
N535 G3 X28.65 Y-50. I6. J0. F#104
N540 G1 X29.65
N545 X28.75 Y6.
N550 X27.75 F#103
N555 G3 X21.75 Y0. I0. J-6.
N560 G1 Y-44. F#100
N565 G3 X27.75 Y-50. I6. J0. F#104
N570 G1 X28.75
N575 X27.85 Y6.
N580 X26.85 F#103
N585 G3 X20.85 Y0. I0. J-6.
N590 G1 Y-44. F#100
N595 G3 X26.85 Y-50. I6. J0. F#104
N600 G1 X27.85
N605 X26.95 Y6.
N610 X25.95 F#103
N615 G3 X19.95 Y0. I0. J-6.
N620 G1 Y-44. F#100
N625 G3 X25.95 Y-50. I6. J0. F#104
N630 G1 X26.95
N635 X26.05 Y6.
N640 X25.05 F#103
N645 G3 X19.05 Y0. I0. J-6.
N650 G1 Y-44. F#100
N655 G3 X25.05 Y-50. I6. J0. F#104
N660 G1 X26.05
N665 X25.1 Y6.
N670 X24.1 F#103
N675 G3 X18.1 Y0. I0. J-6.
N680 G1 Y-44. F#100
N685 G3 X24.1 Y-50. I6. J0. F#104
N690 G1 X25.1
N695 X25. Y6.
N700 X24. F#103
N705 G3 X18. Y0. I0. J-6.
N710 G1 Y-44. F#100
N715 G3 X24. Y-50. I6. J0. F#104
N720 G1 X25.
N725 G0 Z4.
(2D CONTOUR2 3)
N735 M8
N740 G0 X-42.25 Y-50.
N745 #100=900. (CUTTING)
N750 #103=800. (ENTRY)
N755 #104=900. (EXIT)
N760 #108=3000. (PLUNGE)
N765 Z4.
N770 Z2.
N775 G1 Z1. F#103
N780 Z-14. F#108
N785 X-41.25 F#103
N790 G3 X-35.25 Y-44. I0. J6.
N795 G1 Y0. F#100
N800 G3 X-41.25 Y6. I-6. J0. F#104
N805 G1 X-42.25
N810 X-41.35 Y-50.
N815 X-40.35 F#103
N820 G3 X-34.35 Y-44. I0. J6.
N825 G1 Y0. F#100
N830 G3 X-40.35 Y6. I-6. J0. F#104
N835 G1 X-41.35
N840 X-40.45 Y-50.
N845 X-39.45 F#103
N850 G3 X-33.45 Y-44. I0. J6.
N855 G1 Y0. F#100
N860 G3 X-39.45 Y6. I-6. J0. F#104
N865 G1 X-40.45
N870 X-39.55 Y-50.
N875 X-38.55 F#103
N880 G3 X-32.55 Y-44. I0. J6.
N885 G1 Y0. F#100
N890 G3 X-38.55 Y6. I-6. J0. F#104
N895 G1 X-39.55
N900 X-38.65 Y-50.
N905 X-37.65 F#103
N910 G3 X-31.65 Y-44. I0. J6.
N915 G1 Y0. F#100
N920 G3 X-37.65 Y6. I-6. J0. F#104
N925 G1 X-38.65
N930 X-37.75 Y-50.
N935 X-36.75 F#103
N940 G3 X-30.75 Y-44. I0. J6.
N945 G1 Y0. F#100
N950 G3 X-36.75 Y6. I-6. J0. F#104
N955 G1 X-37.75
N960 X-36.85 Y-50.
N965 X-35.85 F#103
N970 G3 X-29.85 Y-44. I0. J6.
N975 G1 Y0. F#100
N980 G3 X-35.85 Y6. I-6. J0. F#104
N985 G1 X-36.85
N990 X-35.95 Y-50.
N995 X-34.95 F#103
N1000 G3 X-28.95 Y-44. I0. J6.
N1005 G1 Y0. F#100
N1010 G3 X-34.95 Y6. I-6. J0. F#104
N1015 G1 X-35.95
N1020 X-35.05 Y-50.
N1025 X-34.05 F#103
N1030 G3 X-28.05 Y-44. I0. J6.
N1035 G1 Y0. F#100
N1040 G3 X-34.05 Y6. I-6. J0. F#104
N1045 G1 X-35.05
N1050 X-34.15 Y-50.
N1055 X-33.15 F#103
N1060 G3 X-27.15 Y-44. I0. J6.
N1065 G1 Y0. F#100
N1070 G3 X-33.15 Y6. I-6. J0. F#104
N1075 G1 X-34.15
N1080 X-33.25 Y-50.
N1085 X-32.25 F#103
N1090 G3 X-26.25 Y-44. I0. J6.
N1095 G1 Y0. F#100
N1100 G3 X-32.25 Y6. I-6. J0. F#104
N1105 G1 X-33.25
N1110 X-32.35 Y-50.
N1115 X-31.35 F#103
N1120 G3 X-25.35 Y-44. I0. J6.
N1125 G1 Y0. F#100
N1130 G3 X-31.35 Y6. I-6. J0. F#104
N1135 G1 X-32.35
N1140 X-31.45 Y-50.
N1145 X-30.45 F#103
N1150 G3 X-24.45 Y-44. I0. J6.
N1155 G1 Y0. F#100
N1160 G3 X-30.45 Y6. I-6. J0. F#104
N1165 G1 X-31.45
N1170 X-30.55 Y-50.
N1175 X-29.55 F#103
N1180 G3 X-23.55 Y-44. I0. J6.
N1185 G1 Y0. F#100
N1190 G3 X-29.55 Y6. I-6. J0. F#104
N1195 G1 X-30.55
N1200 X-29.65 Y-50.
N1205 X-28.65 F#103
N1210 G3 X-22.65 Y-44. I0. J6.
N1215 G1 Y0. F#100
N1220 G3 X-28.65 Y6. I-6. J0. F#104
N1225 G1 X-29.65
N1230 X-28.75 Y-50.
N1235 X-27.75 F#103
N1240 G3 X-21.75 Y-44. I0. J6.
N1245 G1 Y0. F#100
N1250 G3 X-27.75 Y6. I-6. J0. F#104
N1255 G1 X-28.75
N1260 X-27.85 Y-50.
N1265 X-26.85 F#103
N1270 G3 X-20.85 Y-44. I0. J6.
N1275 G1 Y0. F#100
N1280 G3 X-26.85 Y6. I-6. J0. F#104
N1285 G1 X-27.85
N1290 X-26.95 Y-50.
N1295 X-25.95 F#103
N1300 G3 X-19.95 Y-44. I0. J6.
N1305 G1 Y0. F#100
N1310 G3 X-25.95 Y6. I-6. J0. F#104
N1315 G1 X-26.95
N1320 X-26.05 Y-50.
N1325 X-25.05 F#103
N1330 G3 X-19.05 Y-44. I0. J6.
N1335 G1 Y0. F#100
N1340 G3 X-25.05 Y6. I-6. J0. F#104
N1345 G1 X-26.05
N1350 X-25.1 Y-50.
N1355 X-24.1 F#103
N1360 G3 X-18.1 Y-44. I0. J6.
N1365 G1 Y0. F#100
N1370 G3 X-24.1 Y6. I-6. J0. F#104
N1375 G1 X-25.1
N1380 X-25. Y-50.
N1385 X-24. F#103
N1390 G3 X-18. Y-44. I0. J6.
N1395 G1 Y0. F#100
N1400 G3 X-24. Y6. I-6. J0. F#104
N1405 G1 X-25.
N1410 G0 Z4.
(PARALLEL1)
N1420 M8
N1425 G0 X17.71 Y-47.995
N1430 #100=900. (CUTTING)
N1435 #103=800. (ENTRY)
N1440 #104=900. (EXIT)
N1445 Z4.
N1450 Z-4.256
N1455 G1 Z-5.29 F#103
N1460 G18 G3 X16.003 Z-5.997 I-1. K0.
N1465 G1 X10.008 Z-0.001 F#100
N1470 X9.975 Y-47.994 Z0.033
N1475 X9.943 Y-47.989 Z0.069
N1480 X9.914 Y-47.981 Z0.107
N1485 X9.886 Y-47.971 Z0.145
N1490 X9.861 Y-47.957 Z0.183
N1495 X9.839 Y-47.941 Z0.222
N1500 X9.818 Y-47.922 Z0.261
N1505 X9.801 Y-47.9 Z0.301
N1510 X9.787 Y-47.875 Z0.339
N1515 X9.775 Y-47.849 Z0.378
N1520 X9.766 Y-47.82 Z0.415
N1525 X9.761 Y-47.789 Z0.451
N1530 X9.758 Y-47.756 Z0.487
N1535 Y-47.722 Z0.52
N1540 X9.762 Y-47.687 Z0.552
N1545 X9.769 Y-47.65 Z0.582
N1550 X9.778 Y-47.612 Z0.61
N1555 X9.791 Y-47.573 Z0.636
N1560 X9.806 Y-47.535 Z0.66
N1565 X9.824 Y-47.495 Z0.68
N1570 X9.845 Y-47.456 Z0.699
N1575 X9.869 Y-47.417 Z0.714
N1580 X9.895 Y-47.379 Z0.727
N1585 X9.923 Y-47.341 Z0.736
N1590 X9.953 Y-47.304 Z0.743
N1595 X9.985 Y-47.268 Z0.747
N1600 X10.018 Y-47.234
N1605 X10.054 Y-47.201 Z0.744
N1610 X10.09 Y-47.171 Z0.739
N1615 X10.127 Y-47.142 Z0.73
N1620 X10.166 Y-47.115 Z0.718
N1625 X10.204 Y-47.091 Z0.704
N1630 X10.244 Y-47.069 Z0.686
N1635 X10.283 Y-47.05 Z0.666
N1640 X10.322 Y-47.033 Z0.644
N1645 X10.36 Y-47.02 Z0.619
N1650 X10.398 Y-47.009 Z0.591
N1655 X10.436 Y-47.002 Z0.562
N1660 X10.472 Y-46.997 Z0.53
N1665 X10.506 Y-46.995 Z0.497
N1670 X11.003 Z0.
N1675 X17.001 Z-5.998
N1680 G2 X17.355 Z-6.144 I0.354 K0.354
N1685 G1 X17.935
N1690 G17 G3 Y-45.996 I0. J0.5
N1695 G18 G3 X17.582 Z-5.997 I0. K0.5
N1700 G1 X11.585 Z-0.001
N1705 X11.554 Y-45.994 Z0.031
N1710 X11.524 Y-45.988 Z0.063
N1715 X11.494 Y-45.979 Z0.096
N1720 X11.466 Y-45.965 Z0.128
N1725 X11.44 Y-45.949 Z0.16
N1730 X11.415 Y-45.929 Z0.191
N1735 X11.392 Y-45.905 Z0.221
N1740 X11.371 Y-45.879 Z0.25
N1745 X11.352 Y-45.849 Z0.278
N1750 X11.336 Y-45.817 Z0.305
N1755 X11.322 Y-45.782 Z0.329
N1760 X11.311 Y-45.746 Z0.352
N1765 X11.303 Y-45.707 Z0.373
N1770 X11.297 Y-45.667 Z0.391
N1775 X11.294 Y-45.625 Z0.407
N1780 Y-45.582 Z0.421
N1785 X11.297 Y-45.539 Z0.432
N1790 X11.302 Y-45.496 Z0.44
N1795 X11.31 Y-45.452 Z0.446
N1800 X11.321 Y-45.409 Z0.448
N1805 X11.335 Y-45.366
N1810 X11.351 Y-45.325 Z0.445
N1815 X11.369 Y-45.284 Z0.439
N1820 X11.39 Y-45.246 Z0.431
N1825 X11.413 Y-45.209 Z0.42
N1830 X11.437 Y-45.174 Z0.406
N1835 X11.464 Y-45.142 Z0.39
N1840 X11.492 Y-45.113 Z0.371
N1845 X11.521 Y-45.086 Z0.35
N1850 X11.551 Y-45.063 Z0.327
N1855 X11.583 Y-45.043 Z0.302
N1860 X11.614 Y-45.026 Z0.276
N1865 X11.647 Y-45.013 Z0.248
N1870 X11.679 Y-45.003 Z0.218
N1875 X11.711 Y-44.998 Z0.188
N1880 X11.743 Y-44.996 Z0.157
N1885 X11.901 Z-0.001
N1890 X17.898 Z-5.998
N1895 G2 X18.252 Z-6.145 I0.354 K0.354
N1900 G1 X18.354
N1905 X18.397 Y-44.994
N1910 X18.44 Y-44.988
N1915 X18.483 Y-44.979
N1920 X18.525 Y-44.966
N1925 X18.565 Y-44.949
N1930 X18.604 Y-44.929
N1935 X18.64 Y-44.905
N1940 X18.675 Y-44.879
N1945 X18.707 Y-44.849
N1950 X18.737 Y-44.817
N1955 X18.763 Y-44.783
N1960 X18.786 Y-44.746
N1965 X18.807 Y-44.707
N1970 X18.823 Y-44.667
N1975 X18.836 Y-44.625
N1980 X18.846 Y-44.583 Z-6.146
N1985 X18.852 Y-44.539
N1990 X18.853 Y-44.496
N1995 X18.852 Y-44.452
N2000 X18.846 Y-44.409
N2005 X18.836 Y-44.366
N2010 X18.823 Y-44.325
N2015 X18.807 Y-44.285
N2020 X18.786 Y-44.246
N2025 X18.763 Y-44.209
N2030 X18.737 Y-44.174
N2035 X18.707 Y-44.142
N2040 X18.675 Y-44.113
N2045 X18.64 Y-44.086
N2050 X18.604 Y-44.063
N2055 X18.565 Y-44.043
N2060 X18.525 Y-44.026
N2065 X18.483 Y-44.013
N2070 X18.44 Y-44.004
N2075 X18.397 Y-43.998
N2080 X18.354 Y-43.996
N2085 G3 X18. Z-6. I0. K0.5
N2090 G1 X12. Z0.
N2095 X11.97 Y-43.994 Z0.03
N2100 X11.939 Y-43.988 Z0.061
N2105 X11.909 Y-43.979 Z0.091
N2110 X11.879 Y-43.966 Z0.121
N2115 X11.851 Y-43.949 Z0.149
N2120 X11.824 Y-43.929 Z0.176
N2125 X11.798 Y-43.906 Z0.202
N2130 X11.773 Y-43.879 Z0.227
N2135 X11.75 Y-43.85 Z0.25
N2140 X11.73 Y-43.817 Z0.27
N2145 X11.711 Y-43.783 Z0.289
N2150 X11.694 Y-43.746 Z0.306
N2155 X11.68 Y-43.707 Z0.32
N2160 X11.668 Y-43.667 Z0.332
N2165 X11.659 Y-43.625 Z0.341
N2170 X11.652 Y-43.583 Z0.348
N2175 X11.648 Y-43.54 Z0.352
N2180 X11.647 Y-43.496 Z0.353
N2185 X11.648 Y-43.452 Z0.352
N2190 X11.652 Y-43.409 Z0.348
N2195 X11.659 Y-43.367 Z0.341
N2200 X11.668 Y-43.325 Z0.332
N2205 X11.68 Y-43.285 Z0.32
N2210 X11.694 Y-43.246 Z0.306
N2215 X11.711 Y-43.209 Z0.289
N2220 X11.73 Y-43.175 Z0.27
N2225 X11.75 Y-43.143 Z0.25
N2230 X11.773 Y-43.113 Z0.227
N2235 X11.798 Y-43.087 Z0.202
N2240 X11.824 Y-43.063 Z0.176
N2245 X11.851 Y-43.043 Z0.149
N2250 X11.879 Y-43.026 Z0.121
N2255 X11.909 Y-43.013 Z0.091
N2260 X11.939 Y-43.004 Z0.061
N2265 X11.97 Y-42.998 Z0.03
N2270 X12. Y-42.996 Z0.
N2275 X18. Z-6.
N2280 G2 X18.354 Z-6.146 I0.354 K0.354
N2285 G17 G3 Y-41.996 I0. J0.5
N2290 G18 G3 X18. Z-6. I0. K0.5
N2295 G1 X12. Z0.
N2300 X11.97 Y-41.994 Z0.03
N2305 X11.939 Y-41.989 Z0.061
N2310 X11.909 Y-41.979 Z0.091
N2315 X11.879 Y-41.966 Z0.121
N2320 X11.851 Y-41.949 Z0.149
N2325 X11.824 Y-41.929 Z0.176
N2330 X11.798 Y-41.906 Z0.202
N2335 X11.773 Y-41.879 Z0.227
N2340 X11.75 Y-41.85 Z0.25
N2345 X11.73 Y-41.818 Z0.27
N2350 X11.711 Y-41.783 Z0.289
N2355 X11.694 Y-41.746 Z0.306
N2360 X11.68 Y-41.708 Z0.32
N2365 X11.668 Y-41.667 Z0.332
N2370 X11.659 Y-41.626 Z0.341
N2375 X11.652 Y-41.583 Z0.348
N2380 X11.648 Y-41.54 Z0.352
N2385 X11.647 Y-41.496 Z0.353
N2390 X11.648 Y-41.453 Z0.352
N2395 X11.652 Y-41.41 Z0.348
N2400 X11.659 Y-41.367 Z0.341
N2405 X11.668 Y-41.325 Z0.332
N2410 X11.68 Y-41.285 Z0.32
N2415 X11.694 Y-41.246 Z0.306
N2420 X11.711 Y-41.21 Z0.289
N2425 X11.73 Y-41.175 Z0.27
N2430 X11.75 Y-41.143 Z0.25
N2435 X11.773 Y-41.113 Z0.227
N2440 X11.798 Y-41.087 Z0.202
N2445 X11.824 Y-41.063 Z0.176
N2450 X11.851 Y-41.043 Z0.149
N2455 X11.879 Y-41.027 Z0.121
N2460 X11.909 Y-41.014 Z0.091
N2465 X11.939 Y-41.004 Z0.061
N2470 X11.97 Y-40.998 Z0.03
N2475 X12. Y-40.996 Z0.
N2480 X18. Z-6.
N2485 G2 X18.354 Z-6.146 I0.354 K0.354
N2490 G17 G3 Y-39.997 I0. J0.5
N2495 G18 G3 X18. Z-6. I0. K0.5
N2500 G1 X12. Z0.
N2505 X11.97 Y-39.995 Z0.03
N2510 X11.939 Y-39.989 Z0.061
N2515 X11.909 Y-39.98 Z0.091
N2520 X11.879 Y-39.967 Z0.121
N2525 X11.851 Y-39.95 Z0.149
N2530 X11.824 Y-39.93 Z0.176
N2535 X11.798 Y-39.906 Z0.202
N2540 X11.773 Y-39.88 Z0.227
N2545 X11.75 Y-39.85 Z0.25
N2550 X11.73 Y-39.818 Z0.27
N2555 X11.711 Y-39.783 Z0.289
N2560 X11.694 Y-39.747 Z0.306
N2565 X11.68 Y-39.708 Z0.32
N2570 X11.668 Y-39.668 Z0.332
N2575 X11.659 Y-39.626 Z0.341
N2580 X11.652 Y-39.584 Z0.348
N2585 X11.648 Y-39.54 Z0.352
N2590 X11.647 Y-39.497 Z0.353
N2595 X11.648 Y-39.453 Z0.352
N2600 X11.652 Y-39.41 Z0.348
N2605 X11.659 Y-39.367 Z0.341
N2610 X11.668 Y-39.326 Z0.332
N2615 X11.68 Y-39.285 Z0.32
N2620 X11.694 Y-39.247 Z0.306
N2625 X11.711 Y-39.21 Z0.289
N2630 X11.73 Y-39.175 Z0.27
N2635 X11.75 Y-39.143 Z0.25
N2640 X11.773 Y-39.114 Z0.227
N2645 X11.798 Y-39.087 Z0.202
N2650 X11.824 Y-39.064 Z0.176
N2655 X11.851 Y-39.044 Z0.149
N2660 X11.879 Y-39.027 Z0.121
N2665 X11.909 Y-39.014 Z0.091
N2670 X11.939 Y-39.004 Z0.061
N2675 X11.97 Y-38.999 Z0.03
N2680 X12. Y-38.997 Z0.
N2685 X18. Z-6.
N2690 G2 X18.354 Z-6.146 I0.354 K0.354
N2695 G17 G3 Y-37.997 I0. J0.5
N2700 G18 G3 X18. Z-6. I0. K0.5
N2705 G1 X12. Z0.
N2710 X11.97 Y-37.995 Z0.03
N2715 X11.939 Y-37.989 Z0.061
N2720 X11.909 Y-37.98 Z0.091
N2725 X11.879 Y-37.967 Z0.121
N2730 X11.851 Y-37.95 Z0.149
N2735 X11.824 Y-37.93 Z0.176
N2740 X11.798 Y-37.907 Z0.202
N2745 X11.773 Y-37.88 Z0.227
N2750 X11.75 Y-37.851 Z0.25
N2755 X11.73 Y-37.818 Z0.27
N2760 X11.711 Y-37.784 Z0.289
N2765 X11.694 Y-37.747 Z0.306
N2770 X11.68 Y-37.708 Z0.32
N2775 X11.668 Y-37.668 Z0.332
N2780 X11.659 Y-37.627 Z0.341
N2785 X11.652 Y-37.584 Z0.348
N2790 X11.648 Y-37.541 Z0.352
N2795 X11.647 Y-37.497 Z0.353
N2800 X11.648 Y-37.454 Z0.352
N2805 X11.652 Y-37.41 Z0.348
N2810 X11.659 Y-37.368 Z0.341
N2815 X11.668 Y-37.326 Z0.332
N2820 X11.68 Y-37.286 Z0.32
N2825 X11.694 Y-37.247 Z0.306
N2830 X11.711 Y-37.21 Z0.289
N2835 X11.73 Y-37.176 Z0.27
N2840 X11.75 Y-37.144 Z0.25
N2845 X11.773 Y-37.114 Z0.227
N2850 X11.798 Y-37.088 Z0.202
N2855 X11.824 Y-37.064 Z0.176
N2860 X11.851 Y-37.044 Z0.149
N2865 X11.879 Y-37.027 Z0.121
N2870 X11.909 Y-37.014 Z0.091
N2875 X11.939 Y-37.005 Z0.061
N2880 X11.97 Y-36.999 Z0.03
N2885 X12. Y-36.997 Z0.
N2890 X18. Z-6.
N2895 G2 X18.354 Z-6.146 I0.354 K0.354
N2900 G17 G3 Y-35.997 I0. J0.5
N2905 G18 G3 X18. Z-6. I0. K0.5
N2910 G1 X12. Z0.
N2915 X11.97 Y-35.996 Z0.03
N2920 X11.939 Y-35.99 Z0.061
N2925 X11.909 Y-35.98 Z0.091
N2930 X11.879 Y-35.967 Z0.121
N2935 X11.851 Y-35.951 Z0.149
N2940 X11.824 Y-35.93 Z0.176
N2945 X11.798 Y-35.907 Z0.202
N2950 X11.773 Y-35.88 Z0.227
N2955 X11.75 Y-35.851 Z0.25
N2960 X11.73 Y-35.819 Z0.27
N2965 X11.711 Y-35.784 Z0.289
N2970 X11.694 Y-35.747 Z0.306
N2975 X11.68 Y-35.709 Z0.32
N2980 X11.668 Y-35.668 Z0.332
N2985 X11.659 Y-35.627 Z0.341
N2990 X11.652 Y-35.584 Z0.348
N2995 X11.648 Y-35.541 Z0.352
N3000 X11.647 Y-35.498 Z0.353
N3005 X11.648 Y-35.454 Z0.352
N3010 X11.652 Y-35.411 Z0.348
N3015 X11.659 Y-35.368 Z0.341
N3020 X11.668 Y-35.327 Z0.332
N3025 X11.68 Y-35.286 Z0.32
N3030 X11.694 Y-35.248 Z0.306
N3035 X11.711 Y-35.211 Z0.289
N3040 X11.73 Y-35.176 Z0.27
N3045 X11.75 Y-35.144 Z0.25
N3050 X11.773 Y-35.115 Z0.227
N3055 X11.798 Y-35.088 Z0.202
N3060 X11.824 Y-35.065 Z0.176
N3065 X11.851 Y-35.044 Z0.149
N3070 X11.879 Y-35.028 Z0.121
N3075 X11.909 Y-35.015 Z0.091
N3080 X11.939 Y-35.005 Z0.061
N3085 X11.97 Y-34.999 Z0.03
N3090 X12. Y-34.998 Z0.
N3095 X18. Z-6.
N3100 G2 X18.354 Z-6.146 I0.354 K0.354
N3105 G17 G3 Y-33.998 I0. J0.5
N3110 G18 G3 X18. Z-6. I0. K0.5
N3115 G1 X12. Z0.
N3120 X11.97 Y-33.996 Z0.03
N3125 X11.939 Y-33.99 Z0.061
N3130 X11.909 Y-33.981 Z0.091
N3135 X11.879 Y-33.968 Z0.121
N3140 X11.851 Y-33.951 Z0.149
N3145 X11.824 Y-33.931 Z0.176
N3150 X11.798 Y-33.907 Z0.202
N3155 X11.773 Y-33.881 Z0.227
N3160 X11.75 Y-33.851 Z0.25
N3165 X11.73 Y-33.819 Z0.27
N3170 X11.711 Y-33.785 Z0.289
N3175 X11.694 Y-33.748 Z0.306
N3180 X11.68 Y-33.709 Z0.32
N3185 X11.668 Y-33.669 Z0.332
N3190 X11.659 Y-33.627 Z0.341
N3195 X11.652 Y-33.585 Z0.348
N3200 X11.648 Y-33.541 Z0.352
N3205 X11.647 Y-33.498 Z0.353
N3210 X11.648 Y-33.454 Z0.352
N3215 X11.652 Y-33.411 Z0.348
N3220 X11.659 Y-33.368 Z0.341
N3225 X11.668 Y-33.327 Z0.332
N3230 X11.68 Y-33.287 Z0.32
N3235 X11.694 Y-33.248 Z0.306
N3240 X11.711 Y-33.211 Z0.289
N3245 X11.73 Y-33.177 Z0.27
N3250 X11.75 Y-33.144 Z0.25
N3255 X11.773 Y-33.115 Z0.227
N3260 X11.798 Y-33.088 Z0.202
N3265 X11.824 Y-33.065 Z0.176
N3270 X11.851 Y-33.045 Z0.149
N3275 X11.879 Y-33.028 Z0.121
N3280 X11.909 Y-33.015 Z0.091
N3285 X11.939 Y-33.006 Z0.061
N3290 X11.97 Y-33. Z0.03
N3295 X12. Y-32.998 Z0.
N3300 X18. Z-6.
N3305 G2 X18.354 Z-6.146 I0.354 K0.354
N3310 G17 G3 Y-31.998 I0. J0.5
N3315 G18 G3 X18. Z-6. I0. K0.5
N3320 G1 X12. Z0.
N3325 X11.97 Y-31.996 Z0.03
N3330 X11.939 Y-31.991 Z0.061
N3335 X11.909 Y-31.981 Z0.091
N3340 X11.879 Y-31.968 Z0.121
N3345 X11.851 Y-31.951 Z0.149
N3350 X11.824 Y-31.931 Z0.176
N3355 X11.798 Y-31.908 Z0.202
N3360 X11.773 Y-31.881 Z0.227
N3365 X11.75 Y-31.852 Z0.25
N3370 X11.73 Y-31.82 Z0.27
N3375 X11.711 Y-31.785 Z0.289
N3380 X11.694 Y-31.748 Z0.306
N3385 X11.68 Y-31.71 Z0.32
N3390 X11.668 Y-31.669 Z0.332
N3395 X11.659 Y-31.628 Z0.341
N3400 X11.652 Y-31.585 Z0.348
N3405 X11.648 Y-31.542 Z0.352
N3410 X11.647 Y-31.498 Z0.353
N3415 X11.648 Y-31.455 Z0.352
N3420 X11.652 Y-31.411 Z0.348
N3425 X11.659 Y-31.369 Z0.341
N3430 X11.668 Y-31.327 Z0.332
N3435 X11.68 Y-31.287 Z0.32
N3440 X11.694 Y-31.248 Z0.306
N3445 X11.711 Y-31.212 Z0.289
N3450 X11.73 Y-31.177 Z0.27
N3455 X11.75 Y-31.145 Z0.25
N3460 X11.773 Y-31.115 Z0.227
N3465 X11.798 Y-31.089 Z0.202
N3470 X11.824 Y-31.065 Z0.176
N3475 X11.851 Y-31.045 Z0.149
N3480 X11.879 Y-31.028 Z0.121
N3485 X11.909 Y-31.015 Z0.091
N3490 X11.939 Y-31.006 Z0.061
N3495 X11.97 Y-31. Z0.03
N3500 X12. Y-30.998 Z0.
N3505 X18. Z-6.
N3510 G2 X18.354 Z-6.146 I0.354 K0.354
N3515 G17 G3 Y-29.999 I0. J0.5
N3520 G18 G3 X18. Z-6. I0. K0.5
N3525 G1 X12. Z0.
N3530 X11.97 Y-29.997 Z0.03
N3535 X11.939 Y-29.991 Z0.061
N3540 X11.909 Y-29.981 Z0.091
N3545 X11.879 Y-29.968 Z0.121
N3550 X11.851 Y-29.952 Z0.149
N3555 X11.824 Y-29.932 Z0.176
N3560 X11.798 Y-29.908 Z0.202
N3565 X11.773 Y-29.882 Z0.227
N3570 X11.75 Y-29.852 Z0.25
N3575 X11.73 Y-29.82 Z0.27
N3580 X11.711 Y-29.785 Z0.289
N3585 X11.694 Y-29.749 Z0.306
N3590 X11.68 Y-29.71 Z0.32
N3595 X11.668 Y-29.67 Z0.332
N3600 X11.659 Y-29.628 Z0.341
N3605 X11.652 Y-29.585 Z0.348
N3610 X11.648 Y-29.542 Z0.352
N3615 X11.647 Y-29.499 Z0.353
N3620 X11.648 Y-29.455 Z0.352
N3625 X11.652 Y-29.412 Z0.348
N3630 X11.659 Y-29.369 Z0.341
N3635 X11.668 Y-29.328 Z0.332
N3640 X11.68 Y-29.287 Z0.32
N3645 X11.694 Y-29.249 Z0.306
N3650 X11.711 Y-29.212 Z0.289
N3655 X11.73 Y-29.177 Z0.27
N3660 X11.75 Y-29.145 Z0.25
N3665 X11.773 Y-29.116 Z0.227
N3670 X11.798 Y-29.089 Z0.202
N3675 X11.824 Y-29.066 Z0.176
N3680 X11.851 Y-29.046 Z0.149
N3685 X11.879 Y-29.029 Z0.121
N3690 X11.909 Y-29.016 Z0.091
N3695 X11.939 Y-29.006 Z0.061
N3700 X11.97 Y-29.001 Z0.03
N3705 X12. Y-28.999 Z0.
N3710 X18. Z-6.
N3715 G2 X18.354 Z-6.146 I0.354 K0.354
N3720 G17 G3 Y-27.999 I0. J0.5
N3725 G18 G3 X18. Z-6. I0. K0.5
N3730 G1 X12. Z0.
N3735 X11.97 Y-27.997 Z0.03
N3740 X11.939 Y-27.991 Z0.061
N3745 X11.909 Y-27.982 Z0.091
N3750 X11.879 Y-27.969 Z0.121
N3755 X11.851 Y-27.952 Z0.149
N3760 X11.824 Y-27.932 Z0.176
N3765 X11.798 Y-27.908 Z0.202
N3770 X11.773 Y-27.882 Z0.227
N3775 X11.75 Y-27.852 Z0.25
N3780 X11.73 Y-27.82 Z0.27
N3785 X11.711 Y-27.786 Z0.289
N3790 X11.694 Y-27.749 Z0.306
N3795 X11.68 Y-27.71 Z0.32
N3800 X11.668 Y-27.67 Z0.332
N3805 X11.659 Y-27.628 Z0.341
N3810 X11.652 Y-27.586 Z0.348
N3815 X11.648 Y-27.543 Z0.352
N3820 X11.647 Y-27.499 Z0.353
N3825 X11.648 Y-27.455 Z0.352
N3830 X11.652 Y-27.412 Z0.348
N3835 X11.659 Y-27.37 Z0.341
N3840 X11.668 Y-27.328 Z0.332
N3845 X11.68 Y-27.288 Z0.32
N3850 X11.694 Y-27.249 Z0.306
N3855 X11.711 Y-27.212 Z0.289
N3860 X11.73 Y-27.178 Z0.27
N3865 X11.75 Y-27.145 Z0.25
N3870 X11.773 Y-27.116 Z0.227
N3875 X11.798 Y-27.089 Z0.202
N3880 X11.824 Y-27.066 Z0.176
N3885 X11.851 Y-27.046 Z0.149
N3890 X11.879 Y-27.029 Z0.121
N3895 X11.909 Y-27.016 Z0.091
N3900 X11.939 Y-27.007 Z0.061
N3905 X11.97 Y-27.001 Z0.03
N3910 X12. Y-26.999 Z0.
N3915 X18. Z-6.
N3920 G2 X18.354 Z-6.146 I0.354 K0.354
N3925 G17 G3 Y-25.999 I0. J0.5
N3930 G18 G3 X18. Z-6. I0. K0.5
N3935 G1 X12. Z0.
N3940 X11.97 Y-25.997 Z0.03
N3945 X11.939 Y-25.992 Z0.061
N3950 X11.909 Y-25.982 Z0.091
N3955 X11.879 Y-25.969 Z0.121
N3960 X11.851 Y-25.952 Z0.149
N3965 X11.824 Y-25.932 Z0.176
N3970 X11.798 Y-25.909 Z0.202
N3975 X11.773 Y-25.882 Z0.227
N3980 X11.75 Y-25.853 Z0.25
N3985 X11.73 Y-25.821 Z0.27
N3990 X11.711 Y-25.786 Z0.289
N3995 X11.694 Y-25.749 Z0.306
N4000 X11.68 Y-25.711 Z0.32
N4005 X11.668 Y-25.67 Z0.332
N4010 X11.659 Y-25.629 Z0.341
N4015 X11.652 Y-25.586 Z0.348
N4020 X11.648 Y-25.543 Z0.352
N4025 X11.647 Y-25.499 Z0.353
N4030 X11.648 Y-25.456 Z0.352
N4035 X11.652 Y-25.413 Z0.348
N4040 X11.659 Y-25.37 Z0.341
N4045 X11.668 Y-25.328 Z0.332
N4050 X11.68 Y-25.288 Z0.32
N4055 X11.694 Y-25.249 Z0.306
N4060 X11.711 Y-25.213 Z0.289
N4065 X11.73 Y-25.178 Z0.27
N4070 X11.75 Y-25.146 Z0.25
N4075 X11.773 Y-25.116 Z0.227
N4080 X11.798 Y-25.09 Z0.202
N4085 X11.824 Y-25.066 Z0.176
N4090 X11.851 Y-25.046 Z0.149
N4095 X11.879 Y-25.03 Z0.121
N4100 X11.909 Y-25.016 Z0.091
N4105 X11.939 Y-25.007 Z0.061
N4110 X11.97 Y-25.001 Z0.03
N4115 X12. Y-24.999 Z0.
N4120 X18. Z-6.
N4125 G2 X18.354 Z-6.146 I0.354 K0.354
N4130 G17 G3 Y-24. I0. J0.5
N4135 G18 G3 X18. Z-6. I0. K0.5
N4140 G1 X12. Z0.
N4145 X11.97 Y-23.998 Z0.03
N4150 X11.939 Y-23.992 Z0.061
N4155 X11.909 Y-23.983 Z0.091
N4160 X11.879 Y-23.969 Z0.121
N4165 X11.851 Y-23.953 Z0.149
N4170 X11.824 Y-23.933 Z0.176
N4175 X11.798 Y-23.909 Z0.202
N4180 X11.773 Y-23.883 Z0.227
N4185 X11.75 Y-23.853 Z0.25
N4190 X11.73 Y-23.821 Z0.27
N4195 X11.711 Y-23.786 Z0.289
N4200 X11.694 Y-23.75 Z0.306
N4205 X11.68 Y-23.711 Z0.32
N4210 X11.668 Y-23.671 Z0.332
N4215 X11.659 Y-23.629 Z0.341
N4220 X11.652 Y-23.587 Z0.348
N4225 X11.648 Y-23.543 Z0.352
N4230 X11.647 Y-23.5 Z0.353
N4235 X11.648 Y-23.456 Z0.352
N4240 X11.652 Y-23.413 Z0.348
N4245 X11.659 Y-23.37 Z0.341
N4250 X11.668 Y-23.329 Z0.332
N4255 X11.68 Y-23.288 Z0.32
N4260 X11.694 Y-23.25 Z0.306
N4265 X11.711 Y-23.213 Z0.289
N4270 X11.73 Y-23.178 Z0.27
N4275 X11.75 Y-23.146 Z0.25
N4280 X11.773 Y-23.117 Z0.227
N4285 X11.798 Y-23.09 Z0.202
N4290 X11.824 Y-23.067 Z0.176
N4295 X11.851 Y-23.047 Z0.149
N4300 X11.879 Y-23.03 Z0.121
N4305 X11.909 Y-23.017 Z0.091
N4310 X11.939 Y-23.007 Z0.061
N4315 X11.97 Y-23.002 Z0.03
N4320 X12. Y-23. Z0.
N4325 X18. Z-6.
N4330 G2 X18.354 Z-6.146 I0.354 K0.354
N4335 G17 G3 Y-22. I0. J0.5
N4340 G18 G3 X18. Z-6. I0. K0.5
N4345 G1 X12. Z0.
N4350 X11.97 Y-21.998 Z0.03
N4355 X11.939 Y-21.992 Z0.061
N4360 X11.909 Y-21.983 Z0.091
N4365 X11.879 Y-21.97 Z0.121
N4370 X11.851 Y-21.953 Z0.149
N4375 X11.824 Y-21.933 Z0.176
N4380 X11.798 Y-21.91 Z0.202
N4385 X11.773 Y-21.883 Z0.227
N4390 X11.75 Y-21.854 Z0.25
N4395 X11.73 Y-21.821 Z0.27
N4400 X11.711 Y-21.787 Z0.289
N4405 X11.694 Y-21.75 Z0.306
N4410 X11.68 Y-21.711 Z0.32
N4415 X11.668 Y-21.671 Z0.332
N4420 X11.659 Y-21.629 Z0.341
N4425 X11.652 Y-21.587 Z0.348
N4430 X11.648 Y-21.544 Z0.352
N4435 X11.647 Y-21.5 Z0.353
N4440 X11.648 Y-21.457 Z0.352
N4445 X11.652 Y-21.413 Z0.348
N4450 X11.659 Y-21.371 Z0.341
N4455 X11.668 Y-21.329 Z0.332
N4460 X11.68 Y-21.289 Z0.32
N4465 X11.694 Y-21.25 Z0.306
N4470 X11.711 Y-21.213 Z0.289
N4475 X11.73 Y-21.179 Z0.27
N4480 X11.75 Y-21.147 Z0.25
N4485 X11.773 Y-21.117 Z0.227
N4490 X11.798 Y-21.091 Z0.202
N4495 X11.824 Y-21.067 Z0.176
N4500 X11.851 Y-21.047 Z0.149
N4505 X11.879 Y-21.03 Z0.121
N4510 X11.909 Y-21.017 Z0.091
N4515 X11.939 Y-21.008 Z0.061
N4520 X11.97 Y-21.002 Z0.03
N4525 X12. Y-21. Z0.
N4530 X18. Z-6.
N4535 G2 X18.354 Z-6.146 I0.354 K0.354
N4540 G17 G3 Y-20. I0. J0.5
N4545 G18 G3 X18. Z-6. I0. K0.5
N4550 G1 X12. Z0.
N4555 X11.97 Y-19.998 Z0.03
N4560 X11.939 Y-19.993 Z0.061
N4565 X11.909 Y-19.983 Z0.091
N4570 X11.879 Y-19.97 Z0.121
N4575 X11.851 Y-19.954 Z0.149
N4580 X11.824 Y-19.933 Z0.176
N4585 X11.798 Y-19.91 Z0.202
N4590 X11.773 Y-19.883 Z0.227
N4595 X11.75 Y-19.854 Z0.25
N4600 X11.73 Y-19.822 Z0.27
N4605 X11.711 Y-19.787 Z0.289
N4610 X11.694 Y-19.75 Z0.306
N4615 X11.68 Y-19.712 Z0.32
N4620 X11.668 Y-19.671 Z0.332
N4625 X11.659 Y-19.63 Z0.341
N4630 X11.652 Y-19.587 Z0.348
N4635 X11.648 Y-19.544 Z0.352
N4640 X11.647 Y-19.5 Z0.353
N4645 X11.648 Y-19.457 Z0.352
N4650 X11.652 Y-19.414 Z0.348
N4655 X11.659 Y-19.371 Z0.341
N4660 X11.668 Y-19.329 Z0.332
N4665 X11.68 Y-19.289 Z0.32
N4670 X11.694 Y-19.251 Z0.306
N4675 X11.711 Y-19.214 Z0.289
N4680 X11.73 Y-19.179 Z0.27
N4685 X11.75 Y-19.147 Z0.25
N4690 X11.773 Y-19.118 Z0.227
N4695 X11.798 Y-19.091 Z0.202
N4700 X11.824 Y-19.068 Z0.176
N4705 X11.851 Y-19.047 Z0.149
N4710 X11.879 Y-19.031 Z0.121
N4715 X11.909 Y-19.018 Z0.091
N4720 X11.939 Y-19.008 Z0.061
N4725 X11.97 Y-19.002 Z0.03
N4730 X12. Y-19.001 Z0.
N4735 X18. Z-6.
N4740 G2 X18.354 Z-6.146 I0.354 K0.354
N4745 G17 G3 Y-18.001 I0. J0.5
N4750 G18 G3 X18. Z-6. I0. K0.5
N4755 G1 X12. Z0.
N4760 X11.97 Y-17.999 Z0.03
N4765 X11.939 Y-17.993 Z0.061
N4770 X11.909 Y-17.984 Z0.091
N4775 X11.879 Y-17.971 Z0.121
N4780 X11.851 Y-17.954 Z0.149
N4785 X11.824 Y-17.934 Z0.176
N4790 X11.798 Y-17.91 Z0.202
N4795 X11.773 Y-17.884 Z0.227
N4800 X11.75 Y-17.854 Z0.25
N4805 X11.73 Y-17.822 Z0.27
N4810 X11.711 Y-17.788 Z0.289
N4815 X11.694 Y-17.751 Z0.306
N4820 X11.68 Y-17.712 Z0.32
N4825 X11.668 Y-17.672 Z0.332
N4830 X11.659 Y-17.63 Z0.341
N4835 X11.652 Y-17.588 Z0.348
N4840 X11.648 Y-17.544 Z0.352
N4845 X11.647 Y-17.501 Z0.353
N4850 X11.648 Y-17.457 Z0.352
N4855 X11.652 Y-17.414 Z0.348
N4860 X11.659 Y-17.371 Z0.341
N4865 X11.668 Y-17.33 Z0.332
N4870 X11.68 Y-17.29 Z0.32
N4875 X11.694 Y-17.251 Z0.306
N4880 X11.711 Y-17.214 Z0.289
N4885 X11.73 Y-17.179 Z0.27
N4890 X11.75 Y-17.147 Z0.25
N4895 X11.773 Y-17.118 Z0.227
N4900 X11.798 Y-17.091 Z0.202
N4905 X11.824 Y-17.068 Z0.176
N4910 X11.851 Y-17.048 Z0.149
N4915 X11.879 Y-17.031 Z0.121
N4920 X11.909 Y-17.018 Z0.091
N4925 X11.939 Y-17.009 Z0.061
N4930 X11.97 Y-17.003 Z0.03
N4935 X12. Y-17.001 Z0.
N4940 X18. Z-6.
N4945 G2 X18.354 Z-6.146 I0.354 K0.354
N4950 G17 G3 Y-16.001 I0. J0.5
N4955 G18 G3 X18. Z-6. I0. K0.5
N4960 G1 X12. Z0.
N4965 X11.97 Y-15.999 Z0.03
N4970 X11.939 Y-15.994 Z0.061
N4975 X11.909 Y-15.984 Z0.091
N4980 X11.879 Y-15.971 Z0.121
N4985 X11.851 Y-15.954 Z0.149
N4990 X11.824 Y-15.934 Z0.176
N4995 X11.798 Y-15.911 Z0.202
N5000 X11.773 Y-15.884 Z0.227
N5005 X11.75 Y-15.855 Z0.25
N5010 X11.73 Y-15.823 Z0.27
N5015 X11.711 Y-15.788 Z0.289
N5020 X11.694 Y-15.751 Z0.306
N5025 X11.68 Y-15.712 Z0.32
N5030 X11.668 Y-15.672 Z0.332
N5035 X11.659 Y-15.631 Z0.341
N5040 X11.652 Y-15.588 Z0.348
N5045 X11.648 Y-15.545 Z0.352
N5050 X11.647 Y-15.501 Z0.353
N5055 X11.648 Y-15.458 Z0.352
N5060 X11.652 Y-15.414 Z0.348
N5065 X11.659 Y-15.372 Z0.341
N5070 X11.668 Y-15.33 Z0.332
N5075 X11.68 Y-15.29 Z0.32
N5080 X11.694 Y-15.251 Z0.306
N5085 X11.711 Y-15.214 Z0.289
N5090 X11.73 Y-15.18 Z0.27
N5095 X11.75 Y-15.148 Z0.25
N5100 X11.773 Y-15.118 Z0.227
N5105 X11.798 Y-15.092 Z0.202
N5110 X11.824 Y-15.068 Z0.176
N5115 X11.851 Y-15.048 Z0.149
N5120 X11.879 Y-15.031 Z0.121
N5125 X11.909 Y-15.018 Z0.091
N5130 X11.939 Y-15.009 Z0.061
N5135 X11.97 Y-15.003 Z0.03
N5140 X12. Y-15.001 Z0.
N5145 X18. Z-6.
N5150 G2 X18.354 Z-6.146 I0.354 K0.354
N5155 G17 G3 Y-14.001 I0. J0.5
N5160 G18 G3 X18. Z-6. I0. K0.5
N5165 G1 X12. Z0.
N5170 X11.97 Y-14. Z0.03
N5175 X11.939 Y-13.994 Z0.061
N5180 X11.909 Y-13.984 Z0.091
N5185 X11.879 Y-13.971 Z0.121
N5190 X11.851 Y-13.955 Z0.149
N5195 X11.824 Y-13.935 Z0.176
N5200 X11.798 Y-13.911 Z0.202
N5205 X11.773 Y-13.885 Z0.227
N5210 X11.75 Y-13.855 Z0.25
N5215 X11.73 Y-13.823 Z0.27
N5220 X11.711 Y-13.788 Z0.289
N5225 X11.694 Y-13.752 Z0.306
N5230 X11.68 Y-13.713 Z0.32
N5235 X11.668 Y-13.673 Z0.332
N5240 X11.659 Y-13.631 Z0.341
N5245 X11.652 Y-13.588 Z0.348
N5250 X11.648 Y-13.545 Z0.352
N5255 X11.647 Y-13.502 Z0.353
N5260 X11.648 Y-13.458 Z0.352
N5265 X11.652 Y-13.415 Z0.348
N5270 X11.659 Y-13.372 Z0.341
N5275 X11.668 Y-13.331 Z0.332
N5280 X11.68 Y-13.29 Z0.32
N5285 X11.694 Y-13.252 Z0.306
N5290 X11.711 Y-13.215 Z0.289
N5295 X11.73 Y-13.18 Z0.27
N5300 X11.75 Y-13.148 Z0.25
N5305 X11.773 Y-13.119 Z0.227
N5310 X11.798 Y-13.092 Z0.202
N5315 X11.824 Y-13.069 Z0.176
N5320 X11.851 Y-13.049 Z0.149
N5325 X11.879 Y-13.032 Z0.121
N5330 X11.909 Y-13.019 Z0.091
N5335 X11.939 Y-13.009 Z0.061
N5340 X11.97 Y-13.004 Z0.03
N5345 X12. Y-13.002 Z0.
N5350 X18. Z-6.
N5355 G2 X18.354 Z-6.146 I0.354 K0.354
N5360 G17 G3 Y-12.002 I0. J0.5
N5365 G18 G3 X18. Z-6. I0. K0.5
N5370 G1 X12. Z0.
N5375 X11.97 Y-12. Z0.03
N5380 X11.939 Y-11.994 Z0.061
N5385 X11.909 Y-11.985 Z0.091
N5390 X11.879 Y-11.972 Z0.121
N5395 X11.851 Y-11.955 Z0.149
N5400 X11.824 Y-11.935 Z0.176
N5405 X11.798 Y-11.911 Z0.202
N5410 X11.773 Y-11.885 Z0.227
N5415 X11.75 Y-11.855 Z0.25
N5420 X11.73 Y-11.823 Z0.27
N5425 X11.711 Y-11.789 Z0.289
N5430 X11.694 Y-11.752 Z0.306
N5435 X11.68 Y-11.713 Z0.32
N5440 X11.668 Y-11.673 Z0.332
N5445 X11.659 Y-11.631 Z0.341
N5450 X11.652 Y-11.589 Z0.348
N5455 X11.648 Y-11.546 Z0.352
N5460 X11.647 Y-11.502 Z0.353
N5465 X11.648 Y-11.458 Z0.352
N5470 X11.652 Y-11.415 Z0.348
N5475 X11.659 Y-11.373 Z0.341
N5480 X11.668 Y-11.331 Z0.332
N5485 X11.68 Y-11.291 Z0.32
N5490 X11.694 Y-11.252 Z0.306
N5495 X11.711 Y-11.215 Z0.289
N5500 X11.73 Y-11.181 Z0.27
N5505 X11.75 Y-11.148 Z0.25
N5510 X11.773 Y-11.119 Z0.227
N5515 X11.798 Y-11.092 Z0.202
N5520 X11.824 Y-11.069 Z0.176
N5525 X11.851 Y-11.049 Z0.149
N5530 X11.879 Y-11.032 Z0.121
N5535 X11.909 Y-11.019 Z0.091
N5540 X11.939 Y-11.01 Z0.061
N5545 X11.97 Y-11.004 Z0.03
N5550 X12. Y-11.002 Z0.
N5555 X18. Z-6.
N5560 G2 X18.354 Z-6.146 I0.354 K0.354
N5565 G17 G3 Y-10.002 I0. J0.5
N5570 G18 G3 X18. Z-6. I0. K0.5
N5575 G1 X12. Z0.
N5580 X11.97 Y-10. Z0.03
N5585 X11.939 Y-9.995 Z0.061
N5590 X11.909 Y-9.985 Z0.091
N5595 X11.879 Y-9.972 Z0.121
N5600 X11.851 Y-9.955 Z0.149
N5605 X11.824 Y-9.935 Z0.176
N5610 X11.798 Y-9.912 Z0.202
N5615 X11.773 Y-9.885 Z0.227
N5620 X11.75 Y-9.856 Z0.25
N5625 X11.73 Y-9.824 Z0.27
N5630 X11.711 Y-9.789 Z0.289
N5635 X11.694 Y-9.752 Z0.306
N5640 X11.68 Y-9.714 Z0.32
N5645 X11.668 Y-9.673 Z0.332
N5650 X11.659 Y-9.632 Z0.341
N5655 X11.652 Y-9.589 Z0.348
N5660 X11.648 Y-9.546 Z0.352
N5665 X11.647 Y-9.502 Z0.353
N5670 X11.648 Y-9.459 Z0.352
N5675 X11.652 Y-9.416 Z0.348
N5680 X11.659 Y-9.373 Z0.341
N5685 X11.668 Y-9.331 Z0.332
N5690 X11.68 Y-9.291 Z0.32
N5695 X11.694 Y-9.252 Z0.306
N5700 X11.711 Y-9.216 Z0.289
N5705 X11.73 Y-9.181 Z0.27
N5710 X11.75 Y-9.149 Z0.25
N5715 X11.773 Y-9.119 Z0.227
N5720 X11.798 Y-9.093 Z0.202
N5725 X11.824 Y-9.069 Z0.176
N5730 X11.851 Y-9.049 Z0.149
N5735 X11.879 Y-9.033 Z0.121
N5740 X11.909 Y-9.019 Z0.091
N5745 X11.939 Y-9.01 Z0.061
N5750 X11.97 Y-9.004 Z0.03
N5755 X12. Y-9.002 Z0.
N5760 X18. Z-6.
N5765 G2 X18.354 Z-6.146 I0.354 K0.354
N5770 G17 G3 Y-8.003 I0. J0.5
N5775 G18 G3 X18. Z-6. I0. K0.5
N5780 G1 X12. Z0.
N5785 X11.97 Y-8.001 Z0.03
N5790 X11.939 Y-7.995 Z0.061
N5795 X11.909 Y-7.986 Z0.091
N5800 X11.879 Y-7.972 Z0.121
N5805 X11.851 Y-7.956 Z0.149
N5810 X11.824 Y-7.936 Z0.176
N5815 X11.798 Y-7.912 Z0.202
N5820 X11.773 Y-7.886 Z0.227
N5825 X11.75 Y-7.856 Z0.25
N5830 X11.73 Y-7.824 Z0.27
N5835 X11.711 Y-7.789 Z0.289
N5840 X11.694 Y-7.753 Z0.306
N5845 X11.68 Y-7.714 Z0.32
N5850 X11.668 Y-7.674 Z0.332
N5855 X11.659 Y-7.632 Z0.341
N5860 X11.652 Y-7.589 Z0.348
N5865 X11.648 Y-7.546 Z0.352
N5870 X11.647 Y-7.503 Z0.353
N5875 X11.648 Y-7.459 Z0.352
N5880 X11.652 Y-7.416 Z0.348
N5885 X11.659 Y-7.373 Z0.341
N5890 X11.668 Y-7.332 Z0.332
N5895 X11.68 Y-7.291 Z0.32
N5900 X11.694 Y-7.253 Z0.306
N5905 X11.711 Y-7.216 Z0.289
N5910 X11.73 Y-7.181 Z0.27
N5915 X11.75 Y-7.149 Z0.25
N5920 X11.773 Y-7.12 Z0.227
N5925 X11.798 Y-7.093 Z0.202
N5930 X11.824 Y-7.07 Z0.176
N5935 X11.851 Y-7.05 Z0.149
N5940 X11.879 Y-7.033 Z0.121
N5945 X11.909 Y-7.02 Z0.091
N5950 X11.939 Y-7.01 Z0.061
N5955 X11.97 Y-7.005 Z0.03
N5960 X12. Y-7.003 Z0.
N5965 X18. Z-6.
N5970 G2 X18.354 Z-6.146 I0.354 K0.354
N5975 G17 G3 Y-6.003 I0. J0.5
N5980 G18 G3 X18. Z-6. I0. K0.5
N5985 G1 X12. Z0.
N5990 X11.97 Y-6.001 Z0.03
N5995 X11.939 Y-5.995 Z0.061
N6000 X11.909 Y-5.986 Z0.091
N6005 X11.879 Y-5.973 Z0.121
N6010 X11.851 Y-5.956 Z0.149
N6015 X11.824 Y-5.936 Z0.176
N6020 X11.798 Y-5.913 Z0.202
N6025 X11.773 Y-5.886 Z0.227
N6030 X11.75 Y-5.857 Z0.25
N6035 X11.73 Y-5.824 Z0.27
N6040 X11.711 Y-5.79 Z0.289
N6045 X11.694 Y-5.753 Z0.306
N6050 X11.68 Y-5.714 Z0.32
N6055 X11.668 Y-5.674 Z0.332
N6060 X11.659 Y-5.632 Z0.341
N6065 X11.652 Y-5.59 Z0.348
N6070 X11.648 Y-5.547 Z0.352
N6075 X11.647 Y-5.503 Z0.353
N6080 X11.648 Y-5.459 Z0.352
N6085 X11.652 Y-5.416 Z0.348
N6090 X11.659 Y-5.374 Z0.341
N6095 X11.668 Y-5.332 Z0.332
N6100 X11.68 Y-5.292 Z0.32
N6105 X11.694 Y-5.253 Z0.306
N6110 X11.711 Y-5.216 Z0.289
N6115 X11.73 Y-5.182 Z0.27
N6120 X11.75 Y-5.15 Z0.25
N6125 X11.773 Y-5.12 Z0.227
N6130 X11.798 Y-5.094 Z0.202
N6135 X11.824 Y-5.07 Z0.176
N6140 X11.851 Y-5.05 Z0.149
N6145 X11.879 Y-5.033 Z0.121
N6150 X11.909 Y-5.02 Z0.091
N6155 X11.939 Y-5.011 Z0.061
N6160 X11.97 Y-5.005 Z0.03
N6165 X12. Y-5.003 Z0.
N6170 X18. Z-6.
N6175 G2 X18.354 Z-6.146 I0.354 K0.354
N6180 G17 G3 Y-4.003 I0. J0.5
N6185 G18 G3 X18. Z-6. I0. K0.5
N6190 G1 X12. Z0.
N6195 X11.97 Y-4.001 Z0.03
N6200 X11.939 Y-3.996 Z0.061
N6205 X11.909 Y-3.986 Z0.091
N6210 X11.879 Y-3.973 Z0.121
N6215 X11.851 Y-3.956 Z0.149
N6220 X11.824 Y-3.936 Z0.176
N6225 X11.798 Y-3.913 Z0.202
N6230 X11.773 Y-3.886 Z0.227
N6235 X11.75 Y-3.857 Z0.25
N6240 X11.73 Y-3.825 Z0.27
N6245 X11.711 Y-3.79 Z0.289
N6250 X11.694 Y-3.753 Z0.306
N6255 X11.68 Y-3.715 Z0.32
N6260 X11.668 Y-3.674 Z0.332
N6265 X11.659 Y-3.633 Z0.341
N6270 X11.652 Y-3.59 Z0.348
N6275 X11.648 Y-3.547 Z0.352
N6280 X11.647 Y-3.503 Z0.353
N6285 X11.648 Y-3.46 Z0.352
N6290 X11.652 Y-3.417 Z0.348
N6295 X11.659 Y-3.374 Z0.341
N6300 X11.668 Y-3.332 Z0.332
N6305 X11.68 Y-3.292 Z0.32
N6310 X11.694 Y-3.253 Z0.306
N6315 X11.711 Y-3.217 Z0.289
N6320 X11.73 Y-3.182 Z0.27
N6325 X11.75 Y-3.15 Z0.25
N6330 X11.773 Y-3.12 Z0.227
N6335 X11.798 Y-3.094 Z0.202
N6340 X11.824 Y-3.07 Z0.176
N6345 X11.851 Y-3.05 Z0.149
N6350 X11.879 Y-3.034 Z0.121
N6355 X11.909 Y-3.021 Z0.091
N6360 X11.939 Y-3.011 Z0.061
N6365 X11.97 Y-3.005 Z0.03
N6370 X12. Y-3.004 Z0.
N6375 X18. Z-6.
N6380 G2 X18.354 Z-6.146 I0.354 K0.354
N6385 G17 G3 Y-2.004 I0. J0.5
N6390 G18 G3 X18. Z-6. I0. K0.5
N6395 G1 X12. Z0.
N6400 X11.97 Y-2.002 Z0.03
N6405 X11.939 Y-1.996 Z0.061
N6410 X11.909 Y-1.987 Z0.091
N6415 X11.879 Y-1.974 Z0.121
N6420 X11.851 Y-1.957 Z0.149
N6425 X11.824 Y-1.937 Z0.176
N6430 X11.798 Y-1.913 Z0.202
N6435 X11.773 Y-1.887 Z0.227
N6440 X11.75 Y-1.857 Z0.25
N6445 X11.73 Y-1.825 Z0.27
N6450 X11.711 Y-1.791 Z0.289
N6455 X11.694 Y-1.754 Z0.306
N6460 X11.68 Y-1.715 Z0.32
N6465 X11.668 Y-1.675 Z0.332
N6470 X11.659 Y-1.633 Z0.341
N6475 X11.652 Y-1.591 Z0.348
N6480 X11.648 Y-1.547 Z0.352
N6485 X11.647 Y-1.504 Z0.353
N6490 X11.648 Y-1.46 Z0.352
N6495 X11.652 Y-1.417 Z0.348
N6500 X11.659 Y-1.374 Z0.341
N6505 X11.668 Y-1.333 Z0.332
N6510 X11.68 Y-1.293 Z0.32
N6515 X11.694 Y-1.254 Z0.306
N6520 X11.711 Y-1.217 Z0.289
N6525 X11.73 Y-1.182 Z0.27
N6530 X11.75 Y-1.15 Z0.25
N6535 X11.773 Y-1.121 Z0.227
N6540 X11.798 Y-1.094 Z0.202
N6545 X11.824 Y-1.071 Z0.176
N6550 X11.851 Y-1.051 Z0.149
N6555 X11.879 Y-1.034 Z0.121
N6560 X11.909 Y-1.021 Z0.091
N6565 X11.939 Y-1.011 Z0.061
N6570 X11.97 Y-1.006 Z0.03
N6575 X12. Y-1.004 Z0.
N6580 X18. Z-6.
N6585 G2 X18.354 Z-6.146 I0.354 K0.354
N6590 G17 G3 Y-0.004 I0. J0.5
N6595 G18 G3 X18. Z-6. I0. K0.5
N6600 G1 X12. Z0.
N6605 X11.951 Z0.049
N6610 X11.92 Y-0.002 Z0.079
N6615 X11.889 Y0.004 Z0.11
N6620 X11.859 Y0.013 Z0.139
N6625 X11.829 Y0.026 Z0.168
N6630 X11.799 Y0.043 Z0.196
N6635 X11.771 Y0.063 Z0.222
N6640 X11.744 Y0.086 Z0.247
N6645 X11.718 Y0.113 Z0.271
N6650 X11.693 Y0.142 Z0.292
N6655 X11.671 Y0.174 Z0.311
N6660 X11.65 Y0.209 Z0.328
N6665 X11.632 Y0.246 Z0.343
N6670 X11.616 Y0.285 Z0.355
N6675 X11.602 Y0.325 Z0.365
N6680 X11.591 Y0.366 Z0.372
N6685 X11.582 Y0.409 Z0.377
N6690 X11.575 Y0.452 Z0.379
N6695 X11.572 Y0.496 Z0.378
N6700 X11.571 Y0.539 Z0.374
N6705 X11.573 Y0.583 Z0.368
N6710 X11.578 Y0.625 Z0.359
N6715 X11.585 Y0.667 Z0.348
N6720 X11.595 Y0.707 Z0.334
N6725 X11.607 Y0.746 Z0.318
N6730 X11.622 Y0.783 Z0.3
N6735 X11.639 Y0.817 Z0.279
N6740 X11.658 Y0.849 Z0.256
N6745 X11.679 Y0.879 Z0.232
N6750 X11.703 Y0.905 Z0.206
N6755 X11.727 Y0.929 Z0.179
N6760 X11.754 Y0.949 Z0.151
N6765 X11.782 Y0.966 Z0.121
N6770 X11.81 Y0.979 Z0.091
N6775 X11.84 Y0.988 Z0.06
N6780 X11.871 Y0.994 Z0.03
N6785 X11.901 Y0.996 Z-0.001
N6790 X17.898 Z-5.998
N6795 G2 X18.252 Z-6.145 I0.354 K0.354
N6800 G17 G3 Y1.996 I0. J0.5
N6805 G1 X17.937
N6810 G18 G3 X17.583 Z-5.998 I0. K0.5
N6815 G1 X17.582 Z-5.997
N6820 X11.585 Z-0.001
N6825 X11.295 Z0.289
N6830 X11.263 Y1.997 Z0.32
N6835 X11.23 Y2.002 Z0.35
N6840 X11.197 Y2.011 Z0.379
N6845 X11.163 Y2.023 Z0.406
N6850 X11.129 Y2.038 Z0.431
N6855 X11.096 Y2.056 Z0.454
N6860 X11.062 Y2.077 Z0.475
N6865 X11.03 Y2.101 Z0.493
N6870 X10.998 Y2.128 Z0.51
N6875 X10.967 Y2.157 Z0.524
N6880 X10.938 Y2.188 Z0.535
N6885 X10.909 Y2.222 Z0.544
N6890 X10.883 Y2.258 Z0.549
N6895 X10.858 Y2.295 Z0.552
N6900 X10.836 Y2.333 Z0.553
N6905 X10.815 Y2.373 Z0.55
N6910 X10.797 Y2.413 Z0.545
N6915 X10.781 Y2.454 Z0.537
N6920 X10.768 Y2.495 Z0.526
N6925 X10.757 Y2.537 Z0.513
N6930 X10.749 Y2.578 Z0.497
N6935 X10.744 Y2.618 Z0.479
N6940 X10.741 Y2.658 Z0.458
N6945 X10.742 Y2.696 Z0.436
N6950 X10.745 Y2.733 Z0.411
N6955 X10.75 Y2.769 Z0.385
N6960 X10.759 Y2.803 Z0.356
N6965 X10.77 Y2.834 Z0.327
N6970 X10.784 Y2.863 Z0.296
N6975 X10.801 Y2.89 Z0.264
N6980 X10.819 Y2.914 Z0.232
N6985 X10.84 Y2.935 Z0.198
N6990 X10.863 Y2.953 Z0.165
N6995 X10.888 Y2.968 Z0.131
N7000 X10.915 Y2.98 Z0.097
N7005 X10.944 Y2.989 Z0.064
N7010 X10.974 Y2.994 Z0.031
N7015 X11.005 Y2.995 Z-0.001
N7020 X17.001 Z-5.998
N7025 G2 X17.355 Z-6.144 I0.354 K0.354
N7030 G17 G3 Y3.995 I0. J0.5
N7035 G1 X16.358
N7040 G18 G3 X16.004 Z-5.998 I0. K0.5
N7045 G1 X16.003 Z-5.997
N7050 X10.006 Z0.
N7055 G3 X9.714 Z0.707 I0.707 K0.707 F#104
N7060 G0 Z2.
N7065 X-9.714 Y-47.995
N7070 G1 Z0.707 F#103
N7075 G3 X-10.007 Z0. I-1. K0.
N7080 G1 X-16.003 Z-5.997 F#100
N7085 X-16.004 Z-5.998
N7090 G3 X-16.358 Z-6.144 I-0.354 K0.354
N7095 G1 X-17.355
N7100 G17 G2 Y-46.995 I0. J0.5
N7105 G18 G2 X-17.001 Z-5.998 I0. K0.5
N7110 G1 X-11.004 Z0.
N7115 X-10.973 Y-46.994 Z0.032
N7120 X-10.943 Y-46.989 Z0.064
N7125 X-10.915 Y-46.98 Z0.098
N7130 X-10.888 Y-46.968 Z0.131
N7135 X-10.863 Y-46.953 Z0.165
N7140 X-10.84 Y-46.935 Z0.199
N7145 X-10.819 Y-46.914 Z0.232
N7150 X-10.8 Y-46.89 Z0.265
N7155 X-10.783 Y-46.863 Z0.297
N7160 X-10.77 Y-46.834 Z0.328
N7165 X-10.758 Y-46.803 Z0.357
N7170 X-10.75 Y-46.769 Z0.385
N7175 X-10.744 Y-46.733 Z0.412
N7180 X-10.741 Y-46.696 Z0.436
N7185 Y-46.658 Z0.459
N7190 X-10.743 Y-46.618 Z0.48
N7195 X-10.748 Y-46.578 Z0.498
N7200 X-10.756 Y-46.537 Z0.514
N7205 X-10.767 Y-46.495 Z0.527
N7210 X-10.78 Y-46.454 Z0.538
N7215 X-10.796 Y-46.413 Z0.546
N7220 X-10.814 Y-46.373 Z0.551
N7225 X-10.835 Y-46.333 Z0.553
N7230 X-10.858 Y-46.295
N7235 X-10.882 Y-46.258 Z0.55
N7240 X-10.909 Y-46.222 Z0.544
N7245 X-10.937 Y-46.188 Z0.536
N7250 X-10.966 Y-46.157 Z0.524
N7255 X-10.997 Y-46.128 Z0.51
N7260 X-11.029 Y-46.101 Z0.494
N7265 X-11.062 Y-46.077 Z0.475
N7270 X-11.095 Y-46.056 Z0.454
N7275 X-11.129 Y-46.038 Z0.431
N7280 X-11.163 Y-46.023 Z0.406
N7285 X-11.196 Y-46.011 Z0.379
N7290 X-11.23 Y-46.002 Z0.351
N7295 X-11.262 Y-45.997 Z0.321
N7300 X-11.294 Y-45.996 Z0.29
N7305 X-11.585 Z0.
N7310 X-17.582 Z-5.997
N7315 X-17.583 Z-5.998
N7320 G3 X-17.937 Z-6.145 I-0.354 K0.354
N7325 G1 X-18.252
N7330 G17 G2 Y-44.996 I0. J0.5
N7335 G18 G2 X-17.898 Z-5.998 I0. K0.5
N7340 G1 X-11.9 Z0.
N7345 X-11.869 Y-44.994 Z0.031
N7350 X-11.839 Y-44.988 Z0.062
N7355 X-11.809 Y-44.979 Z0.093
N7360 X-11.78 Y-44.966 Z0.123
N7365 X-11.752 Y-44.949 Z0.152
N7370 X-11.726 Y-44.929 Z0.181
N7375 X-11.701 Y-44.905 Z0.208
N7380 X-11.678 Y-44.879 Z0.234
N7385 X-11.657 Y-44.849 Z0.258
N7390 X-11.637 Y-44.817 Z0.28
N7395 X-11.62 Y-44.783 Z0.301
N7400 X-11.605 Y-44.746 Z0.319
N7405 X-11.593 Y-44.707 Z0.336
N7410 X-11.583 Y-44.667 Z0.349
N7415 X-11.576 Y-44.625 Z0.361
N7420 X-11.572 Y-44.583 Z0.37
N7425 X-11.57 Y-44.539 Z0.376
N7430 X-11.571 Y-44.496 Z0.379
N7435 X-11.574 Y-44.452 Z0.38
N7440 X-11.58 Y-44.409 Z0.378
N7445 X-11.589 Y-44.366 Z0.374
N7450 X-11.6 Y-44.325 Z0.367
N7455 X-11.614 Y-44.285 Z0.357
N7460 X-11.631 Y-44.246 Z0.344
N7465 X-11.649 Y-44.209 Z0.33
N7470 X-11.67 Y-44.174 Z0.313
N7475 X-11.692 Y-44.142 Z0.293
N7480 X-11.716 Y-44.113 Z0.272
N7485 X-11.742 Y-44.086 Z0.249
N7490 X-11.769 Y-44.063 Z0.224
N7495 X-11.798 Y-44.043 Z0.197
N7500 X-11.827 Y-44.026 Z0.17
N7505 X-11.857 Y-44.013 Z0.141
N7510 X-11.888 Y-44.004 Z0.111
N7515 X-11.919 Y-43.998 Z0.081
N7520 X-11.95 Y-43.996 Z0.05
N7525 X-12.001 Z-0.001
N7530 X-18. Z-6.
N7535 G3 X-18.354 Z-6.146 I-0.354 K0.354
N7540 G17 G2 Y-42.996 I0. J0.5
N7545 G18 G2 X-18. Z-6. I0. K0.5
N7550 G1 X-12.001 Z-0.001
N7555 X-11.97 Y-42.994 Z0.03
N7560 X-11.94 Y-42.989 Z0.06
N7565 X-11.909 Y-42.979 Z0.091
N7570 X-11.88 Y-42.966 Z0.12
N7575 X-11.852 Y-42.949 Z0.148
N7580 X-11.824 Y-42.929 Z0.176
N7585 X-11.798 Y-42.906 Z0.202
N7590 X-11.774 Y-42.879 Z0.226
N7595 X-11.751 Y-42.85 Z0.249
N7600 X-11.73 Y-42.818 Z0.27
N7605 X-11.711 Y-42.783 Z0.289
N7610 X-11.695 Y-42.746 Z0.305
N7615 X-11.681 Y-42.707 Z0.319
N7620 X-11.669 Y-42.667 Z0.331
N7625 X-11.659 Y-42.626 Z0.341
N7630 X-11.653 Y-42.583 Z0.347
N7635 X-11.649 Y-42.54 Z0.351
N7640 X-11.647 Y-42.496 Z0.353
N7645 X-11.649 Y-42.453 Z0.351
N7650 X-11.653 Y-42.409 Z0.347
N7655 X-11.659 Y-42.367 Z0.341
N7660 X-11.669 Y-42.325 Z0.331
N7665 X-11.681 Y-42.285 Z0.319
N7670 X-11.695 Y-42.246 Z0.305
N7675 X-11.711 Y-42.209 Z0.289
N7680 X-11.73 Y-42.175 Z0.27
N7685 X-11.751 Y-42.143 Z0.249
N7690 X-11.774 Y-42.113 Z0.226
N7695 X-11.798 Y-42.087 Z0.202
N7700 X-11.824 Y-42.063 Z0.176
N7705 X-11.852 Y-42.043 Z0.148
N7710 X-11.88 Y-42.026 Z0.12
N7715 X-11.909 Y-42.013 Z0.091
N7720 X-11.94 Y-42.004 Z0.06
N7725 X-11.97 Y-41.998 Z0.03
N7730 X-12.001 Y-41.996 Z-0.001
N7735 X-18. Z-6.
N7740 G3 X-18.354 Z-6.146 I-0.354 K0.354
N7745 G17 G2 Y-40.996 I0. J0.5
N7750 G18 G2 X-18. Z-6. I0. K0.5
N7755 G1 X-12.001 Z-0.001
N7760 X-11.97 Y-40.995 Z0.03
N7765 X-11.94 Y-40.989 Z0.06
N7770 X-11.909 Y-40.979 Z0.091
N7775 X-11.88 Y-40.966 Z0.12
N7780 X-11.852 Y-40.95 Z0.148
N7785 X-11.824 Y-40.93 Z0.176
N7790 X-11.798 Y-40.906 Z0.202
N7795 X-11.774 Y-40.88 Z0.226
N7800 X-11.751 Y-40.85 Z0.249
N7805 X-11.73 Y-40.818 Z0.27
N7810 X-11.711 Y-40.783 Z0.289
N7815 X-11.695 Y-40.747 Z0.305
N7820 X-11.681 Y-40.708 Z0.319
N7825 X-11.669 Y-40.668 Z0.331
N7830 X-11.659 Y-40.626 Z0.341
N7835 X-11.653 Y-40.583 Z0.347
N7840 X-11.649 Y-40.54 Z0.351
N7845 X-11.647 Y-40.497 Z0.353
N7850 X-11.649 Y-40.453 Z0.351
N7855 X-11.653 Y-40.41 Z0.347
N7860 X-11.659 Y-40.367 Z0.341
N7865 X-11.669 Y-40.326 Z0.331
N7870 X-11.681 Y-40.285 Z0.319
N7875 X-11.695 Y-40.247 Z0.305
N7880 X-11.711 Y-40.21 Z0.289
N7885 X-11.73 Y-40.175 Z0.27
N7890 X-11.751 Y-40.143 Z0.249
N7895 X-11.774 Y-40.114 Z0.226
N7900 X-11.798 Y-40.087 Z0.202
N7905 X-11.824 Y-40.064 Z0.176
N7910 X-11.852 Y-40.044 Z0.148
N7915 X-11.88 Y-40.027 Z0.12
N7920 X-11.909 Y-40.014 Z0.091
N7925 X-11.94 Y-40.004 Z0.06
N7930 X-11.97 Y-39.999 Z0.03
N7935 X-12.001 Y-39.997 Z-0.001
N7940 X-18. Z-6.
N7945 G3 X-18.354 Z-6.146 I-0.354 K0.354
N7950 G17 G2 Y-38.997 I0. J0.5
N7955 G18 G2 X-18. Z-6. I0. K0.5
N7960 G1 X-12.001 Z-0.001
N7965 X-11.97 Y-38.995 Z0.03
N7970 X-11.94 Y-38.989 Z0.06
N7975 X-11.91 Y-38.98 Z0.09
N7980 X-11.88 Y-38.967 Z0.12
N7985 X-11.852 Y-38.95 Z0.148
N7990 X-11.824 Y-38.93 Z0.176
N7995 X-11.798 Y-38.906 Z0.202
N8000 X-11.774 Y-38.88 Z0.226
N8005 X-11.751 Y-38.85 Z0.249
N8010 X-11.73 Y-38.818 Z0.27
N8015 X-11.712 Y-38.784 Z0.288
N8020 X-11.695 Y-38.747 Z0.305
N8025 X-11.681 Y-38.708 Z0.319
N8030 X-11.669 Y-38.668 Z0.331
N8035 X-11.66 Y-38.626 Z0.34
N8040 X-11.653 Y-38.584 Z0.347
N8045 X-11.649 Y-38.541 Z0.351
N8050 X-11.648 Y-38.497 Z0.352
N8055 X-11.649 Y-38.453 Z0.351
N8060 X-11.653 Y-38.41 Z0.347
N8065 X-11.66 Y-38.368 Z0.34
N8070 X-11.669 Y-38.326 Z0.331
N8075 X-11.681 Y-38.286 Z0.319
N8080 X-11.695 Y-38.247 Z0.305
N8085 X-11.712 Y-38.21 Z0.288
N8090 X-11.73 Y-38.176 Z0.27
N8095 X-11.751 Y-38.143 Z0.249
N8100 X-11.774 Y-38.114 Z0.226
N8105 X-11.798 Y-38.087 Z0.202
N8110 X-11.824 Y-38.064 Z0.176
N8115 X-11.852 Y-38.044 Z0.148
N8120 X-11.88 Y-38.027 Z0.12
N8125 X-11.91 Y-38.014 Z0.09
N8130 X-11.94 Y-38.005 Z0.06
N8135 X-11.97 Y-37.999 Z0.03
N8140 X-12.001 Y-37.997 Z-0.001
N8145 X-18. Z-6.
N8150 G3 X-18.354 Z-6.146 I-0.354 K0.354
N8155 G17 G2 Y-36.997 I0. J0.5
N8160 G18 G2 X-18. Z-6. I0. K0.5
N8165 G1 X-12.001 Z-0.001
N8170 X-11.97 Y-36.995 Z0.03
N8175 X-11.94 Y-36.99 Z0.06
N8180 X-11.91 Y-36.98 Z0.09
N8185 X-11.88 Y-36.967 Z0.12
N8190 X-11.852 Y-36.95 Z0.148
N8195 X-11.824 Y-36.93 Z0.176
N8200 X-11.798 Y-36.907 Z0.202
N8205 X-11.774 Y-36.88 Z0.226
N8210 X-11.751 Y-36.851 Z0.249
N8215 X-11.73 Y-36.819 Z0.27
N8220 X-11.712 Y-36.784 Z0.288
N8225 X-11.695 Y-36.747 Z0.305
N8230 X-11.681 Y-36.709 Z0.319
N8235 X-11.669 Y-36.668 Z0.331
N8240 X-11.66 Y-36.627 Z0.34
N8245 X-11.653 Y-36.584 Z0.347
N8250 X-11.649 Y-36.541 Z0.351
N8255 X-11.648 Y-36.497 Z0.352
N8260 X-11.649 Y-36.454 Z0.351
N8265 X-11.653 Y-36.411 Z0.347
N8270 X-11.66 Y-36.368 Z0.34
N8275 X-11.669 Y-36.326 Z0.331
N8280 X-11.681 Y-36.286 Z0.319
N8285 X-11.695 Y-36.247 Z0.305
N8290 X-11.712 Y-36.211 Z0.288
N8295 X-11.73 Y-36.176 Z0.27
N8300 X-11.751 Y-36.144 Z0.249
N8305 X-11.774 Y-36.114 Z0.226
N8310 X-11.798 Y-36.088 Z0.202
N8315 X-11.824 Y-36.064 Z0.176
N8320 X-11.852 Y-36.044 Z0.148
N8325 X-11.88 Y-36.028 Z0.12
N8330 X-11.91 Y-36.014 Z0.09
N8335 X-11.94 Y-36.005 Z0.06
N8340 X-11.97 Y-35.999 Z0.03
N8345 X-12.001 Y-35.997 Z-0.001
N8350 X-18. Z-6.
N8355 G3 X-18.354 Z-6.146 I-0.354 K0.354
N8360 G17 G2 Y-34.998 I0. J0.5
N8365 G18 G2 X-18. Z-6. I0. K0.5
N8370 G1 X-12.001 Z-0.001
N8375 X-11.97 Y-34.996 Z0.03
N8380 X-11.94 Y-34.99 Z0.06
N8385 X-11.91 Y-34.981 Z0.09
N8390 X-11.88 Y-34.967 Z0.12
N8395 X-11.852 Y-34.951 Z0.148
N8400 X-11.824 Y-34.931 Z0.176
N8405 X-11.798 Y-34.907 Z0.202
N8410 X-11.774 Y-34.881 Z0.226
N8415 X-11.751 Y-34.851 Z0.249
N8420 X-11.73 Y-34.819 Z0.27
N8425 X-11.712 Y-34.784 Z0.288
N8430 X-11.695 Y-34.748 Z0.305
N8435 X-11.681 Y-34.709 Z0.319
N8440 X-11.669 Y-34.669 Z0.331
N8445 X-11.66 Y-34.627 Z0.34
N8450 X-11.653 Y-34.584 Z0.347
N8455 X-11.649 Y-34.541 Z0.351
N8460 X-11.648 Y-34.498 Z0.352
N8465 X-11.649 Y-34.454 Z0.351
N8470 X-11.653 Y-34.411 Z0.347
N8475 X-11.66 Y-34.368 Z0.34
N8480 X-11.669 Y-34.327 Z0.331
N8485 X-11.681 Y-34.286 Z0.319
N8490 X-11.695 Y-34.248 Z0.305
N8495 X-11.712 Y-34.211 Z0.288
N8500 X-11.73 Y-34.176 Z0.27
N8505 X-11.751 Y-34.144 Z0.249
N8510 X-11.774 Y-34.115 Z0.226
N8515 X-11.798 Y-34.088 Z0.202
N8520 X-11.824 Y-34.065 Z0.176
N8525 X-11.852 Y-34.045 Z0.148
N8530 X-11.88 Y-34.028 Z0.12
N8535 X-11.91 Y-34.015 Z0.09
N8540 X-11.94 Y-34.005 Z0.06
N8545 X-11.97 Y-34. Z0.03
N8550 X-12.001 Y-33.998 Z-0.001
N8555 X-18. Z-6.
N8560 G3 X-18.354 Z-6.146 I-0.354 K0.354
N8565 G17 G2 Y-32.998 I0. J0.5
N8570 G18 G2 X-18. Z-6. I0. K0.5
N8575 G1 X-12.001 Z-0.001
N8580 X-11.97 Y-32.996 Z0.03
N8585 X-11.94 Y-32.99 Z0.06
N8590 X-11.91 Y-32.981 Z0.09
N8595 X-11.88 Y-32.968 Z0.12
N8600 X-11.852 Y-32.951 Z0.148
N8605 X-11.824 Y-32.931 Z0.176
N8610 X-11.798 Y-32.908 Z0.202
N8615 X-11.774 Y-32.881 Z0.226
N8620 X-11.751 Y-32.852 Z0.249
N8625 X-11.73 Y-32.819 Z0.27
N8630 X-11.712 Y-32.785 Z0.288
N8635 X-11.695 Y-32.748 Z0.305
N8640 X-11.681 Y-32.709 Z0.319
N8645 X-11.669 Y-32.669 Z0.331
N8650 X-11.66 Y-32.627 Z0.34
N8655 X-11.653 Y-32.585 Z0.347
N8660 X-11.649 Y-32.542 Z0.351
N8665 X-11.648 Y-32.498 Z0.352
N8670 X-11.649 Y-32.454 Z0.351
N8675 X-11.653 Y-32.411 Z0.347
N8680 X-11.66 Y-32.369 Z0.34
N8685 X-11.669 Y-32.327 Z0.331
N8690 X-11.681 Y-32.287 Z0.319
N8695 X-11.695 Y-32.248 Z0.305
N8700 X-11.712 Y-32.211 Z0.288
N8705 X-11.73 Y-32.177 Z0.27
N8710 X-11.751 Y-32.145 Z0.249
N8715 X-11.774 Y-32.115 Z0.226
N8720 X-11.798 Y-32.089 Z0.202
N8725 X-11.824 Y-32.065 Z0.176
N8730 X-11.852 Y-32.045 Z0.148
N8735 X-11.88 Y-32.028 Z0.12
N8740 X-11.91 Y-32.015 Z0.09
N8745 X-11.94 Y-32.006 Z0.06
N8750 X-11.97 Y-32. Z0.03
N8755 X-12.001 Y-31.998 Z-0.001
N8760 X-18. Z-6.
N8765 G3 X-18.354 Z-6.146 I-0.354 K0.354
N8770 G17 G2 Y-30.998 I0. J0.5
N8775 G18 G2 X-18. Z-6. I0. K0.5
N8780 G1 X-12.001 Z-0.001
N8785 X-11.97 Y-30.996 Z0.03
N8790 X-11.94 Y-30.991 Z0.06
N8795 X-11.91 Y-30.981 Z0.09
N8800 X-11.88 Y-30.968 Z0.12
N8805 X-11.852 Y-30.951 Z0.148
N8810 X-11.824 Y-30.931 Z0.176
N8815 X-11.798 Y-30.908 Z0.202
N8820 X-11.774 Y-30.881 Z0.226
N8825 X-11.751 Y-30.852 Z0.249
N8830 X-11.73 Y-30.82 Z0.27
N8835 X-11.712 Y-30.785 Z0.288
N8840 X-11.695 Y-30.748 Z0.305
N8845 X-11.681 Y-30.71 Z0.319
N8850 X-11.669 Y-30.669 Z0.331
N8855 X-11.66 Y-30.628 Z0.34
N8860 X-11.653 Y-30.585 Z0.347
N8865 X-11.649 Y-30.542 Z0.351
N8870 X-11.648 Y-30.498 Z0.352
N8875 X-11.649 Y-30.455 Z0.351
N8880 X-11.653 Y-30.412 Z0.347
N8885 X-11.66 Y-30.369 Z0.34
N8890 X-11.669 Y-30.327 Z0.331
N8895 X-11.681 Y-30.287 Z0.319
N8900 X-11.695 Y-30.248 Z0.305
N8905 X-11.712 Y-30.212 Z0.288
N8910 X-11.73 Y-30.177 Z0.27
N8915 X-11.751 Y-30.145 Z0.249
N8920 X-11.774 Y-30.115 Z0.226
N8925 X-11.798 Y-30.089 Z0.202
N8930 X-11.824 Y-30.065 Z0.176
N8935 X-11.852 Y-30.045 Z0.148
N8940 X-11.88 Y-30.029 Z0.12
N8945 X-11.91 Y-30.016 Z0.09
N8950 X-11.94 Y-30.006 Z0.06
N8955 X-11.97 Y-30. Z0.03
N8960 X-12.001 Y-29.999 Z-0.001
N8965 X-18. Z-6.
N8970 G3 X-18.354 Z-6.146 I-0.354 K0.354
N8975 G17 G2 Y-28.999 I0. J0.5
N8980 G18 G2 X-18. Z-6. I0. K0.5
N8985 G1 X-12.001 Z-0.001
N8990 X-11.97 Y-28.997 Z0.03
N8995 X-11.94 Y-28.991 Z0.06
N9000 X-11.91 Y-28.982 Z0.09
N9005 X-11.88 Y-28.969 Z0.12
N9010 X-11.852 Y-28.952 Z0.148
N9015 X-11.824 Y-28.932 Z0.176
N9020 X-11.798 Y-28.908 Z0.202
N9025 X-11.774 Y-28.882 Z0.226
N9030 X-11.751 Y-28.852 Z0.249
N9035 X-11.73 Y-28.82 Z0.27
N9040 X-11.712 Y-28.786 Z0.288
N9045 X-11.695 Y-28.749 Z0.305
N9050 X-11.681 Y-28.71 Z0.319
N9055 X-11.669 Y-28.67 Z0.331
N9060 X-11.66 Y-28.628 Z0.34
N9065 X-11.653 Y-28.586 Z0.347
N9070 X-11.649 Y-28.542 Z0.351
N9075 X-11.648 Y-28.499 Z0.352
N9080 X-11.649 Y-28.455 Z0.351
N9085 X-11.653 Y-28.412 Z0.347
N9090 X-11.66 Y-28.369 Z0.34
N9095 X-11.669 Y-28.328 Z0.331
N9100 X-11.681 Y-28.288 Z0.319
N9105 X-11.695 Y-28.249 Z0.305
N9110 X-11.712 Y-28.212 Z0.288
N9115 X-11.73 Y-28.177 Z0.27
N9120 X-11.751 Y-28.145 Z0.249
N9125 X-11.774 Y-28.116 Z0.226
N9130 X-11.798 Y-28.089 Z0.202
N9135 X-11.824 Y-28.066 Z0.176
N9140 X-11.852 Y-28.046 Z0.148
N9145 X-11.88 Y-28.029 Z0.12
N9150 X-11.91 Y-28.016 Z0.09
N9155 X-11.94 Y-28.006 Z0.06
N9160 X-11.97 Y-28.001 Z0.03
N9165 X-12.001 Y-27.999 Z-0.001
N9170 X-18. Z-6.
N9175 G3 X-18.354 Z-6.146 I-0.354 K0.354
N9180 G17 G2 Y-26.999 I0. J0.5
N9185 G18 G2 X-18. Z-6. I0. K0.5
N9190 G1 X-12.001 Z-0.001
N9195 X-11.97 Y-26.997 Z0.03
N9200 X-11.94 Y-26.991 Z0.06
N9205 X-11.909 Y-26.982 Z0.091
N9210 X-11.88 Y-26.969 Z0.12
N9215 X-11.852 Y-26.952 Z0.148
N9220 X-11.824 Y-26.932 Z0.176
N9225 X-11.798 Y-26.909 Z0.202
N9230 X-11.774 Y-26.882 Z0.226
N9235 X-11.751 Y-26.853 Z0.249
N9240 X-11.73 Y-26.821 Z0.27
N9245 X-11.711 Y-26.786 Z0.289
N9250 X-11.695 Y-26.749 Z0.305
N9255 X-11.681 Y-26.71 Z0.319
N9260 X-11.669 Y-26.67 Z0.331
N9265 X-11.659 Y-26.629 Z0.341
N9270 X-11.653 Y-26.586 Z0.347
N9275 X-11.649 Y-26.543 Z0.351
N9280 X-11.647 Y-26.499 Z0.353
N9285 X-11.649 Y-26.456 Z0.351
N9290 X-11.653 Y-26.412 Z0.347
N9295 X-11.659 Y-26.37 Z0.341
N9300 X-11.669 Y-26.328 Z0.331
N9305 X-11.681 Y-26.288 Z0.319
N9310 X-11.695 Y-26.249 Z0.305
N9315 X-11.711 Y-26.212 Z0.289
N9320 X-11.73 Y-26.178 Z0.27
N9325 X-11.751 Y-26.146 Z0.249
N9330 X-11.774 Y-26.116 Z0.226
N9335 X-11.798 Y-26.09 Z0.202
N9340 X-11.824 Y-26.066 Z0.176
N9345 X-11.852 Y-26.046 Z0.148
N9350 X-11.88 Y-26.029 Z0.12
N9355 X-11.909 Y-26.016 Z0.091
N9360 X-11.94 Y-26.007 Z0.06
N9365 X-11.97 Y-26.001 Z0.03
N9370 X-12.001 Y-25.999 Z-0.001
N9375 X-18. Z-6.
N9380 G3 X-18.354 Z-6.146 I-0.354 K0.354
N9385 G17 G2 Y-24.999 I0. J0.5
N9390 G18 G2 X-18. Z-6. I0. K0.5
N9395 G1 X-12.001 Z-0.001
N9400 X-11.97 Y-24.998 Z0.03
N9405 X-11.94 Y-24.992 Z0.06
N9410 X-11.909 Y-24.982 Z0.091
N9415 X-11.88 Y-24.969 Z0.12
N9420 X-11.852 Y-24.953 Z0.148
N9425 X-11.824 Y-24.932 Z0.176
N9430 X-11.798 Y-24.909 Z0.202
N9435 X-11.774 Y-24.882 Z0.226
N9440 X-11.751 Y-24.853 Z0.249
N9445 X-11.73 Y-24.821 Z0.27
N9450 X-11.711 Y-24.786 Z0.289
N9455 X-11.695 Y-24.749 Z0.305
N9460 X-11.681 Y-24.711 Z0.319
N9465 X-11.669 Y-24.671 Z0.331
N9470 X-11.659 Y-24.629 Z0.341
N9475 X-11.653 Y-24.586 Z0.347
N9480 X-11.649 Y-24.543 Z0.351
N9485 X-11.647 Y-24.5 Z0.353
N9490 X-11.649 Y-24.456 Z0.351
N9495 X-11.653 Y-24.413 Z0.347
N9500 X-11.659 Y-24.37 Z0.341
N9505 X-11.669 Y-24.329 Z0.331
N9510 X-11.681 Y-24.288 Z0.319
N9515 X-11.695 Y-24.25 Z0.305
N9520 X-11.711 Y-24.213 Z0.289
N9525 X-11.73 Y-24.178 Z0.27
N9530 X-11.751 Y-24.146 Z0.249
N9535 X-11.774 Y-24.117 Z0.226
N9540 X-11.798 Y-24.09 Z0.202
N9545 X-11.824 Y-24.067 Z0.176
N9550 X-11.852 Y-24.046 Z0.148
N9555 X-11.88 Y-24.03 Z0.12
N9560 X-11.909 Y-24.017 Z0.091
N9565 X-11.94 Y-24.007 Z0.06
N9570 X-11.97 Y-24.002 Z0.03
N9575 X-12.001 Y-24. Z-0.001
N9580 X-18. Z-6.
N9585 G3 X-18.354 Z-6.146 I-0.354 K0.354
N9590 G17 G2 Y-23. I0. J0.5
N9595 G18 G2 X-18. Z-6. I0. K0.5
N9600 G1 X-12.001 Z-0.001
N9605 X-11.97 Y-22.998 Z0.03
N9610 X-11.939 Y-22.992 Z0.061
N9615 X-11.909 Y-22.983 Z0.091
N9620 X-11.88 Y-22.97 Z0.12
N9625 X-11.851 Y-22.953 Z0.149
N9630 X-11.824 Y-22.933 Z0.176
N9635 X-11.798 Y-22.909 Z0.202
N9640 X-11.774 Y-22.883 Z0.226
N9645 X-11.751 Y-22.853 Z0.249
N9650 X-11.73 Y-22.821 Z0.27
N9655 X-11.711 Y-22.787 Z0.289
N9660 X-11.695 Y-22.75 Z0.305
N9665 X-11.68 Y-22.711 Z0.32
N9670 X-11.669 Y-22.671 Z0.331
N9675 X-11.659 Y-22.629 Z0.341
N9680 X-11.653 Y-22.587 Z0.347
N9685 X-11.649 Y-22.543 Z0.351
N9690 X-11.647 Y-22.5 Z0.353
N9695 X-11.649 Y-22.456 Z0.351
N9700 X-11.653 Y-22.413 Z0.347
N9705 X-11.659 Y-22.371 Z0.341
N9710 X-11.669 Y-22.329 Z0.331
N9715 X-11.68 Y-22.289 Z0.32
N9720 X-11.695 Y-22.25 Z0.305
N9725 X-11.711 Y-22.213 Z0.289
N9730 X-11.73 Y-22.179 Z0.27
N9735 X-11.751 Y-22.146 Z0.249
N9740 X-11.774 Y-22.117 Z0.226
N9745 X-11.798 Y-22.09 Z0.202
N9750 X-11.824 Y-22.067 Z0.176
N9755 X-11.851 Y-22.047 Z0.149
N9760 X-11.88 Y-22.03 Z0.12
N9765 X-11.909 Y-22.017 Z0.091
N9770 X-11.939 Y-22.008 Z0.061
N9775 X-11.97 Y-22.002 Z0.03
N9780 X-12.001 Y-22. Z-0.001
N9785 X-18. Z-6.
N9790 G3 X-18.354 Z-6.146 I-0.354 K0.354
N9795 G17 G2 Y-21. I0. J0.5
N9800 G18 G2 X-18. Z-6. I0. K0.5
N9805 G1 X-12.001 Z-0.001
N9810 X-11.97 Y-20.998 Z0.03
N9815 X-11.94 Y-20.993 Z0.06
N9820 X-11.909 Y-20.983 Z0.091
N9825 X-11.88 Y-20.97 Z0.12
N9830 X-11.852 Y-20.953 Z0.148
N9835 X-11.824 Y-20.933 Z0.176
N9840 X-11.798 Y-20.91 Z0.202
N9845 X-11.774 Y-20.883 Z0.226
N9850 X-11.751 Y-20.854 Z0.249
N9855 X-11.73 Y-20.822 Z0.27
N9860 X-11.711 Y-20.787 Z0.289
N9865 X-11.695 Y-20.75 Z0.305
N9870 X-11.681 Y-20.712 Z0.319
N9875 X-11.669 Y-20.671 Z0.331
N9880 X-11.659 Y-20.63 Z0.341
N9885 X-11.653 Y-20.587 Z0.347
N9890 X-11.649 Y-20.544 Z0.351
N9895 X-11.647 Y-20.5 Z0.353
N9900 X-11.649 Y-20.457 Z0.351
N9905 X-11.653 Y-20.413 Z0.347
N9910 X-11.659 Y-20.371 Z0.341
N9915 X-11.669 Y-20.329 Z0.331
N9920 X-11.681 Y-20.289 Z0.319
N9925 X-11.695 Y-20.25 Z0.305
N9930 X-11.711 Y-20.214 Z0.289
N9935 X-11.73 Y-20.179 Z0.27
N9940 X-11.751 Y-20.147 Z0.249
N9945 X-11.774 Y-20.117 Z0.226
N9950 X-11.798 Y-20.091 Z0.202
N9955 X-11.824 Y-20.067 Z0.176
N9960 X-11.852 Y-20.047 Z0.148
N9965 X-11.88 Y-20.031 Z0.12
N9970 X-11.909 Y-20.017 Z0.091
N9975 X-11.94 Y-20.008 Z0.06
N9980 X-11.97 Y-20.002 Z0.03
N9985 X-12.001 Y-20. Z-0.001
N9990 X-18. Z-6.
N9995 G3 X-18.354 Z-6.146 I-0.354 K0.354
N10000 G17 G2 Y-19.001 I0. J0.5
N10005 G18 G2 X-18. Z-6. I0. K0.5
N10010 G1 X-12.001 Z-0.001
N10015 X-11.97 Y-18.999 Z0.03
N10020 X-11.94 Y-18.993 Z0.06
N10025 X-11.909 Y-18.984 Z0.091
N10030 X-11.88 Y-18.97 Z0.12
N10035 X-11.852 Y-18.954 Z0.148
N10040 X-11.824 Y-18.934 Z0.176
N10045 X-11.798 Y-18.91 Z0.202
N10050 X-11.774 Y-18.884 Z0.226
N10055 X-11.751 Y-18.854 Z0.249
N10060 X-11.73 Y-18.822 Z0.27
N10065 X-11.711 Y-18.787 Z0.289
N10070 X-11.695 Y-18.751 Z0.305
N10075 X-11.681 Y-18.712 Z0.319
N10080 X-11.669 Y-18.672 Z0.331
N10085 X-11.659 Y-18.63 Z0.341
N10090 X-11.653 Y-18.587 Z0.347
N10095 X-11.649 Y-18.544 Z0.351
N10100 X-11.647 Y-18.501 Z0.353
N10105 X-11.649 Y-18.457 Z0.351
N10110 X-11.653 Y-18.414 Z0.347
N10115 X-11.659 Y-18.371 Z0.341
N10120 X-11.669 Y-18.33 Z0.331
N10125 X-11.681 Y-18.289 Z0.319
N10130 X-11.695 Y-18.251 Z0.305
N10135 X-11.711 Y-18.214 Z0.289
N10140 X-11.73 Y-18.179 Z0.27
N10145 X-11.751 Y-18.147 Z0.249
N10150 X-11.774 Y-18.118 Z0.226
N10155 X-11.798 Y-18.091 Z0.202
N10160 X-11.824 Y-18.068 Z0.176
N10165 X-11.852 Y-18.048 Z0.148
N10170 X-11.88 Y-18.031 Z0.12
N10175 X-11.909 Y-18.018 Z0.091
N10180 X-11.94 Y-18.008 Z0.06
N10185 X-11.97 Y-18.003 Z0.03
N10190 X-12.001 Y-18.001 Z-0.001
N10195 X-18. Z-6.
N10200 G3 X-18.354 Z-6.146 I-0.354 K0.354
N10205 G17 G2 Y-17.001 I0. J0.5
N10210 G18 G2 X-18. Z-6. I0. K0.5
N10215 G1 X-12.001 Z-0.001
N10220 X-11.97 Y-16.999 Z0.03
N10225 X-11.94 Y-16.993 Z0.06
N10230 X-11.909 Y-16.984 Z0.091
N10235 X-11.88 Y-16.971 Z0.12
N10240 X-11.852 Y-16.954 Z0.148
N10245 X-11.824 Y-16.934 Z0.176
N10250 X-11.798 Y-16.911 Z0.202
N10255 X-11.774 Y-16.884 Z0.226
N10260 X-11.751 Y-16.855 Z0.249
N10265 X-11.73 Y-16.822 Z0.27
N10270 X-11.711 Y-16.788 Z0.289
N10275 X-11.695 Y-16.751 Z0.305
N10280 X-11.681 Y-16.712 Z0.319
N10285 X-11.669 Y-16.672 Z0.331
N10290 X-11.659 Y-16.63 Z0.341
N10295 X-11.653 Y-16.588 Z0.347
N10300 X-11.649 Y-16.545 Z0.351
N10305 X-11.647 Y-16.501 Z0.353
N10310 X-11.649 Y-16.457 Z0.351
N10315 X-11.653 Y-16.414 Z0.347
N10320 X-11.659 Y-16.372 Z0.341
N10325 X-11.669 Y-16.33 Z0.331
N10330 X-11.681 Y-16.29 Z0.319
N10335 X-11.695 Y-16.251 Z0.305
N10340 X-11.711 Y-16.214 Z0.289
N10345 X-11.73 Y-16.18 Z0.27
N10350 X-11.751 Y-16.148 Z0.249
N10355 X-11.774 Y-16.118 Z0.226
N10360 X-11.798 Y-16.092 Z0.202
N10365 X-11.824 Y-16.068 Z0.176
N10370 X-11.852 Y-16.048 Z0.148
N10375 X-11.88 Y-16.031 Z0.12
N10380 X-11.909 Y-16.018 Z0.091
N10385 X-11.94 Y-16.009 Z0.06
N10390 X-11.97 Y-16.003 Z0.03
N10395 X-12.001 Y-16.001 Z-0.001
N10400 X-18. Z-6.
N10405 G3 X-18.354 Z-6.146 I-0.354 K0.354
N10410 G17 G2 Y-15.001 I0. J0.5
N10415 G18 G2 X-18. Z-6. I0. K0.5
N10420 G1 X-12.001 Z-0.001
N10425 X-11.97 Y-14.999 Z0.03
N10430 X-11.94 Y-14.994 Z0.06
N10435 X-11.91 Y-14.984 Z0.09
N10440 X-11.88 Y-14.971 Z0.12
N10445 X-11.852 Y-14.954 Z0.148
N10450 X-11.824 Y-14.934 Z0.176
N10455 X-11.798 Y-14.911 Z0.202
N10460 X-11.774 Y-14.884 Z0.226
N10465 X-11.751 Y-14.855 Z0.249
N10470 X-11.73 Y-14.823 Z0.27
N10475 X-11.712 Y-14.788 Z0.288
N10480 X-11.695 Y-14.751 Z0.305
N10485 X-11.681 Y-14.713 Z0.319
N10490 X-11.669 Y-14.672 Z0.331
N10495 X-11.66 Y-14.631 Z0.34
N10500 X-11.653 Y-14.588 Z0.347
N10505 X-11.649 Y-14.545 Z0.351
N10510 X-11.648 Y-14.501 Z0.352
N10515 X-11.649 Y-14.458 Z0.351
N10520 X-11.653 Y-14.415 Z0.347
N10525 X-11.66 Y-14.372 Z0.34
N10530 X-11.669 Y-14.33 Z0.331
N10535 X-11.681 Y-14.29 Z0.319
N10540 X-11.695 Y-14.251 Z0.305
N10545 X-11.712 Y-14.215 Z0.288
N10550 X-11.73 Y-14.18 Z0.27
N10555 X-11.751 Y-14.148 Z0.249
N10560 X-11.774 Y-14.118 Z0.226
N10565 X-11.798 Y-14.092 Z0.202
N10570 X-11.824 Y-14.068 Z0.176
N10575 X-11.852 Y-14.048 Z0.148
N10580 X-11.88 Y-14.032 Z0.12
N10585 X-11.91 Y-14.019 Z0.09
N10590 X-11.94 Y-14.009 Z0.06
N10595 X-11.97 Y-14.003 Z0.03
N10600 X-12.001 Y-14.001 Z-0.001
N10605 X-18. Z-6.
N10610 G3 X-18.354 Z-6.146 I-0.354 K0.354
N10615 G17 G2 Y-13.002 I0. J0.5
N10620 G18 G2 X-18. Z-6. I0. K0.5
N10625 G1 X-12.001 Z-0.001
N10630 X-11.97 Y-13. Z0.03
N10635 X-11.94 Y-12.994 Z0.06
N10640 X-11.91 Y-12.985 Z0.09
N10645 X-11.88 Y-12.972 Z0.12
N10650 X-11.852 Y-12.955 Z0.148
N10655 X-11.824 Y-12.935 Z0.176
N10660 X-11.798 Y-12.911 Z0.202
N10665 X-11.774 Y-12.885 Z0.226
N10670 X-11.751 Y-12.855 Z0.249
N10675 X-11.73 Y-12.823 Z0.27
N10680 X-11.712 Y-12.788 Z0.288
N10685 X-11.695 Y-12.752 Z0.305
N10690 X-11.681 Y-12.713 Z0.319
N10695 X-11.669 Y-12.673 Z0.331
N10700 X-11.66 Y-12.631 Z0.34
N10705 X-11.653 Y-12.589 Z0.347
N10710 X-11.649 Y-12.545 Z0.351
N10715 X-11.648 Y-12.502 Z0.352
N10720 X-11.649 Y-12.458 Z0.351
N10725 X-11.653 Y-12.415 Z0.347
N10730 X-11.66 Y-12.372 Z0.34
N10735 X-11.669 Y-12.331 Z0.331
N10740 X-11.681 Y-12.29 Z0.319
N10745 X-11.695 Y-12.252 Z0.305
N10750 X-11.712 Y-12.215 Z0.288
N10755 X-11.73 Y-12.18 Z0.27
N10760 X-11.751 Y-12.148 Z0.249
N10765 X-11.774 Y-12.119 Z0.226
N10770 X-11.798 Y-12.092 Z0.202
N10775 X-11.824 Y-12.069 Z0.176
N10780 X-11.852 Y-12.049 Z0.148
N10785 X-11.88 Y-12.032 Z0.12
N10790 X-11.91 Y-12.019 Z0.09
N10795 X-11.94 Y-12.009 Z0.06
N10800 X-11.97 Y-12.004 Z0.03
N10805 X-12.001 Y-12.002 Z-0.001
N10810 X-18. Z-6.
N10815 G3 X-18.354 Z-6.146 I-0.354 K0.354
N10820 G17 G2 Y-11.002 I0. J0.5
N10825 G18 G2 X-18. Z-6. I0. K0.5
N10830 G1 X-12.001 Z-0.001
N10835 X-11.97 Y-11. Z0.03
N10840 X-11.94 Y-10.994 Z0.06
N10845 X-11.91 Y-10.985 Z0.09
N10850 X-11.88 Y-10.972 Z0.12
N10855 X-11.852 Y-10.955 Z0.148
N10860 X-11.824 Y-10.935 Z0.176
N10865 X-11.798 Y-10.912 Z0.202
N10870 X-11.774 Y-10.885 Z0.226
N10875 X-11.751 Y-10.856 Z0.249
N10880 X-11.73 Y-10.823 Z0.27
N10885 X-11.712 Y-10.789 Z0.288
N10890 X-11.695 Y-10.752 Z0.305
N10895 X-11.681 Y-10.713 Z0.319
N10900 X-11.669 Y-10.673 Z0.331
N10905 X-11.66 Y-10.632 Z0.34
N10910 X-11.653 Y-10.589 Z0.347
N10915 X-11.649 Y-10.546 Z0.351
N10920 X-11.648 Y-10.502 Z0.352
N10925 X-11.649 Y-10.459 Z0.351
N10930 X-11.653 Y-10.415 Z0.347
N10935 X-11.66 Y-10.373 Z0.34
N10940 X-11.669 Y-10.331 Z0.331
N10945 X-11.681 Y-10.291 Z0.319
N10950 X-11.695 Y-10.252 Z0.305
N10955 X-11.712 Y-10.215 Z0.288
N10960 X-11.73 Y-10.181 Z0.27
N10965 X-11.751 Y-10.149 Z0.249
N10970 X-11.774 Y-10.119 Z0.226
N10975 X-11.798 Y-10.093 Z0.202
N10980 X-11.824 Y-10.069 Z0.176
N10985 X-11.852 Y-10.049 Z0.148
N10990 X-11.88 Y-10.032 Z0.12
N10995 X-11.91 Y-10.019 Z0.09
N11000 X-11.94 Y-10.01 Z0.06
N11005 X-11.97 Y-10.004 Z0.03
N11010 X-12.001 Y-10.002 Z-0.001
N11015 X-18. Z-6.
N11020 G3 X-18.354 Z-6.146 I-0.354 K0.354
N11025 G17 G2 Y-9.002 I0. J0.5
N11030 G18 G2 X-18. Z-6. I0. K0.5
N11035 G1 X-12.001 Z-0.001
N11040 X-11.97 Y-9.001 Z0.03
N11045 X-11.94 Y-8.995 Z0.06
N11050 X-11.91 Y-8.985 Z0.09
N11055 X-11.88 Y-8.972 Z0.12
N11060 X-11.852 Y-8.956 Z0.148
N11065 X-11.824 Y-8.935 Z0.176
N11070 X-11.798 Y-8.912 Z0.202
N11075 X-11.774 Y-8.885 Z0.226
N11080 X-11.751 Y-8.856 Z0.249
N11085 X-11.73 Y-8.824 Z0.27
N11090 X-11.712 Y-8.789 Z0.288
N11095 X-11.695 Y-8.752 Z0.305
N11100 X-11.681 Y-8.714 Z0.319
N11105 X-11.669 Y-8.673 Z0.331
N11110 X-11.66 Y-8.632 Z0.34
N11115 X-11.653 Y-8.589 Z0.347
N11120 X-11.649 Y-8.546 Z0.351
N11125 X-11.648 Y-8.503 Z0.352
N11130 X-11.649 Y-8.459 Z0.351
N11135 X-11.653 Y-8.416 Z0.347
N11140 X-11.66 Y-8.373 Z0.34
N11145 X-11.669 Y-8.332 Z0.331
N11150 X-11.681 Y-8.291 Z0.319
N11155 X-11.695 Y-8.253 Z0.305
N11160 X-11.712 Y-8.216 Z0.288
N11165 X-11.73 Y-8.181 Z0.27
N11170 X-11.751 Y-8.149 Z0.249
N11175 X-11.774 Y-8.12 Z0.226
N11180 X-11.798 Y-8.093 Z0.202
N11185 X-11.824 Y-8.07 Z0.176
N11190 X-11.852 Y-8.049 Z0.148
N11195 X-11.88 Y-8.033 Z0.12
N11200 X-11.91 Y-8.02 Z0.09
N11205 X-11.94 Y-8.01 Z0.06
N11210 X-11.97 Y-8.004 Z0.03
N11215 X-12.001 Y-8.003 Z-0.001
N11220 X-18. Z-6.
N11225 G3 X-18.354 Z-6.146 I-0.354 K0.354
N11230 G17 G2 Y-7.003 I0. J0.5
N11235 G18 G2 X-18. Z-6. I0. K0.5
N11240 G1 X-12.001 Z-0.001
N11245 X-11.97 Y-7.001 Z0.03
N11250 X-11.94 Y-6.995 Z0.06
N11255 X-11.91 Y-6.986 Z0.09
N11260 X-11.88 Y-6.973 Z0.12
N11265 X-11.852 Y-6.956 Z0.148
N11270 X-11.824 Y-6.936 Z0.176
N11275 X-11.798 Y-6.912 Z0.202
N11280 X-11.774 Y-6.886 Z0.226
N11285 X-11.751 Y-6.856 Z0.249
N11290 X-11.73 Y-6.824 Z0.27
N11295 X-11.712 Y-6.79 Z0.288
N11300 X-11.695 Y-6.753 Z0.305
N11305 X-11.681 Y-6.714 Z0.319
N11310 X-11.669 Y-6.674 Z0.331
N11315 X-11.66 Y-6.632 Z0.34
N11320 X-11.653 Y-6.59 Z0.347
N11325 X-11.649 Y-6.546 Z0.351
N11330 X-11.648 Y-6.503 Z0.352
N11335 X-11.649 Y-6.459 Z0.351
N11340 X-11.653 Y-6.416 Z0.347
N11345 X-11.66 Y-6.373 Z0.34
N11350 X-11.669 Y-6.332 Z0.331
N11355 X-11.681 Y-6.292 Z0.319
N11360 X-11.695 Y-6.253 Z0.305
N11365 X-11.712 Y-6.216 Z0.288
N11370 X-11.73 Y-6.182 Z0.27
N11375 X-11.751 Y-6.149 Z0.249
N11380 X-11.774 Y-6.12 Z0.226
N11385 X-11.798 Y-6.093 Z0.202
N11390 X-11.824 Y-6.07 Z0.176
N11395 X-11.852 Y-6.05 Z0.148
N11400 X-11.88 Y-6.033 Z0.12
N11405 X-11.91 Y-6.02 Z0.09
N11410 X-11.94 Y-6.011 Z0.06
N11415 X-11.97 Y-6.005 Z0.03
N11420 X-12.001 Y-6.003 Z-0.001
N11425 X-18. Z-6.
N11430 G3 X-18.354 Z-6.146 I-0.354 K0.354
N11435 G17 G2 Y-5.003 I0. J0.5
N11440 G18 G2 X-18. Z-6. I0. K0.5
N11445 G1 X-12.001 Z-0.001
N11450 X-11.97 Y-5.001 Z0.03
N11455 X-11.94 Y-4.996 Z0.06
N11460 X-11.909 Y-4.986 Z0.091
N11465 X-11.88 Y-4.973 Z0.12
N11470 X-11.852 Y-4.956 Z0.148
N11475 X-11.824 Y-4.936 Z0.176
N11480 X-11.798 Y-4.913 Z0.202
N11485 X-11.774 Y-4.886 Z0.226
N11490 X-11.751 Y-4.857 Z0.249
N11495 X-11.73 Y-4.825 Z0.27
N11500 X-11.711 Y-4.79 Z0.289
N11505 X-11.695 Y-4.753 Z0.305
N11510 X-11.681 Y-4.715 Z0.319
N11515 X-11.669 Y-4.674 Z0.331
N11520 X-11.659 Y-4.633 Z0.341
N11525 X-11.653 Y-4.59 Z0.347
N11530 X-11.649 Y-4.547 Z0.351
N11535 X-11.647 Y-4.503 Z0.353
N11540 X-11.649 Y-4.46 Z0.351
N11545 X-11.653 Y-4.416 Z0.347
N11550 X-11.659 Y-4.374 Z0.341
N11555 X-11.669 Y-4.332 Z0.331
N11560 X-11.681 Y-4.292 Z0.319
N11565 X-11.695 Y-4.253 Z0.305
N11570 X-11.711 Y-4.217 Z0.289
N11575 X-11.73 Y-4.182 Z0.27
N11580 X-11.751 Y-4.15 Z0.249
N11585 X-11.774 Y-4.12 Z0.226
N11590 X-11.798 Y-4.094 Z0.202
N11595 X-11.824 Y-4.07 Z0.176
N11600 X-11.852 Y-4.05 Z0.148
N11605 X-11.88 Y-4.033 Z0.12
N11610 X-11.909 Y-4.02 Z0.091
N11615 X-11.94 Y-4.011 Z0.06
N11620 X-11.97 Y-4.005 Z0.03
N11625 X-12.001 Y-4.003 Z-0.001
N11630 X-18. Z-6.
N11635 G3 X-18.354 Z-6.146 I-0.354 K0.354
N11640 G17 G2 Y-3.004 I0. J0.5
N11645 G18 G2 X-18. Z-6. I0. K0.5
N11650 G1 X-12.001 Z-0.001
N11655 X-11.97 Y-3.002 Z0.03
N11660 X-11.94 Y-2.996 Z0.06
N11665 X-11.909 Y-2.986 Z0.091
N11670 X-11.88 Y-2.973 Z0.12
N11675 X-11.852 Y-2.957 Z0.148
N11680 X-11.824 Y-2.937 Z0.176
N11685 X-11.798 Y-2.913 Z0.202
N11690 X-11.774 Y-2.887 Z0.226
N11695 X-11.751 Y-2.857 Z0.249
N11700 X-11.73 Y-2.825 Z0.27
N11705 X-11.711 Y-2.79 Z0.289
N11710 X-11.695 Y-2.754 Z0.305
N11715 X-11.681 Y-2.715 Z0.319
N11720 X-11.669 Y-2.675 Z0.331
N11725 X-11.659 Y-2.633 Z0.341
N11730 X-11.653 Y-2.59 Z0.347
N11735 X-11.649 Y-2.547 Z0.351
N11740 X-11.647 Y-2.504 Z0.353
N11745 X-11.649 Y-2.46 Z0.351
N11750 X-11.653 Y-2.417 Z0.347
N11755 X-11.659 Y-2.374 Z0.341
N11760 X-11.669 Y-2.333 Z0.331
N11765 X-11.681 Y-2.292 Z0.319
N11770 X-11.695 Y-2.254 Z0.305
N11775 X-11.711 Y-2.217 Z0.289
N11780 X-11.73 Y-2.182 Z0.27
N11785 X-11.751 Y-2.15 Z0.249
N11790 X-11.774 Y-2.121 Z0.226
N11795 X-11.798 Y-2.094 Z0.202
N11800 X-11.824 Y-2.071 Z0.176
N11805 X-11.852 Y-2.051 Z0.148
N11810 X-11.88 Y-2.034 Z0.12
N11815 X-11.909 Y-2.021 Z0.091
N11820 X-11.94 Y-2.011 Z0.06
N11825 X-11.97 Y-2.006 Z0.03
N11830 X-12.001 Y-2.004 Z-0.001
N11835 X-18. Z-6.
N11840 G3 X-18.354 Z-6.146 I-0.354 K0.354
N11845 G17 G2 Y-1.004 I0. J0.5
N11850 G18 G2 X-18. Z-6. I0. K0.5
N11855 G1 X-12.001 Z-0.001
N11860 X-11.97 Y-1.002 Z0.03
N11865 X-11.94 Y-0.996 Z0.06
N11870 X-11.909 Y-0.987 Z0.091
N11875 X-11.88 Y-0.974 Z0.12
N11880 X-11.852 Y-0.957 Z0.148
N11885 X-11.824 Y-0.937 Z0.176
N11890 X-11.798 Y-0.913 Z0.202
N11895 X-11.774 Y-0.887 Z0.226
N11900 X-11.751 Y-0.857 Z0.249
N11905 X-11.73 Y-0.825 Z0.27
N11910 X-11.711 Y-0.791 Z0.289
N11915 X-11.695 Y-0.754 Z0.305
N11920 X-11.681 Y-0.715 Z0.319
N11925 X-11.669 Y-0.675 Z0.331
N11930 X-11.659 Y-0.633 Z0.341
N11935 X-11.653 Y-0.591 Z0.347
N11940 X-11.649 Y-0.548 Z0.351
N11945 X-11.647 Y-0.504 Z0.353
N11950 X-11.649 Y-0.46 Z0.351
N11955 X-11.653 Y-0.417 Z0.347
N11960 X-11.659 Y-0.375 Z0.341
N11965 X-11.669 Y-0.333 Z0.331
N11970 X-11.681 Y-0.293 Z0.319
N11975 X-11.695 Y-0.254 Z0.305
N11980 X-11.711 Y-0.217 Z0.289
N11985 X-11.73 Y-0.183 Z0.27
N11990 X-11.751 Y-0.15 Z0.249
N11995 X-11.774 Y-0.121 Z0.226
N12000 X-11.798 Y-0.094 Z0.202
N12005 X-11.824 Y-0.071 Z0.176
N12010 X-11.852 Y-0.051 Z0.148
N12015 X-11.88 Y-0.034 Z0.12
N12020 X-11.909 Y-0.021 Z0.091
N12025 X-11.94 Y-0.012 Z0.06
N12030 X-11.97 Y-0.006 Z0.03
N12035 X-12.001 Y-0.004 Z-0.001
N12040 X-18. Z-6.
N12045 G3 X-18.354 Z-6.146 I-0.354 K0.354
N12050 G17 G2 Y0.996 I0. J0.5
N12055 G1 X-18.253
N12060 G18 G2 X-17.9 Z-6. I0. K0.5
N12065 G1 X-17.898 Z-5.998
N12070 X-11.9 Z0.
N12075 X-11.743 Z0.156
N12080 X-11.712 Y0.998 Z0.188
N12085 X-11.679 Y1.003 Z0.218
N12090 X-11.647 Y1.013 Z0.247
N12095 X-11.615 Y1.026 Z0.276
N12100 X-11.583 Y1.043 Z0.302
N12105 X-11.552 Y1.063 Z0.327
N12110 X-11.521 Y1.086 Z0.35
N12115 X-11.492 Y1.113 Z0.371
N12120 X-11.464 Y1.142 Z0.389
N12125 X-11.438 Y1.174 Z0.406
N12130 X-11.413 Y1.209 Z0.419
N12135 X-11.39 Y1.246 Z0.431
N12140 X-11.37 Y1.284 Z0.439
N12145 X-11.351 Y1.325 Z0.445
N12150 X-11.335 Y1.366 Z0.448
N12155 X-11.322 Y1.409
N12160 X-11.311 Y1.452 Z0.445
N12165 X-11.302 Y1.496 Z0.44
N12170 X-11.297 Y1.539 Z0.432
N12175 X-11.294 Y1.582 Z0.421
N12180 Y1.625 Z0.407
N12185 X-11.297 Y1.667 Z0.391
N12190 X-11.303 Y1.707 Z0.373
N12195 X-11.312 Y1.746 Z0.352
N12200 X-11.323 Y1.782 Z0.329
N12205 X-11.336 Y1.817 Z0.304
N12210 X-11.353 Y1.849 Z0.278
N12215 X-11.371 Y1.879 Z0.25
N12220 X-11.392 Y1.905 Z0.221
N12225 X-11.415 Y1.929 Z0.19
N12230 X-11.44 Y1.949 Z0.159
N12235 X-11.467 Y1.965 Z0.127
N12240 X-11.495 Y1.979 Z0.095
N12245 X-11.524 Y1.988 Z0.063
N12250 X-11.554 Y1.994 Z0.031
N12255 X-11.586 Y1.996 Z-0.001
N12260 X-17.582 Z-5.997
N12265 Z-5.998
N12270 G3 X-17.936 Z-6.144 I-0.354 K0.354
N12275 G17 G2 Y2.995 I0. J0.5
N12280 G1 X-17.355
N12285 G18 G2 X-17.001 Z-5.998 I0. K0.5
N12290 G1 X-11.003 Z0.
N12295 X-10.506 Z0.497
N12300 X-10.471 Y2.997 Z0.531
N12305 X-10.435 Y3.002 Z0.562
N12310 X-10.398 Y3.009 Z0.591
N12315 X-10.36 Y3.02 Z0.619
N12320 X-10.322 Y3.033 Z0.644
N12325 X-10.283 Y3.05 Z0.667
N12330 X-10.243 Y3.069 Z0.687
N12335 X-10.204 Y3.091 Z0.704
N12340 X-10.165 Y3.115 Z0.719
N12345 X-10.127 Y3.142 Z0.73
N12350 X-10.09 Y3.171 Z0.739
N12355 X-10.053 Y3.201 Z0.745
N12360 X-10.018 Y3.234 Z0.747
N12365 X-9.985 Y3.268
N12370 X-9.953 Y3.304 Z0.743
N12375 X-9.923 Y3.341 Z0.736
N12380 X-9.894 Y3.379 Z0.727
N12385 X-9.869 Y3.417 Z0.714
N12390 X-9.845 Y3.456 Z0.699
N12395 X-9.824 Y3.495 Z0.681
N12400 X-9.806 Y3.534 Z0.66
N12405 X-9.791 Y3.573 Z0.636
N12410 X-9.778 Y3.612 Z0.61
N12415 X-9.768 Y3.65 Z0.582
N12420 X-9.762 Y3.687 Z0.552
N12425 X-9.758 Y3.722 Z0.52
N12430 Y3.756 Z0.487
N12435 X-9.76 Y3.789 Z0.451
N12440 X-9.766 Y3.82 Z0.415
N12445 X-9.775 Y3.849 Z0.378
N12450 X-9.786 Y3.875 Z0.339
N12455 X-9.801 Y3.9 Z0.301
N12460 X-9.818 Y3.922 Z0.262
N12465 X-9.838 Y3.941 Z0.222
N12470 X-9.861 Y3.957 Z0.183
N12475 X-9.886 Y3.971 Z0.145
N12480 X-9.914 Y3.981 Z0.107
N12485 X-9.943 Y3.989 Z0.07
N12490 X-9.974 Y3.994 Z0.034
N12495 X-10.008 Y3.995 Z-0.001
N12500 X-16.003 Z-5.997
N12505 G3 X-17.71 Z-5.29 I-0.707 K0.707 F#104
N12510 G0 Z4.
N12515 G17
N12520 M9
N12525 G53 G0 Z0.
N12530 M30
%
