%
(1)
(T140  D=4.05 CR=0. TAPER=118DEG - ZMIN=-30. - DRILL)
N10 G90 G94 G17 G91.1
N15 G21
N20 G53 G0 Z0.
(DRILL2)
N25 M9
N30 T140 M6
(4.05 HSS)
N35 S2000 M3
N40 G54
N45 M8
N55 G0 X20. Y-5.
N60 G43 Z4. H1
N70 G0 Z2.
N75 G98 G83 X20. Y-5. Z-30. R-12. Q1.013 F300.
N80 Y-15.
N85 Y-27.
N90 Y-37.
N95 X-20.
N100 Y-27.
N105 Y-15.
N110 Y-5.
N115 G80
N120 G0 Z4.
N130 M9
N135 G53 Z0.
N140 M30
%
